; generated by Slic3r 0.9.10b on 2014-01-10 at 23:12:39

; layer_height = 0.2
; perimeters = 2
; top_solid_layers = 2
; bottom_solid_layers = 2
; fill_density = 0.2
; perimeter_speed = 30
; infill_speed = 30
; travel_speed = 200
; nozzle_diameter = 0.5
; filament_diameter = 2.98
; extrusion_multiplier = 0.9
; perimeters extrusion width = 0.50mm
; infill extrusion width = 0.50mm
; solid infill extrusion width = 0.50mm
; top infill extrusion width = 0.50mm

G21 ; set units to millimeters
M107
M104 S190 ; set temperature
G28 ; home all axes
G1 Z15 F120 ; lift nozzle
M109 S190 ; wait for temperature to be reached
G90 ; use absolute coordinates
G92 E0
M82 ; use absolute distances for extrusion
G1 F1680.000 E-2.00000
G92 E0
G1 Z0.300 F12000.000
G1 X39.590 Y44.990
G1 F1680.000 E2.00000
G1 X40.100 Y44.570 F900.000 E2.01279
G1 X42.470 Y42.820 E2.06981
G1 X42.990 Y42.470 E2.08194
G1 X45.510 Y40.960 E2.13881
G1 X46.070 Y40.670 E2.15101
G1 X48.730 Y39.410 E2.20798
G1 X49.330 Y39.160 E2.22057
G1 X52.110 Y38.170 E2.27768
G1 X52.700 Y37.990 E2.28962
G1 X55.550 Y37.270 E2.34652
G1 X56.190 Y37.140 E2.35916
G1 X59.100 Y36.710 E2.41610
G1 X59.770 Y36.640 E2.42914
G1 X62.690 Y36.510 E2.48571
G1 X63.300 Y36.510 E2.49752
G1 X66.250 Y36.650 E2.55468
G1 X106.930 Y39.420 E3.34390
G1 X107.460 Y39.470 E3.35421
G1 X108.040 Y39.560 E3.36557
G1 X108.620 Y39.700 E3.37712
G1 X109.470 Y39.980 E3.39444
G1 X110.320 Y40.390 E3.41270
G1 X111.250 Y40.980 E3.43402
G1 X127.430 Y53.220 E3.82672
G1 X127.880 Y53.590 E3.83799
G1 X128.970 Y54.580 E3.86649
G1 X129.410 Y55.020 E3.87854
G1 X130.400 Y56.110 E3.90704
G1 X130.800 Y56.590 E3.91913
G1 X131.680 Y57.770 E3.94762
G1 X132.060 Y58.340 E3.96088
G1 X132.810 Y59.600 E3.98927
G1 X133.090 Y60.140 E4.00104
G1 X133.720 Y61.470 E4.02952
G1 X133.970 Y62.050 E4.04175
G1 X134.470 Y63.440 E4.07034
G1 X134.650 Y64.050 E4.08265
G1 X135.010 Y65.480 E4.11119
G1 X135.140 Y66.140 E4.12422
G1 X135.350 Y67.590 E4.15257
G1 X135.410 Y68.210 E4.16463
G1 X135.490 Y69.980 E4.19893
G1 X135.500 Y95.500 E4.69289
G1 X135.360 Y96.840 E4.71896
G1 X134.950 Y98.120 E4.74498
G1 X134.280 Y99.300 E4.77124
G1 X133.380 Y100.300 E4.79728
G1 X132.300 Y101.100 E4.82330
G1 X131.070 Y101.660 E4.84946
G1 X129.750 Y101.960 E4.87566
G1 X66.690 Y109.310 E6.10450
G1 X63.300 Y109.480 E6.17020
G1 X62.680 Y109.480 E6.18220
G1 X59.740 Y109.340 E6.23917
G1 X59.100 Y109.280 E6.25161
G1 X56.190 Y108.850 E6.30855
G1 X55.550 Y108.720 E6.32119
G1 X52.700 Y108.000 E6.37809
G1 X52.110 Y107.820 E6.39003
G1 X49.330 Y106.830 E6.44715
G1 X48.730 Y106.580 E6.45973
G1 X46.070 Y105.320 E6.51670
G1 X45.510 Y105.030 E6.52890
G1 X42.990 Y103.520 E6.58577
G1 X42.470 Y103.170 E6.59790
G1 X40.100 Y101.420 E6.65492
G1 X39.590 Y101.000 E6.66771
G1 X37.410 Y99.020 E6.72471
G1 X36.970 Y98.580 E6.73676
G1 X34.990 Y96.400 E6.79376
G1 X34.570 Y95.890 E6.80655
G1 X32.820 Y93.520 E6.86357
G1 X32.470 Y93.000 E6.87570
G1 X30.960 Y90.480 E6.93257
G1 X30.670 Y89.920 E6.94477
G1 X29.410 Y87.260 E7.00174
G1 X29.160 Y86.660 E7.01432
G1 X28.170 Y83.880 E7.07144
G1 X27.990 Y83.290 E7.08338
G1 X27.270 Y80.440 E7.14028
G1 X27.140 Y79.800 E7.15292
G1 X26.710 Y76.890 E7.20986
G1 X26.650 Y76.250 E7.22230
G1 X26.510 Y73.300 E7.27946
G1 X26.510 Y72.680 E7.29147
G1 X26.650 Y69.740 E7.34844
G1 X26.710 Y69.100 E7.36088
G1 X27.140 Y66.190 E7.41781
G1 X27.270 Y65.550 E7.43046
G1 X27.990 Y62.700 E7.48735
G1 X28.170 Y62.110 E7.49929
G1 X29.160 Y59.330 E7.55641
G1 X29.410 Y58.730 E7.56899
G1 X30.670 Y56.070 E7.62596
G1 X30.960 Y55.510 E7.63817
G1 X32.470 Y52.990 E7.69503
G1 X32.820 Y52.470 E7.70717
G1 X34.570 Y50.100 E7.76419
G1 X34.990 Y49.590 E7.77698
G1 X36.970 Y47.410 E7.83398
G1 X37.410 Y46.970 E7.84602
G1 X39.534 Y45.040 E7.90157
G1 F1680.000 E5.90157
G92 E0
G1 X64.302 Y71.302 F12000.000
G1 F1680.000 E2.00000
G1 X64.666 Y71.004 F900.000 E2.00911
G1 X65.081 Y70.782 E2.01822
G1 X65.532 Y70.645 E2.02733
G1 X66.000 Y70.599 E2.03644
G1 X66.468 Y70.645 E2.04555
G1 X66.919 Y70.782 E2.05466
G1 X67.334 Y71.004 E2.06377
G1 X67.698 Y71.302 E2.07288
G1 X67.996 Y71.666 E2.08199
G1 X68.218 Y72.081 E2.09110
G1 X68.355 Y72.531 E2.10021
G1 X68.401 Y73.000 E2.10932
G1 X68.355 Y73.469 E2.11843
G1 X68.218 Y73.919 E2.12754
G1 X67.996 Y74.334 E2.13665
G1 X67.698 Y74.698 E2.14576
G1 X67.334 Y74.996 E2.15487
G1 X66.919 Y75.218 E2.16398
G1 X66.468 Y75.355 E2.17309
G1 X66.000 Y75.401 E2.18220
G1 X65.532 Y75.355 E2.19131
G1 X65.081 Y75.218 E2.20042
G1 X64.666 Y74.996 E2.20953
G1 X64.302 Y74.698 E2.21864
G1 X64.004 Y74.334 E2.22775
G1 X63.782 Y73.919 E2.23686
G1 X63.645 Y73.468 E2.24597
G1 X63.599 Y73.000 E2.25508
G1 X63.645 Y72.532 E2.26419
G1 X63.782 Y72.081 E2.27330
G1 X64.004 Y71.666 E2.28241
G1 X64.252 Y71.358 E2.29007
G1 X64.656 Y71.656 F12000.000
G1 X64.944 Y71.420 F900.000 E2.29728
G1 X65.273 Y71.244 E2.30449
G1 X65.629 Y71.136 E2.31170
G1 X66.000 Y71.100 E2.31891
G1 X66.371 Y71.136 E2.32612
G1 X66.727 Y71.244 E2.33333
G1 X67.056 Y71.420 E2.34054
G1 X67.344 Y71.656 E2.34775
G1 X67.580 Y71.944 E2.35497
G1 X67.756 Y72.273 E2.36218
G1 X67.864 Y72.629 E2.36939
G1 X67.900 Y73.000 E2.37660
G1 X67.864 Y73.371 E2.38381
G1 X67.756 Y73.727 E2.39102
G1 X67.580 Y74.056 E2.39823
G1 X67.344 Y74.344 E2.40544
G1 X67.056 Y74.580 E2.41265
G1 X66.727 Y74.756 E2.41986
G1 X66.371 Y74.864 E2.42707
G1 X66.000 Y74.900 E2.43428
G1 X65.629 Y74.864 E2.44149
G1 X65.273 Y74.756 E2.44870
G1 X64.944 Y74.580 E2.45591
G1 X64.656 Y74.344 E2.46312
G1 X64.420 Y74.056 E2.47033
G1 X64.244 Y73.727 E2.47754
G1 X64.136 Y73.371 E2.48475
G1 X64.100 Y73.000 E2.49196
G1 X64.136 Y72.629 E2.49918
G1 X64.244 Y72.273 E2.50639
G1 X64.420 Y71.944 E2.51360
G1 X64.606 Y71.712 E2.51936
G1 X65.013 Y71.764 F12000.000
G1 F1680.000 E0.51936
G92 E0
G1 X104.549 Y70.000 F12000.000
G1 F1680.000 E2.00000
G1 X104.595 Y69.074 F900.000 E2.01794
G1 X104.731 Y68.156 E2.03590
G1 X104.956 Y67.256 E2.05386
G1 X105.268 Y66.383 E2.07180
G1 X105.665 Y65.545 E2.08976
G1 X106.142 Y64.749 E2.10771
G1 X106.694 Y64.004 E2.12567
G1 X107.317 Y63.317 E2.14362
G1 X108.004 Y62.695 E2.16156
G1 X108.749 Y62.142 E2.17952
G1 X109.545 Y61.665 E2.19747
G1 X110.383 Y61.268 E2.21542
G1 X111.257 Y60.956 E2.23337
G1 X112.156 Y60.731 E2.25132
G1 X113.074 Y60.595 E2.26928
G1 X114.000 Y60.549 E2.28723
G1 X114.926 Y60.595 E2.30518
G1 X115.844 Y60.731 E2.32314
G1 X116.743 Y60.956 E2.34109
G1 X117.617 Y61.268 E2.35904
G1 X118.455 Y61.665 E2.37700
G1 X119.251 Y62.142 E2.39495
G1 X119.995 Y62.694 E2.41289
G1 X120.683 Y63.317 E2.43085
G1 X121.305 Y64.004 E2.44879
G1 X121.858 Y64.749 E2.46675
G1 X122.335 Y65.545 E2.48470
G1 X122.732 Y66.383 E2.50265
G1 X123.044 Y67.257 E2.52061
G1 X123.269 Y68.156 E2.53856
G1 X123.405 Y69.074 E2.55652
G1 X123.451 Y70.000 E2.57446
G1 X123.405 Y70.926 E2.59240
G1 X123.269 Y71.844 E2.61036
G1 X123.044 Y72.743 E2.62831
G1 X122.732 Y73.617 E2.64627
G1 X122.335 Y74.455 E2.66422
G1 X121.858 Y75.251 E2.68217
G1 X121.305 Y75.996 E2.70013
G1 X120.683 Y76.683 E2.71808
G1 X119.995 Y77.306 E2.73603
G1 X119.251 Y77.858 E2.75398
G1 X118.455 Y78.335 E2.77193
G1 X117.617 Y78.732 E2.78988
G1 X116.743 Y79.044 E2.80784
G1 X115.844 Y79.269 E2.82579
G1 X114.926 Y79.405 E2.84374
G1 X114.000 Y79.451 E2.86169
G1 X113.074 Y79.405 E2.87965
G1 X112.156 Y79.269 E2.89760
G1 X111.256 Y79.044 E2.91555
G1 X110.383 Y78.732 E2.93350
G1 X109.545 Y78.335 E2.95145
G1 X108.749 Y77.858 E2.96941
G1 X108.004 Y77.305 E2.98736
G1 X107.317 Y76.683 E3.00530
G1 X106.694 Y75.996 E3.02326
G1 X106.142 Y75.251 E3.04121
G1 X105.665 Y74.455 E3.05916
G1 X105.268 Y73.617 E3.07712
G1 X104.956 Y72.744 E3.09506
G1 X104.731 Y71.844 E3.11302
G1 X104.595 Y70.926 E3.13099
G1 X104.553 Y70.075 E3.14747
G1 X105.050 Y70.000 F12000.000
G1 X105.093 Y69.123 F720.000 E3.16447
G1 X105.222 Y68.254 E3.18147
G1 X105.435 Y67.402 E3.19848
G1 X105.731 Y66.575 E3.21547
G1 X106.106 Y65.781 E3.23247
G1 X106.558 Y65.028 E3.24948
G1 X107.081 Y64.322 E3.26648
G1 X107.671 Y63.671 E3.28348
G1 X108.322 Y63.081 E3.30048
G1 X109.027 Y62.558 E3.31748
G1 X109.781 Y62.107 E3.33448
G1 X110.575 Y61.731 E3.35148
G1 X111.402 Y61.435 E3.36849
G1 X112.254 Y61.222 E3.38548
G1 X113.123 Y61.093 E3.40248
G1 X114.000 Y61.050 E3.41949
G1 X114.877 Y61.093 E3.43649
G1 X115.746 Y61.222 E3.45349
G1 X116.598 Y61.435 E3.47049
G1 X117.425 Y61.731 E3.48749
G1 X118.219 Y62.107 E3.50450
G1 X118.973 Y62.558 E3.52150
G1 X119.678 Y63.081 E3.53849
G1 X120.329 Y63.671 E3.55550
G1 X120.919 Y64.322 E3.57249
G1 X121.442 Y65.027 E3.58950
G1 X121.894 Y65.781 E3.60650
G1 X122.269 Y66.575 E3.62350
G1 X122.565 Y67.402 E3.64050
G1 X122.778 Y68.254 E3.65750
G1 X122.907 Y69.123 E3.67451
G1 X122.950 Y70.000 E3.69150
G1 X122.907 Y70.877 E3.70850
G1 X122.778 Y71.746 E3.72550
G1 X122.565 Y72.598 E3.74251
G1 X122.269 Y73.425 E3.75951
G1 X121.894 Y74.219 E3.77651
G1 X121.442 Y74.973 E3.79351
G1 X120.919 Y75.678 E3.81051
G1 X120.329 Y76.329 E3.82751
G1 X119.678 Y76.919 E3.84452
G1 X118.973 Y77.442 E3.86151
G1 X118.219 Y77.893 E3.87851
G1 X117.425 Y78.269 E3.89552
G1 X116.598 Y78.565 E3.91252
G1 X115.746 Y78.778 E3.92952
G1 X114.877 Y78.907 E3.94652
G1 X114.000 Y78.950 E3.96352
G1 X113.123 Y78.907 E3.98052
G1 X112.254 Y78.778 E3.99752
G1 X111.402 Y78.565 E4.01452
G1 X110.575 Y78.269 E4.03152
G1 X109.781 Y77.893 E4.04853
G1 X109.027 Y77.442 E4.06553
G1 X108.322 Y76.919 E4.08253
G1 X107.671 Y76.329 E4.09953
G1 X107.081 Y75.678 E4.11653
G1 X106.558 Y74.972 E4.13353
G1 X106.106 Y74.219 E4.15053
G1 X105.731 Y73.425 E4.16753
G1 X105.435 Y72.598 E4.18453
G1 X105.222 Y71.746 E4.20154
G1 X105.093 Y70.877 E4.21854
G1 X105.053 Y70.075 E4.23408
G1 X105.487 Y69.757 F12000.000
G1 F1680.000 E2.23408
G92 E0
G1 X85.610 Y54.445 F12000.000
G1 F1680.000 E2.00000
G1 X87.320 Y56.750 F900.000 E2.05556
G1 X88.795 Y59.212 E2.11112
G1 X90.023 Y61.807 E2.16667
G1 X90.990 Y64.509 E2.22223
G1 X91.687 Y67.294 E2.27779
G1 X92.108 Y70.133 E2.33335
G1 X92.249 Y73.000 E2.38891
G1 X92.108 Y75.867 E2.44447
G1 X91.687 Y78.706 E2.50002
G1 X90.990 Y81.491 E2.55558
G1 X90.023 Y84.193 E2.61114
G1 X88.795 Y86.788 E2.66670
G1 X87.320 Y89.250 E2.72226
G1 X85.610 Y91.555 E2.77782
G1 X83.682 Y93.682 E2.83337
G1 X81.555 Y95.610 E2.88893
G1 X79.250 Y97.320 E2.94449
G1 X76.788 Y98.795 E3.00005
G1 X74.193 Y100.023 E3.05561
G1 X71.491 Y100.990 E3.11117
G1 X68.706 Y101.687 E3.16672
G1 X65.867 Y102.108 E3.22228
G1 X63.000 Y102.249 E3.27784
G1 X60.133 Y102.108 E3.33340
G1 X57.294 Y101.687 E3.38896
G1 X54.509 Y100.990 E3.44452
G1 X51.807 Y100.023 E3.50007
G1 X49.212 Y98.795 E3.55563
G1 X46.750 Y97.320 E3.61119
G1 X44.445 Y95.610 E3.66675
G1 X42.318 Y93.682 E3.72231
G1 X40.390 Y91.555 E3.77787
G1 X38.680 Y89.250 E3.83342
G1 X37.205 Y86.788 E3.88898
G1 X35.977 Y84.193 E3.94454
G1 X35.010 Y81.491 E4.00010
G1 X34.313 Y78.706 E4.05566
G1 X33.892 Y75.867 E4.11122
G1 X33.751 Y73.000 E4.16677
G1 X33.892 Y70.133 E4.22233
G1 X34.313 Y67.294 E4.27789
G1 X35.010 Y64.509 E4.33345
G1 X35.977 Y61.807 E4.38901
G1 X37.205 Y59.212 E4.44457
G1 X38.680 Y56.750 E4.50012
G1 X40.390 Y54.445 E4.55568
G1 X42.318 Y52.318 E4.61124
G1 X44.445 Y50.390 E4.66680
G1 X46.750 Y48.680 E4.72236
G1 X49.212 Y47.205 E4.77792
G1 X51.807 Y45.977 E4.83347
G1 X54.509 Y45.010 E4.88903
G1 X57.294 Y44.313 E4.94459
G1 X60.133 Y43.892 E5.00015
G1 X63.000 Y43.751 E5.05571
G1 X65.867 Y43.892 E5.11127
G1 X68.706 Y44.313 E5.16682
G1 X71.491 Y45.010 E5.22238
G1 X74.193 Y45.977 E5.27794
G1 X76.788 Y47.205 E5.33350
G1 X79.250 Y48.680 E5.38906
G1 X81.555 Y50.390 E5.44462
G1 X83.682 Y52.318 E5.50017
G1 X85.560 Y54.389 E5.55428
G1 X85.997 Y54.127 F12000.000
G1 X87.736 Y56.472 F720.000 E5.61079
G1 X89.237 Y58.976 E5.66730
G1 X90.485 Y61.615 E5.72381
G1 X91.469 Y64.364 E5.78032
G1 X92.178 Y67.196 E5.83683
G1 X92.606 Y70.084 E5.89334
G1 X92.750 Y73.000 E5.94985
G1 X92.606 Y75.916 E6.00636
G1 X92.178 Y78.804 E6.06286
G1 X91.469 Y81.636 E6.11937
G1 X90.485 Y84.385 E6.17588
G1 X89.237 Y87.024 E6.23239
G1 X87.736 Y89.528 E6.28890
G1 X85.997 Y91.873 E6.34541
G1 X84.036 Y94.036 E6.40192
G1 X81.873 Y95.997 E6.45843
G1 X79.528 Y97.736 E6.51494
G1 X77.024 Y99.237 E6.57145
G1 X74.385 Y100.485 E6.62796
G1 X71.636 Y101.469 E6.68447
G1 X68.804 Y102.178 E6.74098
G1 X65.916 Y102.606 E6.79748
G1 X63.000 Y102.750 E6.85399
G1 X60.084 Y102.606 E6.91050
G1 X57.196 Y102.178 E6.96701
G1 X54.364 Y101.469 E7.02352
G1 X51.615 Y100.485 E7.08003
G1 X48.976 Y99.237 E7.13654
G1 X46.472 Y97.736 E7.19305
G1 X44.127 Y95.997 E7.24956
G1 X41.964 Y94.036 E7.30607
G1 X40.003 Y91.873 E7.36258
G1 X38.264 Y89.528 E7.41909
G1 X36.763 Y87.024 E7.47560
G1 X35.488 Y84.328 E7.53331
G1 X34.531 Y81.636 E7.58862
G1 X33.822 Y78.804 E7.64513
G1 X33.394 Y75.916 E7.70164
G1 X33.250 Y73.000 E7.75815
G1 X33.394 Y70.084 E7.81466
G1 X33.822 Y67.196 E7.87117
G1 X34.531 Y64.364 E7.92768
G1 X35.488 Y61.672 E7.98298
G1 X36.763 Y58.976 E8.04070
G1 X38.264 Y56.472 E8.09721
G1 X40.003 Y54.127 E8.15372
G1 X41.964 Y51.964 E8.21023
G1 X44.127 Y50.003 E8.26674
G1 X46.472 Y48.264 E8.32325
G1 X48.976 Y46.763 E8.37975
G1 X51.615 Y45.515 E8.43626
G1 X54.364 Y44.531 E8.49277
G1 X57.196 Y43.822 E8.54928
G1 X60.084 Y43.394 E8.60579
G1 X63.000 Y43.250 E8.66230
G1 X65.916 Y43.394 E8.71881
G1 X68.804 Y43.822 E8.77532
G1 X71.636 Y44.531 E8.83183
G1 X74.328 Y45.488 E8.88713
G1 X77.024 Y46.763 E8.94485
G1 X79.528 Y48.264 E9.00136
G1 X81.873 Y50.003 E9.05787
G1 X84.036 Y51.964 E9.11438
G1 X85.946 Y54.071 E9.16944
G1 X85.813 Y54.592 F12000.000
G1 F1680.000 E7.16944
G92 E0
G1 X106.958 Y47.999 F12000.000
G1 F1680.000 E2.00000
G1 X106.807 Y48.088 F900.000 E2.00339
G1 X106.677 Y48.133 E2.00607
G1 X106.543 Y48.154 E2.00869
G1 X106.404 Y48.150 E2.01138
G1 X106.282 Y48.126 E2.01378
G1 X106.136 Y48.063 E2.01686
G1 X106.030 Y47.991 E2.01935
G1 X105.904 Y47.867 E2.02276
G1 X105.815 Y47.716 E2.02615
G1 X105.770 Y47.585 E2.02884
G1 X105.749 Y47.451 E2.03147
G1 X105.753 Y47.312 E2.03415
G1 X105.777 Y47.191 E2.03654
G1 X105.841 Y47.044 E2.03964
G1 X105.912 Y46.938 E2.04212
G1 X106.036 Y46.813 E2.04552
G1 X106.187 Y46.724 E2.04892
G1 X106.317 Y46.679 E2.05159
G1 X106.451 Y46.658 E2.05421
G1 X106.590 Y46.662 E2.05690
G1 X106.712 Y46.686 E2.05930
G1 X106.858 Y46.749 E2.06239
G1 X106.965 Y46.821 E2.06488
G1 X107.090 Y46.945 E2.06829
G1 X107.202 Y47.146 E2.07275
G1 X107.241 Y47.311 E2.07603
G1 X107.245 Y47.453 E2.07878
G1 X107.217 Y47.621 E2.08207
G1 X107.172 Y47.731 E2.08436
G1 X107.118 Y47.829 E2.08654
G1 X107.013 Y47.947 E2.08960
G1 X107.378 Y48.289 F12000.000
G1 X107.167 Y48.461 F900.000 E2.09486
G1 X106.954 Y48.570 E2.09949
G1 X106.731 Y48.633 E2.10397
G1 X106.498 Y48.656 E2.10851
G1 X106.265 Y48.633 E2.11304
G1 X106.040 Y48.569 E2.11758
G1 X105.823 Y48.459 E2.12228
G1 X105.642 Y48.316 E2.12674
G1 X105.488 Y48.144 E2.13121
G1 X105.365 Y47.935 E2.13590
G1 X105.286 Y47.714 E2.14044
G1 X105.248 Y47.445 E2.14570
G1 X105.270 Y47.174 E2.15097
G1 X105.334 Y46.948 E2.15551
G1 X105.444 Y46.732 E2.16020
G1 X105.587 Y46.551 E2.16467
G1 X105.758 Y46.397 E2.16913
G1 X105.968 Y46.274 E2.17383
G1 X106.189 Y46.195 E2.17837
G1 X106.458 Y46.157 E2.18363
G1 X106.729 Y46.178 E2.18890
G1 X106.954 Y46.243 E2.19343
G1 X107.171 Y46.352 E2.19813
G1 X107.351 Y46.496 E2.20259
G1 X107.506 Y46.667 E2.20706
G1 X107.629 Y46.877 E2.21176
G1 X107.708 Y47.097 E2.21630
G1 X107.744 Y47.328 E2.22082
G1 X107.737 Y47.563 E2.22537
G1 X107.688 Y47.789 E2.22984
G1 X107.550 Y48.080 E2.23607
G1 X107.429 Y48.235 E2.23988
G1 X107.118 Y48.209 F12000.000
G1 F1680.000 E0.23988
G92 E0
G1 X99.750 Y94.750 F12000.000
G1 F1680.000 E2.00000
G1 X99.750 Y79.750 F900.000 E2.29034
G1 X103.512 Y79.750 E2.36315
