; generated by Slic3r 1.2.1 on 2014-12-10 at 23:28:51

; external perimeters extrusion width = 0.50mm
; perimeters extrusion width = 0.50mm
; infill extrusion width = 0.50mm
; solid infill extrusion width = 0.50mm
; top infill extrusion width = 0.50mm

M104 S190 ; set temperature
G28 ; home all axes
G1 Z15 F120 ; lift nozzle
M109 S190 ; wait for temperature to be reached
G21 ; set units to millimeters
G90 ; use absolute coordinates
M82 ; use absolute distances for extrusion
G92 E0
M106 S102
G1 E-2.00000 F1680.000
G92 E0
G1 Z0.350 F12000.000
G1 X40.971 Y71.503 F12000.000
G1 E2.00000 F1680.000
G1 X65.640 Y57.367 E2.80041 F1200.000
G1 X66.088 Y57.134 E2.81464
G1 X68.306 Y56.085 E2.88371
G1 X68.890 Y55.843 E2.90149
G1 X71.200 Y55.016 E2.97056
G1 X71.804 Y54.833 E2.98834
G1 X74.184 Y54.237 E3.05741
G1 X74.803 Y54.114 E3.07519
G1 X77.230 Y53.754 E3.14425
G1 X77.859 Y53.692 E3.16204
G1 X80.309 Y53.571 E3.23111
G1 X81.161 Y53.582 E3.25510
G1 X83.391 Y53.692 E3.31795 F1200.000
G1 X84.020 Y53.754 E3.33573
G1 X86.447 Y54.114 E3.40480
G1 X87.066 Y54.237 E3.42258
G1 X89.490 Y54.844 E3.49292
G1 X135.861 Y66.806 E4.84109
G1 X136.422 Y66.978 E4.85760
G1 X137.577 Y67.391 E4.89214
G1 X138.160 Y67.633 E4.90991
G1 X139.270 Y68.158 E4.94446
G1 X139.826 Y68.455 E4.96223
G1 X140.879 Y69.086 E4.99677
G1 X141.404 Y69.437 E5.01456
G1 X142.389 Y70.168 E5.04909
G1 X142.878 Y70.569 E5.06689
G1 X143.787 Y71.393 E5.10142
G1 X144.232 Y71.838 E5.11916
G1 X145.056 Y72.747 E5.15369
G1 X145.458 Y73.237 E5.17153
G1 X146.189 Y74.222 E5.20606
G1 X146.539 Y74.746 E5.22380
G1 X147.170 Y75.799 E5.25835
G1 X147.467 Y76.356 E5.27612
G1 X147.992 Y77.465 E5.31066
G1 X148.234 Y78.048 E5.32845
G1 X148.647 Y79.203 E5.36298
G1 X148.830 Y79.808 E5.38077
G1 X149.128 Y80.998 E5.41530
G1 X149.251 Y81.617 E5.43307
G1 X149.431 Y82.830 E5.46761
G1 X149.493 Y83.459 E5.48538
G1 X149.561 Y85.000 E5.52881
G1 X149.561 Y106.250 E6.12704
G1 X149.164 Y108.475 E6.19067
G1 X148.023 Y110.426 E6.25431
G1 X146.277 Y111.862 E6.31794
G1 X143.513 Y112.675 E6.39904
G1 X83.464 Y116.304 E8.09263
G1 X80.941 Y116.429 E8.16374
G1 X80.309 Y116.429 E8.18152
G1 X77.859 Y116.308 E8.25059
G1 X77.230 Y116.246 E8.26837
G1 X74.803 Y115.886 E8.33744
G1 X74.184 Y115.763 E8.35522
G1 X71.804 Y115.167 E8.42429
G1 X71.200 Y114.984 E8.44207
G1 X68.890 Y114.157 E8.51114
G1 X68.306 Y113.915 E8.52892
G1 X66.088 Y112.866 E8.59799
G1 X65.608 Y112.614 E8.61327
G1 X29.218 Y91.481 E9.79792
G1 X28.746 Y91.179 E9.81370
G1 X28.364 Y90.896 E9.82709
G1 X27.786 Y90.391 E9.84869
G1 X27.457 Y90.055 E9.86194
G1 X27.130 Y89.677 E9.87600
G1 X26.742 Y89.146 E9.89452
G1 X26.459 Y88.691 E9.90961
G1 X26.126 Y88.045 E9.93007
G1 X25.937 Y87.596 E9.94378
G1 X25.740 Y87.003 E9.96136
G1 X25.614 Y86.508 E9.97573
G1 X25.538 Y86.112 E9.98710
G1 X25.474 Y85.635 E10.00065
G1 X25.440 Y85.138 E10.01468
G1 X25.440 Y84.579 E10.03041
G1 X25.474 Y84.086 E10.04431
G1 X25.591 Y83.316 E10.06625
G1 X25.764 Y82.631 E10.08613
G1 X25.930 Y82.146 E10.10057
G1 X26.233 Y81.448 E10.12198
G1 X26.478 Y80.992 E10.13656
G1 X26.801 Y80.484 E10.15350
G1 X27.141 Y80.031 E10.16945
G1 X27.594 Y79.519 E10.18870
G1 X27.995 Y79.131 E10.20442
G1 X28.534 Y78.691 E10.22399
G1 X29.169 Y78.267 E10.24548
G1 X40.906 Y71.540 E10.62633
G1 E8.62633 F1680.000
G92 E0
G1 X81.183 Y84.411 F12000.000
G1 E2.00000 F1680.000
G1 X81.269 Y84.183 E2.00633 F900.000
G1 X81.438 Y83.873 E2.01554
G1 X81.690 Y83.565 E2.02589
G1 X81.998 Y83.313 E2.03624
G1 X82.168 Y83.210 E2.04143
G1 X82.536 Y83.058 E2.05178
G1 X82.926 Y82.981 E2.06213
G1 X83.169 Y82.973 E2.06846
G1 X83.521 Y83.010 E2.07767 F900.000
G1 X83.902 Y83.125 E2.08802
G1 X84.120 Y83.233 E2.09435
G1 X84.412 Y83.431 E2.10356
G1 X84.694 Y83.713 E2.11391
G1 X84.812 Y83.873 E2.11910
G1 X84.934 Y84.083 E2.12543
G1 X85.067 Y84.411 E2.13463
G1 X85.115 Y84.604 E2.13982
G1 X85.154 Y85.000 E2.15017
G1 X85.115 Y85.396 E2.16052
G1 X85.067 Y85.589 E2.16571
G1 X84.934 Y85.917 E2.17491
G1 X84.812 Y86.127 E2.18124
G1 X84.694 Y86.287 E2.18642
G1 X84.412 Y86.569 E2.19678
G1 X84.082 Y86.790 E2.20713
G1 X83.902 Y86.875 E2.21232
G1 X83.714 Y86.942 E2.21750
G1 X83.324 Y87.019 E2.22785
G1 X82.926 Y87.019 E2.23821
G1 X82.536 Y86.942 E2.24856
G1 X82.168 Y86.790 E2.25892
G1 X81.998 Y86.687 E2.26410
G1 X81.838 Y86.569 E2.26928
G1 X81.556 Y86.287 E2.27964
G1 X81.335 Y85.957 E2.28999
G1 X81.250 Y85.777 E2.29518
G1 X81.135 Y85.396 E2.30553
G1 X81.106 Y85.199 E2.31071
G1 X81.106 Y84.801 E2.32107
G1 X81.165 Y84.484 E2.32947
G1 X81.556 Y84.582 F12000.000
G1 X81.623 Y84.378 E2.33505 F720.000
G1 X81.774 Y84.097 E2.34335
G1 X81.976 Y83.851 E2.35164
G1 X82.094 Y83.744 E2.35579
G1 X82.359 Y83.567 E2.36409
G1 X82.503 Y83.498 E2.36824
G1 X82.808 Y83.406 E2.37653
G1 X82.990 Y83.381 E2.38132
G1 X83.284 Y83.383 E2.38897 F720.000
G1 X83.597 Y83.445 E2.39727
G1 X83.747 Y83.498 E2.40142
G1 X84.028 Y83.649 E2.40971
G1 X84.156 Y83.744 E2.41386
G1 X84.381 Y83.969 E2.42216
G1 X84.558 Y84.234 E2.43045
G1 X84.627 Y84.378 E2.43460
G1 X84.719 Y84.683 E2.44290
G1 X84.750 Y85.000 E2.45119
G1 X84.719 Y85.317 E2.45948
G1 X84.680 Y85.472 E2.46363
G1 X84.569 Y85.744 E2.47129
G1 X84.476 Y85.903 E2.47608
G1 X84.381 Y86.031 E2.48023
G1 X84.156 Y86.256 E2.48852
G1 X83.891 Y86.433 E2.49681
G1 X83.747 Y86.502 E2.50097
G1 X83.597 Y86.555 E2.50512
G1 X83.284 Y86.617 E2.51341
G1 X82.966 Y86.617 E2.52170
G1 X82.653 Y86.555 E2.53000
G1 X82.359 Y86.433 E2.53829
G1 X82.222 Y86.351 E2.54244
G1 X82.094 Y86.256 E2.54659
G1 X81.869 Y86.031 E2.55489
G1 X81.692 Y85.766 E2.56318
G1 X81.623 Y85.622 E2.56733
G1 X81.531 Y85.317 E2.57562
G1 X81.508 Y85.159 E2.57978
G1 X81.508 Y84.841 E2.58807
G1 X81.538 Y84.654 E2.59298
G1 E0.59298 F1680.000
G92 E0
G1 X83.068 Y83.098 F12000.000
G1 X76.355 Y108.949 F12000.000
G1 E2.00000 F1680.000
G1 X75.875 Y108.878 E2.01261 F900.000
G1 X73.558 Y108.297 E2.07480
G1 X71.308 Y107.493 E2.13699
G1 X69.148 Y106.471 E2.19918
G1 X67.099 Y105.243 E2.26136
G1 X65.180 Y103.820 E2.32355
G1 X63.410 Y102.215 E2.38574
G1 X61.805 Y100.445 E2.44793
G1 X60.382 Y98.526 E2.51012
G1 X59.154 Y96.477 E2.57230
G1 X58.132 Y94.317 E2.63449
G1 X57.328 Y92.067 E2.69668
G1 X56.747 Y89.750 E2.75887
G1 X56.424 Y87.573 E2.81614
G1 X56.396 Y87.386 E2.82106
G1 X56.279 Y85.000 E2.88324
G1 X56.396 Y82.614 E2.94543
G1 X56.747 Y80.250 E3.00762
G1 X57.328 Y77.933 E3.06981
G1 X58.132 Y75.683 E3.13200
G1 X59.154 Y73.523 E3.19418
G1 X60.382 Y71.474 E3.25637
G1 X61.805 Y69.555 E3.31856
G1 X63.410 Y67.785 E3.38075
G1 X65.180 Y66.180 E3.44294
G1 X67.099 Y64.757 E3.50512
G1 X69.148 Y63.529 E3.56731
G1 X71.308 Y62.507 E3.62950
G1 X73.558 Y61.703 E3.69169
G1 X75.875 Y61.122 E3.75388
G1 X78.239 Y60.771 E3.81606
G1 X78.427 Y60.762 E3.82098
G1 X80.625 Y60.654 E3.87825 F900.000
G1 X83.011 Y60.771 E3.94044
G1 X85.375 Y61.122 E4.00263
G1 X87.692 Y61.703 E4.06482
G1 X89.942 Y62.507 E4.12700
G1 X92.102 Y63.529 E4.18919
G1 X94.151 Y64.757 E4.25138
G1 X96.070 Y66.180 E4.31357
G1 X97.840 Y67.785 E4.37576
G1 X99.445 Y69.555 E4.43794
G1 X100.868 Y71.474 E4.50013
G1 X102.096 Y73.523 E4.56232
G1 X103.118 Y75.683 E4.62451
G1 X103.922 Y77.933 E4.68670
G1 X104.503 Y80.250 E4.74888
G1 X104.854 Y82.614 E4.81107
G1 X104.971 Y85.000 E4.87326
G1 X104.854 Y87.386 E4.93545
G1 X104.503 Y89.750 E4.99764
G1 X103.922 Y92.067 E5.05982
G1 X103.118 Y94.317 E5.12201
G1 X102.096 Y96.477 E5.18420
G1 X100.868 Y98.526 E5.24639
G1 X99.445 Y100.445 E5.30858
G1 X97.840 Y102.215 E5.37076
G1 X96.070 Y103.820 E5.43295
G1 X94.151 Y105.243 E5.49514
G1 X92.102 Y106.471 E5.55733
G1 X89.942 Y107.493 E5.61952
G1 X87.692 Y108.297 E5.68170
G1 X85.375 Y108.878 E5.74389
G1 X83.011 Y109.229 E5.80608
G1 X80.625 Y109.346 E5.86827
G1 X78.239 Y109.229 E5.93046
G1 X76.429 Y108.960 E5.97808
G1 X76.370 Y109.359 F12000.000
G1 X75.797 Y109.274 E5.99316 F720.000
G1 X73.441 Y108.684 E6.05638
G1 X71.154 Y107.866 E6.11960
G1 X68.958 Y106.827 E6.18282
G1 X66.875 Y105.579 E6.24604
G1 X64.924 Y104.132 E6.30926
G1 X63.124 Y102.501 E6.37248
G1 X61.493 Y100.701 E6.43570
G1 X60.046 Y98.750 E6.49892
G1 X58.798 Y96.667 E6.56214
G1 X57.759 Y94.471 E6.62536
G1 X56.941 Y92.184 E6.68858
G1 X56.351 Y89.828 E6.75180
G1 X55.994 Y87.426 E6.81502
G1 X55.875 Y85.000 E6.87824
G1 X55.994 Y82.574 E6.94146
G1 X56.351 Y80.172 E7.00468
G1 X56.941 Y77.816 E7.06790
G1 X57.759 Y75.529 E7.13112
G1 X58.798 Y73.333 E7.19434
G1 X60.046 Y71.250 E7.25755
G1 X61.493 Y69.299 E7.32077
G1 X63.124 Y67.499 E7.38399
G1 X64.924 Y65.868 E7.44721
G1 X66.875 Y64.421 E7.51043
G1 X68.958 Y63.173 E7.57365
G1 X71.154 Y62.134 E7.63687
G1 X73.441 Y61.316 E7.70009
G1 X75.797 Y60.726 E7.76331
G1 X78.199 Y60.369 E7.82653
G1 X80.625 Y60.250 E7.88975
G1 X80.833 Y60.261 E7.89518
G1 X83.051 Y60.369 E7.95297 F720.000
G1 X85.453 Y60.726 E8.01619
G1 X87.809 Y61.316 E8.07941
G1 X90.096 Y62.134 E8.14263
G1 X92.292 Y63.173 E8.20585
G1 X94.375 Y64.421 E8.26907
G1 X96.326 Y65.868 E8.33229
G1 X98.126 Y67.499 E8.39551
G1 X99.757 Y69.299 E8.45873
G1 X101.204 Y71.250 E8.52195
G1 X102.452 Y73.333 E8.58517
G1 X103.491 Y75.529 E8.64839
G1 X104.309 Y77.816 E8.71161
G1 X104.899 Y80.172 E8.77483
G1 X105.256 Y82.574 E8.83805
G1 X105.375 Y85.000 E8.90127
G1 X105.256 Y87.426 E8.96449
G1 X104.899 Y89.828 E9.02771
G1 X104.309 Y92.184 E9.09093
G1 X103.491 Y94.471 E9.15415
G1 X102.452 Y96.667 E9.21737
G1 X101.204 Y98.750 E9.28059
G1 X99.757 Y100.701 E9.34381
G1 X98.126 Y102.501 E9.40703
G1 X96.326 Y104.132 E9.47025
G1 X94.375 Y105.579 E9.53347
G1 X92.292 Y106.827 E9.59669
G1 X90.096 Y107.866 E9.65991
G1 X87.809 Y108.684 E9.72312
G1 X85.453 Y109.274 E9.78634
G1 X83.051 Y109.631 E9.84956
G1 X80.625 Y109.750 E9.91278
G1 X78.199 Y109.631 E9.97600
G1 X76.444 Y109.370 E10.02219
G1 X81.253 Y60.532 F12000.000
G1 X73.651 Y108.040 F12000.000
G1 X57.585 Y91.974 E10.61357 F1200.000
G1 X57.394 Y91.212 E10.63404
G1 X74.413 Y108.231 E11.26053
G1 X75.176 Y108.422 E11.28100
G1 X57.203 Y90.449 E11.94260
G1 X57.013 Y89.687 E11.96303
G1 X75.938 Y108.612 E12.65965
G1 X76.609 Y108.711 E12.67731
G1 X56.914 Y89.016 E13.40231
G1 X56.814 Y88.345 E13.41998
G1 X77.280 Y108.811 E14.17335
G1 X77.952 Y108.911 E14.19101
G1 X56.714 Y87.673 E14.97276
G1 X56.652 Y87.039 E14.98934
G1 X78.586 Y108.973 E15.79672
G1 X79.187 Y109.002 E15.81239
G1 X56.623 Y86.438 E16.64299
G1 X56.593 Y85.837 E16.65865
G1 X79.788 Y109.032 E17.51247
G1 X80.389 Y109.061 E17.52814
G1 X56.564 Y85.236 E18.40517
G1 X56.568 Y84.669 E18.41993
G1 X80.956 Y109.057 E19.31767
G1 X81.501 Y109.030 E19.33187
G1 X56.595 Y84.124 E20.24868
G1 X56.622 Y83.579 E20.26288
G1 X82.046 Y109.003 E21.19876
G1 X82.591 Y108.976 E21.21296
G1 X56.649 Y83.034 E22.16792
G1 X56.688 Y82.502 E22.18180
G1 X83.123 Y108.937 E23.15487
G1 X83.621 Y108.863 E23.16797
G1 X56.762 Y82.004 E24.15664
G1 X56.836 Y81.506 E24.16974
G1 X84.119 Y108.789 E25.17402
G1 X84.616 Y108.715 E25.18712
G1 X56.910 Y81.009 E26.20701
G1 X56.984 Y80.511 E26.22011
G1 X85.114 Y108.641 E27.25561
G1 X85.588 Y108.544 E27.26821
G1 X57.081 Y80.037 E28.31756
G1 X57.196 Y79.579 E28.32983
G1 X86.046 Y108.429 E29.39180
G1 X86.503 Y108.315 E29.40407
G1 X57.310 Y79.122 E30.47865
G1 X57.425 Y78.665 E30.49092
G1 X86.960 Y108.200 E31.57811
G1 X87.417 Y108.085 E31.59038
G1 X57.540 Y78.208 E32.69019
G1 X57.675 Y77.771 E32.70209
G1 X87.854 Y107.950 E33.81299
G1 X88.275 Y107.800 E33.82463
G1 X57.825 Y77.350 E34.94549
G1 X57.976 Y76.929 E34.95713
G1 X88.696 Y107.649 E36.08794
G1 X89.117 Y107.498 E36.09958
G1 X58.127 Y76.508 E37.24034
G1 X58.277 Y76.087 E37.25198
G1 X89.538 Y107.348 E38.40269
G1 X89.949 Y107.188 E38.41419
G1 X58.437 Y75.676 E39.57416
G1 X58.621 Y75.288 E39.58533
G1 X90.337 Y107.004 E40.75283
G1 X90.726 Y106.820 E40.76401
G1 X58.805 Y74.899 E41.93904
G1 X58.988 Y74.511 E41.95022
G1 X91.114 Y106.637 E43.13278
G1 X91.502 Y106.453 E43.14395
G1 X59.172 Y74.123 E44.33404
G1 X59.355 Y73.735 E44.34522
G1 X91.890 Y106.270 E45.54284
G1 X92.254 Y106.062 E45.55375
G1 X59.563 Y73.371 E46.75712
G1 X59.777 Y73.014 E46.76797
G1 X92.611 Y105.848 E47.97661
G1 X92.969 Y105.634 E47.98746
G1 X59.991 Y72.656 E49.20138
G1 X60.206 Y72.299 E49.21223
G1 X93.326 Y105.419 E50.43141
G1 X93.684 Y105.205 E50.44226
G1 X60.420 Y71.941 E51.66672
G1 X60.638 Y71.587 E51.67754
G1 X94.038 Y104.987 E52.90702
G1 X94.366 Y104.744 E52.91766
G1 X60.881 Y71.259 E54.15026
G1 X61.125 Y70.931 E54.16089
G1 X94.694 Y104.500 E55.39662
G1 X95.023 Y104.257 E55.40725
G1 X61.368 Y70.602 E56.64610
G1 X61.611 Y70.274 E56.65673
G1 X95.351 Y104.014 E57.89870
G1 X95.679 Y103.770 E57.90934
G1 X61.855 Y69.946 E59.15442
G1 X62.108 Y69.627 E59.16501
G1 X95.998 Y103.517 E60.41252
G1 X96.298 Y103.245 E60.42305
G1 X62.380 Y69.327 E61.67159
G1 X62.652 Y69.027 E61.68213
G1 X96.598 Y102.973 E62.93170
G1 X96.897 Y102.702 E62.94224
G1 X62.923 Y68.728 E64.19284
G1 X63.195 Y68.428 E64.20338
G1 X97.197 Y102.430 E65.45502
G1 X100.125 Y99.069 F12000.000
G1 X85.287 Y84.230 E66.00125 F1200.000
G1 X85.422 Y84.937 E66.01998
G1 X99.882 Y99.398 E66.55227
G1 X99.639 Y99.726 E66.56290
G1 X85.379 Y85.466 E67.08782
G1 X85.235 Y85.894 E67.09958
G1 X99.395 Y100.054 E67.62081
G1 X99.142 Y100.373 E67.63140
G1 X85.035 Y86.266 E68.15068
G1 X84.782 Y86.584 E68.16126
G1 X98.870 Y100.673 E68.67986
G1 X98.598 Y100.973 E68.69040
G1 X84.478 Y86.852 E69.21018
G1 X84.122 Y87.068 E69.22101
G1 X98.327 Y101.272 E69.74389
G1 X98.055 Y101.572 E69.75443
G1 X83.704 Y87.222 E70.28269
G1 X83.203 Y87.292 E70.29586
G1 X97.776 Y101.865 E70.83231
G1 X97.490 Y102.151 E70.84283
G1 X82.564 Y87.225 E71.39225
G1 X80.900 Y85.561 F12000.000
G1 X63.474 Y68.135 E72.03370 F1200.000
G1 X63.760 Y67.849 E72.04422
G1 X80.833 Y84.922 E72.67270
G1 X80.903 Y84.421 E72.68588
G1 X64.053 Y67.570 E73.30616
G1 X64.353 Y67.298 E73.31670
G1 X81.057 Y84.003 E73.93160
G1 X81.273 Y83.647 E73.94244
G1 X64.652 Y67.026 E74.55424
G1 X64.952 Y66.755 E74.56478
G1 X81.541 Y83.343 E75.17540
G1 X81.859 Y83.090 E75.18599
G1 X65.252 Y66.483 E75.79729
G1 X65.571 Y66.230 E75.80788
G1 X82.231 Y82.890 E76.42114
G1 X82.659 Y82.746 E76.43290
G1 X65.899 Y65.986 E77.04984
G1 X66.227 Y65.743 E77.06048
G1 X83.188 Y82.703 E77.68479
G1 X83.895 Y82.838 E77.70353
G1 X66.556 Y65.500 E78.34178
G1 X66.884 Y65.256 E78.35242
G1 X100.369 Y98.741 E79.58502
G1 X100.612 Y98.413 E79.59566
G1 X67.212 Y65.013 E80.82514
G1 X67.566 Y64.795 E80.83595
G1 X100.830 Y98.059 E82.06041
G1 X101.044 Y97.701 E82.07126
G1 X67.924 Y64.581 E83.29045
G1 X68.281 Y64.366 E83.30130
G1 X101.259 Y97.344 E84.51521
G1 X101.473 Y96.986 E84.52606
G1 X68.639 Y64.152 E85.73471
G1 X68.996 Y63.938 E85.74555
G1 X101.687 Y96.629 E86.94893
G1 X101.895 Y96.265 E86.95984
G1 X69.360 Y63.730 E88.15746
G1 X69.748 Y63.547 E88.16863
G1 X102.078 Y95.877 E89.35872
G1 X102.262 Y95.489 E89.36990
G1 X70.136 Y63.363 E90.55246
G1 X70.524 Y63.180 E90.56363
G1 X102.445 Y95.101 E91.73866
G1 X102.629 Y94.712 E91.74984
G1 X70.913 Y62.996 E92.91734
G1 X71.301 Y62.812 E92.92852
G1 X102.813 Y94.324 E94.08849
G1 X102.973 Y93.913 E94.09998
G1 X71.712 Y62.652 E95.25070
G1 X72.133 Y62.502 E95.26234
G1 X103.123 Y93.492 E96.40310
G1 X103.274 Y93.071 E96.41474
G1 X72.554 Y62.351 E97.54555
G1 X72.975 Y62.200 E97.55719
G1 X103.425 Y92.650 E98.67805
G1 X103.575 Y92.229 E98.68969
G1 X73.396 Y62.050 E99.80059
G1 X73.833 Y61.915 E99.81249
G1 X103.710 Y91.792 E100.91230
G1 X103.825 Y91.335 E100.92456
G1 X74.290 Y61.800 E102.01176
G1 X74.747 Y61.685 E102.02403
G1 X103.940 Y90.878 E103.09861
G1 X104.054 Y90.421 E103.11088
G1 X75.204 Y61.571 E104.17285
G1 X75.662 Y61.456 E104.18512
G1 X104.169 Y89.963 E105.23447
G1 X104.266 Y89.489 E105.24707
G1 X76.136 Y61.359 E106.28257
G1 X76.634 Y61.285 E106.29567
G1 X104.340 Y88.991 E107.31556
G1 X104.414 Y88.494 E107.32866
G1 X77.131 Y61.211 E108.33294
G1 X77.629 Y61.137 E108.34604
G1 X104.488 Y87.996 E109.33471
G1 X104.562 Y87.498 E109.34781
G1 X78.127 Y61.063 E110.32088
G1 X78.659 Y61.024 E110.33476
G1 X104.601 Y86.966 E111.28972
G1 X104.628 Y86.421 E111.30392
G1 X79.204 Y60.997 E112.23980
G1 X79.749 Y60.970 E112.25400
G1 X104.655 Y85.876 E113.17081
G1 X104.682 Y85.331 E113.18501
G1 X80.294 Y60.943 E114.08274
G1 X80.861 Y60.939 E114.09750
G1 X104.686 Y84.764 E114.97454
