; generated by Slic3r 0.9.9 on 2013-05-28 at 12:07:19

; layer_height = 0.3
; perimeters = 3
; top_solid_layers = 2
; bottom_solid_layers = 2
; fill_density = 0.3
; perimeter_speed = 30
; infill_speed = 60
; travel_speed = 130
; nozzle_diameter = 0.5
; filament_diameter = 2.8
; extrusion_multiplier = 0.9
; perimeters extrusion width = 0.70mm
; infill extrusion width = 0.70mm
; solid infill extrusion width = 0.70mm
; top infill extrusion width = 0.70mm
; first layer extrusion width = 0.40mm

G21 ; set units to millimeters
M107
M104 S200 ; set temperature
G28 ; home all axes
G1 Z5 F100 ; lift nozzle
M109 S200 ; wait for temperature to be reached
G90 ; use absolute coordinates
G92 E0
M82 ; use absolute distances for extrusion
G1 F1200.000 E-2.00000
G92 E0
G1 Z0.200 F7800.000
G1 X85.364 Y60.750
G1 F1200.000 E2.00000
G1 X85.724 Y60.340 F540.000 E2.00672
G1 X86.314 Y59.800 E2.01658
G1 X86.524 Y59.630 E2.01990
G1 X87.204 Y59.190 E2.02988
G1 X87.434 Y59.060 E2.03314
G1 X88.174 Y58.740 E2.04307
G1 X88.684 Y58.580 E2.04966
G1 X89.214 Y58.460 E2.05635
G1 X89.744 Y58.390 E2.06294
G1 X90.284 Y58.360 E2.06960
G1 X90.814 Y58.370 E2.07613
G1 X91.354 Y58.430 E2.08283
G1 X91.874 Y58.540 E2.08938
G1 X92.394 Y58.690 E2.09604
G1 X92.884 Y58.870 E2.10247
G1 X93.324 Y59.070 E2.10843
G1 X136.954 Y83.530 E2.72468
G1 X137.424 Y83.850 E2.73168
G1 X137.854 Y84.200 E2.73851
G1 X138.254 Y84.600 E2.74548
G1 X138.624 Y85.030 E2.75247
G1 X138.954 Y85.480 E2.75935
G1 X139.244 Y85.970 E2.76636
G1 X139.484 Y86.470 E2.77319
G1 X139.684 Y87.000 E2.78017
G1 X139.864 Y87.630 E2.78825
G1 X141.384 Y93.600 E2.86415
G1 X141.464 Y94.060 E2.86990
G1 X141.514 Y94.520 E2.87560
G1 X141.994 Y101.500 E2.96180
G1 X141.994 Y102.390 E2.97276
G1 X141.924 Y102.970 E2.97996
G1 X140.724 Y110.330 E3.07184
G1 X140.554 Y111.090 E3.08143
G1 X140.384 Y111.580 E3.08782
G1 X137.744 Y118.530 E3.17942
G1 X137.614 Y118.860 E3.18379
G1 X137.464 Y119.170 E3.18803
G1 X137.294 Y119.480 E3.19238
G1 X136.904 Y120.070 E3.20110
G1 X131.484 Y127.390 E3.31331
G1 X131.034 Y127.930 E3.32197
G1 X130.544 Y128.450 E3.33078
G1 X126.374 Y132.500 E3.40240
G1 X125.854 Y132.950 E3.41087
G1 X125.484 Y133.220 E3.41651
G1 X119.684 Y137.120 E3.50262
G1 X119.194 Y137.420 E3.50970
G1 X118.944 Y137.550 E3.51317
G1 X118.414 Y137.780 E3.52029
G1 X111.204 Y140.560 E3.61549
G1 X110.664 Y140.710 E3.62240
G1 X110.114 Y140.820 E3.62931
G1 X102.744 Y141.940 E3.72115
G1 X102.164 Y142.000 E3.72834
G1 X101.584 Y142.010 E3.73548
G1 X101.294 Y141.990 E3.73907
G1 X93.444 Y141.390 E3.83606
G1 X92.594 Y141.270 E3.84664
G1 X89.974 Y140.710 E3.87965
G1 X89.494 Y140.590 E3.88574
G1 X89.034 Y140.430 E3.89174
G1 X77.724 Y135.620 E4.04316
G1 X77.174 Y135.330 E4.05082
G1 X76.914 Y135.160 E4.05465
G1 X76.424 Y134.790 E4.06222
G1 X76.184 Y134.580 E4.06615
G1 X69.464 Y128.450 E4.17821
G1 X68.814 Y127.800 E4.18954
G1 X68.344 Y127.250 E4.19845
G1 X64.824 Y122.720 E4.26913
G1 X60.654 Y117.160 E4.35476
G1 X60.194 Y116.460 E4.36508
G1 X60.064 Y116.210 E4.36855
G1 X59.834 Y115.690 E4.37555
G1 X59.644 Y115.160 E4.38249
G1 X59.504 Y114.620 E4.38936
G1 X59.454 Y114.340 E4.39287
G1 X56.964 Y99.010 E4.58421
G1 X56.924 Y98.480 E4.59076
G1 X56.924 Y98.210 E4.59409
G1 X56.954 Y97.670 E4.60075
G1 X57.024 Y97.130 E4.60746
G1 X57.134 Y96.610 E4.61401
G1 X57.294 Y96.090 E4.62071
G1 X57.614 Y95.350 E4.63064
G1 X58.024 Y94.650 E4.64064
G1 X58.344 Y94.220 E4.64724
G1 X85.325 Y60.799 E5.17643
G1 F1200.000 E3.17643
G92 E0
G1 X101.057 Y135.345 F7800.000
G1 F1200.000 E2.00000
G1 X101.471 Y135.382 F540.000 E2.00512
G1 X101.786 Y135.594 E2.00980
G1 X101.057 Y135.345 F7800.000
G1 X100.648 Y135.369 F540.000 E2.01485
G1 X100.648 Y135.369 F7800.000
G1 X100.478 Y135.326 F540.000 E2.01701
G1 F1200.000 E0.01701
G92 E0
G1 X93.957 Y134.984 F7800.000
G1 F1200.000 E2.00000
G1 X93.936 Y134.995 F540.000 E2.00029
G1 X93.936 Y134.995 F7800.000
G1 X93.815 Y134.890 F540.000 E2.00227
G1 X93.815 Y134.890 F7800.000
G1 X93.673 Y134.795 F540.000 E2.00436
G1 X93.673 Y134.795 F7800.000
G1 X93.463 Y134.546 F540.000 E2.00838
G1 X93.559 Y134.525 F7800.000
G1 X93.097 Y134.450 F540.000 E2.01415
G1 X93.097 Y134.450 F7800.000
G1 X92.716 Y134.352 F540.000 E2.01900
G1 X92.716 Y134.352 F7800.000
G1 X92.598 Y134.345 F540.000 E2.02045
G1 X92.598 Y134.345 F7800.000
G1 X92.421 Y134.307 F540.000 E2.02268
G1 X92.421 Y134.307 F7800.000
G1 X92.174 Y134.243 F540.000 E2.02583
G1 X92.052 Y134.312 F7800.000
G1 X92.174 Y134.243 F540.000 E2.02756
G1 X92.052 Y134.098 E2.02989
G1 X92.052 Y134.312 F7800.000
G1 X91.846 Y134.344 F540.000 E2.03246
G1 X91.846 Y134.344 F7800.000
G1 X91.697 Y134.349 F540.000 E2.03429
G1 X91.697 Y134.349 F7800.000
G1 X91.323 Y134.436 F540.000 E2.03903
G1 F1200.000 E0.03903
G92 E0
G1 X80.523 Y129.846 F7800.000
G1 F1200.000 E2.00000
G1 X80.392 Y129.489 F540.000 E2.00468
G1 X80.161 Y129.327 E2.00816
G1 X80.161 Y129.327 F7800.000
G1 X79.780 Y128.970 F540.000 E2.01460
G1 X79.780 Y128.970 F7800.000
G1 X79.734 Y128.995 F540.000 E2.01524
G1 X79.734 Y128.995 F7800.000
G1 X79.623 Y128.860 F540.000 E2.01740
G1 F1200.000 E0.01740
G92 E0
G1 X74.172 Y123.350 F7800.000
G1 F1200.000 E2.00000
G1 X73.932 Y123.551 F540.000 E2.00385
G1 X73.932 Y123.551 F7800.000
G1 X73.813 Y123.655 F540.000 E2.00580
G1 X73.560 Y123.439 E2.00990
G1 X73.560 Y123.439 F7800.000
G1 X73.424 Y123.319 F540.000 E2.01213
G1 X73.424 Y123.319 F7800.000
G1 X73.422 Y123.320 F540.000 E2.01216
G1 X73.813 Y123.655 F7800.000
G1 X73.800 Y123.717 F540.000 E2.01293
G1 F1200.000 E0.01293
G92 E0
G1 X69.969 Y118.878 F7800.000
G1 F1200.000 E2.00000
G1 X69.858 Y118.390 F540.000 E2.00616
G1 X69.858 Y118.390 F7800.000
G1 X69.631 Y118.069 F540.000 E2.01101
G1 X69.631 Y118.069 F7800.000
G1 X69.543 Y117.911 F540.000 E2.01323
G1 X69.543 Y117.911 F7800.000
G1 X69.525 Y117.916 F540.000 E2.01346
G1 F1200.000 E0.01346
G92 E0
G1 X66.194 Y113.098 F7800.000
G1 F1200.000 E2.00000
G1 X66.552 Y112.694 F540.000 E2.00664
G1 X66.194 Y113.098 F7800.000
G1 X65.804 Y113.310 F540.000 E2.01213
G1 F1200.000 E0.01213
G92 E0
G1 X63.346 Y98.251 F7800.000
G1 F1200.000 E2.00000
G1 X63.790 Y98.215 F540.000 E2.00548
G1 X64.281 Y97.992 E2.01213
G1 F1200.000 E0.01213
G92 E0
G1 X90.603 Y65.184 F7800.000
G1 F1200.000 E2.00000
G1 X90.850 Y65.355 F540.000 E2.00369
G1 X90.603 Y65.184 F7800.000
G1 X90.434 Y64.939 F540.000 E2.00736
G1 X90.434 Y64.939 F7800.000
G1 X90.398 Y64.795 F540.000 E2.00919
G1 X90.398 Y64.795 F7800.000
G1 X90.365 Y64.783 F540.000 E2.00962
G1 F1200.000 E0.00962
G92 E0
G1 X133.093 Y89.174 F7800.000
G1 F1200.000 E2.00000
G1 X133.582 Y88.990 F540.000 E2.00644
G1 X133.545 Y89.042 F7800.000
G1 X133.606 Y89.180 F540.000 E2.00830
G1 X133.606 Y89.180 F7800.000
G1 X133.680 Y89.351 F540.000 E2.01060
G1 F1200.000 E0.01060
G92 E0
G1 X135.113 Y94.969 F7800.000
G1 F1200.000 E2.00000
G1 X135.063 Y95.160 F540.000 E2.00243
G1 X135.063 Y95.160 F7800.000
G1 X135.032 Y95.579 F540.000 E2.00761
G1 X135.032 Y95.579 F7800.000
G1 X135.101 Y96.028 F540.000 E2.01320
G1 F1200.000 E0.01320
G92 E0
G1 X135.586 Y101.944 F7800.000
G1 F1200.000 E2.00000
G1 X135.423 Y102.184 F540.000 E2.00357
G1 X135.423 Y102.184 F7800.000
G1 X135.296 Y102.452 F540.000 E2.00722
G1 X135.296 Y102.452 F7800.000
G1 X135.188 Y103.026 F540.000 E2.01442
G1 F1200.000 E0.01442
G92 E0
G1 X134.392 Y109.302 F7800.000
G1 F1200.000 E2.00000
G1 X134.193 Y109.500 F540.000 E2.00345
G1 X134.193 Y109.500 F7800.000
G1 X134.001 Y109.746 F540.000 E2.00730
G1 X134.001 Y109.746 F7800.000
G1 X133.714 Y110.662 F540.000 E2.01913
G1 F1200.000 E0.01913
G92 E0
G1 X131.754 Y116.259 F7800.000
G1 F1200.000 E2.00000
G1 X131.410 Y116.417 F540.000 E2.00466
G1 X131.267 Y116.689 E2.00845
G1 X131.267 Y116.689 F7800.000
G1 X131.167 Y116.736 F540.000 E2.00982
G1 X131.167 Y116.736 F7800.000
G1 X131.172 Y116.839 F540.000 E2.01109
G1 F1200.000 E0.01109
G92 E0
G1 X125.922 Y123.246 F7800.000
G1 F1200.000 E2.00000
G1 X126.263 Y123.571 F540.000 E2.00580
G1 X126.176 Y123.694 E2.00765
G1 X126.176 Y123.694 F7800.000
G1 X126.174 Y123.694 F540.000 E2.00768
G1 X126.174 Y123.694 F7800.000
G1 X126.075 Y123.846 F540.000 E2.00991
G1 X126.075 Y123.846 F7800.000
G1 X126.062 Y123.843 F540.000 E2.01007
G1 X126.263 Y123.571 F7800.000
G1 X126.325 Y123.578 F540.000 E2.01085
G1 F1200.000 E0.01085
G92 E0
G1 X121.913 Y127.893 F7800.000
G1 F1200.000 E2.00000
G1 X121.281 Y128.166 F540.000 E2.00848
G1 X121.281 Y128.166 F7800.000
G1 X121.136 Y128.289 F540.000 E2.01083
G1 X121.136 Y128.289 F7800.000
G1 X120.991 Y128.412 F540.000 E2.01318
G1 F1200.000 E0.01318
G92 E0
G1 X116.109 Y131.790 F7800.000
G1 F1200.000 E2.00000
G1 X115.735 Y131.725 F540.000 E2.00468
G1 X115.479 Y131.844 E2.00816
G1 X115.479 Y131.844 F7800.000
G1 X115.160 Y131.927 F540.000 E2.01222
G1 X115.160 Y131.927 F7800.000
G1 X115.044 Y131.984 F540.000 E2.01382
G1 X115.044 Y131.984 F7800.000
G1 X114.973 Y131.986 F540.000 E2.01468
G1 F1200.000 E0.01468
G92 E0
G1 X109.164 Y134.476 F7800.000
G1 F1200.000 E2.00000
G1 X108.819 Y134.328 F540.000 E2.00463
G1 X108.344 Y134.432 E2.01062
M106 S255
G1 F1200.000 E0.01062
G92 E0
G1 Z0.500 F7800.000
G1 X94.143 Y134.793
G1 F1200.000 E2.00000
G1 X94.344 Y135.189 F600.000 E2.01275
G1 X94.143 Y134.793 F7800.000
G1 X91.978 Y134.175 F600.000 E2.07737
G1 X91.978 Y134.175 F7800.000
G1 X91.827 Y134.199 F600.000 E2.08175
G1 X91.827 Y134.199 F7800.000
G1 X91.646 Y134.137 F600.000 E2.08722
G1 X91.646 Y134.137 F7800.000
G1 X91.646 Y134.137 F600.000 E2.08723
G1 X91.646 Y134.137 F7800.000
G1 X91.250 Y134.342 F600.000 E2.10002
G1 X91.250 Y134.342 F7800.000
G1 X91.029 Y134.336 F600.000 E2.10637
G1 F1200.000 E0.10637
G92 E0
G1 X74.775 Y124.898 F7800.000
G1 F1200.000 E2.00000
G1 X74.583 Y124.169 F600.000 E2.02163
G1 X73.600 Y123.061 E2.06414
G1 X73.600 Y123.061 F7800.000
G1 X72.997 Y122.649 F600.000 E2.08510
G1 X72.997 Y122.649 F7800.000
G1 X72.742 Y122.632 F600.000 E2.09243
G1 X72.742 Y122.632 F7800.000
G1 X72.635 Y122.504 F600.000 E2.09722
G1 F1200.000 E0.09722
G92 E0
G1 X64.069 Y105.513 F7800.000
G1 F1200.000 E2.00000
G1 X64.665 Y104.819 F600.000 E2.02625
G1 X64.069 Y105.513 F7800.000
G1 X63.701 Y105.636 F600.000 E2.03739
G1 X63.701 Y105.636 F7800.000
G1 X63.633 Y105.632 F600.000 E2.03935
G1 X63.633 Y105.632 F7800.000
G1 X63.187 Y105.757 F600.000 E2.05264
G1 F1200.000 E0.05264
G92 E0
G1 X64.486 Y90.353 F7800.000
G1 F1200.000 E2.00000
G1 X65.154 Y90.373 F600.000 E2.01918
G1 X65.760 Y90.030 E2.03914
G1 X64.486 Y90.353 F7800.000
G1 X64.054 Y90.288 F600.000 E2.05168
G1 F1200.000 E0.05168
G92 E0
G1 X66.859 Y83.027 F7800.000
G1 F1200.000 E2.00000
G1 X66.966 Y83.022 F600.000 E2.00307
G1 X66.966 Y83.022 F7800.000
G1 X67.862 Y83.346 F600.000 E2.03042
G1 X68.140 Y83.285 E2.03859
G1 X68.140 Y83.285 F7800.000
G1 X68.581 Y83.129 F600.000 E2.05201
G1 X67.862 Y83.346 F7800.000
G1 X67.855 Y83.383 F600.000 E2.05309
G1 F1200.000 E0.05309
G92 E0
G1 X71.333 Y76.672 F7800.000
G1 F1200.000 E2.00000
G1 X71.868 Y76.990 F600.000 E2.01786
G1 X72.370 Y77.006 E2.03227
G1 X72.370 Y77.006 F7800.000
G1 X72.775 Y76.965 F600.000 E2.04394
G1 X72.072 Y77.032 F7800.000
G1 X72.072 Y77.036 F600.000 E2.04404
G1 X71.333 Y76.672 F7800.000
G1 X71.217 Y76.525 F600.000 E2.04942
G1 X71.217 Y76.525 F7800.000
G1 X71.112 Y76.507 F600.000 E2.05249
G1 F1200.000 E0.05249
G92 E0
G1 X76.805 Y71.229 F7800.000
G1 F1200.000 E2.00000
G1 X77.228 Y71.623 F600.000 E2.01661
G1 X77.228 Y71.623 F7800.000
G1 X78.160 Y71.810 F600.000 E2.04386
G1 X76.805 Y71.229 F7800.000
G1 X76.736 Y71.078 F600.000 E2.04861
G1 X76.736 Y71.078 F7800.000
G1 X76.626 Y71.031 F600.000 E2.05203
G1 F1200.000 E0.05203
G92 E0
G1 X83.213 Y67.022 F7800.000
G1 F1200.000 E2.00000
G1 X83.304 Y67.079 F600.000 E2.00307
G1 X83.304 Y67.079 F7800.000
G1 X83.358 Y67.243 F600.000 E2.00803
G1 X83.358 Y67.243 F7800.000
G1 X83.745 Y67.617 F600.000 E2.02347
G1 X83.745 Y67.617 F7800.000
G1 X84.502 Y67.907 F600.000 E2.04674
G1 F1200.000 E0.04674
G92 E0
G1 X98.268 Y63.692 F7800.000
G1 F1200.000 E2.00000
G1 X98.900 Y64.356 F600.000 E2.02631
G1 X98.268 Y63.692 F7800.000
G1 X98.146 Y63.090 F600.000 E2.04395
G1 X98.146 Y63.090 F7800.000
G1 X98.118 Y62.825 F600.000 E2.05159
G1 F1200.000 E0.05159
G92 E0
G1 X133.172 Y87.515 F7800.000
G1 F1200.000 E2.00000
G1 X133.126 Y87.903 F600.000 E2.01122
G1 X133.126 Y87.903 F7800.000
G1 X133.127 Y88.575 F600.000 E2.03051
G1 X133.127 Y88.575 F7800.000
G1 X133.619 Y90.035 F600.000 E2.07474
G1 X134.102 Y90.414 E2.09235
G1 X134.102 Y90.414 F7800.000
G1 X134.341 Y90.589 F600.000 E2.10085
G1 F1200.000 E0.10085
G92 E0
G1 X134.401 Y109.298 F7800.000
G1 F1200.000 E2.00000
G1 X134.160 Y109.320 F600.000 E2.00696
G1 X134.131 Y109.531 E2.01308
G1 X134.131 Y109.531 F7800.000
G1 X134.014 Y109.631 F600.000 E2.01750
G1 X134.014 Y109.631 F7800.000
G1 X133.876 Y109.929 F600.000 E2.02691
G1 F1200.000 E0.02691
G92 E0
G1 X127.398 Y122.485 F7800.000
G1 F1200.000 E2.00000
G1 X126.694 Y122.752 F600.000 E2.02163
G1 X125.599 Y123.901 E2.06717
G1 X125.262 Y124.985 E2.09977
G1 X125.262 Y124.985 F7800.000
G1 X125.321 Y125.035 F600.000 E2.10197
G1 F1200.000 E0.10197
G92 E0
G1 Z0.800 F7800.000
G1 X94.148 Y134.810
G1 F1200.000 E2.00000
G1 X94.346 Y135.187 F600.000 E2.01222
G1 X94.148 Y134.810 F7800.000
G1 X92.216 Y134.262 F600.000 E2.06986
G1 X92.216 Y134.262 F7800.000
G1 X91.661 Y134.141 F600.000 E2.08615
G1 X91.661 Y134.141 F7800.000
G1 X91.590 Y134.198 F600.000 E2.08876
G1 X91.590 Y134.198 F7800.000
G1 X91.368 Y134.243 F600.000 E2.09526
G1 X91.368 Y134.243 F7800.000
G1 X91.062 Y134.342 F600.000 E2.10450
G1 F1200.000 E0.10450
G92 E0
G1 X74.774 Y124.898 F7800.000
G1 F1200.000 E2.00000
G1 X74.583 Y124.169 F600.000 E2.02163
G1 X73.624 Y123.085 E2.06317
G1 X73.624 Y123.085 F7800.000
G1 X73.008 Y122.653 F600.000 E2.08477
G1 X73.008 Y122.653 F7800.000
G1 X72.793 Y122.653 F600.000 E2.09095
G1 X72.793 Y122.653 F7800.000
G1 X72.652 Y122.521 F600.000 E2.09647
G1 F1200.000 E0.09647
G92 E0
G1 X64.069 Y105.509 F7800.000
G1 F1200.000 E2.00000
G1 X64.683 Y104.794 F600.000 E2.02704
G1 X64.069 Y105.509 F7800.000
G1 X63.734 Y105.623 F600.000 E2.03720
G1 X63.734 Y105.623 F7800.000
G1 X63.534 Y105.667 F600.000 E2.04308
G1 X63.534 Y105.667 F7800.000
G1 X63.282 Y105.679 F600.000 E2.05031
G1 X63.282 Y105.679 F7800.000
G1 X63.180 Y105.750 F600.000 E2.05389
G1 F1200.000 E0.05389
G92 E0
G1 X64.475 Y90.340 F7800.000
G1 F1200.000 E2.00000
G1 X65.165 Y90.367 F600.000 E2.01982
G1 X65.787 Y90.015 E2.04031
G1 X64.475 Y90.340 F7800.000
G1 X64.147 Y90.252 F600.000 E2.05006
G1 F1200.000 E0.05006
G92 E0
G1 X66.989 Y83.052 F7800.000
G1 F1200.000 E2.00000
G1 X67.863 Y83.340 F600.000 E2.02641
G1 X68.166 Y83.265 E2.03537
G1 X68.166 Y83.265 F7800.000
G1 X68.610 Y83.120 F600.000 E2.04878
G1 X67.863 Y83.340 F7800.000
G1 X67.857 Y83.380 F600.000 E2.04992
G1 X66.989 Y83.052 F7800.000
G1 X66.957 Y83.010 F600.000 E2.05144
G1 F1200.000 E0.05144
G92 E0
G1 X71.400 Y76.697 F7800.000
G1 F1200.000 E2.00000
G1 X71.878 Y76.990 F600.000 E2.01606
G1 X72.366 Y77.002 E2.03007
G1 X72.366 Y77.002 F7800.000
G1 X72.806 Y76.963 F600.000 E2.04275
G1 X71.400 Y76.697 F7800.000
G1 X71.234 Y76.559 F600.000 E2.04895
G1 X71.234 Y76.559 F7800.000
G1 X71.211 Y76.512 F600.000 E2.05047
G1 F1200.000 E0.05047
G92 E0
G1 X76.714 Y71.313 F7800.000
G1 F1200.000 E2.00000
G1 X76.879 Y71.413 F600.000 E2.00553
G1 X76.879 Y71.413 F7800.000
G1 X76.899 Y71.468 F600.000 E2.00720
G1 X76.899 Y71.468 F7800.000
G1 X77.238 Y71.723 F600.000 E2.01938
G1 X77.752 Y71.813 E2.03436
G1 X77.752 Y71.813 F7800.000
G1 X78.204 Y71.844 F600.000 E2.04735
G1 F1200.000 E0.04735
G92 E0
G1 X83.336 Y67.288 F7800.000
G1 F1200.000 E2.00000
G1 X83.791 Y67.696 F600.000 E2.01752
G1 X83.791 Y67.696 F7800.000
G1 X84.534 Y67.928 F600.000 E2.03986
G1 X83.336 Y67.288 F7800.000
G1 X83.328 Y67.231 F600.000 E2.04153
G1 X83.328 Y67.231 F7800.000
G1 X83.187 Y67.099 F600.000 E2.04706
G1 F1200.000 E0.04706
G92 E0
G1 X98.269 Y63.695 F7800.000
G1 F1200.000 E2.00000
G1 X98.923 Y64.379 F600.000 E2.02715
G1 X98.269 Y63.695 F7800.000
G1 X98.157 Y63.147 F600.000 E2.04322
G1 X98.157 Y63.147 F7800.000
G1 X98.161 Y62.935 F600.000 E2.04931
G1 F1200.000 E0.04931
G92 E0
G1 X133.172 Y87.515 F7800.000
G1 F1200.000 E2.00000
