; generated by Slic3r 1.0.0RC2 on 2014-12-15 at 00:23:17

; layer_height = 0.4
; perimeters = 3
; top_solid_layers = 3
; bottom_solid_layers = 3
; fill_density = 0.2
; perimeter_speed = 30
; infill_speed = 60
; travel_speed = 130
; nozzle_diameter = 0.5
; filament_diameter = 3
; extrusion_multiplier = 1
; perimeters extrusion width = 0.50mm
; infill extrusion width = 0.53mm
; solid infill extrusion width = 0.53mm
; top infill extrusion width = 0.53mm
; first layer extrusion width = 1.00mm

G21 ; set units to millimeters
M107
M104 S200 ; set temperature
G28 ; home all axes
G1 Z5 F5000 ; lift nozzle

M109 S200 ; wait for temperature to be reached
G90 ; use absolute coordinates
G92 E0
M82 ; use absolute distances for extrusion
G1 F1800.000 E-1.00000
G92 E0
G1 Z0.500 F7800.000
G1 X76.360 Y75.413 F7800.000
G1 E1.00000 F1800.000
G1 X76.940 Y74.943 E1.04714 F540.000
G1 X77.950 Y74.213 E1.12583
G1 X78.560 Y73.823 E1.17155
G1 X79.200 Y73.503 E1.21673
G1 X80.350 Y72.993 E1.29617
G1 X81.020 Y72.733 E1.34155
G1 X81.710 Y72.553 E1.38658
G1 X82.940 Y72.293 E1.46597
G1 X83.650 Y72.173 E1.51144
G1 X84.370 Y72.143 E1.55694
G1 X115.620 Y72.143 E3.53024
G1 X116.340 Y72.173 E3.57574
G1 X117.050 Y72.293 E3.62121
G1 X118.280 Y72.553 E3.70060
G1 X118.960 Y72.733 E3.74501
G1 X119.620 Y72.983 E3.78958
G1 X120.760 Y73.483 E3.86819
G1 X121.420 Y73.813 E3.91478
G1 X122.040 Y74.213 E3.96137
G1 X123.060 Y74.953 E4.04095
G1 X123.630 Y75.413 E4.08720
G1 X124.150 Y75.943 E4.13408
G1 X124.990 Y76.883 E4.21369
G1 X125.420 Y77.423 E4.25727
G1 X125.800 Y78.003 E4.30106
G1 X126.430 Y79.083 E4.38001
G1 X126.780 Y79.753 E4.42774
G1 X127.050 Y80.453 E4.47512
G1 X127.430 Y81.643 E4.55400
G1 X127.600 Y82.303 E4.59704
G1 X127.710 Y82.973 E4.63991
G1 X127.850 Y84.223 E4.71934
G1 X127.890 Y84.993 E4.76802
G1 X127.890 Y114.993 E6.66239
G1 X127.850 Y115.763 E6.71108
G1 X127.710 Y117.013 E6.79050
G1 X127.600 Y117.683 E6.83338
G1 X127.430 Y118.343 E6.87641
G1 X127.050 Y119.533 E6.95530
G1 X126.780 Y120.223 E7.00208
G1 X126.450 Y120.883 E7.04868
G1 X125.820 Y121.973 E7.12818
G1 X125.420 Y122.583 E7.17424
G1 X124.970 Y123.143 E7.21960
G1 X124.130 Y124.073 E7.29874
G1 X123.630 Y124.573 E7.34339
G1 X123.080 Y125.013 E7.38786
G1 X122.070 Y125.753 E7.46693
G1 X121.450 Y126.153 E7.51352
G1 X120.790 Y126.493 E7.56040
G1 X119.640 Y127.003 E7.63984
G1 X118.970 Y127.263 E7.68522
G1 X118.280 Y127.443 E7.73025
G1 X117.050 Y127.703 E7.80963
G1 X116.340 Y127.823 E7.85510
G1 X115.620 Y127.853 E7.90060
G1 X84.370 Y127.853 E9.87390
G1 X83.650 Y127.823 E9.91941
G1 X82.940 Y127.703 E9.96488
G1 X81.710 Y127.443 E10.04426
G1 X81.020 Y127.263 E10.08929
G1 X80.350 Y127.003 E10.13467
G1 X79.200 Y126.493 E10.21411
G1 X78.540 Y126.153 E10.26099
G1 X77.920 Y125.753 E10.30758
G1 X76.910 Y125.013 E10.38664
G1 X76.360 Y124.573 E10.43112
G1 X75.860 Y124.073 E10.47577
G1 X75.020 Y123.143 E10.55490
G1 X74.570 Y122.583 E10.60027
G1 X74.170 Y121.973 E10.64633
G1 X73.540 Y120.883 E10.72583
G1 X73.200 Y120.213 E10.77327
G1 X72.940 Y119.513 E10.82042
G1 X72.560 Y118.313 E10.89991
G1 X72.380 Y117.643 E10.94372
G1 X72.270 Y116.953 E10.98784
G1 X72.140 Y115.713 E11.06657
G1 X72.110 Y114.993 E11.11207
G1 X72.110 Y84.993 E13.00644
G1 X72.140 Y84.283 E13.05131
G1 X72.270 Y83.033 E13.13067
G1 X72.380 Y82.333 E13.17541
G1 X72.560 Y81.643 E13.22044
G1 X72.940 Y80.453 E13.29932
G1 X73.210 Y79.753 E13.34670
G1 X73.560 Y79.083 E13.39443
G1 X74.190 Y78.003 E13.47338
G1 X74.570 Y77.423 E13.51717
G1 X75.000 Y76.883 E13.56076
G1 X75.840 Y75.943 E13.64036
G1 X76.266 Y75.509 E13.67879
G1 F1800.000 E12.67879
G92 E0
G1 X82.523 Y82.249 F7800.000
G1 E1.00000 F1800.000
G1 X83.149 Y81.794 E1.04887 F540.000
G1 X83.856 Y81.479 E1.09774
G1 X84.613 Y81.318 E1.14661
G1 X85.387 Y81.318 E1.19548
G1 X86.144 Y81.479 E1.24435
G1 X86.851 Y81.794 E1.29322
G1 X87.477 Y82.249 E1.34209
G1 X87.995 Y82.824 E1.39096
G1 X88.382 Y83.494 E1.43983
G1 X88.621 Y84.230 E1.48870
G1 X88.942 Y87.285 E1.68268
G1 X111.058 Y87.285 E3.07918
G1 X111.379 Y84.230 E3.27316
G1 X111.618 Y83.494 E3.32203
G1 X112.005 Y82.824 E3.37090
G1 X112.523 Y82.249 E3.41977
G1 X113.149 Y81.794 E3.46864
G1 X113.856 Y81.479 E3.51751
G1 X114.613 Y81.318 E3.56638
G1 X115.387 Y81.318 E3.61526
G1 X116.144 Y81.479 E3.66412
G1 X116.851 Y81.794 E3.71300
G1 X117.477 Y82.249 E3.76186
G1 X117.995 Y82.824 E3.81073
G1 X118.382 Y83.494 E3.85961
G1 X118.621 Y84.230 E3.90847
G1 X118.702 Y85.000 E3.95734
G1 X118.621 Y85.770 E4.00622
G1 X118.382 Y86.506 E4.05508
G1 X117.995 Y87.176 E4.10396
G1 X117.477 Y87.751 E4.15283
G1 X116.851 Y88.206 E4.20169
G1 X116.144 Y88.521 E4.25057
G1 X115.387 Y88.682 E4.29943
G1 X112.715 Y88.682 E4.46818
G1 X112.715 Y111.318 E5.89758
G1 X115.387 Y111.318 E6.06634
G1 X116.144 Y111.479 E6.11519
G1 X116.851 Y111.794 E6.16408
G1 X117.477 Y112.249 E6.21294
G1 X117.995 Y112.824 E6.26180
G1 X118.382 Y113.494 E6.31069
G1 X118.621 Y114.230 E6.35955
G1 X118.702 Y115.000 E6.40842
G1 X118.621 Y115.770 E6.45729
G1 X118.382 Y116.506 E6.50616
G1 X117.995 Y117.176 E6.55504
G1 X117.477 Y117.751 E6.60391
G1 X116.851 Y118.206 E6.65277
G1 X116.144 Y118.521 E6.70164
G1 X115.387 Y118.682 E6.75050
G1 X114.613 Y118.682 E6.79939
G1 X113.856 Y118.521 E6.84827
G1 X113.149 Y118.206 E6.89713
G1 X112.523 Y117.751 E6.94599
G1 X112.005 Y117.176 E6.99486
G1 X111.618 Y116.506 E7.04373
G1 X111.379 Y115.770 E7.09261
G1 X111.058 Y112.715 E7.28659
G1 X88.942 Y112.715 E8.68309
G1 X88.621 Y115.770 E8.87706
G1 X88.382 Y116.506 E8.92594
G1 X87.995 Y117.176 E8.97481
G1 X87.477 Y117.751 E9.02368
G1 X86.851 Y118.206 E9.07255
G1 X86.144 Y118.521 E9.12140
G1 X85.387 Y118.682 E9.17028
G1 X84.613 Y118.682 E9.21916
G1 X83.856 Y118.521 E9.26804
G1 X83.149 Y118.206 E9.31690
G1 X82.523 Y117.751 E9.36576
G1 X82.005 Y117.176 E9.41464
G1 X81.618 Y116.506 E9.46350
G1 X81.379 Y115.770 E9.51238
G1 X81.298 Y115.000 E9.56125
G1 X81.379 Y114.230 E9.61012
G1 X81.618 Y113.494 E9.65899
G1 X82.005 Y112.824 E9.70786
G1 X82.523 Y112.249 E9.75673
G1 X83.149 Y111.794 E9.80560
G1 X83.856 Y111.479 E9.85447
G1 X84.613 Y111.318 E9.90334
G1 X87.285 Y111.318 E10.07209
G1 X87.285 Y88.682 E11.50149
G1 X84.613 Y88.682 E11.67024
G1 X83.856 Y88.521 E11.71911
G1 X83.149 Y88.206 E11.76798
G1 X82.523 Y87.751 E11.81685
G1 X82.005 Y87.176 E11.86572
G1 X81.618 Y86.506 E11.91459
G1 X81.379 Y85.770 E11.96346
G1 X81.298 Y85.000 E12.01233
G1 X81.379 Y84.230 E12.06120
G1 X81.618 Y83.494 E12.11007
G1 X82.005 Y82.824 E12.15894
G1 X82.433 Y82.348 E12.19936
G1 X81.922 Y81.582 F7800.000
G1 X82.700 Y81.017 E12.26008 F540.000
G1 X83.579 Y80.626 E12.32079
G1 X84.519 Y80.426 E12.38151
G1 X85.481 Y80.426 E12.44223
G1 X86.421 Y80.626 E12.50295
G1 X87.300 Y81.017 E12.56367
G1 X88.078 Y81.582 E12.62439
G1 X88.721 Y82.296 E12.68511
G1 X89.202 Y83.129 E12.74583
G1 X89.499 Y84.044 E12.80655
G1 X89.746 Y86.393 E12.95570
G1 X110.254 Y86.393 E14.25069
G1 X110.501 Y84.044 E14.39984
G1 X110.798 Y83.129 E14.46056
G1 X111.279 Y82.296 E14.52128
G1 X111.922 Y81.582 E14.58200
G1 X112.700 Y81.017 E14.64271
G1 X113.579 Y80.626 E14.70344
G1 X114.519 Y80.426 E14.76415
G1 X115.481 Y80.426 E14.82488
G1 X116.421 Y80.626 E14.88559
G1 X117.300 Y81.017 E14.94632
G1 X118.078 Y81.582 E15.00704
G1 X118.721 Y82.296 E15.06775
G1 X119.202 Y83.129 E15.12848
G1 X119.499 Y84.044 E15.18919
G1 X119.600 Y85.000 E15.24991
G1 X119.499 Y85.956 E15.31063
G1 X119.202 Y86.871 E15.37135
G1 X118.721 Y87.704 E15.43208
G1 X118.078 Y88.418 E15.49279
G1 X117.300 Y88.983 E15.55351
G1 X116.421 Y89.375 E15.61424
G1 X115.481 Y89.574 E15.67494
G1 X113.607 Y89.574 E15.79325
G1 X113.607 Y110.426 E17.10991
G1 X115.481 Y110.426 E17.22822
G1 X116.421 Y110.626 E17.28893
G1 X117.300 Y111.017 E17.34966
G1 X118.078 Y111.582 E17.41038
G1 X118.721 Y112.296 E17.47109
G1 X119.202 Y113.129 E17.53182
G1 X119.499 Y114.044 E17.59253
G1 X119.600 Y115.000 E17.65325
G1 X119.499 Y115.956 E17.71397
G1 X119.202 Y116.871 E17.77469
G1 X118.721 Y117.704 E17.83542
G1 X118.078 Y118.418 E17.89613
G1 X117.300 Y118.984 E17.95685
G1 X116.421 Y119.374 E18.01757
G1 X115.481 Y119.574 E18.07828
G1 X114.519 Y119.574 E18.13902
G1 X113.579 Y119.374 E18.19974
G1 X112.700 Y118.984 E18.26045
G1 X111.922 Y118.418 E18.32117
G1 X111.279 Y117.704 E18.38189
G1 X110.798 Y116.871 E18.44261
G1 X110.501 Y115.956 E18.50333
G1 X110.254 Y113.607 E18.65248
G1 X89.746 Y113.607 E19.94747
G1 X89.499 Y115.956 E20.09661
G1 X89.202 Y116.871 E20.15734
G1 X88.721 Y117.704 E20.21806
G1 X88.078 Y118.418 E20.27878
G1 X87.300 Y118.984 E20.33950
G1 X86.422 Y119.374 E20.40021
G1 X85.481 Y119.574 E20.46093
G1 X84.519 Y119.574 E20.52166
G1 X83.579 Y119.374 E20.58238
G1 X82.700 Y118.984 E20.64309
G1 X81.922 Y118.418 E20.70381
G1 X81.279 Y117.704 E20.76453
G1 X80.798 Y116.871 E20.82525
G1 X80.501 Y115.956 E20.88598
G1 X80.400 Y115.000 E20.94669
G1 X80.501 Y114.044 E21.00741
G1 X80.798 Y113.129 E21.06813
G1 X81.279 Y112.296 E21.12885
G1 X81.922 Y111.582 E21.18957
G1 X82.700 Y111.017 E21.25029
G1 X83.579 Y110.626 E21.31101
G1 X84.519 Y110.426 E21.37173
G1 X86.393 Y110.426 E21.49003
G1 X86.393 Y89.574 E22.80669
G1 X84.519 Y89.574 E22.92499
G1 X83.579 Y89.375 E22.98571
G1 X82.700 Y88.983 E23.04643
G1 X81.922 Y88.418 E23.10715
G1 X81.279 Y87.704 E23.16787
G1 X80.798 Y86.871 E23.22859
G1 X80.501 Y85.956 E23.28931
G1 X80.400 Y85.000 E23.35003
G1 X80.501 Y84.044 E23.41075
G1 X80.798 Y83.129 E23.47147
G1 X81.279 Y82.296 E23.53219
G1 X81.833 Y81.681 E23.58446
G1 X81.322 Y80.915 F7800.000
G1 X82.251 Y80.239 E23.65702 F378.000
G1 X83.301 Y79.772 E23.72959
G1 X84.425 Y79.533 E23.80216
G1 X85.575 Y79.533 E23.87473
G1 X86.699 Y79.772 E23.94730
G1 X87.749 Y80.239 E24.01987
G1 X88.678 Y80.915 E24.09244
G1 X89.447 Y81.769 E24.16501
G1 X90.022 Y82.764 E24.23758
G1 X90.377 Y83.857 E24.31015
G1 X90.550 Y85.500 E24.41446
G1 X109.450 Y85.500 E25.60794
G1 X109.623 Y83.857 E25.71226
G1 X109.978 Y82.764 E25.78483
G1 X110.553 Y81.769 E25.85739
G1 X111.322 Y80.915 E25.92996
G1 X112.251 Y80.239 E26.00253
G1 X113.301 Y79.772 E26.07510
G1 X114.425 Y79.533 E26.14767
G1 X115.575 Y79.533 E26.22025
G1 X116.699 Y79.772 E26.29280
G1 X117.749 Y80.239 E26.36538
G1 X118.678 Y80.915 E26.43795
G1 X119.447 Y81.769 E26.51051
G1 X120.022 Y82.764 E26.58309
G1 X120.377 Y83.857 E26.65566
G1 X120.497 Y85.000 E26.72822
G1 X120.377 Y86.143 E26.80079
G1 X120.022 Y87.236 E26.87336
G1 X119.447 Y88.231 E26.94594
G1 X118.678 Y89.085 E27.01850
G1 X117.749 Y89.761 E27.09107
G1 X116.699 Y90.228 E27.16365
G1 X115.575 Y90.467 E27.23620
G1 X114.500 Y90.467 E27.30407
G1 X114.500 Y109.533 E28.50798
G1 X115.575 Y109.533 E28.57585
G1 X116.699 Y109.772 E28.64840
G1 X117.749 Y110.239 E28.72098
G1 X118.678 Y110.915 E28.79355
G1 X119.447 Y111.769 E28.86611
G1 X120.022 Y112.764 E28.93869
G1 X120.377 Y113.857 E29.01126
G1 X120.497 Y115.000 E29.08383
G1 X120.377 Y116.143 E29.15639
G1 X120.022 Y117.236 E29.22897
G1 X119.447 Y118.231 E29.30154
G1 X118.678 Y119.085 E29.37410
G1 X117.749 Y119.761 E29.44668
G1 X116.699 Y120.228 E29.51925
G1 X115.575 Y120.467 E29.59180
G1 X114.425 Y120.467 E29.66438
G1 X113.301 Y120.228 E29.73695
G1 X112.251 Y119.761 E29.80951
G1 X111.322 Y119.085 E29.88209
G1 X110.553 Y118.231 E29.95465
G1 X109.978 Y117.236 E30.02722
G1 X109.623 Y116.143 E30.09980
G1 X109.450 Y114.500 E30.20411
G1 X90.550 Y114.500 E31.39759
G1 X90.377 Y116.143 E31.50190
G1 X90.022 Y117.236 E31.57448
G1 X89.447 Y118.231 E31.64705
G1 X88.678 Y119.085 E31.71962
G1 X87.749 Y119.761 E31.79219
G1 X86.699 Y120.228 E31.86475
G1 X85.575 Y120.467 E31.93732
G1 X84.425 Y120.467 E32.00989
G1 X83.301 Y120.228 E32.08246
G1 X82.251 Y119.761 E32.15502
G1 X81.322 Y119.085 E32.22760
G1 X80.553 Y118.231 E32.30016
G1 X79.978 Y117.236 E32.37273
G1 X79.623 Y116.143 E32.44531
G1 X79.503 Y115.000 E32.51788
G1 X79.623 Y113.857 E32.59044
G1 X79.978 Y112.764 E32.66301
G1 X80.553 Y111.769 E32.73558
G1 X81.322 Y110.915 E32.80815
G1 X82.251 Y110.239 E32.88072
G1 X83.301 Y109.772 E32.95329
G1 X84.425 Y109.533 E33.02586
G1 X85.500 Y109.533 E33.09372
G1 X85.500 Y90.467 E34.29764
G1 X84.425 Y90.467 E34.36549
G1 X83.301 Y90.228 E34.43806
G1 X82.251 Y89.761 E34.51063
G1 X81.322 Y89.085 E34.58320
G1 X80.553 Y88.231 E34.65577
G1 X79.978 Y87.236 E34.72834
G1 X79.623 Y86.143 E34.80091
G1 X79.503 Y85.000 E34.87348
G1 X79.623 Y83.857 E34.94605
G1 X79.978 Y82.764 E35.01862
G1 X80.553 Y81.769 E35.09119
G1 X81.232 Y81.014 E35.15530
G1 X82.160 Y81.220 F7800.000
G1 X81.956 Y84.498 F7800.000
G1 X85.538 Y88.080 E35.47724 F1080.000
G1 X84.157 Y87.969 E35.56530
G1 X82.038 Y85.851 E35.75572
G1 X86.809 Y88.080 F7800.000
G1 X82.281 Y83.551 E36.16274 F1080.000
G1 X82.845 Y82.845 E36.22020
G1 X117.155 Y117.155 E39.30408
G1 X116.453 Y117.724 E39.36149
G1 X111.689 Y112.960 E39.78971
G1 X111.838 Y114.380 E39.88046
G1 X115.500 Y118.042 E40.20962
G1 X114.157 Y117.969 E40.29514
G1 X112.038 Y115.851 E40.48555
G1 X113.191 Y111.921 F7800.000
G1 X117.719 Y116.449 E40.89257 F1080.000
G1 X118.044 Y115.502 E40.95616
G1 X114.462 Y111.921 E41.27810
G1 X115.843 Y112.031 E41.36616
G1 X117.962 Y114.150 E41.55658
G1 X112.112 Y110.842 F7800.000
G1 X83.547 Y82.276 E44.12418 F1080.000
G1 X84.500 Y81.958 E44.18802
G1 X88.162 Y85.620 E44.51718
G1 X87.962 Y84.149 E44.61152
G1 X85.843 Y82.031 E44.80193
G1 X87.888 Y89.158 F7800.000
G1 X110.842 Y112.112 E46.86515 F1080.000
G1 X109.571 Y112.112 E46.94591
G1 X87.888 Y90.429 E48.89490
G1 X87.888 Y91.700 E48.97567
G1 X108.300 Y112.112 E50.81044
G1 X107.029 Y112.112 E50.89120
G1 X87.888 Y92.971 E52.61176
G1 X87.888 Y94.241 E52.69253
G1 X105.759 Y112.112 E54.29887
G1 X104.488 Y112.112 E54.37963
G1 X87.888 Y95.512 E55.87175
G1 X87.888 Y96.783 E55.95252
G1 X103.217 Y112.112 E57.33042
G1 X101.947 Y112.112 E57.41118
G1 X87.888 Y98.053 E58.67487
G1 X87.888 Y99.324 E58.75563
G1 X100.676 Y112.112 E59.90510
G1 X99.405 Y112.112 E59.98587
G1 X87.888 Y100.595 E61.02112
G1 X87.888 Y101.866 E61.10188
G1 X98.134 Y112.112 E62.02292
G1 X96.864 Y112.112 E62.10368
G1 X87.888 Y103.136 E62.91050
G1 X87.888 Y104.407 E62.99126
G1 X95.593 Y112.112 E63.68386
G1 X94.322 Y112.112 E63.76462
G1 X87.888 Y105.678 E64.34300
G1 X87.888 Y106.948 E64.42377
G1 X93.052 Y112.112 E64.88793
G1 X91.781 Y112.112 E64.96869
G1 X87.888 Y108.219 E65.31864
G1 X87.888 Y109.490 E65.39940
G1 X90.510 Y112.112 E65.63513
G1 X89.239 Y112.112 E65.71589
G1 X87.888 Y110.761 E65.83740
G1 X87.777 Y111.921 E65.91147
G1 X88.359 Y112.503 E65.96378
G1 X88.238 Y113.652 E66.03726
G1 X86.506 Y111.921 E66.19292
G1 X85.236 Y111.921 E66.27369
G1 X88.117 Y114.802 E66.53270
G1 X87.945 Y115.901 E66.60339
G1 X84.090 Y112.045 E66.94995
G1 X83.243 Y112.470 E67.01012
G1 X87.538 Y116.764 E67.39610
G1 X86.917 Y117.414 E67.45322
G1 X82.584 Y113.081 E67.84267
G1 X82.123 Y113.890 E67.90188
G1 X86.109 Y117.877 E68.26022
G1 X85.041 Y118.079 E68.32934
G1 X81.909 Y114.948 E68.61083
G1 X82.473 Y116.783 E68.73284
G1 X83.162 Y117.471 E68.79471
G1 X90.429 Y87.888 F7800.000
G1 X112.112 Y109.571 E70.74370 F1080.000
G1 X112.112 Y108.300 E70.82446
G1 X91.700 Y87.888 E72.65924
G1 X92.971 Y87.888 E72.74000
G1 X112.112 Y107.030 E74.46055
G1 X112.112 Y105.759 E74.54132
G1 X94.241 Y87.888 E76.14765
G1 X95.512 Y87.888 E76.22842
G1 X112.112 Y104.488 E77.72054
G1 X112.112 Y103.217 E77.80130
G1 X96.783 Y87.888 E79.17920
G1 X98.053 Y87.888 E79.25997
G1 X112.112 Y101.947 E80.52365
G1 X112.112 Y100.676 E80.60442
G1 X99.324 Y87.888 E81.75388
G1 X100.595 Y87.888 E81.83465
G1 X112.112 Y99.405 E82.86989
G1 X112.112 Y98.135 E82.95066
G1 X101.866 Y87.888 E83.87169
G1 X103.136 Y87.888 E83.95245
G1 X112.112 Y96.864 E84.75927
G1 X112.112 Y95.593 E84.84003
