; generated by Slic3r 1.0.0RC2 on 2014-12-15 at 01:30:04

; layer_height = 0.4
; perimeters = 3
; top_solid_layers = 3
; bottom_solid_layers = 3
; fill_density = 0.2
; perimeter_speed = 30
; infill_speed = 60
; travel_speed = 130
; nozzle_diameter = 0.5
; filament_diameter = 3
; extrusion_multiplier = 1
; perimeters extrusion width = 0.50mm
; infill extrusion width = 0.53mm
; solid infill extrusion width = 0.53mm
; top infill extrusion width = 0.53mm
; first layer extrusion width = 1.00mm

G21 ; set units to millimeters
M107
M104 S200 ; set temperature
G28 ; home all axes
G1 Z5 F5000 ; lift nozzle
M109 S200 ; wait for temperature to be reached
G90 ; use absolute coordinates
G92 E0
M82 ; use absolute distances for extrusion
G1 F1800.000 E-1.00000
G92 E0
G1 Z0.500 F7800.000
G1 X76.200 Y75.590 F7800.000
G1 E1.00000 F1800.000
G1 X76.930 Y74.950 E1.06130 F540.000
G1 X77.610 Y74.440 E1.11498
G1 X78.440 Y73.900 E1.17750
G1 X79.190 Y73.490 E1.23148
G1 X80.080 Y73.090 E1.29309
G1 X80.880 Y72.790 E1.34704
G1 X81.860 Y72.500 E1.41158
G1 X82.700 Y72.320 E1.46583
G1 X83.660 Y72.180 E1.52709
G1 X84.520 Y72.120 E1.58152
G1 X85.000 Y72.110 E1.61184
G1 X115.000 Y72.110 E3.50621
G1 X115.480 Y72.120 E3.53652
G1 X116.340 Y72.180 E3.59096
G1 X117.320 Y72.320 E3.65347
G1 X118.150 Y72.500 E3.70710
G1 X119.110 Y72.790 E3.77043
G1 X119.910 Y73.090 E3.82438
G1 X120.800 Y73.490 E3.88599
G1 X121.550 Y73.900 E3.93997
G1 X122.380 Y74.440 E4.00249
G1 X123.060 Y74.950 E4.05617
G1 X123.790 Y75.590 E4.11747
G1 X124.400 Y76.200 E4.17194
G1 X125.040 Y76.930 E4.23325
G1 X125.550 Y77.610 E4.28692
G1 X126.090 Y78.440 E4.34945
G1 X126.500 Y79.190 E4.40342
G1 X126.900 Y80.080 E4.46503
G1 X127.200 Y80.880 E4.51899
G1 X127.490 Y81.860 E4.58352
G1 X127.670 Y82.700 E4.63777
G1 X127.800 Y83.570 E4.69331
G1 X127.870 Y84.420 E4.74717
G1 X127.890 Y84.990 E4.78319
G1 X127.890 Y115.000 E6.67818
G1 X127.870 Y115.570 E6.71420
G1 X127.800 Y116.420 E6.76805
G1 X127.670 Y117.290 E6.82360
G1 X127.490 Y118.130 E6.87785
G1 X127.200 Y119.110 E6.94238
G1 X126.900 Y119.910 E6.99633
G1 X126.500 Y120.800 E7.05795
G1 X126.090 Y121.550 E7.11192
G1 X125.550 Y122.380 E7.17445
G1 X125.040 Y123.060 E7.22812
G1 X124.400 Y123.790 E7.28943
G1 X123.790 Y124.400 E7.34390
G1 X123.060 Y125.040 E7.40520
G1 X122.380 Y125.550 E7.45888
G1 X121.550 Y126.090 E7.52140
G1 X120.800 Y126.500 E7.57538
G1 X119.910 Y126.900 E7.63699
G1 X119.110 Y127.200 E7.69094
G1 X118.130 Y127.490 E7.75548
G1 X117.290 Y127.670 E7.80972
G1 X116.420 Y127.800 E7.86527
G1 X115.570 Y127.870 E7.91913
G1 X115.000 Y127.890 E7.95514
G1 X85.000 Y127.890 E9.84951
G1 X84.440 Y127.870 E9.88489
G1 X83.580 Y127.800 E9.93938
G1 X82.700 Y127.670 E9.99555
G1 X81.860 Y127.490 E10.04979
G1 X80.880 Y127.200 E10.11433
G1 X80.080 Y126.900 E10.16828
G1 X79.190 Y126.500 E10.22990
G1 X78.440 Y126.090 E10.28387
G1 X77.610 Y125.550 E10.34640
G1 X76.930 Y125.040 E10.40007
G1 X76.200 Y124.400 E10.46137
G1 X75.590 Y123.790 E10.51585
G1 X74.950 Y123.060 E10.57715
G1 X74.440 Y122.380 E10.63082
G1 X73.900 Y121.550 E10.69335
G1 X73.490 Y120.800 E10.74732
G1 X73.090 Y119.910 E10.80894
G1 X72.790 Y119.110 E10.86289
G1 X72.500 Y118.130 E10.92743
G1 X72.320 Y117.290 E10.98167
G1 X72.180 Y116.340 E11.04231
G1 X72.120 Y115.490 E11.09612
G1 X72.110 Y115.000 E11.12706
G1 X72.110 Y85.000 E13.02143
G1 X72.120 Y84.520 E13.05175
G1 X72.180 Y83.660 E13.10618
G1 X72.320 Y82.700 E13.16744
G1 X72.500 Y81.860 E13.22169
G1 X72.790 Y80.880 E13.28623
G1 X73.090 Y80.080 E13.34018
G1 X73.490 Y79.190 E13.40179
G1 X73.900 Y78.440 E13.45577
G1 X74.440 Y77.610 E13.51829
G1 X74.950 Y76.930 E13.57197
G1 X75.590 Y76.200 E13.63327
G1 X76.105 Y75.685 E13.67929
G1 F1800.000 E12.67929
G92 E0
G1 X82.571 Y82.197 F7800.000
G1 E1.00000 F1800.000
G1 X82.995 Y81.880 E1.03341 F540.000
G1 X83.459 Y81.626 E1.06683
G1 X83.955 Y81.441 E1.10024
G1 X84.472 Y81.329 E1.13366
G1 X85.000 Y81.291 E1.16707
G1 X85.528 Y81.329 E1.20048
G1 X86.045 Y81.441 E1.23390
G1 X86.541 Y81.626 E1.26731
G1 X87.005 Y81.880 E1.30073
G1 X87.429 Y82.197 E1.33414
G1 X87.803 Y82.571 E1.36756
G1 X88.120 Y82.995 E1.40097
G1 X88.374 Y83.459 E1.43438
G1 X88.559 Y83.955 E1.46780
G1 X88.671 Y84.472 E1.50121
G1 X88.872 Y87.285 E1.67931
G1 X111.128 Y87.285 E3.08465
G1 X111.329 Y84.472 E3.26274
G1 X111.441 Y83.955 E3.29616
G1 X111.626 Y83.459 E3.32957
G1 X111.880 Y82.995 E3.36299
G1 X112.197 Y82.571 E3.39640
G1 X112.571 Y82.197 E3.42981
G1 X112.995 Y81.880 E3.46323
G1 X113.459 Y81.626 E3.49664
G1 X113.955 Y81.441 E3.53006
G1 X114.472 Y81.329 E3.56347
G1 X115.000 Y81.291 E3.59688
G1 X115.528 Y81.329 E3.63030
G1 X116.045 Y81.441 E3.66371
G1 X116.541 Y81.626 E3.69713
G1 X117.005 Y81.880 E3.73054
G1 X117.429 Y82.197 E3.76396
G1 X117.803 Y82.571 E3.79737
G1 X118.120 Y82.995 E3.83078
G1 X118.374 Y83.459 E3.86420
G1 X118.559 Y83.955 E3.89761
G1 X118.671 Y84.472 E3.93103
G1 X118.709 Y85.000 E3.96444
G1 X118.671 Y85.528 E3.99785
G1 X118.559 Y86.045 E4.03127
G1 X118.374 Y86.541 E4.06468
G1 X118.120 Y87.005 E4.09810
G1 X117.803 Y87.429 E4.13151
G1 X117.429 Y87.803 E4.16492
G1 X117.005 Y88.120 E4.19834
G1 X116.541 Y88.374 E4.23175
G1 X116.045 Y88.559 E4.26517
G1 X115.528 Y88.671 E4.29858
G1 X112.715 Y88.872 E4.47668
G1 X112.715 Y111.128 E5.88202
G1 X115.528 Y111.329 E6.06011
G1 X116.045 Y111.441 E6.09353
G1 X116.541 Y111.626 E6.12694
G1 X117.005 Y111.880 E6.16035
G1 X117.429 Y112.197 E6.19377
G1 X117.803 Y112.571 E6.22718
G1 X118.120 Y112.995 E6.26060
G1 X118.374 Y113.459 E6.29401
G1 X118.559 Y113.955 E6.32743
G1 X118.671 Y114.472 E6.36084
G1 X118.709 Y115.000 E6.39425
G1 X118.671 Y115.528 E6.42767
G1 X118.559 Y116.045 E6.46108
G1 X118.374 Y116.541 E6.49450
G1 X118.120 Y117.005 E6.52791
G1 X117.803 Y117.429 E6.56132
G1 X117.429 Y117.803 E6.59474
G1 X117.005 Y118.120 E6.62815
G1 X116.541 Y118.374 E6.66157
G1 X116.045 Y118.559 E6.69498
G1 X115.528 Y118.671 E6.72839
G1 X115.000 Y118.709 E6.76181
G1 X114.472 Y118.671 E6.79522
G1 X113.955 Y118.559 E6.82864
G1 X113.459 Y118.374 E6.86205
G1 X112.995 Y118.120 E6.89547
G1 X112.571 Y117.803 E6.92888
G1 X112.197 Y117.429 E6.96229
G1 X111.880 Y117.005 E6.99571
G1 X111.626 Y116.541 E7.02912
G1 X111.441 Y116.045 E7.06254
G1 X111.329 Y115.528 E7.09595
G1 X111.128 Y112.715 E7.27405
G1 X88.872 Y112.715 E8.67939
G1 X88.671 Y115.528 E8.85748
G1 X88.559 Y116.045 E8.89090
G1 X88.374 Y116.541 E8.92431
G1 X88.120 Y117.005 E8.95772
G1 X87.803 Y117.429 E8.99114
G1 X87.429 Y117.803 E9.02455
G1 X87.005 Y118.120 E9.05797
G1 X86.541 Y118.374 E9.09138
G1 X86.045 Y118.559 E9.12479
G1 X85.528 Y118.671 E9.15821
G1 X85.000 Y118.709 E9.19162
G1 X84.472 Y118.671 E9.22504
G1 X83.955 Y118.559 E9.25845
G1 X83.459 Y118.374 E9.29186
G1 X82.995 Y118.120 E9.32528
G1 X82.571 Y117.803 E9.35869
G1 X82.197 Y117.429 E9.39211
G1 X81.880 Y117.005 E9.42552
G1 X81.626 Y116.541 E9.45894
G1 X81.441 Y116.045 E9.49235
G1 X81.329 Y115.528 E9.52576
G1 X81.291 Y115.000 E9.55918
G1 X81.329 Y114.472 E9.59259
G1 X81.441 Y113.955 E9.62601
G1 X81.626 Y113.459 E9.65942
G1 X81.880 Y112.995 E9.69283
G1 X82.197 Y112.571 E9.72625
G1 X82.571 Y112.197 E9.75966
G1 X82.995 Y111.880 E9.79308
G1 X83.459 Y111.626 E9.82649
G1 X83.955 Y111.441 E9.85990
G1 X84.472 Y111.329 E9.89332
G1 X87.285 Y111.128 E10.07141
G1 X87.285 Y88.872 E11.47675
G1 X84.472 Y88.671 E11.65485
G1 X83.955 Y88.559 E11.68826
G1 X83.459 Y88.374 E11.72168
G1 X82.995 Y88.120 E11.75509
G1 X82.571 Y87.803 E11.78851
G1 X82.197 Y87.429 E11.82192
G1 X81.880 Y87.005 E11.85534
G1 X81.626 Y86.541 E11.88875
G1 X81.441 Y86.045 E11.92216
G1 X81.329 Y85.528 E11.95558
G1 X81.291 Y85.000 E11.98899
G1 X81.329 Y84.472 E12.02241
G1 X81.441 Y83.955 E12.05582
G1 X81.626 Y83.459 E12.08923
G1 X81.880 Y82.995 E12.12265
G1 X82.197 Y82.571 E12.15606
G1 X82.477 Y82.292 E12.18102
G1 X81.985 Y81.521 F7800.000
G1 X82.511 Y81.127 E12.22250 F540.000
G1 X83.088 Y80.812 E12.26398
G1 X83.703 Y80.583 E12.30545
G1 X84.345 Y80.443 E12.34693
G1 X85.000 Y80.396 E12.38841
G1 X85.655 Y80.443 E12.42989
G1 X86.297 Y80.583 E12.47136
G1 X86.912 Y80.812 E12.51284
G1 X87.489 Y81.127 E12.55432
G1 X88.015 Y81.521 E12.59580
G1 X88.479 Y81.985 E12.63727
G1 X88.873 Y82.511 E12.67875
G1 X89.188 Y83.088 E12.72023
G1 X89.417 Y83.703 E12.76171
G1 X89.557 Y84.345 E12.80318
G1 X89.703 Y86.393 E12.93283
G1 X110.297 Y86.393 E14.23320
G1 X110.443 Y84.345 E14.36285
G1 X110.583 Y83.703 E14.40432
G1 X110.812 Y83.088 E14.44580
G1 X111.127 Y82.511 E14.48728
G1 X111.521 Y81.985 E14.52876
G1 X111.985 Y81.521 E14.57024
G1 X112.511 Y81.127 E14.61171
G1 X113.088 Y80.812 E14.65319
G1 X113.703 Y80.583 E14.69467
G1 X114.345 Y80.443 E14.73614
G1 X115.000 Y80.396 E14.77762
G1 X115.655 Y80.443 E14.81910
G1 X116.297 Y80.583 E14.86058
G1 X116.912 Y80.812 E14.90205
G1 X117.489 Y81.127 E14.94353
G1 X118.015 Y81.521 E14.98501
G1 X118.479 Y81.985 E15.02649
G1 X118.873 Y82.511 E15.06796
G1 X119.188 Y83.088 E15.10944
G1 X119.417 Y83.703 E15.15092
G1 X119.557 Y84.345 E15.19240
G1 X119.604 Y85.000 E15.23387
G1 X119.557 Y85.655 E15.27535
G1 X119.417 Y86.297 E15.31683
G1 X119.188 Y86.912 E15.35831
G1 X118.873 Y87.489 E15.39978
G1 X118.479 Y88.015 E15.44126
G1 X118.015 Y88.479 E15.48274
G1 X117.489 Y88.873 E15.52422
G1 X116.912 Y89.188 E15.56569
G1 X116.297 Y89.417 E15.60717
G1 X115.655 Y89.557 E15.64865
G1 X113.607 Y89.703 E15.77829
G1 X113.607 Y110.297 E17.07867
G1 X115.655 Y110.443 E17.20831
G1 X116.297 Y110.583 E17.24979
G1 X116.912 Y110.812 E17.29127
G1 X117.489 Y111.127 E17.33275
G1 X118.015 Y111.521 E17.37422
G1 X118.479 Y111.985 E17.41570
G1 X118.873 Y112.511 E17.45718
G1 X119.188 Y113.088 E17.49866
G1 X119.417 Y113.703 E17.54013
G1 X119.557 Y114.345 E17.58161
G1 X119.604 Y115.000 E17.62309
G1 X119.557 Y115.655 E17.66457
G1 X119.417 Y116.297 E17.70604
G1 X119.188 Y116.912 E17.74752
G1 X118.873 Y117.489 E17.78900
G1 X118.479 Y118.015 E17.83047
G1 X118.015 Y118.479 E17.87195
G1 X117.489 Y118.873 E17.91343
G1 X116.912 Y119.188 E17.95491
G1 X116.297 Y119.417 E17.99639
G1 X115.655 Y119.557 E18.03786
G1 X115.000 Y119.604 E18.07934
G1 X114.345 Y119.557 E18.12082
G1 X113.703 Y119.417 E18.16229
G1 X113.088 Y119.188 E18.20377
G1 X112.511 Y118.873 E18.24525
G1 X111.985 Y118.479 E18.28673
G1 X111.521 Y118.015 E18.32820
G1 X111.127 Y117.489 E18.36968
G1 X110.812 Y116.912 E18.41116
G1 X110.583 Y116.297 E18.45264
G1 X110.443 Y115.655 E18.49411
G1 X110.297 Y113.607 E18.62376
G1 X89.703 Y113.607 E19.92413
G1 X89.557 Y115.655 E20.05378
G1 X89.417 Y116.297 E20.09526
G1 X89.188 Y116.912 E20.13673
G1 X88.873 Y117.489 E20.17821
G1 X88.479 Y118.015 E20.21969
G1 X88.015 Y118.479 E20.26117
G1 X87.489 Y118.873 E20.30264
G1 X86.912 Y119.188 E20.34412
G1 X86.297 Y119.417 E20.38560
G1 X85.655 Y119.557 E20.42708
G1 X85.000 Y119.604 E20.46855
G1 X84.345 Y119.557 E20.51003
G1 X83.703 Y119.417 E20.55151
G1 X83.088 Y119.188 E20.59299
G1 X82.511 Y118.873 E20.63446
G1 X81.985 Y118.479 E20.67594
G1 X81.521 Y118.015 E20.71742
G1 X81.127 Y117.489 E20.75890
G1 X80.812 Y116.912 E20.80037
G1 X80.583 Y116.297 E20.84185
G1 X80.443 Y115.655 E20.88333
G1 X80.396 Y115.000 E20.92481
G1 X80.443 Y114.345 E20.96628
G1 X80.583 Y113.703 E21.00776
G1 X80.812 Y113.088 E21.04924
G1 X81.127 Y112.511 E21.09072
G1 X81.521 Y111.985 E21.13219
G1 X81.985 Y111.521 E21.17367
G1 X82.511 Y111.127 E21.21515
G1 X83.088 Y110.812 E21.25662
G1 X83.703 Y110.583 E21.29810
G1 X84.345 Y110.443 E21.33958
G1 X86.393 Y110.297 E21.46923
G1 X86.393 Y89.703 E22.76960
G1 X84.345 Y89.557 E22.89925
G1 X83.703 Y89.417 E22.94072
G1 X83.088 Y89.188 E22.98220
G1 X82.511 Y88.873 E23.02368
G1 X81.985 Y88.479 E23.06516
G1 X81.521 Y88.015 E23.10663
G1 X81.127 Y87.489 E23.14811
G1 X80.812 Y86.912 E23.18959
G1 X80.583 Y86.297 E23.23106
G1 X80.443 Y85.655 E23.27254
G1 X80.396 Y85.000 E23.31402
G1 X80.443 Y84.345 E23.35550
G1 X80.583 Y83.703 E23.39698
G1 X80.812 Y83.088 E23.43845
G1 X81.127 Y82.511 E23.47993
G1 X81.521 Y81.985 E23.52141
G1 X81.890 Y81.615 E23.55443
G1 X81.399 Y80.844 F7800.000
G1 X82.027 Y80.374 E23.60397 F378.000
G1 X82.716 Y79.998 E23.65351
G1 X83.451 Y79.724 E23.70305
G1 X84.217 Y79.557 E23.75259
G1 X85.000 Y79.501 E23.80213
G1 X85.783 Y79.557 E23.85167
G1 X86.549 Y79.724 E23.90121
G1 X87.284 Y79.998 E23.95076
G1 X87.973 Y80.374 E24.00030
G1 X88.601 Y80.844 E24.04984
G1 X89.156 Y81.399 E24.09938
G1 X89.626 Y82.027 E24.14892
G1 X90.002 Y82.716 E24.19846
G1 X90.276 Y83.451 E24.24800
G1 X90.443 Y84.217 E24.29754
G1 X90.534 Y85.500 E24.37873
G1 X109.466 Y85.500 E25.57415
G1 X109.557 Y84.217 E25.65534
G1 X109.724 Y83.451 E25.70488
G1 X109.998 Y82.716 E25.75442
G1 X110.374 Y82.027 E25.80396
G1 X110.844 Y81.399 E25.85350
G1 X111.399 Y80.844 E25.90304
G1 X112.027 Y80.374 E25.95258
G1 X112.716 Y79.998 E26.00213
G1 X113.451 Y79.724 E26.05167
G1 X114.217 Y79.557 E26.10121
G1 X115.000 Y79.501 E26.15075
G1 X115.783 Y79.557 E26.20029
G1 X116.549 Y79.724 E26.24983
G1 X117.284 Y79.998 E26.29937
G1 X117.973 Y80.374 E26.34891
G1 X118.601 Y80.844 E26.39845
G1 X119.156 Y81.399 E26.44799
G1 X119.626 Y82.027 E26.49753
G1 X120.002 Y82.716 E26.54707
G1 X120.276 Y83.451 E26.59661
G1 X120.443 Y84.217 E26.64615
G1 X120.499 Y85.000 E26.69570
G1 X120.443 Y85.783 E26.74524
G1 X120.276 Y86.549 E26.79478
G1 X120.002 Y87.284 E26.84432
G1 X119.626 Y87.973 E26.89386
G1 X119.156 Y88.601 E26.94340
G1 X118.601 Y89.156 E26.99294
G1 X117.973 Y89.626 E27.04248
G1 X117.284 Y90.002 E27.09202
G1 X116.549 Y90.276 E27.14156
G1 X115.783 Y90.443 E27.19110
G1 X114.500 Y90.534 E27.27230
G1 X114.500 Y109.466 E28.46771
G1 X115.783 Y109.557 E28.54890
G1 X116.549 Y109.724 E28.59844
G1 X117.284 Y109.998 E28.64798
G1 X117.973 Y110.374 E28.69752
G1 X118.601 Y110.844 E28.74706
G1 X119.156 Y111.399 E28.79661
G1 X119.626 Y112.027 E28.84615
G1 X120.002 Y112.716 E28.89569
G1 X120.276 Y113.451 E28.94523
G1 X120.443 Y114.217 E28.99477
G1 X120.499 Y115.000 E29.04431
G1 X120.443 Y115.783 E29.09385
G1 X120.276 Y116.549 E29.14339
G1 X120.002 Y117.284 E29.19293
G1 X119.626 Y117.973 E29.24247
G1 X119.156 Y118.601 E29.29201
G1 X118.601 Y119.156 E29.34155
G1 X117.973 Y119.626 E29.39110
G1 X117.284 Y120.002 E29.44064
G1 X116.549 Y120.276 E29.49018
G1 X115.783 Y120.443 E29.53972
G1 X115.000 Y120.499 E29.58926
G1 X114.217 Y120.443 E29.63880
G1 X113.451 Y120.276 E29.68834
G1 X112.716 Y120.002 E29.73788
G1 X112.027 Y119.626 E29.78742
G1 X111.399 Y119.156 E29.83696
G1 X110.844 Y118.601 E29.88650
G1 X110.374 Y117.973 E29.93604
G1 X109.998 Y117.284 E29.98558
G1 X109.724 Y116.549 E30.03513
G1 X109.557 Y115.783 E30.08467
G1 X109.466 Y114.500 E30.16586
G1 X90.534 Y114.500 E31.36127
G1 X90.443 Y115.783 E31.44247
G1 X90.276 Y116.549 E31.49201
G1 X90.002 Y117.284 E31.54155
G1 X89.626 Y117.973 E31.59109
G1 X89.156 Y118.601 E31.64063
G1 X88.601 Y119.156 E31.69017
G1 X87.973 Y119.626 E31.73971
G1 X87.284 Y120.002 E31.78925
G1 X86.549 Y120.276 E31.83879
G1 X85.783 Y120.443 E31.88833
G1 X85.000 Y120.499 E31.93787
G1 X84.217 Y120.443 E31.98741
G1 X83.451 Y120.276 E32.03695
G1 X82.716 Y120.002 E32.08649
G1 X82.027 Y119.626 E32.13604
G1 X81.399 Y119.156 E32.18558
G1 X80.844 Y118.601 E32.23512
G1 X80.374 Y117.973 E32.28466
G1 X79.998 Y117.284 E32.33420
G1 X79.724 Y116.549 E32.38374
G1 X79.557 Y115.783 E32.43328
G1 X79.501 Y115.000 E32.48282
G1 X79.557 Y114.217 E32.53236
G1 X79.724 Y113.451 E32.58190
G1 X79.998 Y112.716 E32.63144
G1 X80.374 Y112.027 E32.68098
G1 X80.844 Y111.399 E32.73052
G1 X81.399 Y110.844 E32.78007
G1 X82.027 Y110.374 E32.82961
G1 X82.716 Y109.998 E32.87915
G1 X83.451 Y109.724 E32.92869
G1 X84.217 Y109.557 E32.97823
G1 X85.500 Y109.466 E33.05942
G1 X85.500 Y90.534 E34.25483
G1 X84.217 Y90.443 E34.33603
G1 X83.451 Y90.276 E34.38557
G1 X82.716 Y90.002 E34.43511
G1 X82.027 Y89.626 E34.48465
G1 X81.399 Y89.156 E34.53419
G1 X80.844 Y88.601 E34.58373
G1 X80.374 Y87.973 E34.63327
G1 X79.998 Y87.284 E34.68281
G1 X79.724 Y86.549 E34.73235
G1 X79.557 Y85.783 E34.78189
G1 X79.501 Y85.000 E34.83143
G1 X79.557 Y84.217 E34.88098
G1 X79.724 Y83.451 E34.93052
G1 X79.998 Y82.716 E34.98006
G1 X80.374 Y82.027 E35.02960
G1 X80.844 Y81.399 E35.07914
G1 X81.304 Y80.939 E35.12022
G1 X82.134 Y81.119 F7800.000
