; generated by Slic3r 1.2.6 on 2015-04-09 at 17:24:14

; external perimeters extrusion width = 0.50mm
; perimeters extrusion width = 0.50mm
; infill extrusion width = 0.50mm
; solid infill extrusion width = 0.50mm
; top infill extrusion width = 0.50mm

M104 S190 ; set temperature
G28 ; home all axes
G1 Z15 F120 ; lift nozzle
M109 S190 ; wait for temperature to be reached
G21 ; set units to millimeters
G90 ; use absolute coordinates
M82 ; use absolute distances for extrusion
G92 E0
M106 S102
G1 E-2.00000 F1680.00000
G92 E0
G1 Z0.350 F12000.000
G1 X44.133 Y43.531 F12000.000
G1 E2.00000 F1680.00000
G1 X67.722 Y19.616 E2.94564 F1200.000
G1 X80.020 Y7.271 E3.43620
G1 X81.872 Y5.975 E3.49984
G1 X84.058 Y5.398 E3.56347
G1 X86.308 Y5.613 E3.62710
G1 X89.120 Y7.251 E3.71872 F1200.000
G1 X149.548 Y67.412 E6.11920
G1 X151.579 Y69.533 E6.20190
G1 X152.124 Y70.184 E6.22578
G1 X153.799 Y72.476 E6.30570
G1 X154.149 Y73.008 E6.32364
G1 X154.823 Y74.153 E6.36105
G1 X155.058 Y74.590 E6.37501
G1 X155.643 Y75.786 E6.41250
G1 X155.903 Y76.395 E6.43112
G1 X157.002 Y79.386 E6.52082
G1 X157.166 Y79.896 E6.53591
G1 X157.439 Y80.887 E6.56485
G1 X157.590 Y81.585 E6.58496
G1 X157.754 Y82.616 E6.61435
G1 X157.830 Y83.415 E6.63693
G1 X157.937 Y86.651 E6.72808
G1 X157.914 Y89.254 E6.80137
G1 X157.883 Y89.818 E6.81728
G1 X157.719 Y91.468 E6.86395
G1 X157.543 Y92.454 E6.89214
G1 X157.137 Y94.013 E6.93749
G1 X156.910 Y94.716 E6.95829
G1 X155.494 Y98.351 E7.06812
G1 X134.402 Y145.782 E8.52948
G1 X134.102 Y146.372 E8.54809
G1 X133.080 Y148.152 E8.60588
G1 X132.619 Y148.847 E8.62935
G1 X131.319 Y150.554 E8.68976
G1 X130.895 Y151.055 E8.70823
G1 X129.200 Y152.864 E8.77802
G1 X127.606 Y154.413 E8.84060
G1 X126.185 Y155.621 E8.89310
G1 X125.555 Y156.085 E8.91512
G1 X124.465 Y156.790 E8.95167
G1 X123.950 Y157.090 E8.96844
G1 X122.232 Y157.976 E9.02288
G1 X120.213 Y158.892 E9.08530
G1 X119.646 Y159.118 E9.10248
G1 X117.816 Y159.747 E9.15696
G1 X117.089 Y159.950 E9.17819
G1 X115.242 Y160.351 E9.23140
G1 X114.584 Y160.458 E9.25017
G1 X112.335 Y160.705 E9.31388
G1 X65.099 Y164.592 E10.64814
G1 X64.592 Y164.614 E10.66242
G1 X61.822 Y164.623 E10.74040
G1 X60.932 Y164.564 E10.76553
G1 X58.226 Y164.195 E10.84241
G1 X57.365 Y164.017 E10.86717
G1 X54.754 Y163.288 E10.94349
G1 X53.930 Y162.996 E10.96808
G1 X51.444 Y161.921 E11.04433
G1 X50.676 Y161.526 E11.06865
G1 X48.345 Y160.121 E11.14527
G1 X47.641 Y159.630 E11.16942
G1 X45.497 Y157.911 E11.24678
G1 X44.871 Y157.337 E11.27071
G1 X42.942 Y155.319 E11.34930
G1 X42.399 Y154.671 E11.37309
G1 X40.717 Y152.371 E11.45331
G1 X40.364 Y151.833 E11.47142
G1 X39.688 Y150.683 E11.50898
G1 X39.456 Y150.252 E11.52277
G1 X38.845 Y149.003 E11.56190
G1 X14.298 Y97.808 E13.16024
G1 X14.025 Y97.147 E13.18037
G1 X13.186 Y94.744 E13.25203
G1 X12.967 Y93.963 E13.27486
G1 X12.430 Y91.441 E13.34745
G1 X12.314 Y90.669 E13.36942
G1 X12.084 Y88.077 E13.44267
G1 X12.063 Y87.294 E13.46473
G1 X12.150 Y84.681 E13.53833
G1 X12.226 Y83.885 E13.56084
G1 X12.637 Y81.299 E13.63456
G1 X12.820 Y80.489 E13.65795
G1 X13.560 Y77.980 E13.73159
G1 X13.809 Y77.286 E13.75234
G1 X14.665 Y75.269 E13.81402
G1 X15.010 Y74.575 E13.83584
G1 X16.029 Y72.803 E13.89339
G1 X16.487 Y72.113 E13.91672
G1 X17.782 Y70.412 E13.97690
G1 X18.206 Y69.910 E13.99538
G1 X20.008 Y67.990 E14.06952
G1 X44.081 Y43.584 E15.03457
G1 E13.03457 F1680.00000
G92 E0
G1 X84.296 Y106.310 F12000.000
G1 E2.00000 F1680.00000
G1 X85.141 Y106.084 E2.02275 F900.000
G1 X85.386 Y106.018 E2.02937 F900.000
G1 X86.477 Y106.310 E2.05874
G1 X87.274 Y107.107 E2.08811
G1 X87.566 Y108.197 E2.11748
G1 X87.274 Y109.288 E2.14685
G1 X86.477 Y110.085 E2.17622
G1 X85.386 Y110.377 E2.20559
G1 X84.296 Y110.085 E2.23496
G1 X83.499 Y109.288 E2.26433
G1 X83.207 Y108.197 E2.29370
G1 X83.499 Y107.107 E2.32307
G1 X84.243 Y106.363 E2.35049
G1 X84.505 Y106.671 F12000.000
G1 X85.245 Y106.474 E2.37042 F900.000
G1 X85.386 Y106.436 E2.37424 F900.000
G1 X86.268 Y106.671 E2.39798
G1 X86.913 Y107.316 E2.42172
G1 X87.148 Y108.197 E2.44547
G1 X86.913 Y109.079 E2.46921
G1 X86.268 Y109.724 E2.49295
G1 X85.386 Y109.959 E2.51670
G1 X84.505 Y109.724 E2.54044
G1 X83.860 Y109.079 E2.56418
G1 X83.625 Y108.197 E2.58793
G1 X83.860 Y107.316 E2.61167
G1 X84.452 Y106.724 E2.63346
G1 X84.549 Y106.173 F12000.000
G1 X65.657 Y88.816 F12000.000
G1 X65.540 Y87.490 E2.66809 F900.000
G1 X65.624 Y84.958 E2.73405
G1 X66.022 Y82.454 E2.80004
G1 X66.740 Y80.021 E2.86606
G1 X67.566 Y78.075 E2.92109
G1 X68.544 Y76.374 E2.97217
G1 X69.793 Y74.733 E3.02585
G1 X71.446 Y72.968 E3.08878
G1 X72.778 Y71.685 E3.13692
G1 X73.804 Y70.828 E3.17171
G1 X74.831 Y70.164 E3.20356
G1 X76.179 Y69.459 E3.24315
G1 X78.145 Y68.567 E3.29935
G1 X79.902 Y67.963 E3.34769
G1 X81.671 Y67.579 E3.39482
G1 X83.664 Y67.359 E3.44702
G1 X86.344 Y67.351 E3.51678
G1 X88.706 Y67.672 E3.57881
G1 X88.950 Y67.705 E3.58522 F900.000
G1 X91.464 Y68.408 E3.65317
G1 X93.860 Y69.443 E3.72110
G1 X96.106 Y70.798 E3.78937
G1 X98.174 Y72.455 E3.85837
G1 X100.035 Y74.402 E3.92847
G1 X101.666 Y76.633 E4.00039
G1 X102.311 Y77.728 E4.03348
G1 X102.870 Y78.871 E4.06660
G1 X103.948 Y81.805 E4.14796
G1 X104.204 Y82.735 E4.17306
G1 X104.356 Y83.690 E4.19823
G1 X104.461 Y86.871 E4.28107
G1 X104.435 Y89.145 E4.34028
G1 X104.279 Y90.716 E4.38137
G1 X103.896 Y92.189 E4.42099
G1 X102.626 Y95.467 E4.51248
G1 X102.025 Y96.632 E4.54661
G1 X101.252 Y97.836 E4.58385
G1 X100.215 Y99.184 E4.62813
G1 X96.958 Y102.780 E4.75441
G1 X85.203 Y114.579 E5.18792
G1 X72.435 Y101.874 E5.65675
G1 X69.550 Y98.864 E5.76526
G1 X68.186 Y96.924 E5.82699
G1 X67.094 Y94.769 E5.88988
G1 X66.283 Y92.446 E5.95392
G1 X65.763 Y90.003 E6.01893
G1 X65.664 Y88.891 E6.04801
G1 X65.262 Y88.926 F12000.000
G1 X65.136 Y87.502 E6.08523 F720.000
G1 X65.222 Y84.919 E6.15248
G1 X65.628 Y82.365 E6.21981
G1 X66.359 Y79.885 E6.28711
G1 X67.204 Y77.895 E6.34337
G1 X68.207 Y76.150 E6.39577
G1 X69.485 Y74.472 E6.45066
G1 X71.159 Y72.685 E6.51439
G1 X72.509 Y71.385 E6.56318
G1 X73.564 Y70.503 E6.59898
G1 X74.628 Y69.815 E6.63196
G1 X76.002 Y69.096 E6.67233
G1 X77.996 Y68.192 E6.72931
G1 X79.793 Y67.574 E6.77878
G1 X81.606 Y67.181 E6.82706
G1 X83.642 Y66.955 E6.88037
G1 X86.371 Y66.948 E6.95142
G1 X88.760 Y67.272 E7.01417
G1 X89.032 Y67.309 E7.02131 F720.000
G1 X91.599 Y68.027 E7.09069
G1 X94.045 Y69.083 E7.16004
G1 X96.337 Y70.466 E7.22972
G1 X98.447 Y72.157 E7.30011
G1 X100.345 Y74.142 E7.37160
G1 X102.003 Y76.411 E7.44474
G1 X102.666 Y77.537 E7.47875
G1 X103.241 Y78.713 E7.51282
G1 X104.332 Y81.682 E7.59516
G1 X104.599 Y82.649 E7.62128
G1 X104.758 Y83.651 E7.64769
G1 X104.864 Y86.866 E7.73141
G1 X104.839 Y89.168 E7.79132
G1 X104.678 Y90.787 E7.83369
G1 X104.280 Y92.314 E7.87474
G1 X102.994 Y95.633 E7.96739
G1 X102.375 Y96.834 E8.00258
G1 X101.582 Y98.068 E8.04076
G1 X100.524 Y99.443 E8.08590
G1 X97.250 Y103.058 E8.21286
G1 X85.204 Y115.149 E8.65711
G1 X72.147 Y102.156 E9.13656
G1 X69.238 Y99.121 E9.24599
G1 X67.839 Y97.132 E9.30927
G1 X66.722 Y94.927 E9.37362
G1 X65.894 Y92.555 E9.43902
G1 X65.363 Y90.063 E9.50533
G1 X65.269 Y89.001 E9.53310
G1 X65.671 Y88.639 F12000.000
G1 X66.676 Y92.797 F12000.000
G1 X83.269 Y109.390 E10.14420 F1200.000
G1 X83.061 Y108.611 E10.16520
G1 X66.432 Y91.982 E10.77763
G1 X66.278 Y91.256 E10.79694
G1 X83.043 Y108.022 E11.41440
G1 X83.164 Y107.572 E11.42654
G1 X66.123 Y90.531 E12.05413
G1 X65.978 Y89.815 E12.07316
G1 X83.284 Y107.121 E12.71054
G1 X83.537 Y106.804 E12.72112
G1 X65.922 Y89.188 E13.36987
G1 X65.867 Y88.562 E13.38625
G1 X83.823 Y106.518 E14.04756
G1 X84.108 Y106.233 E14.05807
G1 X65.811 Y87.936 E14.73194
G1 X65.766 Y87.319 E14.74803
G1 X84.493 Y106.046 E15.43772
G1 X84.943 Y105.926 E15.44986
G1 X65.784 Y86.767 E16.15547
G1 X65.803 Y86.215 E16.16986
G1 X85.393 Y105.806 E16.89138
G1 X86.115 Y105.956 E16.91058
G1 X65.821 Y85.662 E17.65799
G1 X65.839 Y85.110 E17.67239
G1 X90.108 Y109.379 E18.56620
G1 X90.394 Y109.093 E18.57671
G1 X65.895 Y84.595 E19.47897
G1 X65.973 Y84.102 E19.49196
G1 X90.679 Y108.808 E20.40186
G1 X90.965 Y108.523 E20.41237
G1 X66.052 Y83.610 E21.32989
G1 X66.130 Y83.117 E21.34288
G1 X91.250 Y108.237 E22.26803
G1 X91.535 Y107.952 E22.27855
G1 X66.208 Y82.625 E23.21133
G1 X66.318 Y82.164 E23.22366
G1 X91.821 Y107.666 E24.16289
G1 X92.106 Y107.381 E24.17340
G1 X66.448 Y81.723 E25.11836
G1 X66.578 Y81.282 E25.13033
G1 X92.392 Y107.095 E26.08101
G1 X92.677 Y106.810 E26.09152
G1 X66.708 Y80.841 E27.04792
G1 X66.838 Y80.401 E27.05989
G1 X92.962 Y106.525 E28.02201
G1 X93.247 Y106.239 E28.03252
G1 X66.976 Y79.967 E29.00009
G1 X67.146 Y79.566 E29.01142
G1 X93.532 Y105.953 E29.98322
G1 X93.817 Y105.667 E29.99373
G1 X67.316 Y79.166 E30.96975
G1 X67.486 Y78.765 E30.98108
G1 X94.102 Y105.381 E31.96133
G1 X94.387 Y105.095 E31.97184
G1 X67.656 Y78.364 E32.95632
G1 X67.842 Y77.979 E32.96745
G1 X94.672 Y104.809 E33.95558
G1 X94.957 Y104.523 E33.96609
G1 X68.050 Y77.617 E34.95704
G1 X68.259 Y77.254 E34.96793
G1 X95.242 Y104.237 E35.96169
G1 X95.526 Y103.951 E35.97220
G1 X68.467 Y76.892 E36.96878
G1 X68.675 Y76.529 E36.97967
G1 X95.811 Y103.665 E37.97906
G1 X96.096 Y103.379 E37.98957
G1 X68.915 Y76.198 E38.99065
G1 X69.161 Y75.874 E39.00125
G1 X96.381 Y103.093 E40.00373
G1 X96.666 Y102.808 E40.01424
G1 X69.408 Y75.550 E41.01813
G1 X69.655 Y75.226 E41.02873
G1 X96.945 Y102.515 E42.03379
G1 X97.216 Y102.216 E42.04432
G1 X69.902 Y74.902 E43.05028
G1 X70.173 Y74.602 E43.06080
G1 X97.487 Y101.916 E44.06677
G1 X97.758 Y101.617 E44.07730
G1 X70.449 Y74.307 E45.08309
G1 X70.725 Y74.012 E45.09361
G1 X98.030 Y101.317 E46.09922
G1 X98.301 Y101.018 E46.10975
G1 X71.001 Y73.718 E47.11519
G1 X71.281 Y73.427 E47.12570
G1 X98.572 Y100.718 E48.13082
G1 X98.844 Y100.419 E48.14134
G1 X71.566 Y73.141 E49.14594
G1 X71.852 Y72.856 E49.15645
G1 X99.115 Y100.119 E50.16053
G1 X99.386 Y99.820 E50.17106
G1 X72.137 Y72.571 E51.17462
G1 X72.424 Y72.286 E51.18513
G1 X99.658 Y99.520 E52.18812
G1 X99.929 Y99.220 E52.19864
G1 X72.715 Y72.006 E53.20091
G1 X73.013 Y71.734 E53.21143
G1 X100.188 Y98.909 E54.21228
G1 X100.437 Y98.587 E54.22288
G1 X73.324 Y71.474 E55.22142
G1 X73.635 Y71.214 E55.23197
G1 X100.685 Y98.264 E56.22820
G1 X100.933 Y97.941 E56.23880
G1 X73.951 Y70.960 E57.23251
G1 X74.298 Y70.735 E57.24326
G1 X101.172 Y97.609 E58.23301
G1 X101.395 Y97.262 E58.24376
G1 X74.644 Y70.511 E59.22897
G1 X74.998 Y70.294 E59.23978
G1 X101.618 Y96.914 E60.22017
G1 X101.841 Y96.566 E60.23093
G1 X75.373 Y70.098 E61.20574
G1 X75.748 Y69.902 E61.21675
G1 X102.036 Y96.190 E62.18492
G1 X102.230 Y95.813 E62.19595
G1 X76.123 Y69.706 E63.15746
G1 X76.510 Y69.523 E63.16863
G1 X102.424 Y95.437 E64.12301
G1 X102.585 Y95.026 E64.13448
G1 X76.903 Y69.345 E65.08031
G1 X77.296 Y69.167 E65.09154
G1 X102.744 Y94.615 E66.02877
G1 X102.903 Y94.203 E66.04026
G1 X77.689 Y68.989 E66.96890
G1 X78.081 Y68.811 E66.98013
G1 X103.063 Y93.792 E67.90017
G1 X103.222 Y93.381 E67.91167
G1 X78.498 Y68.657 E68.82222
G1 X78.923 Y68.511 E68.83391
G1 X103.382 Y92.969 E69.73470
G1 X103.541 Y92.558 E69.74619
G1 X79.348 Y68.365 E70.63720
G1 X79.772 Y68.218 E70.64890
G1 X103.697 Y92.143 E71.53002
G1 X103.815 Y91.690 E71.54220
G1 X80.228 Y68.104 E72.41088
G1 X80.697 Y68.002 E72.42338
G1 X103.933 Y91.237 E73.27912
G1 X104.051 Y90.784 E73.29130
G1 X81.167 Y67.900 E74.13411
G1 X81.636 Y67.798 E74.14661
G1 X104.108 Y90.270 E74.97424
G1 X104.159 Y89.751 E74.98783
G1 X82.150 Y67.742 E75.79843
G1 X82.664 Y67.685 E75.81190
G1 X104.211 Y89.232 E76.60547
G1 X104.219 Y88.669 E76.62013
G1 X83.178 Y67.628 E77.39506
G1 X83.702 Y67.581 E77.40877
G1 X104.225 Y88.105 E78.16462
G1 X104.232 Y87.540 E78.17933
G1 X84.271 Y67.580 E78.91445
G1 X84.840 Y67.578 E78.92928
G1 X104.238 Y86.976 E79.64368
G1 X104.219 Y86.386 E79.65904
G1 X85.409 Y67.576 E80.35179
G1 X85.979 Y67.575 E80.36661
G1 X104.200 Y85.796 E81.03767
G1 X104.180 Y85.205 E81.05306
G1 X86.597 Y67.623 E81.70061
G1 X87.258 Y67.712 E81.71797
G1 X104.161 Y84.615 E82.34048
G1 X104.141 Y84.025 E82.35586
G1 X87.918 Y67.802 E82.95332
G1 X88.579 Y67.892 E82.97068
G1 X104.066 Y83.379 E83.54106
G1 X103.928 Y82.670 E83.55986
G1 X89.327 Y68.069 E84.09761
G1 X90.119 Y68.290 E84.11904
G1 X103.696 Y81.867 E84.61906
G1 X103.365 Y80.965 F12000.000
G1 X90.912 Y68.512 E85.07769 F1200.000
G1 X91.819 Y68.849 F12000.000
G1 X103.033 Y80.062 E85.49068 F1200.000
G1 X102.701 Y79.160 F12000.000
G1 X92.824 Y69.283 E85.85446 F1200.000
G1 X93.914 Y69.801 F12000.000
G1 X102.174 Y78.062 E86.15870 F1200.000
G1 X101.283 Y76.600 F12000.000
G1 X95.352 Y70.669 E86.37711 F1200.000
G1 X97.737 Y72.483 F12000.000
G1 X98.669 Y73.415 E86.41144 F1200.000
G1 X87.628 Y107.469 F12000.000
G1 X89.823 Y109.664 E86.49228 F1200.000
G1 X89.537 Y109.950 E86.50280
G1 X87.778 Y108.191 E86.56758
G1 X87.658 Y108.641 E86.57972
G1 X89.252 Y110.235 E86.63843
G1 X88.967 Y110.520 E86.64894
G1 X87.538 Y109.091 E86.70157
G1 X87.351 Y109.476 E86.71269
G1 X88.681 Y110.806 E86.76167
G1 X88.396 Y111.091 E86.77219
G1 X87.066 Y109.761 E86.82117
G1 X86.780 Y110.047 E86.83168
G1 X88.110 Y111.377 E86.88066
G1 X87.825 Y111.662 E86.89118
G1 X86.463 Y110.300 E86.94134
G1 X86.012 Y110.420 E86.95348
G1 X87.540 Y111.947 E87.00973
G1 X87.254 Y112.233 E87.02024
G1 X85.562 Y110.541 E87.08256
G1 X84.973 Y110.523 E87.09790
G1 X86.969 Y112.518 E87.17138
G1 X86.683 Y112.804 E87.18189
G1 X84.194 Y110.315 E87.27356
G1 X78.495 Y107.469 F12000.000
G1 X71.919 Y100.893 E87.51574 F1200.000
G1 X68.579 Y96.982 F12000.000
G1 X85.542 Y113.945 E88.14048 F1200.000
G1 X85.827 Y113.660 E88.15099
G1 X67.872 Y95.704 E88.81228
G1 X67.289 Y94.551 F12000.000
G1 X86.113 Y113.375 E89.50554 F1200.000
G1 X86.398 Y113.089 E89.51605
G1 X66.983 Y93.674 E90.23110
G1 E88.23110 F1680.00000
G92 E0
G1 X40.884 Y107.107 F12000.000
G1 E2.00000 F1680.00000
G1 X41.176 Y108.197 E2.02937 F900.000
G1 X40.884 Y109.288 E2.05874
G1 X40.087 Y110.085 E2.08811
G1 X38.996 Y110.377 E2.11748
G1 X37.906 Y110.085 E2.14685
G1 X37.109 Y109.288 E2.17622
G1 X36.817 Y108.197 E2.20559
G1 X37.109 Y107.107 E2.23496
G1 X37.906 Y106.310 E2.26433
G1 X38.751 Y106.084 E2.28708
G1 X38.996 Y106.018 E2.29370 F900.000
G1 X40.087 Y106.310 E2.32307
G1 X40.831 Y107.054 E2.35049
G1 X40.523 Y107.316 F12000.000
G1 X40.758 Y108.197 E2.37424 F900.000
G1 X40.523 Y109.079 E2.39798
G1 X39.878 Y109.724 E2.42172
G1 X38.996 Y109.959 E2.44547
G1 X38.115 Y109.724 E2.46921
G1 X37.470 Y109.079 E2.49295
G1 X37.235 Y108.197 E2.51670
G1 X37.470 Y107.316 E2.54044
G1 X38.115 Y106.671 E2.56418
G1 X38.855 Y106.474 E2.58411
G1 X38.996 Y106.436 E2.58793 F900.000
G1 X39.878 Y106.671 E2.61167
G1 X40.470 Y107.263 E2.63346
G1 X41.021 Y107.360 F12000.000
G1 X22.967 Y75.306 F12000.000
G1 X23.403 Y74.733 E2.65220 F900.000
G1 X25.056 Y72.968 E2.71512
G1 X26.388 Y71.685 E2.76327
G1 X27.414 Y70.828 E2.79806
G1 X28.441 Y70.164 E2.82991
G1 X29.789 Y69.459 E2.86950
G1 X31.755 Y68.567 E2.92569
G1 X33.512 Y67.963 E2.97404
G1 X35.281 Y67.579 E3.02116
G1 X37.274 Y67.359 E3.07337
G1 X39.954 Y67.351 E3.14312
G1 X42.316 Y67.672 E3.20515
G1 X42.560 Y67.705 E3.21157 F900.000
G1 X45.074 Y68.408 E3.27952
G1 X47.470 Y69.443 E3.34745
G1 X49.716 Y70.798 E3.41572
G1 X51.784 Y72.455 E3.48471
G1 X53.645 Y74.402 E3.55482
G1 X55.276 Y76.633 E3.62674
G1 X55.921 Y77.728 E3.65982
G1 X56.480 Y78.871 E3.69295
G1 X57.558 Y81.805 E3.77431
G1 X57.814 Y82.735 E3.79941
G1 X57.966 Y83.690 E3.82457
G1 X58.071 Y86.871 E3.90741
G1 X58.045 Y89.145 E3.96663
G1 X57.889 Y90.716 E4.00771
G1 X57.506 Y92.189 E4.04734
G1 X56.236 Y95.467 E4.13883
G1 X55.635 Y96.632 E4.17296
G1 X54.862 Y97.836 E4.21020
G1 X53.825 Y99.184 E4.25447
G1 X50.568 Y102.780 E4.38076
G1 X38.813 Y114.579 E4.81427
G1 X26.045 Y101.874 E5.28310
G1 X23.160 Y98.864 E5.39160
G1 X21.796 Y96.924 E5.45334
G1 X20.704 Y94.769 E5.51622
G1 X19.893 Y92.446 E5.58027
G1 X19.373 Y90.003 E5.64528
G1 X19.150 Y87.490 E5.71094
G1 X19.234 Y84.958 E5.77690
G1 X19.632 Y82.454 E5.84289
G1 X20.350 Y80.021 E5.90891
G1 X21.176 Y78.075 E5.96394
G1 X22.154 Y76.374 E6.01502
G1 X22.922 Y75.365 E6.04801
G1 X22.601 Y75.121 F12000.000
G1 X23.095 Y74.472 E6.06924 F720.000
G1 X24.769 Y72.685 E6.13297
G1 X26.119 Y71.385 E6.18176
