; generated by Slic3r 0.9.10b on 2013-11-11 at 20:13:15

; layer_height = 0.3
; perimeters = 1
; top_solid_layers = 2
; bottom_solid_layers = 2
; fill_density = 0.5
; perimeter_speed = 30
; infill_speed = 30
; travel_speed = 200
; nozzle_diameter = 0.5
; filament_diameter = 2.98
; extrusion_multiplier = 0.9
; perimeters extrusion width = 0.50mm
; infill extrusion width = 0.50mm
; solid infill extrusion width = 0.50mm
; top infill extrusion width = 0.50mm

G21 ; set units to millimeters
M107
M104 S190 ; set temperature
G28 ; home all axes
G1 Z15 F120 ; lift nozzle
M109 S190 ; wait for temperature to be reached
G90 ; use absolute coordinates
G92 E0
M82 ; use absolute distances for extrusion
G1 F1680.000 E-2.00000
G92 E0
G1 Z0.450 F12000.000
G1 X49.704 Y24.418
G1 F1680.000 E2.00000
G1 X50.134 Y23.598 F900.000 E2.02688
G1 X50.364 Y23.208 E2.04003
G1 X50.674 Y22.718 E2.05686
G1 X51.264 Y21.878 E2.08667
G1 X52.104 Y20.858 E2.12503
G1 X52.574 Y20.358 E2.14495
G1 X53.314 Y19.648 E2.17473
G1 X53.694 Y19.318 E2.18934
G1 X54.394 Y18.768 E2.21519
G1 X54.914 Y18.388 E2.23389
G1 X55.424 Y18.058 E2.25152
G1 X56.154 Y17.628 E2.27612
G1 X56.564 Y17.408 E2.28963
G1 X57.114 Y17.148 E2.30729
G1 X58.014 Y16.838 E2.33493
G1 X58.854 Y16.628 E2.36007
G1 X59.204 Y16.568 E2.37038
G1 X61.854 Y16.248 E2.44788
G1 X63.644 Y16.048 E2.50017
G1 X68.094 Y15.628 E2.62995
G1 X72.394 Y15.328 E2.75509
G1 X75.984 Y15.128 E2.85949
G1 X79.544 Y15.008 E2.96291
G1 X83.334 Y14.948 E3.07296
G1 X87.434 Y14.938 E3.19200
G1 X93.264 Y15.098 E3.36133
G1 X97.464 Y15.308 E3.48342
G1 X101.284 Y15.578 E3.59461
G1 X105.304 Y15.958 E3.71184
G1 X110.654 Y16.548 E3.86811
G1 X111.214 Y16.648 E3.88463
G1 X111.764 Y16.778 E3.90104
G1 X112.594 Y17.048 E3.92638
G1 X112.844 Y17.148 E3.93420
G1 X113.344 Y17.378 E3.95018
G1 X114.004 Y17.728 E3.97187
G1 X114.834 Y18.228 E4.00000
G1 X115.574 Y18.748 E4.02626
G1 X116.634 Y19.618 E4.06607
G1 X117.394 Y20.328 E4.09627
G1 X117.834 Y20.788 E4.11475
G1 X118.774 Y21.928 E4.15765
G1 X119.114 Y22.398 E4.17449
G1 X119.484 Y22.988 E4.19471
G1 X120.044 Y23.968 E4.22748
G1 X120.344 Y24.558 E4.24670
G1 X120.884 Y25.848 E4.28730
G1 X121.054 Y26.328 E4.30209
G1 X121.384 Y27.468 E4.33654
G1 X121.654 Y28.788 E4.37566
G1 X121.794 Y29.928 E4.40901
G1 X121.834 Y30.628 E4.42936
G1 X121.854 Y66.798 E5.47951
G1 X121.854 Y121.358 E7.06359
G1 X121.834 Y139.238 E7.58272
G1 X121.784 Y139.988 E7.60454
G1 X121.684 Y140.748 E7.62680
G1 X121.574 Y141.338 E7.64422
G1 X121.274 Y142.598 E7.68183
G1 X121.094 Y143.178 E7.69946
G1 X120.744 Y144.108 E7.72831
G1 X120.344 Y144.958 E7.75558
G1 X119.944 Y145.718 E7.78052
G1 X119.594 Y146.288 E7.79994
G1 X119.074 Y147.048 E7.82667
G1 X118.694 Y147.558 E7.84514
G1 X117.894 Y148.478 E7.88054
G1 X117.514 Y148.858 E7.89614
G1 X116.874 Y149.438 E7.92122
G1 X116.094 Y150.068 E7.95033
G1 X115.624 Y150.408 E7.96717
G1 X115.044 Y150.788 E7.98730
G1 X114.554 Y151.078 E8.00383
G1 X113.834 Y151.408 E8.02683
G1 X113.134 Y151.678 E8.04861
G1 X112.064 Y151.958 E8.08072
G1 X111.394 Y152.058 E8.10039
G1 X107.224 Y152.558 E8.22233
G1 X104.064 Y152.848 E8.31446
G1 X87.024 Y153.738 E8.80987
G1 X82.354 Y153.748 E8.94546
G1 X79.784 Y153.708 E9.02008
G1 X73.814 Y153.468 E9.19355
G1 X68.724 Y153.138 E9.34165
G1 X64.134 Y152.698 E9.47552
G1 X58.634 Y152.068 E9.63625
G1 X57.834 Y151.928 E9.65983
G1 X57.124 Y151.748 E9.68110
G1 X56.874 Y151.668 E9.68872
G1 X56.044 Y151.338 E9.71465
G1 X55.564 Y151.108 E9.73011
G1 X55.034 Y150.818 E9.74765
G1 X54.684 Y150.608 E9.75950
G1 X54.054 Y150.188 E9.78148
G1 X53.084 Y149.408 E9.81762
G1 X52.404 Y148.788 E9.84434
G1 X51.994 Y148.378 E9.86117
G1 X51.634 Y147.978 E9.87679
G1 X50.894 Y147.038 E9.91153
G1 X50.284 Y146.148 E9.94286
G1 X49.834 Y145.358 E9.96925
G1 X49.604 Y144.908 E9.98393
G1 X49.234 Y144.078 E10.01031
G1 X49.034 Y143.578 E10.02594
G1 X48.834 Y142.988 E10.04403
G1 X48.574 Y142.068 E10.07179
G1 X48.484 Y141.678 E10.08341
G1 X48.374 Y141.138 E10.09941
G1 X48.224 Y140.018 E10.13222
G1 X48.154 Y138.768 E10.16857
G1 X48.134 Y127.988 E10.48155
G1 X48.144 Y30.828 E13.30247
G1 X48.184 Y30.128 E13.32282
G1 X48.324 Y28.838 E13.36050
G1 X48.474 Y27.988 E13.38556
G1 X48.744 Y26.928 E13.41732
G1 X48.914 Y26.378 E13.43403
G1 X49.244 Y25.458 E13.46241
G1 X49.672 Y24.486 E13.49325
G1 F1680.000 E11.49325
G92 E0
G1 X107.649 Y32.476 F12000.000
G1 F1680.000 E2.00000
G1 X109.855 Y28.656 F900.000 E2.12808
G1 X112.132 Y28.656 E2.19419
G1 X112.449 Y29.529 E2.22115
G1 X112.568 Y30.084 E2.23762
G1 X112.643 Y30.646 E2.25411
G1 X112.659 Y31.224 E2.27089
G1 X112.664 Y36.296 E2.41814
G1 X109.855 Y36.296 E2.49971
G1 X107.686 Y32.541 E2.62561
G1 F1680.000 E0.62561
G92 E0
G1 X78.193 Y36.840 F12000.000
G1 F1680.000 E2.00000
G1 X75.988 Y40.660 F900.000 E2.12805
G1 X71.578 Y40.660 E2.25611
G1 X69.371 Y36.840 E2.38419
G1 X71.578 Y33.022 E2.51222
G1 X75.988 Y33.022 E2.64027
G1 X78.155 Y36.775 E2.76609
G1 X84.681 Y36.868 F12000.000
G1 X86.886 Y33.048 F900.000 E2.89414
G1 X91.298 Y33.048 E3.02226
G1 X93.503 Y36.868 E3.15031
G1 X91.298 Y40.688 E3.27836
G1 X86.886 Y40.688 E3.40648
G1 X84.719 Y36.933 E3.53235
G1 X83.642 Y37.468 F12000.000
G1 X85.849 Y41.288 F900.000 E3.66043
G1 X83.642 Y45.108 E3.78851
G1 X79.232 Y45.108 E3.91657
G1 X77.025 Y41.288 E4.04465
G1 X79.232 Y37.468 E4.17273
G1 X83.567 Y37.468 E4.29861
G1 F1680.000 E2.29861
G92 E0
G1 X75.988 Y41.888 F12000.000
G1 F1680.000 E2.00000
G1 X78.193 Y45.708 F900.000 E2.12805
G1 X75.988 Y49.528 E2.25610
G1 X71.578 Y49.528 E2.38416
G1 X69.371 Y45.708 E2.51223
G1 X71.578 Y41.888 E2.64032
G1 X75.913 Y41.888 E2.76619
G1 F1680.000 E0.76619
G92 E0
G1 X75.988 Y77.354 F12000.000
G1 F1680.000 E2.00000
G1 X78.193 Y81.174 F900.000 E2.12805
G1 X75.988 Y84.994 E2.25610
G1 X71.578 Y84.994 E2.38416
G1 X69.371 Y81.174 E2.51224
G1 X71.578 Y77.354 E2.64032
G1 X75.913 Y77.354 E2.76620
G1 F1680.000 E0.76620
G92 E0
G1 X109.853 Y126.190 F12000.000
G1 F1680.000 E2.00000
G1 X112.661 Y126.190 F900.000 E2.08151
G1 X112.668 Y133.830 E2.30333
G1 X109.853 Y133.830 E2.38504
G1 X107.647 Y130.010 E2.51312
G1 X109.816 Y126.255 E2.63902
G1 F1680.000 E0.63902
G92 E0
G1 X106.661 Y139.563 F12000.000
G1 F1680.000 E2.00000
G1 X108.691 Y143.082 F900.000 E2.11795
G1 X107.146 Y143.272 E2.16314
G1 X103.750 Y143.631 E2.26228
G1 X100.357 Y143.929 E2.36116
G1 X99.991 Y143.296 E2.38239
G1 X101.269 Y141.082 E2.45661
G1 X103.749 Y141.082 E2.52860
G1 X104.292 Y141.035 E2.54444
G1 X104.895 Y140.874 E2.56256
G1 X105.462 Y140.609 E2.58073
G1 X105.973 Y140.252 E2.59882
G1 X106.608 Y139.616 E2.62492
G1 X107.650 Y138.878 F12000.000
G1 X109.855 Y135.058 F900.000 E2.75297
G1 X112.669 Y135.058 E2.83469
G1 X112.669 Y138.618 E2.93807
G1 X112.628 Y139.245 E2.95631
G1 X112.562 Y139.669 E2.96876
G1 X112.430 Y140.169 E2.98379
G1 X112.249 Y140.655 E2.99884
G1 X112.017 Y141.119 E3.01390
G1 X111.740 Y141.558 E3.02896
G1 X111.420 Y141.965 E3.04400
G1 X111.060 Y142.339 E3.05907
G1 X110.599 Y142.726 E3.07655
G1 X109.851 Y142.691 E3.09828
G1 X107.688 Y138.943 E3.22393
G1 X107.639 Y136.454 F12000.000
G1 X107.234 Y136.347 F900.000 E3.23609
G1 X107.213 Y133.018 E3.33276
G1 X107.034 Y132.351 E3.35280
G1 X107.499 Y132.158 E3.36743
G1 X108.808 Y134.428 E3.44351
G1 X107.676 Y136.390 E3.50924
G1 X106.688 Y137.513 F12000.000
G1 X106.675 Y137.805 F900.000 E3.51772
G1 X106.630 Y138.111 E3.52669
G1 X106.546 Y138.438 E3.53650
G1 X106.434 Y138.727 E3.54550
G1 X106.298 Y139.001 E3.55437
G1 X106.141 Y139.262 E3.56322
G1 X105.957 Y139.503 E3.57203
G1 X105.743 Y139.718 E3.58084
G1 X105.510 Y139.908 E3.58957
G1 X105.248 Y140.084 E3.59874
G1 X104.973 Y140.231 E3.60779
G1 X104.648 Y140.366 E3.61800
G1 X104.318 Y140.459 E3.62796
G1 X103.990 Y140.511 E3.63758
G1 X103.674 Y140.526 E3.64677
G1 X98.788 Y140.524 E3.78865
G1 X98.488 Y140.480 E3.79744
G1 X97.897 Y140.301 E3.81536
G1 X97.341 Y139.981 E3.83400
G1 X97.097 Y139.788 E3.84303
G1 X96.664 Y139.328 E3.86137
G1 X96.335 Y138.763 E3.88035
G1 X96.218 Y138.468 E3.88957
G1 X96.078 Y137.843 E3.90815
G1 X96.079 Y133.261 E4.04120
G1 X96.123 Y132.960 E4.05002
G1 X96.303 Y132.370 E4.06794
G1 X96.621 Y131.813 E4.08656
G1 X96.817 Y131.568 E4.09564
G1 X97.275 Y131.137 E4.11393
G1 X97.841 Y130.807 E4.13293
G1 X98.137 Y130.689 E4.14219
G1 X98.758 Y130.550 E4.16066
G1 X103.951 Y130.547 E4.31146
G1 X104.503 Y130.656 E4.32779
G1 X104.771 Y130.740 E4.33594
G1 X105.297 Y131.001 E4.35297
G1 X105.783 Y131.399 E4.37122
G1 X105.995 Y131.617 E4.38006
G1 X106.337 Y132.117 E4.39765
G1 X106.572 Y132.701 E4.41591
G1 X106.648 Y133.000 E4.42488
G1 X106.690 Y133.288 E4.43333
G1 X106.688 Y137.438 E4.55383
G1 F1680.000 E2.55383
G92 E0
G1 X99.870 Y141.084 F12000.000
G1 F1680.000 E2.00000
G1 X98.954 Y142.667 F900.000 E2.05309
G1 X94.542 Y142.670 E2.18119
G1 X92.751 Y139.564 E2.28529
G1 X92.651 Y138.792 E2.30788
G1 X92.686 Y138.242 E2.32390
G1 X94.542 Y135.030 E2.43159
G1 X95.520 Y135.030 E2.45999
G1 X95.520 Y137.585 E2.53418
G1 X95.567 Y138.128 E2.55001
G1 X95.730 Y138.732 E2.56816
G1 X95.993 Y139.299 E2.58630
G1 X96.352 Y139.811 E2.60446
G1 X96.795 Y140.253 E2.62262
G1 X97.086 Y140.458 E2.63296
G1 X97.305 Y140.611 E2.64072
G1 X97.872 Y140.874 E2.65887
G1 X98.473 Y141.037 E2.67695
G1 X99.019 Y141.084 E2.69285
G1 X99.795 Y141.084 E2.71538
G1 F1680.000 E0.71538
G92 E0
G1 X95.512 Y133.804 F12000.000
G1 F1680.000 E2.00000
G1 X94.542 Y133.804 F900.000 E2.02816
G1 X92.337 Y129.984 E2.15621
G1 X94.542 Y126.164 E2.28427
G1 X98.952 Y126.164 E2.41233
G1 X101.172 Y130.009 E2.54123
G1 X98.547 Y130.016 E2.61743
G1 X97.872 Y130.202 E2.63775
G1 X97.306 Y130.467 E2.65592
G1 X96.793 Y130.824 E2.67406
G1 X96.352 Y131.267 E2.69219
G1 X95.993 Y131.778 E2.71032
G1 X95.730 Y132.344 E2.72846
G1 X95.567 Y132.948 E2.74661
G1 X95.514 Y133.729 E2.76934
G1 F1680.000 E0.76934
G92 E0
G1 X102.196 Y129.382 F12000.000
G1 F1680.000 E2.00000
G1 X99.991 Y125.564 F900.000 E2.12800
G1 X102.196 Y121.744 E2.25605
G1 X106.608 Y121.744 E2.38417
G1 X108.813 Y125.564 E2.51222
G1 X106.608 Y129.382 E2.64021
G1 X102.271 Y129.382 E2.76615
G1 F1680.000 E0.76615
G92 E0
G1 X109.853 Y124.964 F12000.000
G1 F1680.000 E2.00000
G1 X107.647 Y121.144 F900.000 E2.12808
G1 X109.853 Y117.324 E2.25616
G1 X112.668 Y117.324 E2.33787
G1 X112.668 Y124.964 E2.55969
G1 X109.928 Y124.964 E2.63922
G1 F1680.000 E0.63922
G92 E0
G1 X109.853 Y107.230 F12000.000
G1 F1680.000 E2.00000
G1 X107.647 Y103.410 F900.000 E2.12808
G1 X109.853 Y99.590 E2.25616
G1 X112.668 Y99.590 E2.33787
G1 X112.668 Y107.230 E2.55969
G1 X109.928 Y107.230 E2.63922
G1 F1680.000 E0.63922
G92 E0
G1 X109.853 Y89.496 F12000.000
G1 F1680.000 E2.00000
G1 X107.647 Y85.676 F900.000 E2.12808
G1 X109.853 Y81.856 E2.25616
G1 X112.668 Y81.856 E2.33787
G1 X112.668 Y89.496 E2.55969
G1 X109.928 Y89.496 E2.63922
G1 F1680.000 E0.63922
G92 E0
G1 X109.853 Y80.630 F12000.000
G1 F1680.000 E2.00000
G1 X107.647 Y76.810 F900.000 E2.12808
G1 X109.853 Y72.990 E2.25616
G1 X112.668 Y72.990 E2.33787
G1 X112.668 Y80.630 E2.55969
G1 X109.928 Y80.630 E2.63922
G1 X108.813 Y81.230 F12000.000
G1 X106.608 Y85.050 F900.000 E2.76727
G1 X102.196 Y85.050 E2.89539
G1 X99.991 Y81.230 E3.02343
G1 X102.196 Y77.410 E3.15148
G1 X106.608 Y77.410 E3.27960
G1 X108.775 Y81.165 E3.40547
G1 F1680.000 E1.40547
G92 E0
G1 X101.159 Y85.650 F12000.000
G1 F1680.000 E2.00000
G1 X98.952 Y89.470 F900.000 E2.12808
G1 X94.542 Y89.470 E2.25614
G1 X92.335 Y85.650 E2.38422
G1 X94.542 Y81.830 E2.51230
G1 X98.952 Y81.830 E2.64035
G1 X101.121 Y85.585 E2.76626
G1 F1680.000 E0.76626
G92 E0
G1 X93.503 Y90.068 F12000.000
G1 F1680.000 E2.00000
G1 X91.298 Y93.888 F900.000 E2.12805
G1 X86.886 Y93.888 E2.25617
G1 X84.681 Y90.068 E2.38422
G1 X86.886 Y86.248 E2.51226
G1 X91.298 Y86.248 E2.64038
G1 X93.465 Y90.003 E2.76626
G1 X91.298 Y95.116 F12000.000
G1 X93.503 Y98.936 F900.000 E2.89430
G1 X91.298 Y102.756 E3.02235
G1 X86.886 Y102.756 E3.15047
G1 X84.681 Y98.936 E3.27852
G1 X86.886 Y95.116 E3.40657
G1 X91.223 Y95.116 E3.53251
G1 X92.335 Y94.516 F12000.000
G1 X94.542 Y90.696 F900.000 E3.66059
G1 X98.952 Y90.696 E3.78865
G1 X101.159 Y94.516 E3.91673
G1 X98.952 Y98.336 E4.04481
G1 X94.542 Y98.336 E4.17286
G1 X92.373 Y94.581 E4.29876
G1 F1680.000 E2.29876
G92 E0
G1 X99.991 Y90.096 F12000.000
G1 F1680.000 E2.00000
G1 X102.196 Y86.276 F900.000 E2.12805
G1 X106.608 Y86.276 E2.25617
G1 X108.813 Y90.096 E2.38422
G1 X106.608 Y93.916 E2.51226
G1 X102.196 Y93.916 E2.64038
G1 X100.029 Y90.161 E2.76626
G1 F1680.000 E0.76626
G92 E0
G1 X107.647 Y94.544 F12000.000
G1 F1680.000 E2.00000
G1 X109.853 Y90.724 F900.000 E2.12808
G1 X112.668 Y90.724 E2.20979
G1 X112.668 Y98.364 E2.43161
G1 X109.853 Y98.364 E2.51332
G1 X107.684 Y94.609 E2.63922
G1 X106.608 Y95.142 F12000.000
G1 X108.813 Y98.962 F900.000 E2.76727
G1 X106.608 Y102.782 E2.89532
G1 X102.196 Y102.782 E3.02344
G1 X99.991 Y98.962 E3.15149
G1 X102.196 Y95.142 E3.27954
G1 X106.533 Y95.142 E3.40548
G1 F1680.000 E1.40548
G92 E0
G1 X98.952 Y99.562 F12000.000
G1 F1680.000 E2.00000
G1 X101.159 Y103.382 F900.000 E2.12808
G1 X98.952 Y107.202 E2.25616
G1 X94.542 Y107.202 E2.38422
G1 X92.335 Y103.382 E2.51230
G1 X94.542 Y99.562 E2.64038
G1 X98.877 Y99.562 E2.76626
G1 F1680.000 E0.76626
G92 E0
G1 X91.298 Y103.982 F12000.000
G1 F1680.000 E2.00000
G1 X93.503 Y107.802 F900.000 E2.12805
G1 X91.298 Y111.622 E2.25610
G1 X86.886 Y111.622 E2.38422
G1 X84.681 Y107.802 E2.51227
G1 X86.886 Y103.982 E2.64031
G1 X91.223 Y103.982 E2.76626
G1 F1680.000 E0.76626
G92 E0
G1 X91.298 Y112.848 F12000.000
G1 F1680.000 E2.00000
G1 X93.503 Y116.668 F900.000 E2.12805
G1 X91.298 Y120.488 E2.25610
G1 X86.886 Y120.488 E2.38422
G1 X84.681 Y116.668 E2.51227
G1 X86.886 Y112.848 E2.64031
G1 X91.223 Y112.848 E2.76626
G1 X92.335 Y112.250 F12000.000
G1 X94.542 Y108.430 F900.000 E2.89433
G1 X98.952 Y108.430 E3.02239
G1 X101.159 Y112.250 E3.15047
G1 X98.952 Y116.070 E3.27855
G1 X94.542 Y116.070 E3.40661
G1 X92.373 Y112.315 E3.53251
G1 F1680.000 E1.53251
G92 E0
G1 X99.991 Y107.830 F12000.000
G1 F1680.000 E2.00000
G1 X102.196 Y104.010 F900.000 E2.12805
G1 X106.608 Y104.010 E2.25617
G1 X108.813 Y107.830 E2.38422
G1 X106.608 Y111.650 E2.51226
G1 X102.196 Y111.650 E2.64038
G1 X100.029 Y107.895 E2.76625
G1 F1680.000 E0.76625
G92 E0
G1 X107.647 Y112.276 F12000.000
G1 F1680.000 E2.00000
G1 X109.853 Y108.456 F900.000 E2.12808
G1 X112.668 Y108.456 E2.20979
G1 X112.668 Y116.096 E2.43161
G1 X109.853 Y116.096 E2.51332
G1 X107.684 Y112.341 E2.63922
G1 X106.608 Y112.876 F12000.000
G1 X108.813 Y116.696 F900.000 E2.76727
G1 X106.608 Y120.516 E2.89532
G1 X102.196 Y120.516 E3.02344
G1 X99.991 Y116.696 E3.15149
G1 X102.196 Y112.876 E3.27954
G1 X106.533 Y112.876 E3.40548
G1 F1680.000 E1.40548
G92 E0
G1 X98.952 Y117.296 F12000.000
G1 F1680.000 E2.00000
G1 X101.159 Y121.116 F900.000 E2.12808
G1 X98.952 Y124.936 E2.25616
G1 X94.542 Y124.936 E2.38422
G1 X92.335 Y121.116 E2.51230
G1 X94.542 Y117.296 E2.64038
G1 X98.877 Y117.296 E2.76626
G1 F1680.000 E0.76626
G92 E0
G1 X91.298 Y121.716 F12000.000
G1 F1680.000 E2.00000
G1 X93.503 Y125.536 F900.000 E2.12805
G1 X91.262 Y129.419 E2.25821
G1 X90.680 Y128.907 E2.28073
G1 X90.119 Y128.533 E2.30030
G1 X89.514 Y128.233 E2.31990
G1 X88.875 Y128.018 E2.33946
G1 X88.213 Y127.886 E2.35906
G1 X87.596 Y127.846 E2.37703
G1 X86.014 Y127.846 E2.42297
G1 X84.681 Y125.536 E2.50038
G1 X86.886 Y121.716 E2.62843
G1 X91.223 Y121.716 E2.75437
G1 F1680.000 E0.75437
G92 E0
G1 X89.072 Y128.569 F12000.000
G1 F1680.000 E2.00000
G1 X89.432 Y128.710 F720.000 E2.01121
G1 X90.156 Y129.113 E2.03527
G1 X90.533 Y129.402 E2.04906
G1 X90.867 Y129.708 E2.06221
G1 X91.149 Y130.028 E2.07459
