; generated by Slic3r 0.9.10b on 2013-11-11 at 12:20:25

; layer_height = 0.2
; perimeters = 1
; top_solid_layers = 2
; bottom_solid_layers = 2
; fill_density = 0.2
; perimeter_speed = 30
; infill_speed = 30
; travel_speed = 200
; nozzle_diameter = 0.5
; filament_diameter = 2.98
; extrusion_multiplier = 0.9
; perimeters extrusion width = 0.50mm
; infill extrusion width = 0.50mm
; solid infill extrusion width = 0.50mm
; top infill extrusion width = 0.50mm

G21 ; set units to millimeters
M107
M104 S190 ; set temperature
G28 ; home all axes
G1 Z15 F120 ; lift nozzle
M109 S190 ; wait for temperature to be reached
G90 ; use absolute coordinates
G92 E0
M82 ; use absolute distances for extrusion
G1 F1680.000 E-2.00000
G92 E0
G1 Z0.300 F12000.000
G1 X50.074 Y24.528
G1 F1680.000 E2.00000
G1 X50.744 Y23.298 F900.000 E2.02711
G1 X50.984 Y22.918 E2.03581
G1 X51.584 Y22.058 E2.05611
G1 X51.934 Y21.618 E2.06699
G1 X52.504 Y20.968 E2.08372
G1 X53.174 Y20.268 E2.10248
G1 X53.834 Y19.668 E2.11974
G1 X54.514 Y19.098 E2.13692
G1 X55.254 Y18.578 E2.15442
G1 X56.034 Y18.108 E2.17205
G1 X56.624 Y17.788 E2.18504
G1 X57.394 Y17.428 E2.20149
G1 X58.004 Y17.208 E2.21404
G1 X58.644 Y17.048 E2.22681
G1 X59.294 Y16.928 E2.23961
G1 X60.314 Y16.798 E2.25951
G1 X64.654 Y16.328 E2.34401
G1 X67.224 Y16.088 E2.39397
G1 X71.644 Y15.748 E2.47977
G1 X76.694 Y15.468 E2.57767
G1 X80.244 Y15.358 E2.64642
G1 X85.014 Y15.298 E2.73875
G1 X90.384 Y15.378 E2.84270
G1 X94.374 Y15.538 E2.91999
G1 X97.894 Y15.728 E2.98823
G1 X103.294 Y16.138 E3.09305
G1 X107.224 Y16.508 E3.16945
G1 X110.534 Y16.898 E3.23396
G1 X111.244 Y17.018 E3.24790
G1 X112.324 Y17.328 E3.26965
G1 X112.634 Y17.448 E3.27608
G1 X113.534 Y17.878 E3.29539
G1 X114.244 Y18.288 E3.31126
G1 X114.804 Y18.648 E3.32414
G1 X115.524 Y19.168 E3.34134
G1 X116.344 Y19.848 E3.36195
G1 X116.664 Y20.138 E3.37031
G1 X117.354 Y20.828 E3.38920
G1 X117.734 Y21.248 E3.40016
G1 X118.304 Y21.938 E3.41749
G1 X118.694 Y22.468 E3.43022
G1 X119.134 Y23.138 E3.44574
G1 X119.764 Y24.228 E3.47011
G1 X120.004 Y24.698 E3.48032
G1 X120.444 Y25.718 E3.50182
G1 X120.764 Y26.628 E3.52049
G1 X120.934 Y27.188 E3.53182
G1 X121.184 Y28.218 E3.55234
G1 X121.364 Y29.188 E3.57143
G1 X121.444 Y29.908 E3.58546
G1 X121.484 Y30.798 E3.60270
G1 X121.504 Y42.358 E3.82645
G1 X121.504 Y80.088 E4.55675
G1 X121.494 Y138.828 E5.69371
G1 X121.474 Y139.358 E5.70397
G1 X121.394 Y140.328 E5.72281
G1 X121.314 Y140.908 E5.73415
G1 X121.194 Y141.478 E5.74542
G1 X120.924 Y142.488 E5.76566
G1 X120.764 Y142.998 E5.77600
G1 X120.514 Y143.698 E5.79039
G1 X120.084 Y144.678 E5.81110
G1 X119.694 Y145.438 E5.82764
G1 X119.164 Y146.298 E5.84719
G1 X118.894 Y146.688 E5.85637
G1 X118.174 Y147.618 E5.87914
G1 X117.584 Y148.258 E5.89599
G1 X117.034 Y148.788 E5.91077
G1 X116.264 Y149.448 E5.93040
G1 X115.454 Y150.068 E5.95014
G1 X114.714 Y150.548 E5.96722
G1 X113.974 Y150.948 E5.98350
G1 X113.104 Y151.318 E6.00180
G1 X112.184 Y151.558 E6.02020
G1 X111.444 Y151.688 E6.03474
G1 X110.424 Y151.818 E6.05465
G1 X105.524 Y152.358 E6.15006
G1 X104.314 Y152.468 E6.17358
G1 X86.964 Y153.388 E6.50988
G1 X82.644 Y153.398 E6.59349
G1 X75.334 Y153.168 E6.73505
G1 X72.904 Y153.058 E6.78214
G1 X71.254 Y152.948 E6.81414
G1 X66.694 Y152.568 E6.90271
G1 X61.504 Y152.058 E7.00365
G1 X58.564 Y151.688 E7.06101
G1 X57.804 Y151.548 E7.07597
G1 X56.724 Y151.238 E7.09771
G1 X56.414 Y151.118 E7.10415
G1 X55.524 Y150.688 E7.12328
G1 X54.664 Y150.168 E7.14273
G1 X53.814 Y149.538 E7.16321
G1 X53.264 Y149.078 E7.17709
G1 X52.794 Y148.638 E7.18955
G1 X51.894 Y147.698 E7.21474
G1 X51.424 Y147.128 E7.22904
G1 X51.014 Y146.558 E7.24263
G1 X50.594 Y145.918 E7.25745
G1 X50.264 Y145.368 E7.26986
G1 X49.944 Y144.758 E7.28320
G1 X49.684 Y144.198 E7.29515
G1 X49.264 Y143.118 E7.31758
G1 X49.064 Y142.508 E7.33000
G1 X48.854 Y141.708 E7.34601
G1 X48.704 Y140.948 E7.36100
G1 X48.564 Y139.938 E7.38074
G1 X48.504 Y139.048 E7.39801
G1 X48.484 Y104.418 E8.06830
G1 X48.504 Y31.018 E9.48902
G1 X48.584 Y29.718 E9.51423
G1 X48.684 Y28.918 E9.52983
G1 X48.874 Y27.958 E9.54877
G1 X48.994 Y27.458 E9.55873
G1 X49.244 Y26.568 E9.57662
G1 X49.504 Y25.838 E9.59162
G1 X49.824 Y25.068 E9.60776
G1 X50.042 Y24.596 E9.61782
G1 F1680.000 E7.61782
G92 E0
G1 X107.649 Y32.476 F12000.000
G1 F1680.000 E2.00000
G1 X109.855 Y28.656 F900.000 E2.08539
G1 X112.132 Y28.656 E2.12946
G1 X112.450 Y29.528 E2.14743
G1 X112.568 Y30.084 E2.15842
G1 X112.643 Y30.646 E2.16940
G1 X112.659 Y31.224 E2.18059
G1 X112.664 Y36.296 E2.27876
G1 X109.855 Y36.296 E2.33313
G1 X107.686 Y32.541 E2.41707
G1 F1680.000 E0.41707
G92 E0
G1 X78.193 Y36.840 F12000.000
G1 F1680.000 E2.00000
G1 X75.988 Y40.660 F900.000 E2.08537
G1 X71.578 Y40.660 E2.17074
G1 X69.371 Y36.840 E2.25613
G1 X71.578 Y33.022 E2.34148
G1 X75.988 Y33.022 E2.42685
G1 X78.155 Y36.775 E2.51073
G1 X84.681 Y36.868 F12000.000
G1 X86.886 Y33.048 F900.000 E2.59609
G1 X91.298 Y33.048 E2.68151
G1 X93.503 Y36.868 E2.76687
G1 X91.298 Y40.688 E2.85224
G1 X86.886 Y40.688 E2.93765
G1 X84.719 Y36.933 E3.02157
G1 X83.642 Y37.468 F12000.000
G1 X85.849 Y41.288 F900.000 E3.10695
G1 X83.642 Y45.108 E3.19234
G1 X79.232 Y45.108 E3.27771
G1 X77.025 Y41.288 E3.36310
G1 X79.232 Y37.468 E3.44848
G1 X83.567 Y37.468 E3.53241
G1 F1680.000 E1.53241
G92 E0
G1 X75.988 Y41.888 F12000.000
G1 F1680.000 E2.00000
G1 X78.193 Y45.708 F900.000 E2.08537
G1 X75.988 Y49.528 E2.17073
G1 X71.578 Y49.528 E2.25610
G1 X69.371 Y45.708 E2.34149
G1 X71.578 Y41.888 E2.42688
G1 X75.913 Y41.888 E2.51080
G1 F1680.000 E0.51080
G92 E0
G1 X75.988 Y77.354 F12000.000
G1 F1680.000 E2.00000
G1 X78.193 Y81.174 F900.000 E2.08537
G1 X75.988 Y84.994 E2.17073
G1 X71.578 Y84.994 E2.25610
G1 X69.371 Y81.174 E2.34149
G1 X71.578 Y77.354 E2.42688
G1 X75.913 Y77.354 E2.51080
G1 F1680.000 E0.51080
G92 E0
G1 X109.853 Y126.190 F12000.000
G1 F1680.000 E2.00000
G1 X112.660 Y126.190 F900.000 E2.05433
G1 X112.668 Y133.830 E2.20221
G1 X109.853 Y133.830 E2.25668
G1 X107.647 Y130.010 E2.34207
G1 X109.816 Y126.255 E2.42600
G1 F1680.000 E0.42600
G92 E0
G1 X107.499 Y132.158 F12000.000
G1 F1680.000 E2.00000
G1 X108.807 Y134.428 F900.000 E2.05072
G1 X107.638 Y136.454 E2.09599
G1 X107.233 Y136.347 E2.10410
G1 X107.213 Y133.018 E2.16855
G1 X107.033 Y132.351 E2.18191
G1 X107.429 Y132.187 E2.19021
G1 X109.855 Y135.058 F12000.000
G1 X112.670 Y135.058 F900.000 E2.24469
G1 X112.670 Y138.619 E2.31361
G1 X112.633 Y139.219 E2.32526
G1 X112.563 Y139.669 E2.33407
G1 X112.430 Y140.170 E2.34409
G1 X112.249 Y140.655 E2.35412
G1 X112.017 Y141.119 E2.36416
G1 X111.740 Y141.558 E2.37421
G1 X111.420 Y141.965 E2.38423
G1 X111.060 Y142.339 E2.39428
G1 X110.599 Y142.726 E2.40593
G1 X109.851 Y142.691 E2.42042
G1 X107.651 Y138.878 E2.50564
G1 X109.818 Y135.123 E2.58955
G1 X106.662 Y139.563 F12000.000
G1 X108.691 Y143.082 F900.000 E2.66818
G1 X107.146 Y143.272 E2.69831
G1 X103.750 Y143.631 E2.76441
G1 X100.357 Y143.929 E2.83033
G1 X99.991 Y143.296 E2.84448
G1 X101.269 Y141.082 E2.89396
G1 X103.749 Y141.082 E2.94196
G1 X104.292 Y141.035 E2.95252
G1 X104.896 Y140.874 E2.96460
G1 X105.462 Y140.609 E2.97671
G1 X105.973 Y140.252 E2.98877
G1 X106.609 Y139.616 E3.00617
G1 X99.870 Y141.084 F12000.000
G1 X98.954 Y142.666 F900.000 E3.04156
G1 X94.542 Y142.670 E3.12696
G1 X92.751 Y139.564 E3.19636
G1 X92.651 Y138.792 E3.21142
G1 X92.686 Y138.242 E3.22210
G1 X94.542 Y135.030 E3.29389
G1 X95.520 Y135.030 E3.31283
G1 X95.520 Y137.585 E3.36229
G1 X95.567 Y138.128 E3.37284
G1 X95.730 Y138.732 E3.38494
G1 X95.993 Y139.299 E3.39704
G1 X96.352 Y139.811 E3.40914
G1 X96.795 Y140.253 E3.42125
G1 X97.106 Y140.472 E3.42861
G1 X97.305 Y140.611 E3.43332
G1 X97.872 Y140.874 E3.44542
G1 X98.473 Y141.037 E3.45747
G1 X99.019 Y141.084 E3.46807
G1 X99.795 Y141.084 E3.48309
G1 X99.086 Y140.705 F12000.000
G1 X98.770 Y140.687 F900.000 E3.48921
G1 X98.140 Y140.563 E3.50165
G1 X97.524 Y140.301 E3.51460
G1 X97.246 Y140.113 E3.52110
G1 X96.752 Y139.684 E3.53376
G1 X96.346 Y139.149 E3.54677
G1 X96.181 Y138.833 E3.55367
G1 X95.968 Y138.190 E3.56676
G1 X95.899 Y137.518 E3.57984
G1 X95.899 Y133.561 E3.65644
G1 X95.915 Y133.242 E3.66261
G1 X96.040 Y132.613 E3.67503
G1 X96.302 Y131.996 E3.68800
G1 X96.489 Y131.718 E3.69450
G1 X96.698 Y131.465 E3.70084
G1 X96.918 Y131.224 E3.70716
G1 X97.181 Y131.016 E3.71366
G1 X97.454 Y130.818 E3.72019
G1 X97.770 Y130.653 E3.72707
G1 X98.413 Y130.441 E3.74019
G1 X99.084 Y130.371 E3.75323
G1 X103.681 Y130.371 E3.84221
G1 X104.261 Y130.423 E3.85349
G1 X104.549 Y130.492 E3.85922
G1 X105.110 Y130.709 E3.87087
G1 X105.652 Y131.053 E3.88328
G1 X105.910 Y131.282 E3.88996
G1 X106.323 Y131.775 E3.90242
G1 X106.622 Y132.330 E3.91461
G1 X106.732 Y132.640 E3.92098
G1 X106.805 Y132.956 E3.92726
G1 X106.867 Y133.556 E3.93894
G1 X106.855 Y137.804 E4.02116
G1 X106.807 Y138.132 E4.02758
G1 X106.719 Y138.467 E4.03427
G1 X106.608 Y138.782 E4.04074
G1 X106.456 Y139.082 E4.04724
G1 X106.282 Y139.349 E4.05341
G1 X106.081 Y139.589 E4.05948
G1 X105.871 Y139.821 E4.06554
G1 X105.636 Y140.029 E4.07161
G1 X105.379 Y140.211 E4.07771
G1 X105.084 Y140.374 E4.08422
G1 X104.758 Y140.514 E4.09110
G1 X104.403 Y140.619 E4.09826
G1 X104.031 Y140.685 E4.10558
G1 X103.677 Y140.705 E4.11244
G1 X99.161 Y140.705 E4.19985
G1 F1680.000 E2.19985
G92 E0
G1 X95.512 Y133.804 F12000.000
G1 F1680.000 E2.00000
G1 X94.542 Y133.804 F900.000 E2.01877
G1 X92.337 Y129.984 E2.10414
G1 X94.542 Y126.164 E2.18951
G1 X98.952 Y126.164 E2.27488
G1 X101.172 Y130.009 E2.36082
G1 X98.548 Y130.016 E2.41161
G1 X97.872 Y130.202 E2.42516
G1 X97.306 Y130.467 E2.43728
G1 X96.793 Y130.824 E2.44937
G1 X96.352 Y131.267 E2.46146
G1 X95.993 Y131.778 E2.47354
G1 X95.730 Y132.344 E2.48563
G1 X95.567 Y132.948 E2.49774
G1 X95.514 Y133.729 E2.51289
G1 F1680.000 E0.51289
G92 E0
G1 X102.196 Y129.382 F12000.000
G1 F1680.000 E2.00000
G1 X99.991 Y125.564 F900.000 E2.08533
G1 X102.196 Y121.744 E2.17070
G1 X106.608 Y121.744 E2.25611
G1 X108.813 Y125.564 E2.34148
G1 X106.608 Y129.382 E2.42681
G1 X102.271 Y129.382 E2.51077
G1 F1680.000 E0.51077
G92 E0
G1 X109.853 Y124.964 F12000.000
G1 F1680.000 E2.00000
G1 X107.647 Y121.144 F900.000 E2.08539
G1 X109.853 Y117.324 E2.17077
G1 X112.668 Y117.324 E2.22525
G1 X112.668 Y124.964 E2.37313
G1 X109.928 Y124.964 E2.42615
G1 F1680.000 E0.42615
G92 E0
G1 X109.853 Y107.230 F12000.000
G1 F1680.000 E2.00000
G1 X107.647 Y103.410 F900.000 E2.08539
G1 X109.853 Y99.590 E2.17077
G1 X112.668 Y99.590 E2.22525
G1 X112.668 Y107.230 E2.37313
G1 X109.928 Y107.230 E2.42615
G1 F1680.000 E0.42615
G92 E0
G1 X109.853 Y89.496 F12000.000
G1 F1680.000 E2.00000
G1 X107.647 Y85.676 F900.000 E2.08539
G1 X109.853 Y81.856 E2.17077
G1 X112.668 Y81.856 E2.22525
G1 X112.668 Y89.496 E2.37313
G1 X109.928 Y89.496 E2.42615
G1 F1680.000 E0.42615
G92 E0
G1 X109.853 Y80.630 F12000.000
G1 F1680.000 E2.00000
G1 X107.647 Y76.810 F900.000 E2.08539
G1 X109.853 Y72.990 E2.17077
G1 X112.668 Y72.990 E2.22525
G1 X112.668 Y80.630 E2.37313
G1 X109.928 Y80.630 E2.42615
G1 X108.813 Y81.230 F12000.000
G1 X106.608 Y85.050 F900.000 E2.51151
G1 X102.196 Y85.050 E2.59692
G1 X99.991 Y81.230 E2.68229
G1 X102.196 Y77.410 E2.76766
G1 X106.608 Y77.410 E2.85307
G1 X108.775 Y81.165 E2.93698
G1 F1680.000 E0.93698
G92 E0
G1 X101.159 Y85.650 F12000.000
G1 F1680.000 E2.00000
G1 X98.952 Y89.470 F900.000 E2.08539
G1 X94.542 Y89.470 E2.17076
G1 X92.335 Y85.650 E2.25614
G1 X94.542 Y81.830 E2.34153
G1 X98.952 Y81.830 E2.42690
G1 X101.121 Y85.585 E2.51084
G1 F1680.000 E0.51084
G92 E0
G1 X93.503 Y90.068 F12000.000
G1 F1680.000 E2.00000
G1 X91.298 Y93.888 F900.000 E2.08537
G1 X86.886 Y93.888 E2.17078
G1 X84.681 Y90.068 E2.25614
G1 X86.886 Y86.248 E2.34151
G1 X91.298 Y86.248 E2.42692
G1 X93.465 Y90.003 E2.51084
G1 X91.298 Y95.116 F12000.000
G1 X93.503 Y98.936 F900.000 E2.59620
G1 X91.298 Y102.756 E2.68157
G1 X86.886 Y102.756 E2.76698
G1 X84.681 Y98.936 E2.85235
G1 X86.886 Y95.116 E2.93771
G1 X91.223 Y95.116 E3.02167
G1 X92.335 Y94.516 F12000.000
G1 X94.542 Y90.696 F900.000 E3.10706
G1 X98.952 Y90.696 E3.19243
G1 X101.159 Y94.516 E3.27782
G1 X98.952 Y98.336 E3.36320
G1 X94.542 Y98.336 E3.44857
G1 X92.373 Y94.581 E3.53251
G1 F1680.000 E1.53251
G92 E0
G1 X99.991 Y90.096 F12000.000
G1 F1680.000 E2.00000
G1 X102.196 Y86.276 F900.000 E2.08536
G1 X106.608 Y86.276 E2.17078
G1 X108.813 Y90.096 E2.25614
G1 X106.608 Y93.916 E2.34151
G1 X102.196 Y93.916 E2.42692
G1 X100.029 Y90.161 E2.51084
G1 F1680.000 E0.51084
G92 E0
G1 X107.647 Y94.544 F12000.000
G1 F1680.000 E2.00000
G1 X109.853 Y90.724 F900.000 E2.08539
G1 X112.668 Y90.724 E2.13986
G1 X112.668 Y98.364 E2.28774
G1 X109.853 Y98.364 E2.34222
G1 X107.685 Y94.609 E2.42615
G1 X106.608 Y95.142 F12000.000
G1 X108.813 Y98.962 F900.000 E2.51151
G1 X106.608 Y102.782 E2.59688
G1 X102.196 Y102.782 E2.68229
G1 X99.991 Y98.962 E2.76766
G1 X102.196 Y95.142 E2.85302
G1 X106.533 Y95.142 E2.93699
G1 F1680.000 E0.93699
G92 E0
G1 X98.952 Y99.562 F12000.000
G1 F1680.000 E2.00000
G1 X101.159 Y103.382 F900.000 E2.08539
G1 X98.952 Y107.202 E2.17077
G1 X94.542 Y107.202 E2.25614
G1 X92.335 Y103.382 E2.34153
G1 X94.542 Y99.562 E2.42692
G1 X98.877 Y99.562 E2.51084
G1 F1680.000 E0.51084
G92 E0
G1 X91.298 Y103.982 F12000.000
G1 F1680.000 E2.00000
G1 X93.503 Y107.802 F900.000 E2.08537
G1 X91.298 Y111.622 E2.17073
G1 X86.886 Y111.622 E2.25614
G1 X84.681 Y107.802 E2.34151
G1 X86.886 Y103.982 E2.42688
G1 X91.223 Y103.982 E2.51084
G1 F1680.000 E0.51084
G92 E0
G1 X91.298 Y112.848 F12000.000
G1 F1680.000 E2.00000
G1 X93.503 Y116.668 F900.000 E2.08537
G1 X91.298 Y120.488 E2.17073
G1 X86.886 Y120.488 E2.25614
G1 X84.681 Y116.668 E2.34151
G1 X86.886 Y112.848 E2.42688
G1 X91.223 Y112.848 E2.51084
G1 X92.335 Y112.250 F12000.000
G1 X94.542 Y108.430 F900.000 E2.59622
G1 X98.952 Y108.430 E2.68159
G1 X101.159 Y112.250 E2.76698
G1 X98.952 Y116.070 E2.85237
G1 X94.542 Y116.070 E2.93774
G1 X92.373 Y112.315 E3.02167
G1 F1680.000 E1.02167
G92 E0
G1 X99.991 Y107.830 F12000.000
G1 F1680.000 E2.00000
G1 X102.196 Y104.010 F900.000 E2.08537
G1 X106.608 Y104.010 E2.17078
G1 X108.813 Y107.830 E2.25614
G1 X106.608 Y111.650 E2.34151
G1 X102.196 Y111.650 E2.42692
G1 X100.029 Y107.895 E2.51084
G1 F1680.000 E0.51084
G92 E0
G1 X107.647 Y112.276 F12000.000
G1 F1680.000 E2.00000
G1 X109.853 Y108.456 F900.000 E2.08538
G1 X112.668 Y108.456 E2.13986
G1 X112.668 Y116.096 E2.28774
G1 X109.853 Y116.096 E2.34221
G1 X107.685 Y112.341 E2.42615
G1 X106.608 Y112.876 F12000.000
G1 X108.813 Y116.696 F900.000 E2.51151
G1 X106.608 Y120.516 E2.59688
G1 X102.196 Y120.516 E2.68229
G1 X99.991 Y116.696 E2.76766
G1 X102.196 Y112.876 E2.85302
G1 X106.533 Y112.876 E2.93699
G1 F1680.000 E0.93699
G92 E0
G1 X98.952 Y117.296 F12000.000
G1 F1680.000 E2.00000
G1 X101.159 Y121.116 F900.000 E2.08539
G1 X98.952 Y124.936 E2.17077
G1 X94.542 Y124.936 E2.25614
G1 X92.335 Y121.116 E2.34153
G1 X94.542 Y117.296 E2.42692
G1 X98.877 Y117.296 E2.51084
G1 F1680.000 E0.51084
G92 E0
G1 X91.298 Y121.716 F12000.000
G1 F1680.000 E2.00000
G1 X93.503 Y125.536 F900.000 E2.08537
G1 X91.262 Y129.419 E2.17214
G1 X90.680 Y128.907 E2.18716
G1 X90.119 Y128.533 E2.20020
G1 X89.514 Y128.233 E2.21327
G1 X88.875 Y128.018 E2.22631
G1 X88.213 Y127.886 E2.23938
G1 X87.596 Y127.846 E2.25135
G1 X86.014 Y127.846 E2.28198
G1 X84.681 Y125.536 E2.33359
G1 X86.886 Y121.716 E2.41896
G1 X91.223 Y121.716 E2.50292
G1 F1680.000 E0.50292
G92 E0
G1 X89.123 Y128.412 F12000.000
G1 F1680.000 E2.00000
G1 X89.842 Y128.731 F720.000 E2.01523
G1 X90.222 Y128.956 E2.02378
G1 X90.599 Y129.233 E2.03284
G1 X90.960 Y129.557 E2.04223
G1 X91.274 Y129.899 E2.05121
G1 X91.539 Y130.256 E2.05982
G1 X91.934 Y130.947 E2.07522
G1 X92.101 Y131.334 E2.08338
G1 X92.230 Y131.747 E2.09175
G1 X92.317 Y132.173 E2.10016
G1 X92.389 Y132.987 E2.11599
G1 X92.389 Y138.082 E2.21461
G1 X92.374 Y138.470 E2.22212
G1 X92.323 Y138.893 E2.23038
G1 X92.265 Y139.159 E2.23564
G1 X92.087 Y139.771 E2.24798
G1 X91.906 Y140.198 E2.25695
G1 X91.687 Y140.598 E2.26578
G1 X91.441 Y140.953 E2.27414
G1 X90.883 Y141.583 E2.29043
G1 X90.565 Y141.869 E2.29870
G1 X90.220 Y142.120 E2.30697
G1 X89.839 Y142.348 E2.31556
G1 X89.423 Y142.548 E2.32449
G1 X88.976 Y142.711 E2.33370
