; generated by Slic3r 0.9.10b on 2013-11-11 at 12:13:44

; layer_height = 0.3
; perimeters = 1
; top_solid_layers = 2
; bottom_solid_layers = 2
; fill_density = 0.2
; perimeter_speed = 30
; infill_speed = 30
; travel_speed = 200
; nozzle_diameter = 0.5
; filament_diameter = 2.98
; extrusion_multiplier = 0.9
; perimeters extrusion width = 0.50mm
; infill extrusion width = 0.50mm
; solid infill extrusion width = 0.50mm
; top infill extrusion width = 0.50mm
; support material extrusion width = 0.50mm

G21 ; set units to millimeters
M107
M104 S190 ; set temperature
G28 ; home all axes
G1 Z15 F120 ; lift nozzle
M109 S190 ; wait for temperature to be reached
G90 ; use absolute coordinates
G92 E0
M82 ; use absolute distances for extrusion
G1 F1680.000 E-2.00000
G92 E0
G1 Z0.450 F12000.000
G1 X43.164 Y22.121
G1 F1680.000 E2.00000
G1 X43.904 Y20.701 F900.000 E2.04649
G1 X44.524 Y19.661 E2.08164
G1 X45.514 Y18.221 E2.13238
G1 X45.844 Y17.781 E2.14835
G1 X46.714 Y16.741 E2.18772
G1 X47.134 Y16.291 E2.20559
G1 X48.534 Y14.921 E2.26246
G1 X49.754 Y13.881 E2.30900
G1 X50.444 Y13.371 E2.33391
G1 X52.054 Y12.331 E2.38956
G1 X52.774 Y11.931 E2.41348
G1 X54.944 Y10.891 E2.48334
G1 X56.314 Y10.411 E2.52549
G1 X57.754 Y10.251 E2.56755
G1 X112.254 Y10.251 E4.14989
G1 X113.704 Y10.411 E4.19225
G1 X115.084 Y10.901 E4.23476
G1 X117.234 Y11.941 E4.30411
G1 X117.964 Y12.351 E4.32841
G1 X119.554 Y13.391 E4.38358
G1 X120.174 Y13.851 E4.40599
G1 X121.414 Y14.891 E4.45298
G1 X121.764 Y15.211 E4.46675
G1 X122.834 Y16.251 E4.51007
G1 X123.314 Y16.771 E4.53062
G1 X124.464 Y18.181 E4.58344
G1 X125.444 Y19.581 E4.63306
G1 X126.084 Y20.621 E4.66851
G1 X126.384 Y21.171 E4.68670
G1 X126.894 Y22.211 E4.72033
G1 X127.484 Y23.581 E4.76364
G1 X127.654 Y24.041 E4.77788
G1 X128.154 Y25.571 E4.82461
G1 X128.414 Y26.611 E4.85574
G1 X128.684 Y27.831 E4.89202
G1 X128.804 Y28.601 E4.91464
G1 X128.904 Y29.631 E4.94469
G1 X129.074 Y31.841 E5.00904
G1 X129.094 Y32.341 E5.02357
G1 X129.054 Y138.411 E8.10318
G1 X129.024 Y139.951 E8.14790
G1 X128.844 Y142.031 E8.20851
G1 X128.734 Y142.761 E8.22995
G1 X128.444 Y144.161 E8.27146
G1 X128.114 Y145.401 E8.30871
G1 X127.804 Y146.441 E8.34022
G1 X127.454 Y147.351 E8.36853
G1 X126.474 Y149.431 E8.43528
G1 X126.014 Y150.251 E8.46258
G1 X124.634 Y152.331 E8.53505
G1 X124.254 Y152.841 E8.55352
G1 X123.834 Y153.311 E8.57182
G1 X122.804 Y154.351 E8.61432
G1 X121.614 Y155.501 E8.66237
G1 X120.854 Y156.131 E8.69103
G1 X119.384 Y157.171 E8.74331
G1 X118.734 Y157.581 E8.76562
G1 X116.814 Y158.621 E8.82902
G1 X116.254 Y158.881 E8.84694
G1 X115.664 Y159.101 E8.86523
G1 X112.364 Y160.141 E8.96568
G1 X111.404 Y160.361 E8.99428
G1 X110.414 Y160.441 E9.02311
G1 X59.534 Y160.441 E10.50035
G1 X58.534 Y160.361 E10.52948
G1 X57.554 Y160.131 E10.55870
G1 X54.294 Y159.091 E10.65805
G1 X53.724 Y158.881 E10.67569
G1 X53.164 Y158.611 E10.69374
G1 X51.254 Y157.571 E10.75688
G1 X50.624 Y157.181 E10.77839
G1 X49.144 Y156.141 E10.83091
G1 X48.374 Y155.501 E10.85998
G1 X47.294 Y154.461 E10.90351
G1 X46.094 Y153.201 E10.95403
G1 X45.524 Y152.511 E10.98002
G1 X44.784 Y151.471 E11.01707
G1 X43.964 Y150.221 E11.06048
G1 X43.544 Y149.481 E11.08518
G1 X42.524 Y147.301 E11.15506
G1 X42.194 Y146.441 E11.18181
G1 X41.884 Y145.401 E11.21331
G1 X41.564 Y144.221 E11.24881
G1 X41.394 Y143.381 E11.27369
G1 X41.254 Y142.341 E11.30416
G1 X41.194 Y141.471 E11.32948
G1 X41.194 Y29.231 E14.58822
G1 X41.224 Y28.581 E14.60712
G1 X41.324 Y27.941 E14.62592
G1 X41.534 Y26.901 E14.65673
G1 X41.814 Y25.691 E14.69279
G1 X42.054 Y24.871 E14.71759
G1 X42.444 Y23.831 E14.74984
G1 X42.924 Y22.641 E14.78710
G1 X43.133 Y22.190 E14.80155
G1 F1680.000 E12.80155
G92 E0
G1 X60.650 Y19.878 F12000.000
G1 F1680.000 E2.00000
G1 X65.831 Y19.878 F1200.000 E2.15634
G1 X64.222 Y18.839 E2.21413
G1 X61.405 Y18.839 E2.29912
G1 X61.245 Y17.800 E2.33085
G1 X63.186 Y17.800 E2.38941
G1 X62.922 Y16.760 E2.42177
G1 X57.756 Y16.760 E2.57765
G1 X58.384 Y17.800 E2.61429
G1 X55.592 Y17.800 E2.69854
G1 X56.175 Y18.839 E2.73451
G1 X53.980 Y18.839 E2.80075
G1 X54.545 Y19.878 E2.83644
G1 X52.758 Y19.878 E2.89034
G1 X53.382 Y20.918 E2.92691
G1 X51.713 Y20.918 E2.97725
G1 X52.341 Y21.957 E3.01388
G1 X50.838 Y21.957 E3.05923
G1 X51.547 Y22.996 E3.09720
G1 X50.110 Y22.996 E3.14056
G1 X49.484 Y24.035 E3.17716
G1 X50.798 Y24.035 E3.21681
G1 X50.275 Y25.075 E3.25193
G1 X48.956 Y25.075 E3.29172
G1 X48.535 Y26.114 E3.32555
G1 X49.757 Y26.114 E3.36243
G1 X49.400 Y27.153 E3.39559
G1 X48.152 Y27.153 E3.43325
G1 X47.909 Y28.192 E3.46546
G1 X49.102 Y28.192 E3.50146
G1 X48.861 Y29.232 E3.53365
G1 X47.694 Y29.232 E3.56887
G1 X47.694 Y30.271 E3.60023
G1 X48.760 Y30.271 E3.63238
G1 X48.658 Y31.310 E3.66389
G1 X47.694 Y31.310 E3.69298
G1 X47.694 Y32.349 E3.72434
G1 X48.613 Y32.349 E3.75207
G1 X48.620 Y33.389 E3.78343
G1 X47.694 Y33.389 E3.81137
G1 X47.694 Y34.428 E3.84273
G1 X48.627 Y34.428 E3.87088
G1 X48.622 Y35.467 E3.90224
G1 X47.694 Y35.467 E3.93025
G1 X47.694 Y36.507 E3.96161
G1 X48.617 Y36.507 E3.98947
G1 X48.613 Y37.546 E4.02083
G1 X47.694 Y37.546 E4.04855
G1 X47.694 Y38.585 E4.07991
G1 X48.608 Y38.585 E4.10748
G1 X48.603 Y39.624 E4.13884
G1 X47.694 Y39.624 E4.16627
G1 X47.694 Y40.664 E4.19763
G1 X48.599 Y40.664 E4.22495
G1 X48.598 Y41.703 E4.25631
G1 X47.694 Y41.703 E4.28359
G1 X47.694 Y42.742 E4.31495
G1 X48.597 Y42.742 E4.34219
G1 X48.596 Y43.781 E4.37355
G1 X47.694 Y43.781 E4.40076
G1 X47.694 Y44.821 E4.43212
G1 X48.594 Y44.821 E4.45929
G1 X48.593 Y45.860 E4.49065
G1 X47.694 Y45.860 E4.51778
G1 X47.694 Y46.899 E4.54914
G1 X48.592 Y46.899 E4.57623
G1 X48.591 Y47.939 E4.60759
G1 X47.694 Y47.939 E4.63464
G1 X47.694 Y48.978 E4.66600
G1 X48.589 Y48.978 E4.69302
G1 X48.588 Y50.017 E4.72438
G1 X47.694 Y50.017 E4.75136
G1 X47.694 Y51.056 E4.78272
G1 X48.587 Y51.056 E4.80966
G1 X48.586 Y52.096 E4.84102
G1 X47.694 Y52.096 E4.86792
G1 X47.694 Y53.135 E4.89928
G1 X48.584 Y53.135 E4.92615
G1 X48.583 Y54.174 E4.95750
G1 X47.694 Y54.174 E4.98433
G1 X47.694 Y55.213 E5.01569
G1 X48.582 Y55.213 E5.04248
G1 X48.581 Y56.253 E5.07384
G1 X47.694 Y56.253 E5.10059
G1 X47.694 Y57.292 E5.13195
G1 X48.580 Y57.292 E5.15869
G1 X48.580 Y58.331 E5.19005
G1 X47.694 Y58.331 E5.21679
G1 X47.694 Y59.371 E5.24815
G1 X48.580 Y59.371 E5.27489
G1 X48.580 Y60.410 E5.30624
G1 X47.694 Y60.410 E5.33298
G1 X47.694 Y61.449 E5.36434
G1 X48.580 Y61.449 E5.39108
G1 X48.580 Y62.488 E5.42244
G1 X47.694 Y62.488 E5.44918
G1 X47.694 Y63.528 E5.48054
G1 X48.580 Y63.528 E5.50727
G1 X48.580 Y64.567 E5.53863
G1 X47.694 Y64.567 E5.56537
G1 X47.694 Y65.606 E5.59673
G1 X48.580 Y65.606 E5.62347
G1 X48.580 Y66.645 E5.65483
G1 X47.694 Y66.645 E5.68157
G1 X47.694 Y67.685 E5.71292
G1 X48.580 Y67.685 E5.73966
G1 X48.580 Y68.724 E5.77102
G1 X47.694 Y68.724 E5.79776
G1 X47.694 Y69.763 E5.82912
G1 X48.580 Y69.763 E5.85586
G1 X48.580 Y70.802 E5.88721
G1 X47.694 Y70.802 E5.91395
G1 X47.694 Y71.842 E5.94531
G1 X48.580 Y71.842 E5.97205
G1 X48.580 Y72.881 E6.00341
G1 X47.694 Y72.881 E6.03015
G1 X47.694 Y73.920 E6.06150
G1 X48.580 Y73.920 E6.08824
G1 X48.580 Y74.960 E6.11960
G1 X47.694 Y74.960 E6.14634
G1 X47.694 Y75.999 E6.17770
G1 X48.580 Y75.999 E6.20443
G1 X48.580 Y77.038 E6.23579
G1 X47.694 Y77.038 E6.26253
G1 X47.694 Y78.077 E6.29389
G1 X48.580 Y78.077 E6.32063
G1 X48.580 Y79.117 E6.35199
G1 X47.694 Y79.117 E6.37872
G1 X47.694 Y80.156 E6.41008
G1 X48.580 Y80.156 E6.43682
G1 X48.580 Y81.195 E6.46818
G1 X47.694 Y81.195 E6.49491
G1 X47.694 Y82.234 E6.52627
G1 X48.580 Y82.234 E6.55301
G1 X48.580 Y83.274 E6.58437
G1 X47.694 Y83.274 E6.61111
G1 X47.694 Y84.313 E6.64247
G1 X48.580 Y84.313 E6.66920
G1 X48.580 Y85.352 E6.70056
G1 X47.694 Y85.352 E6.72730
G1 X47.694 Y86.392 E6.75866
G1 X48.580 Y86.392 E6.78539
G1 X48.580 Y87.431 E6.81675
G1 X47.694 Y87.431 E6.84349
G1 X47.694 Y88.470 E6.87485
G1 X48.580 Y88.470 E6.90158
G1 X48.580 Y89.509 E6.93294
G1 X47.694 Y89.509 E6.95968
G1 X47.694 Y90.549 E6.99104
G1 X48.580 Y90.549 E7.01777
G1 X48.580 Y91.588 E7.04913
G1 X47.694 Y91.588 E7.07587
G1 X47.694 Y92.627 E7.10723
G1 X48.580 Y92.627 E7.13396
G1 X48.580 Y93.666 E7.16532
G1 X47.694 Y93.666 E7.19206
G1 X47.694 Y94.706 E7.22342
G1 X48.580 Y94.706 E7.25015
G1 X48.580 Y95.745 E7.28151
G1 X47.694 Y95.745 E7.30825
G1 X47.694 Y96.784 E7.33961
G1 X48.580 Y96.784 E7.36634
G1 X48.580 Y97.823 E7.39770
G1 X47.694 Y97.823 E7.42444
G1 X47.694 Y98.863 E7.45580
G1 X48.580 Y98.863 E7.48253
G1 X48.580 Y99.902 E7.51389
G1 X47.694 Y99.902 E7.54063
G1 X47.694 Y100.941 E7.57199
G1 X48.580 Y100.941 E7.59872
G1 X48.580 Y101.981 E7.63008
G1 X47.694 Y101.981 E7.65682
G1 X47.694 Y103.020 E7.68818
G1 X48.580 Y103.020 E7.71491
G1 X48.580 Y104.059 E7.74627
G1 X47.694 Y104.059 E7.77300
G1 X47.694 Y105.098 E7.80436
G1 X48.580 Y105.098 E7.83110
G1 X48.580 Y106.138 E7.86246
G1 X47.997 Y106.138 E7.88006
G1 F1680.000 E5.88006
G92 E0
G1 X48.175 Y120.687 F12000.000
G1 F1680.000 E2.00000
G1 X48.580 Y120.687 F1200.000 E2.01222
G1 X48.580 Y121.727 E2.04358
G1 X47.737 Y121.727 E2.06902
G1 X47.694 Y122.766 E2.10041
G1 X48.580 Y122.766 E2.12714
G1 X48.580 Y123.805 E2.15850
G1 X47.694 Y123.805 E2.18523
G1 X47.694 Y124.845 E2.21659
G1 X48.580 Y124.845 E2.24333
G1 X48.580 Y125.884 E2.27469
G1 X47.694 Y125.884 E2.30142
G1 X47.694 Y126.923 E2.33278
G1 X48.580 Y126.923 E2.35951
G1 X48.580 Y127.962 E2.39087
G1 X47.694 Y127.962 E2.41761
G1 X47.694 Y129.002 E2.44896
G1 X48.580 Y129.002 E2.47570
G1 X48.580 Y130.041 E2.50706
G1 X47.694 Y130.041 E2.53379
G1 X47.694 Y131.080 E2.56515
G1 X48.580 Y131.080 E2.59188
G1 X48.580 Y132.119 E2.62324
G1 X47.694 Y132.119 E2.64997
G1 X47.694 Y133.159 E2.68133
G1 X48.583 Y133.159 E2.70815
G1 X48.587 Y134.198 E2.73951
G1 X47.694 Y134.198 E2.76647
G1 X47.694 Y135.237 E2.79783
G1 X48.592 Y135.237 E2.82492
G1 X48.596 Y136.276 E2.85628
G1 X47.694 Y136.276 E2.88350
G1 X47.694 Y137.316 E2.91486
G1 X48.601 Y137.316 E2.94223
G1 X48.605 Y138.355 E2.97359
G1 X47.694 Y138.355 E3.00109
G1 X47.694 Y139.394 E3.03244
G1 X48.618 Y139.394 E3.06031
G1 X47.694 Y140.434 F12000.000
G1 X48.723 Y140.434 F1200.000 E3.09135
G1 X48.828 Y141.473 E3.12287
G1 X47.694 Y141.473 E3.15708
G1 X47.840 Y142.512 E3.18875
G1 X49.026 Y142.512 E3.22455
G1 X49.343 Y143.551 E3.25733
G1 X48.116 Y143.551 E3.29437
G1 X48.426 Y144.591 E3.32710
G1 X49.686 Y144.591 E3.36513
G1 X50.218 Y145.630 E3.40036
G1 X48.908 Y145.630 E3.43989
G1 X49.404 Y146.669 E3.47464
G1 X50.777 Y146.669 E3.51607
G1 X50.092 Y147.708 E3.55363
G1 X51.546 Y147.708 E3.59750
G1 X50.828 Y148.748 E3.63562
G1 X52.405 Y148.748 E3.68322
G1 X51.809 Y149.787 E3.71937
G1 X53.551 Y149.787 E3.77193
G1 X52.887 Y150.826 E3.80915
G1 X54.886 Y150.826 E3.86946
G1 X54.365 Y151.866 E3.90454
G1 X56.823 Y151.866 E3.97871
G1 X56.276 Y152.905 E4.01416
G1 X60.219 Y152.905 E4.13315
G1 X60.224 Y152.905 F12000.000
G1 X62.856 Y152.905 F1200.000 E4.21256
G1 X63.480 Y151.866 E4.24914
G1 X61.403 Y151.866 E4.31179
G1 X61.216 Y150.826 E4.34365
G1 X64.615 Y150.826 E4.44622
G1 F1680.000 E2.44622
G92 E0
G1 X62.636 Y153.944 F12000.000
G1 F1680.000 E2.00000
G1 X59.538 Y153.944 F1200.000 E2.09345
G1 F1680.000 E0.09345
G92 E0
G1 X51.327 Y139.394 F12000.000
G1 F1680.000 E2.00000
G1 X67.452 Y139.394 F1200.000 E2.48653
G1 X66.672 Y138.355 E2.52573
G1 X51.312 Y138.355 E2.98920
G1 X51.311 Y137.316 E3.02056
G1 X66.581 Y137.316 E3.48133
G1 X66.581 Y136.276 E3.51269
G1 X51.309 Y136.276 E3.97350
G1 X51.308 Y135.237 E4.00486
G1 X66.581 Y135.237 E4.46570
G1 X66.632 Y134.198 E4.49709
G1 X51.307 Y134.198 E4.95952
G1 X51.306 Y133.159 E4.99087
G1 X67.154 Y133.159 E5.46907
G1 F1680.000 E3.46907
G92 E0
G1 X73.636 Y133.159 F12000.000
G1 F1680.000 E2.00000
G1 X79.360 Y133.159 F1200.000 E2.17271
G1 X79.281 Y134.198 E2.20416
G1 X74.158 Y134.198 E2.35875
G1 X74.209 Y135.237 E2.39015
G1 X79.281 Y135.237 E2.54320
G1 X79.281 Y136.276 E2.57456
G1 X74.209 Y136.276 E2.72760
G1 X74.209 Y137.316 E2.75896
G1 X79.281 Y137.316 E2.91201
G1 X79.281 Y138.355 E2.94337
G1 X74.118 Y138.355 E3.09915
G1 X73.338 Y139.394 E3.13836
G1 X79.391 Y139.394 E3.32100
G1 X79.814 Y140.434 E3.35486
G1 X51.426 Y140.434 E4.21143
G1 X51.573 Y141.473 E4.24310
G1 X80.959 Y141.473 E5.12979
G1 F1680.000 E3.12979
G92 E0
G1 X89.041 Y141.473 F12000.000
G1 F1680.000 E2.00000
G1 X118.432 Y141.473 F1200.000 E2.88685
G1 X118.597 Y140.434 E2.91860
G1 X90.186 Y140.434 E3.77589
G1 F1680.000 E1.77589
G92 E0
G1 X90.640 Y133.159 F12000.000
G1 F1680.000 E2.00000
G1 X98.072 Y133.159 F1200.000 E2.22424
G1 X97.581 Y134.198 E2.25893
G1 X90.719 Y134.198 E2.46598
G1 X90.719 Y135.237 E2.49733
G1 X97.569 Y135.237 E2.70403
G1 X97.569 Y136.276 E2.73539
G1 X90.719 Y136.276 E2.94209
G1 X90.719 Y137.316 E2.97345
G1 X97.569 Y137.316 E3.18014
G1 X97.634 Y138.355 E3.21156
G1 X90.719 Y138.355 E3.42022
G1 X90.609 Y139.394 E3.45176
G1 X98.271 Y139.394 E3.68295
G1 F1680.000 E1.68295
G92 E0
G1 X104.495 Y139.394 F12000.000
G1 F1680.000 E2.00000
G1 X118.676 Y139.394 F1200.000 E2.42789
G1 X118.682 Y138.355 E2.45925
G1 X105.132 Y138.355 E2.86810
G1 X105.197 Y137.316 E2.89952
G1 X118.676 Y137.316 E3.30624
G1 X118.670 Y136.276 E3.33760
G1 X105.197 Y136.276 E3.74415
G1 X105.197 Y135.237 E3.77551
G1 X118.664 Y135.237 E4.18187
G1 X118.660 Y134.198 E4.21323
G1 X105.185 Y134.198 E4.61982
G1 X104.694 Y133.159 E4.65450
G1 X118.660 Y133.159 E5.07591
G1 X118.660 Y132.119 E5.10726
G1 X90.287 Y132.119 E5.96339
G1 X89.419 Y131.080 E6.00425
G1 X118.660 Y131.080 E6.88658
G1 X118.661 Y130.041 E6.91793
G1 X51.302 Y130.041 E8.95039
G1 X51.301 Y129.002 E8.98175
G1 X118.661 Y129.002 E11.01425
G1 X118.661 Y127.962 E11.04561
G1 X51.300 Y127.962 E13.07815
G1 X51.299 Y126.923 E13.10951
G1 X118.661 Y126.923 E15.14209
G1 X118.661 Y125.884 E15.17345
G1 X51.298 Y125.884 E17.20607
G1 X51.296 Y124.845 E17.23743
G1 X118.661 Y124.845 E19.27009
G1 X118.661 Y123.805 E19.30145
G1 X51.295 Y123.805 E21.33415
G1 X51.294 Y122.766 E21.36551
G1 X118.662 Y122.766 E23.39825
G1 X118.662 Y121.727 E23.42961
G1 X51.295 Y121.727 E25.46233
G1 X51.300 Y120.687 E25.49369
G1 X118.662 Y120.687 E27.52625
G1 X118.662 Y119.648 E27.55761
G1 X51.306 Y119.648 E29.59001
G1 X51.311 Y118.609 E29.62137
G1 X118.662 Y118.609 E31.65362
G1 X118.662 Y117.570 E31.68498
G1 X51.316 Y117.570 E33.71708
G1 X51.321 Y116.530 E33.74843
G1 X118.662 Y116.530 E35.78037
G1 X118.663 Y115.491 E35.81173
G1 X51.327 Y115.491 E37.84352
G1 X51.332 Y114.452 E37.87488
G1 X118.663 Y114.452 E39.90650
G1 X118.663 Y113.413 E39.93786
G1 X51.337 Y113.413 E41.96935
G1 X51.335 Y112.373 E42.00071
G1 X118.663 Y112.373 E44.03227
G1 X118.663 Y111.334 E44.06363
G1 X51.333 Y111.334 E46.09525
G1 X51.331 Y110.295 E46.12661
G1 X118.663 Y110.295 E48.15830
G1 X118.663 Y109.255 E48.18966
G1 X51.329 Y109.255 E50.22141
G1 X51.327 Y108.216 E50.25277
G1 X118.664 Y108.216 E52.28459
G1 X118.664 Y107.177 E52.31595
G1 X51.324 Y107.177 E54.34784
G1 X51.322 Y106.138 E54.37919
G1 X118.664 Y106.138 E56.41115
G1 X118.666 Y105.098 E56.44251
G1 X51.320 Y105.098 E58.47457
G1 X51.318 Y104.059 E58.50593
G1 X118.669 Y104.059 E60.53815
G1 X118.672 Y103.020 E60.56951
G1 X51.316 Y103.020 E62.60188
G1 X51.318 Y101.981 E62.63324
G1 X118.674 Y101.981 E64.66564
G1 X118.677 Y100.941 E64.69700
G1 X51.321 Y100.941 E66.72940
G1 X51.325 Y99.902 E66.76076
G1 X118.680 Y99.902 E68.79314
G1 X118.683 Y98.863 E68.82449
G1 X51.328 Y98.863 E70.85686
G1 X51.331 Y97.823 E70.88822
G1 X118.686 Y97.823 E72.92057
G1 X118.689 Y96.784 E72.95193
G1 X51.328 Y96.784 E74.98447
G1 X51.324 Y95.745 E75.01583
G1 X118.692 Y95.745 E77.04858
G1 X118.695 Y94.706 E77.07994
G1 X51.320 Y94.706 E79.11290
G1 X51.316 Y93.666 E79.14425
