; generated by Slic3r 0.9.10b on 2013-10-11 at 12:10:21

; layer_height = 0.3
; perimeters = 1
; top_solid_layers = 3
; bottom_solid_layers = 3
; fill_density = 1
; perimeter_speed = 30
; infill_speed = 30
; travel_speed = 200
; nozzle_diameter = 0.5
; filament_diameter = 2.98
; extrusion_multiplier = 0.9
; perimeters extrusion width = 0.70mm
; infill extrusion width = 0.70mm
; solid infill extrusion width = 0.70mm
; top infill extrusion width = 0.70mm

G21 ; set units to millimeters
M107
M104 S190 ; set temperature
G28 ; home all axes
G1 Z15 F120 ; lift nozzle
M109 S190 ; wait for temperature to be reached
G90 ; use absolute coordinates
G92 E0
M82 ; use absolute distances for extrusion
G1 F1680.000 E-2.00000
G92 E0
G1 Z0.450 F12000.000
G1 X73.010 Y73.150
G1 F1680.000 E2.00000
G1 X73.940 Y72.280 F816.709 E2.04840
G1 X74.560 Y71.770 E2.07891
G1 X75.600 Y71.010 E2.12786
G1 X76.350 Y70.540 E2.16150
G1 X77.470 Y69.930 E2.20997
G1 X78.160 Y69.600 E2.23904
G1 X79.350 Y69.120 E2.28781
G1 X80.230 Y68.830 E2.32302
G1 X81.470 Y68.520 E2.37160
G1 X82.250 Y68.380 E2.40171
G1 X83.520 Y68.220 E2.45036
G1 X84.350 Y68.170 E2.48196
G1 X85.640 Y68.170 E2.53099
G1 X86.470 Y68.220 E2.56259
G1 X87.740 Y68.380 E2.61124
G1 X88.520 Y68.520 E2.64136
G1 X89.760 Y68.830 E2.68993
G1 X90.640 Y69.120 E2.72515
G1 X91.830 Y69.600 E2.77391
G1 X92.520 Y69.930 E2.80298
G1 X93.640 Y70.540 E2.85145
G1 X94.400 Y71.020 E2.88561
G1 X95.390 Y71.740 E2.93214
G1 X96.050 Y72.280 E2.96455
G1 X96.980 Y73.150 E3.01295
G1 X97.550 Y73.770 E3.04495
G1 X98.370 Y74.760 E3.09381
G1 X98.870 Y75.440 E3.12589
G1 X99.600 Y76.590 E3.17766
G1 X99.940 Y77.230 E3.20520
G1 X100.490 Y78.390 E3.25399
G1 X100.820 Y79.210 E3.28758
G1 X101.210 Y80.430 E3.33626
G1 X101.410 Y81.210 E3.36686
G1 X101.650 Y82.470 E3.41561
G1 X101.750 Y83.300 E3.44738
G1 X101.830 Y84.570 E3.49574
G1 X101.830 Y85.410 E3.52767
G1 X101.750 Y86.690 E3.57641
G1 X101.650 Y87.520 E3.60818
G1 X101.410 Y88.780 E3.65693
G1 X101.210 Y89.560 E3.68753
G1 X100.820 Y90.780 E3.73621
G1 X100.490 Y91.600 E3.76980
G1 X99.940 Y92.760 E3.81859
G1 X99.560 Y93.460 E3.84886
G1 X98.880 Y94.540 E3.89737
G1 X98.370 Y95.230 E3.92998
G1 X97.550 Y96.220 E3.97883
G1 X96.980 Y96.840 E4.01084
G1 X96.050 Y97.710 E4.05924
G1 X95.430 Y98.220 E4.08975
G1 X94.390 Y98.980 E4.13870
G1 X93.640 Y99.450 E4.17234
G1 X92.520 Y100.060 E4.22081
G1 X91.830 Y100.390 E4.24988
G1 X90.640 Y100.870 E4.29865
G1 X89.760 Y101.160 E4.33386
G1 X88.520 Y101.470 E4.38244
G1 X87.740 Y101.610 E4.41255
G1 X86.470 Y101.770 E4.46120
G1 X85.640 Y101.820 E4.49280
G1 X84.350 Y101.820 E4.54183
G1 X83.520 Y101.770 E4.57343
G1 X82.250 Y101.610 E4.62208
G1 X81.470 Y101.470 E4.65220
G1 X80.230 Y101.160 E4.70077
G1 X79.350 Y100.870 E4.73599
G1 X78.160 Y100.390 E4.78475
G1 X77.470 Y100.060 E4.81382
G1 X76.350 Y99.450 E4.86229
G1 X75.600 Y98.980 E4.89593
G1 X74.560 Y98.220 E4.94488
G1 X73.940 Y97.710 E4.97539
G1 X73.010 Y96.840 E5.02379
G1 X72.440 Y96.220 E5.05580
G1 X71.620 Y95.230 E5.10466
G1 X71.110 Y94.540 E5.13727
G1 X70.430 Y93.460 E5.18577
G1 X70.050 Y92.760 E5.21604
G1 X69.500 Y91.600 E5.26483
G1 X69.170 Y90.780 E5.29842
G1 X68.780 Y89.560 E5.34710
G1 X68.580 Y88.780 E5.37770
G1 X68.340 Y87.520 E5.42645
G1 X68.240 Y86.690 E5.45822
G1 X68.160 Y85.410 E5.50697
G1 X68.160 Y84.570 E5.53889
G1 X68.240 Y83.300 E5.58725
G1 X68.340 Y82.470 E5.61902
G1 X68.580 Y81.210 E5.66777
G1 X68.780 Y80.430 E5.69837
G1 X69.170 Y79.210 E5.74705
G1 X69.500 Y78.390 E5.78065
G1 X70.050 Y77.230 E5.82944
G1 X70.430 Y76.530 E5.85971
G1 X71.110 Y75.450 E5.90821
G1 X71.640 Y74.720 E5.94249
G1 X72.340 Y73.880 E5.98405
G1 X72.944 Y73.222 E6.01798
G1 F1680.000 E4.01798
G92 E0
G1 X81.918 Y82.106 F12000.000
G1 F1680.000 E2.00000
G1 X82.305 Y81.742 F816.709 E2.02018
G1 X82.735 Y81.430 E2.04036
G1 X83.200 Y81.174 E2.06054
G1 X83.694 Y80.979 E2.08071
G1 X84.208 Y80.847 E2.10089
G1 X84.735 Y80.780 E2.12107
G1 X85.265 Y80.780 E2.14125
G1 X85.792 Y80.847 E2.16143
G1 X86.306 Y80.979 E2.18161
G1 X86.800 Y81.174 E2.20179
G1 X87.265 Y81.430 E2.22196
G1 X87.695 Y81.742 E2.24214
G1 X88.082 Y82.106 E2.26232
G1 X88.420 Y82.515 E2.28250
G1 X88.705 Y82.963 E2.30268
G1 X88.931 Y83.444 E2.32286
G1 X89.095 Y83.949 E2.34304
G1 X89.195 Y84.470 E2.36321
G1 X89.228 Y85.000 E2.38339
G1 X89.195 Y85.530 E2.40357
G1 X89.095 Y86.051 E2.42375
G1 X88.931 Y86.556 E2.44393
G1 X88.705 Y87.037 E2.46411
G1 X88.420 Y87.485 E2.48428
G1 X88.082 Y87.894 E2.50446
G1 X87.695 Y88.258 E2.52464
G1 X87.265 Y88.570 E2.54482
G1 X86.800 Y88.826 E2.56500
G1 X86.306 Y89.021 E2.58518
G1 X85.792 Y89.153 E2.60536
G1 X85.265 Y89.220 E2.62553
G1 X84.735 Y89.220 E2.64571
G1 X84.208 Y89.153 E2.66589
G1 X83.694 Y89.021 E2.68607
G1 X83.200 Y88.826 E2.70625
G1 X82.735 Y88.570 E2.72643
G1 X82.305 Y88.258 E2.74661
G1 X81.870 Y87.836 E2.76964
G1 X81.580 Y87.485 E2.78694
G1 X81.295 Y87.037 E2.80712
G1 X81.069 Y86.556 E2.82730
G1 X80.905 Y86.051 E2.84748
G1 X80.805 Y85.530 E2.86766
G1 X80.772 Y85.000 E2.88784
G1 X80.805 Y84.470 E2.90801
G1 X80.905 Y83.949 E2.92819
G1 X81.069 Y83.444 E2.94837
G1 X81.295 Y82.963 E2.96855
G1 X81.580 Y82.515 E2.98873
G1 X81.855 Y82.181 E3.00518
G1 X77.623 Y78.460 F12000.000
G1 X77.804 Y78.242 F653.367 E3.01592
G1 X78.707 Y77.393 E3.06304
G1 X79.710 Y76.665 E3.11016
G1 X80.797 Y76.067 E3.15727
G1 X81.949 Y75.611 E3.20439
G1 X83.150 Y75.303 E3.25151
G1 X84.380 Y75.147 E3.29862
G1 X85.620 Y75.147 E3.34574
G1 X86.850 Y75.303 E3.39286
G1 X88.051 Y75.611 E3.43997
G1 X89.203 Y76.067 E3.48709
G1 X90.290 Y76.665 E3.53421
G1 X91.293 Y77.393 E3.58132
G1 X92.196 Y78.242 E3.62844
G1 X92.987 Y79.197 E3.67556
G1 X93.651 Y80.244 E3.72267
G1 X94.179 Y81.366 E3.76979
G1 X94.562 Y82.545 E3.81691
G1 X94.794 Y83.763 E3.86402
G1 X94.872 Y85.000 E3.91114
G1 X94.794 Y86.237 E3.95826
G1 X94.562 Y87.455 E4.00537
G1 X94.179 Y88.634 E4.05249
G1 X93.651 Y89.756 E4.09961
G1 X92.987 Y90.803 E4.14672
G1 X92.196 Y91.758 E4.19384
G1 X91.293 Y92.607 E4.24096
G1 X90.290 Y93.335 E4.28807
G1 X89.203 Y93.933 E4.33519
G1 X88.051 Y94.389 E4.38231
G1 X86.850 Y94.697 E4.42942
G1 X85.620 Y94.853 E4.47654
G1 X84.380 Y94.853 E4.52366
G1 X83.150 Y94.697 E4.57078
G1 X81.949 Y94.389 E4.61789
G1 X80.797 Y93.933 E4.66501
G1 X79.710 Y93.335 E4.71213
G1 X78.707 Y92.607 E4.75924
G1 X77.804 Y91.758 E4.80636
G1 X77.013 Y90.803 E4.85348
G1 X76.349 Y89.756 E4.90059
G1 X75.821 Y88.634 E4.94771
G1 X75.770 Y88.478 E4.95394
G1 X75.438 Y87.455 E4.99483
G1 X75.206 Y86.237 E5.04194
G1 X75.128 Y85.000 E5.08906
G1 X75.206 Y83.763 E5.13618
G1 X75.438 Y82.545 E5.18329
G1 X75.821 Y81.366 E5.23041
G1 X76.349 Y80.244 E5.27753
G1 X77.013 Y79.197 E5.32464
G1 X77.561 Y78.536 E5.35728
G1 X85.590 Y75.622 F12000.000
G1 X86.761 Y75.770 F1088.946 E5.40327
G1 X87.904 Y76.063 E5.44926
G1 X89.001 Y76.498 E5.49526
G1 X90.076 Y77.089 E5.54308
G1 X90.990 Y77.760 E5.58725
G1 X91.850 Y78.568 E5.63325
G1 X92.602 Y79.477 E5.67924
G1 X93.234 Y80.473 E5.72523
G1 X93.737 Y81.541 E5.77122
G1 X94.101 Y82.663 E5.81721
G1 X94.390 Y84.176 E5.87724
G1 X94.345 Y84.176 E5.87901
G1 X94.397 Y85.000 E5.91118
G1 X94.345 Y85.824 E5.94335
G1 X94.390 Y85.824 E5.94512
G1 X94.101 Y87.337 E6.00515
G1 X93.737 Y88.459 E6.05114
G1 X93.234 Y89.527 E6.09713
G1 X92.602 Y90.523 E6.14312
G1 X91.850 Y91.432 E6.18911
G1 X90.990 Y92.240 E6.23511
G1 X90.035 Y92.934 E6.28110
G1 X89.001 Y93.502 E6.32709
G1 X87.904 Y93.937 E6.37308
G1 X86.761 Y94.230 E6.41907
G1 X85.590 Y94.378 E6.46506
G1 X84.410 Y94.378 E6.51105
G1 X83.239 Y94.230 E6.55705
G1 X82.096 Y93.937 E6.60304
G1 X80.999 Y93.502 E6.64903
G1 X79.965 Y92.934 E6.69502
G1 X79.010 Y92.240 E6.74101
G1 X78.150 Y91.432 E6.78700
G1 X77.398 Y90.523 E6.83300
G1 X76.766 Y89.527 E6.87899
G1 X76.263 Y88.459 E6.92498
G1 X75.899 Y87.337 E6.97097
G1 X75.677 Y86.178 E7.01696
G1 X75.603 Y85.000 E7.06295
G1 X75.677 Y83.822 E7.10894
G1 X75.899 Y82.663 E7.15494
G1 X76.263 Y81.541 E7.20093
G1 X76.766 Y80.473 E7.24692
G1 X77.398 Y79.477 E7.29291
G1 X78.150 Y78.568 E7.33890
G1 X79.010 Y77.760 E7.38489
G1 X79.965 Y77.066 E7.43088
G1 X80.999 Y76.498 E7.47688
G1 X82.096 Y76.063 E7.52287
G1 X83.239 Y75.770 E7.56886
G1 X84.410 Y75.622 E7.61485
G1 X85.489 Y75.622 E7.65692
G1 X86.635 Y76.430 F12000.000
G1 X87.696 Y76.703 F1088.946 E7.69962
G1 X88.715 Y77.106 E7.74232
G1 X89.675 Y77.634 E7.78502
G1 X90.561 Y78.278 E7.82772
G1 X91.360 Y79.028 E7.87042
G1 X92.058 Y79.872 E7.91312
G1 X92.645 Y80.797 E7.95582
G1 X93.112 Y81.788 E7.99852
G1 X93.450 Y82.830 E8.04122
G1 X93.655 Y83.907 E8.08392
G1 X93.724 Y85.000 E8.12662
G1 X93.655 Y86.093 E8.16932
G1 X93.450 Y87.170 E8.21202
G1 X93.112 Y88.212 E8.25472
G1 X92.645 Y89.203 E8.29742
G1 X92.058 Y90.128 E8.34012
G1 X91.360 Y90.972 E8.38282
G1 X90.561 Y91.722 E8.42552
G1 X89.675 Y92.366 E8.46822
G1 X88.715 Y92.894 E8.51092
G1 X87.696 Y93.297 E8.55361
G1 X86.635 Y93.570 E8.59632
G1 X85.548 Y93.707 E8.63902
G1 X84.452 Y93.707 E8.68171
G1 X83.365 Y93.570 E8.72441
G1 X82.304 Y93.297 E8.76712
G1 X81.285 Y92.894 E8.80981
G1 X80.325 Y92.366 E8.85251
G1 X79.439 Y91.722 E8.89521
G1 X78.640 Y90.972 E8.93791
G1 X77.942 Y90.128 E8.98061
G1 X77.355 Y89.203 E9.02331
G1 X76.888 Y88.212 E9.06601
G1 X76.550 Y87.170 E9.10871
G1 X76.345 Y86.093 E9.15141
G1 X76.276 Y85.000 E9.19411
G1 X76.345 Y83.907 E9.23681
G1 X76.550 Y82.830 E9.27951
G1 X76.888 Y81.788 E9.32221
G1 X77.355 Y80.797 E9.36491
G1 X77.942 Y79.872 E9.40761
G1 X78.640 Y79.028 E9.45031
G1 X79.439 Y78.278 E9.49301
G1 X80.325 Y77.634 E9.53571
G1 X81.285 Y77.106 E9.57841
G1 X82.304 Y76.703 E9.62111
G1 X83.365 Y76.430 E9.66381
G1 X84.452 Y76.293 E9.70651
G1 X85.548 Y76.293 E9.74921
G1 X86.535 Y76.418 E9.78799
G1 X85.506 Y76.964 F12000.000
G1 X86.509 Y77.091 F1088.946 E9.82740
G1 X87.488 Y77.342 E9.86681
G1 X88.428 Y77.715 E9.90621
G1 X89.314 Y78.202 E9.94562
G1 X90.132 Y78.796 E9.98503
G1 X90.869 Y79.488 E10.02444
G1 X91.514 Y80.267 E10.06385
G1 X92.056 Y81.121 E10.10326
G1 X92.486 Y82.036 E10.14266
G1 X92.799 Y82.998 E10.18207
G1 X92.988 Y83.991 E10.22148
G1 X93.052 Y85.000 E10.26089
G1 X92.988 Y86.009 E10.30030
G1 X92.799 Y87.002 E10.33970
G1 X92.486 Y87.964 E10.37911
G1 X92.056 Y88.879 E10.41852
G1 X91.514 Y89.733 E10.45793
G1 X90.869 Y90.512 E10.49734
G1 X90.132 Y91.204 E10.53675
G1 X89.314 Y91.798 E10.57616
G1 X88.428 Y92.285 E10.61556
G1 X87.488 Y92.658 E10.65497
G1 X86.509 Y92.909 E10.69438
G1 X85.506 Y93.036 E10.73379
G1 X84.494 Y93.036 E10.77319
G1 X83.491 Y92.909 E10.81260
G1 X82.512 Y92.658 E10.85201
G1 X81.572 Y92.285 E10.89142
G1 X80.686 Y91.798 E10.93083
G1 X79.868 Y91.204 E10.97024
G1 X79.131 Y90.512 E11.00965
G1 X78.486 Y89.733 E11.04905
G1 X77.944 Y88.879 E11.08846
G1 X77.514 Y87.964 E11.12787
G1 X77.201 Y87.002 E11.16728
G1 X77.012 Y86.009 E11.20669
G1 X76.948 Y85.000 E11.24610
G1 X77.012 Y83.991 E11.28550
G1 X77.201 Y82.998 E11.32491
G1 X77.514 Y82.036 E11.36432
G1 X77.944 Y81.121 E11.40373
G1 X78.486 Y80.267 E11.44314
G1 X79.131 Y79.488 E11.48255
G1 X79.868 Y78.796 E11.52195
G1 X80.686 Y78.202 E11.56136
G1 X81.572 Y77.715 E11.60077
G1 X82.512 Y77.342 E11.64018
G1 X83.491 Y77.091 E11.67959
G1 X84.494 Y76.964 E11.71900
G1 X85.405 Y76.964 E11.75448
G1 X85.380 Y78.964 F12000.000
G1 X86.133 Y79.059 F1088.946 E11.78408
G1 X86.869 Y79.248 E11.81369
G1 X87.575 Y79.527 E11.84329
G1 X88.241 Y79.893 E11.87289
G1 X88.855 Y80.340 E11.90250
G1 X89.409 Y80.860 E11.93210
G1 X89.893 Y81.445 E11.96170
G1 X90.300 Y82.086 E11.99130
G1 X90.624 Y82.773 E12.02091
G1 X90.858 Y83.496 E12.05051
G1 X91.001 Y84.242 E12.08012
G1 X91.048 Y85.000 E12.10972
G1 X91.001 Y85.758 E12.13932
G1 X90.858 Y86.504 E12.16893
G1 X90.624 Y87.227 E12.19853
G1 X90.300 Y87.914 E12.22813
G1 X89.893 Y88.555 E12.25774
G1 X89.409 Y89.140 E12.28734
G1 X88.855 Y89.660 E12.31694
G1 X88.241 Y90.107 E12.34654
G1 X87.575 Y90.473 E12.37615
G1 X86.869 Y90.752 E12.40575
G1 X86.133 Y90.941 E12.43536
G1 X85.380 Y91.036 E12.46496
G1 X84.620 Y91.036 E12.49456
G1 X83.867 Y90.941 E12.52417
G1 X83.131 Y90.752 E12.55377
G1 X82.425 Y90.473 E12.58337
G1 X81.759 Y90.107 E12.61298
G1 X81.145 Y89.660 E12.64258
G1 X80.581 Y89.131 E12.67271
G1 X80.048 Y88.462 E12.70604
G1 X79.700 Y87.914 E12.73136
G1 X79.376 Y87.227 E12.76097
G1 X79.142 Y86.504 E12.79057
G1 X78.999 Y85.758 E12.82017
G1 X78.952 Y85.000 E12.84978
G1 X78.999 Y84.242 E12.87938
G1 X79.142 Y83.496 E12.90899
G1 X79.376 Y82.773 E12.93859
G1 X79.700 Y82.086 E12.96819
G1 X80.048 Y81.538 E12.99352
G1 X80.581 Y80.869 E13.02685
G1 X81.145 Y80.340 E13.05698
G1 X81.759 Y79.893 E13.08658
G1 X82.425 Y79.527 E13.11619
G1 X83.131 Y79.248 E13.14579
G1 X83.760 Y79.086 E13.17111
G1 X84.607 Y78.964 E13.20444
G1 X85.279 Y78.964 E13.23065
G1 X84.655 Y79.635 F12000.000
G1 X85.338 Y79.635 F1088.946 E13.25725
G1 X86.007 Y79.719 E13.28356
G1 X86.661 Y79.887 E13.30987
G1 X87.289 Y80.136 E13.33619
G1 X87.881 Y80.461 E13.36250
G1 X88.427 Y80.858 E13.38881
G1 X88.919 Y81.320 E13.41512
G1 X89.349 Y81.840 E13.44143
G1 X89.711 Y82.410 E13.46774
G1 X89.998 Y83.021 E13.49406
G1 X90.207 Y83.663 E13.52037
G1 X90.333 Y84.326 E13.54668
G1 X90.376 Y85.000 E13.57299
G1 X90.333 Y85.674 E13.59930
G1 X90.207 Y86.337 E13.62562
G1 X89.998 Y86.979 E13.65193
G1 X89.711 Y87.590 E13.67824
G1 X89.349 Y88.160 E13.70455
G1 X88.919 Y88.680 E13.73086
G1 X88.427 Y89.142 E13.75717
G1 X87.881 Y89.539 E13.78349
G1 X87.289 Y89.864 E13.80980
G1 X86.661 Y90.113 E13.83611
G1 X86.007 Y90.281 E13.86242
G1 X85.338 Y90.365 E13.88873
G1 X84.662 Y90.365 E13.91504
G1 X83.993 Y90.281 E13.94136
G1 X83.339 Y90.113 E13.96767
G1 X82.711 Y89.864 E13.99398
G1 X82.119 Y89.539 E14.02029
G1 X81.573 Y89.142 E14.04660
G1 X81.076 Y88.675 E14.07320
G1 X80.595 Y88.072 E14.10324
G1 X80.289 Y87.590 E14.12551
G1 X80.002 Y86.979 E14.15183
G1 X79.793 Y86.337 E14.17814
G1 X79.667 Y85.674 E14.20445
G1 X79.624 Y85.000 E14.23076
G1 X79.667 Y84.326 E14.25707
G1 X79.793 Y83.663 E14.28339
G1 X80.002 Y83.021 E14.30970
G1 X80.289 Y82.410 E14.33601
G1 X80.595 Y81.928 E14.35828
G1 X81.076 Y81.325 E14.38832
G1 X81.573 Y80.858 E14.41492
G1 X82.119 Y80.461 E14.44123
G1 X82.711 Y80.136 E14.46754
G1 X83.339 Y79.887 E14.49385
G1 X83.892 Y79.745 E14.51612
G1 X84.555 Y79.649 E14.54224
G1 X85.295 Y80.306 F12000.000
G1 X85.881 Y80.380 F1088.946 E14.56526
G1 X86.453 Y80.527 E14.58828
G1 X87.003 Y80.744 E14.61130
G1 X87.520 Y81.029 E14.63432
G1 X87.998 Y81.376 E14.65734
G1 X88.429 Y81.780 E14.68036
G1 X88.805 Y82.235 E14.70338
G1 X89.122 Y82.734 E14.72640
G1 X89.373 Y83.269 E14.74942
G1 X89.556 Y83.830 E14.77244
G1 X89.666 Y84.411 E14.79546
G1 X89.703 Y85.000 E14.81848
G1 X89.666 Y85.589 E14.84150
G1 X89.556 Y86.170 E14.86452
G1 X89.373 Y86.731 E14.88754
G1 X89.122 Y87.266 E14.91056
G1 X88.805 Y87.765 E14.93358
G1 X88.429 Y88.220 E14.95660
G1 X87.998 Y88.624 E14.97962
G1 X87.520 Y88.971 E15.00264
G1 X87.003 Y89.256 E15.02566
G1 X86.453 Y89.473 E15.04868
G1 X85.881 Y89.620 E15.07170
G1 X85.295 Y89.694 E15.09472
G1 X84.705 Y89.694 E15.11774
G1 X84.119 Y89.620 E15.14076
G1 X83.547 Y89.473 E15.16378
G1 X82.997 Y89.256 E15.18680
G1 X82.480 Y88.971 E15.20983
G1 X82.002 Y88.624 E15.23285
G1 X81.570 Y88.219 E15.25592
G1 X81.143 Y87.682 E15.28266
G1 X80.878 Y87.266 E15.30188
G1 X80.627 Y86.731 E15.32490
G1 X80.444 Y86.170 E15.34792
G1 X80.334 Y85.589 E15.37094
G1 X80.297 Y85.000 E15.39396
G1 X80.334 Y84.411 E15.41698
G1 X80.444 Y83.830 E15.44000
G1 X80.627 Y83.269 E15.46302
G1 X80.878 Y82.734 E15.48604
G1 X81.143 Y82.318 E15.50526
G1 X81.570 Y81.781 E15.53200
G1 X82.002 Y81.376 E15.55508
G1 X82.480 Y81.029 E15.57810
G1 X82.997 Y80.744 E15.60112
G1 X83.547 Y80.527 E15.62414
G1 X84.024 Y80.404 E15.64335
G1 X84.703 Y80.306 E15.67010
G1 X85.195 Y80.306 E15.68925
M106 S255
M104 S188 ; set temperature
G1 F1680.000 E13.68925
G92 E0
G1 Z0.750 F12000.000
G1 X85.265 Y80.780
G1 F1680.000 E2.00000
G1 X85.792 Y80.847 F738.500 E2.01345
G1 X86.306 Y80.979 E2.02690
G1 X86.800 Y81.174 E2.04036
G1 X87.265 Y81.430 E2.05381
G1 X87.695 Y81.742 E2.06726
G1 X88.082 Y82.106 E2.08071
G1 X88.420 Y82.515 E2.09417
G1 X88.705 Y82.963 E2.10762
G1 X88.931 Y83.444 E2.12107
G1 X89.095 Y83.949 E2.13452
G1 X89.195 Y84.470 E2.14798
G1 X89.228 Y85.000 E2.16143
