; generated by Slic3r 0.9.10b on 2013-10-21 at 15:12:14

; layer_height = 0.3
; perimeters = 1
; top_solid_layers = 3
; bottom_solid_layers = 3
; fill_density = 0.5
; perimeter_speed = 30
; infill_speed = 30
; travel_speed = 200
; nozzle_diameter = 0.5
; filament_diameter = 2.9
; extrusion_multiplier = 0.95
; perimeters extrusion width = 0.70mm
; infill extrusion width = 0.70mm
; solid infill extrusion width = 0.70mm
; top infill extrusion width = 0.70mm

G21 ; set units to millimeters
M107
M190 S100 ; wait for bed temperature to be reached
M104 S230 ; set temperature
G28 ; home all axes
G1 Z15 F120 ; lift nozzle
M109 S230 ; wait for temperature to be reached
G90 ; use absolute coordinates
G92 E0
M82 ; use absolute distances for extrusion
G1 F1680.000 E-2.00000
G92 E0
G1 Z0.450 F12000.000
G1 X62.740 Y74.510
G1 F1680.000 E2.00000
G1 X63.900 Y73.870 F900.000 E2.05612
G1 X65.180 Y73.480 E2.11280
G1 X66.500 Y73.350 E2.16899
G1 X99.500 Y73.350 E3.56688
G1 X100.820 Y73.480 E3.62306
G1 X102.100 Y73.870 E3.67975
G1 X103.260 Y74.510 E3.73587
G1 X104.280 Y75.370 E3.79238
G1 X105.110 Y76.410 E3.84875
G1 X105.710 Y77.600 E3.90520
G1 X114.210 Y99.600 E4.90427
G1 X114.540 Y100.780 E4.95617
G1 X114.650 Y102.000 E5.00806
G1 X114.650 Y106.000 E5.17750
G1 X114.530 Y107.300 E5.23280
G1 X114.150 Y108.550 E5.28815
G1 X113.530 Y109.700 E5.34349
G1 X112.710 Y110.710 E5.39860
G1 X111.700 Y111.530 E5.45371
G1 X110.550 Y112.150 E5.50905
G1 X109.300 Y112.530 E5.56439
G1 X108.000 Y112.650 E5.61969
G1 X58.000 Y112.650 E7.73771
G1 X56.700 Y112.530 E7.79301
G1 X55.450 Y112.150 E7.84835
G1 X54.300 Y111.530 E7.90370
G1 X53.290 Y110.710 E7.95881
G1 X52.470 Y109.700 E8.01392
G1 X51.850 Y108.550 E8.06926
G1 X51.470 Y107.300 E8.12460
G1 X51.350 Y106.000 E8.17990
G1 X51.350 Y102.000 E8.34935
G1 X51.460 Y100.780 E8.40123
G1 X51.790 Y99.600 E8.45314
G1 X60.290 Y77.600 E9.45220
G1 X60.890 Y76.410 E9.50866
G1 X61.720 Y75.370 E9.56502
G1 X62.665 Y74.573 E9.61738
G1 F1680.000 E7.61738
G92 E0
G1 X66.827 Y80.327 F12000.000
G1 F1680.000 E2.00000
G1 X99.173 Y80.327 F720.000 E3.37016
G1 X99.173 Y102.327 E4.30209
G1 X107.673 Y102.327 E4.66215
G1 X107.673 Y105.673 E4.80387
G1 X58.327 Y105.673 E6.89416
G1 X58.327 Y102.327 E7.03588
G1 X66.827 Y102.327 E7.39594
G1 X66.827 Y80.425 E8.32371
G1 F1680.000 E6.32371
G92 E0
G1 X59.401 Y105.198 F12000.000
G1 F1680.000 E2.00000
G1 X58.802 Y104.599 F1200.000 E2.03592
G1 X58.802 Y103.673 E2.07521
G1 X60.327 Y105.198 E2.16669
G1 X61.254 Y105.198 E2.20598
G1 X58.857 Y102.802 E2.34970
G1 X59.784 Y102.802 E2.38899
G1 X62.180 Y105.198 E2.53272
G1 X63.107 Y105.198 E2.57201
G1 X60.710 Y102.802 E2.71574
G1 X61.637 Y102.802 E2.75503
G1 X64.033 Y105.198 E2.89875
G1 X64.960 Y105.198 E2.93804
G1 X62.563 Y102.802 E3.08177
G1 X63.490 Y102.802 E3.12106
G1 X65.886 Y105.198 E3.26478
G1 X66.813 Y105.198 E3.30407
G1 X64.416 Y102.802 E3.44780
G1 X65.343 Y102.802 E3.48709
G1 X67.740 Y105.198 E3.63082
G1 X68.666 Y105.198 E3.67011
G1 X66.269 Y102.802 E3.81383
G1 X67.196 Y102.802 E3.85312
G1 X69.593 Y105.198 E3.99685
G1 X70.519 Y105.198 E4.03614
G1 X67.302 Y101.981 E4.22909
G1 X67.302 Y101.054 E4.26838
G1 X71.446 Y105.198 E4.51690
G1 X72.372 Y105.198 E4.55619
G1 X67.302 Y100.128 E4.86027
G1 X67.302 Y99.201 E4.89956
G1 X73.299 Y105.198 E5.25920
G1 X74.225 Y105.198 E5.29849
G1 X67.302 Y98.275 E5.71370
G1 X67.302 Y97.348 E5.75299
G1 X75.152 Y105.198 E6.22376
G1 X76.079 Y105.198 E6.26305
G1 X67.302 Y96.421 E6.78938
G1 X67.302 Y95.495 E6.82867
G1 X77.005 Y105.198 E7.41057
G1 X77.932 Y105.198 E7.44986
G1 X67.302 Y94.568 E8.08733
G1 X67.302 Y93.642 E8.12662
G1 X78.858 Y105.198 E8.81964
G1 X79.785 Y105.198 E8.85893
G1 X67.302 Y92.715 E9.60752
G1 X67.302 Y91.789 E9.64681
G1 X80.711 Y105.198 E10.45097
G1 X81.638 Y105.198 E10.49026
G1 X67.302 Y90.862 E11.34997
G1 X67.302 Y89.936 E11.38926
G1 X82.564 Y105.198 E12.30455
G1 X83.491 Y105.198 E12.34384
G1 X67.302 Y89.009 E13.31468
G1 X67.302 Y88.082 E13.35397
G1 X84.418 Y105.198 E14.38038
G1 X85.344 Y105.198 E14.41967
G1 X67.302 Y87.156 E15.50164
G1 X67.302 Y86.229 E15.54093
G1 X86.271 Y105.198 E16.67847
G1 X87.197 Y105.198 E16.71776
G1 X67.302 Y85.303 E17.91086
G1 X67.302 Y84.376 E17.95015
G1 X88.124 Y105.198 E19.19882
G1 X89.050 Y105.198 E19.23811
G1 X67.302 Y83.450 E20.54233
G1 X67.302 Y82.523 E20.58162
G1 X89.977 Y105.198 E21.94142
G1 X90.903 Y105.198 E21.98071
G1 X67.302 Y81.597 E23.39606
G1 X67.433 Y80.802 E23.43023
G1 X91.830 Y105.198 E24.89326
G1 X92.757 Y105.198 E24.93255
G1 X68.360 Y80.802 E26.39558
G1 X69.286 Y80.802 E26.43487
G1 X93.683 Y105.198 E27.89789
G1 X94.610 Y105.198 E27.93718
G1 X70.213 Y80.802 E29.40021
G1 X71.139 Y80.802 E29.43950
G1 X95.536 Y105.198 E30.90253
G1 X96.463 Y105.198 E30.94182
G1 X72.066 Y80.802 E32.40484
G1 X72.993 Y80.802 E32.44413
G1 X97.389 Y105.198 E33.90716
G1 X98.316 Y105.198 E33.94645
G1 X73.919 Y80.802 E35.40948
G1 X74.846 Y80.802 E35.44877
G1 X99.242 Y105.198 E36.91180
G1 X100.169 Y105.198 E36.95109
G1 X75.772 Y80.802 E38.41411
G1 X76.699 Y80.802 E38.45340
G1 X98.698 Y102.801 E39.77268
G1 X98.699 Y102.802 F12000.000
G1 X101.096 Y105.198 F1200.000 E39.91640
G1 X102.022 Y105.198 E39.95569
G1 X99.625 Y102.802 E40.09942
G1 X100.552 Y102.802 E40.13871
G1 X102.949 Y105.198 E40.28244
G1 X103.875 Y105.198 E40.32173
G1 X101.478 Y102.802 E40.46545
G1 X102.405 Y102.802 E40.50474
G1 X104.802 Y105.198 E40.64847
G1 X105.728 Y105.198 E40.68776
G1 X103.332 Y102.802 E40.83149
G1 X104.258 Y102.802 E40.87078
G1 X106.655 Y105.198 E41.01450
G1 X107.198 Y104.815 E41.04270
G1 X105.185 Y102.802 E41.16345
G1 X106.111 Y102.802 E41.20274
G1 X107.198 Y103.889 E41.26794
G1 X107.198 Y102.962 E41.30723
G1 X107.038 Y102.802 E41.31686
G1 F1680.000 E39.31686
G92 E0
G1 X98.698 Y101.875 F12000.000
G1 F1680.000 E2.00000
G1 X77.625 Y80.802 F1200.000 E3.26371
G1 X78.552 Y80.802 E3.30300
G1 X98.698 Y100.948 E4.51115
G1 X98.698 Y100.022 E4.55044
G1 X79.478 Y80.802 E5.70302
G1 X80.405 Y80.802 E5.74231
G1 X98.698 Y99.095 E6.83933
G1 X98.698 Y98.168 E6.87862
G1 X81.332 Y80.802 E7.92007
G1 X82.258 Y80.802 E7.95936
G1 X98.698 Y97.242 E8.94525
G1 X98.698 Y96.315 E8.98454
G1 X83.185 Y80.802 E9.91487
G1 X84.111 Y80.802 E9.95416
G1 X98.698 Y95.389 E10.82893
G1 X98.698 Y94.462 E10.86822
G1 X85.038 Y80.802 E11.68742
G1 X85.964 Y80.802 E11.72670
G1 X98.698 Y93.536 E12.49034
G1 X98.698 Y92.609 E12.52963
G1 X86.891 Y80.802 E13.23770
G1 X87.817 Y80.802 E13.27699
G1 X98.698 Y91.683 E13.92950
G1 X98.698 Y90.756 E13.96879
G1 X88.744 Y80.802 E14.56574
G1 X89.671 Y80.802 E14.60503
G1 X98.698 Y89.829 E15.14641
G1 X98.698 Y88.903 E15.18570
G1 X90.597 Y80.802 E15.67151
G1 X91.524 Y80.802 E15.71080
G1 X98.698 Y87.976 E16.14106
G1 X98.698 Y87.050 E16.18035
G1 X92.450 Y80.802 E16.55504
G1 X93.377 Y80.802 E16.59432
G1 X98.698 Y86.123 E16.91345
G1 X98.698 Y85.197 E16.95274
G1 X94.303 Y80.802 E17.21630
G1 X95.230 Y80.802 E17.25559
G1 X98.698 Y84.270 E17.46359
G1 X98.698 Y83.344 E17.50288
G1 X96.156 Y80.802 E17.65531
G1 X97.083 Y80.802 E17.69460
G1 X98.698 Y82.417 E17.79147
G1 X98.698 Y81.490 E17.83076
G1 X98.010 Y80.802 E17.87207
M106 S206
M104 S225 ; set temperature
M140 S105 ; set bed temperature
G1 F1680.000 E15.87207
G92 E0
G1 Z0.750 F12000.000
G1 X99.173 Y80.327
G1 F1680.000 E2.00000
G1 X99.173 Y102.327 F1440.000 E2.62128
G1 X107.673 Y102.327 E2.86133
G1 X107.673 Y105.673 E2.95580
G1 X58.327 Y105.673 E4.34933
G1 X58.327 Y102.327 E4.44381
G1 X66.827 Y102.327 E4.68385
G1 X66.827 Y80.327 E5.30513
G1 X99.075 Y80.327 E6.21580
G1 F1680.000 E4.21580
G92 E0
G1 X107.198 Y104.926 F12000.000
G1 F1680.000 E2.00000
G1 X106.926 Y105.198 F2400.000 E2.01089
G1 X105.999 Y105.198 E2.03708
G1 X107.198 Y103.999 E2.08502
G1 X107.198 Y103.073 E2.11121
G1 X105.073 Y105.198 E2.19619
G1 X104.146 Y105.198 E2.22238
G1 X106.543 Y102.802 E2.31820
G1 X105.616 Y102.802 E2.34439
G1 X103.220 Y105.198 E2.44021
G1 X102.293 Y105.198 E2.46640
G1 X104.690 Y102.802 E2.56222
G1 X103.763 Y102.802 E2.58842
G1 X101.367 Y105.198 E2.68423
G1 X100.440 Y105.198 E2.71043
G1 X102.837 Y102.802 E2.80624
G1 X101.910 Y102.802 E2.83244
G1 X99.513 Y105.198 E2.92825
G1 X98.587 Y105.198 E2.95445
G1 X100.984 Y102.802 E3.05027
G1 X100.057 Y102.802 E3.07646
G1 X97.660 Y105.198 E3.17228
G1 X96.734 Y105.198 E3.19847
G1 X99.131 Y102.802 E3.29429
G1 X98.698 Y102.307 E3.31285
G1 X95.807 Y105.198 E3.42843
G1 X94.881 Y105.198 E3.45463
G1 X98.698 Y101.381 E3.60725
G1 X98.698 Y100.454 E3.63344
G1 X93.954 Y105.198 E3.82311
G1 X93.028 Y105.198 E3.84930
G1 X98.698 Y99.528 E4.07601
G1 X98.698 Y98.601 E4.10221
G1 X92.101 Y105.198 E4.36596
G1 X91.174 Y105.198 E4.39215
G1 X98.698 Y97.674 E4.69295
G1 X98.698 Y96.748 E4.71914
G1 X90.248 Y105.198 E5.05698
G1 X89.321 Y105.198 E5.08317
G1 X98.698 Y95.821 E5.45805
G1 X98.698 Y94.895 E5.48425
G1 X88.395 Y105.198 E5.89617
G1 X87.468 Y105.198 E5.92236
G1 X98.698 Y93.968 E6.37133
G1 X98.698 Y93.042 E6.39752
G1 X86.542 Y105.198 E6.88353
G1 X85.615 Y105.198 E6.90972
G1 X98.698 Y92.115 E7.43277
G1 X98.698 Y91.189 E7.45897
G1 X84.689 Y105.198 E8.01906
G1 X83.762 Y105.198 E8.04525
G1 X98.698 Y90.262 E8.64239
G1 X98.698 Y89.336 E8.66858
G1 X82.836 Y105.198 E9.30276
G1 X81.909 Y105.198 E9.32895
G1 X98.698 Y88.409 E10.00017
G1 X98.698 Y87.482 E10.02636
G1 X80.982 Y105.198 E10.73463
G1 X80.056 Y105.198 E10.76082
G1 X98.698 Y86.556 E11.50613
G1 X98.698 Y85.629 E11.53232
G1 X79.129 Y105.198 E12.31467
G1 X78.203 Y105.198 E12.34086
G1 X98.698 Y84.703 E13.16025
G1 X98.698 Y83.776 E13.18644
G1 X77.276 Y105.198 E14.04288
G1 X76.350 Y105.198 E14.06907
G1 X98.698 Y82.850 E14.96255
G1 X98.698 Y81.923 E14.98874
G1 X75.423 Y105.198 E15.91926
G1 X74.497 Y105.198 E15.94545
G1 X98.698 Y80.997 E16.91301
G1 X97.967 Y80.802 E16.93442
G1 X73.570 Y105.198 E17.90977
G1 X72.643 Y105.198 E17.93596
G1 X97.040 Y80.802 E18.91131
G1 X96.114 Y80.802 E18.93751
G1 X71.717 Y105.198 E19.91286
G1 X70.790 Y105.198 E19.93905
G1 X95.187 Y80.802 E20.91440
G1 X94.260 Y80.802 E20.94060
G1 X69.864 Y105.198 E21.91595
G1 X68.937 Y105.198 E21.94214
G1 X93.334 Y80.802 E22.91749
G1 X92.407 Y80.802 E22.94369
G1 X68.011 Y105.198 E23.91904
G1 X67.084 Y105.198 E23.94523
G1 X91.481 Y80.802 E24.92058
G1 X90.554 Y80.802 E24.94678
G1 X66.158 Y105.198 E25.92213
G1 X65.231 Y105.198 E25.94832
G1 X89.628 Y80.802 E26.92367
G1 X88.701 Y80.802 E26.94987
G1 X67.302 Y102.201 E27.80539
G1 X66.701 Y102.802 F12000.000
G1 X64.304 Y105.198 F2400.000 E27.90121
G1 X63.378 Y105.198 E27.92740
G1 X65.775 Y102.802 E28.02322
G1 X64.848 Y102.802 E28.04941
G1 X62.451 Y105.198 E28.14523
G1 X61.525 Y105.198 E28.17143
G1 X63.921 Y102.802 E28.26724
G1 X62.995 Y102.802 E28.29344
G1 X60.598 Y105.198 E28.38925
G1 X59.672 Y105.198 E28.41545
G1 X62.068 Y102.802 E28.51126
G1 X61.142 Y102.802 E28.53746
G1 X58.802 Y105.142 E28.63101
G1 X58.802 Y104.215 E28.65721
G1 X60.215 Y102.802 E28.71372
G1 X59.289 Y102.802 E28.73992
G1 X58.802 Y103.289 E28.75939
G1 F1680.000 E26.75939
G92 E0
G1 X67.302 Y101.275 F12000.000
G1 F1680.000 E2.00000
G1 X87.775 Y80.802 F2400.000 E2.81848
G1 X86.848 Y80.802 E2.84468
G1 X67.302 Y100.348 E3.62612
G1 X67.302 Y99.421 E3.65231
G1 X85.921 Y80.802 E4.39671
G1 X84.995 Y80.802 E4.42290
G1 X67.302 Y98.495 E5.13026
G1 X67.302 Y97.568 E5.15645
G1 X84.068 Y80.802 E5.82677
G1 X83.142 Y80.802 E5.85296
G1 X67.302 Y96.642 E6.48623
G1 X67.302 Y95.715 E6.51242
G1 X82.215 Y80.802 E7.10865
G1 X81.289 Y80.802 E7.13484
G1 X67.302 Y94.789 E7.69403
G1 X67.302 Y93.862 E7.72022
G1 X80.362 Y80.802 E8.24237
G1 X79.436 Y80.802 E8.26856
G1 X67.302 Y92.936 E8.75366
G1 X67.302 Y92.009 E8.77985
G1 X78.509 Y80.802 E9.22791
G1 X77.582 Y80.802 E9.25410
G1 X67.302 Y91.082 E9.66512
G1 X67.302 Y90.156 E9.69131
G1 X76.656 Y80.802 E10.06529
G1 X75.729 Y80.802 E10.09148
G1 X67.302 Y89.229 E10.42841
G1 X67.302 Y88.303 E10.45460
G1 X74.803 Y80.802 E10.75449
G1 X73.876 Y80.802 E10.78068
G1 X67.302 Y87.376 E11.04353
G1 X67.302 Y86.450 E11.06972
G1 X72.950 Y80.802 E11.29553
G1 X72.023 Y80.802 E11.32172
G1 X67.302 Y85.523 E11.51048
G1 X67.302 Y84.597 E11.53667
G1 X71.097 Y80.802 E11.68839
G1 X70.170 Y80.802 E11.71458
G1 X67.302 Y83.670 E11.82926
G1 X67.302 Y82.743 E11.85545
G1 X69.243 Y80.802 E11.93308
G1 X68.317 Y80.802 E11.95928
G1 X67.302 Y81.817 E11.99987
G1 X67.302 Y80.890 E12.02606
G1 X67.390 Y80.802 E12.02961
M106 S206
G1 F1680.000 E10.02961
G92 E0
G1 Z1.050 F12000.000
G1 X66.827 Y80.327
G1 F1680.000 E2.00000
G1 X99.173 Y80.327 F1440.000 E2.91344
G1 X99.173 Y102.327 E3.53473
G1 X107.673 Y102.327 E3.77477
G1 X107.673 Y105.673 E3.86925
G1 X58.327 Y105.673 E5.26277
G1 X58.327 Y102.327 E5.35725
G1 X66.827 Y102.327 E5.59729
G1 X66.827 Y80.425 E6.21580
G1 F1680.000 E4.21580
G92 E0
G1 X59.401 Y105.198 F12000.000
G1 F1680.000 E2.00000
G1 X58.802 Y104.599 F2400.000 E2.02392
G1 X58.802 Y103.673 E2.05009
G1 X60.327 Y105.198 E2.11101
G1 X61.254 Y105.198 E2.13718
G1 X58.857 Y102.802 E2.23290
G1 X59.784 Y102.802 E2.25906
G1 X62.180 Y105.198 E2.35478
G1 X63.107 Y105.198 E2.38095
G1 X60.710 Y102.802 E2.47667
G1 X61.637 Y102.802 E2.50283
G1 X64.033 Y105.198 E2.59855
G1 X64.960 Y105.198 E2.62472
G1 X62.563 Y102.802 E2.72044
G1 X63.490 Y102.802 E2.74660
G1 X65.886 Y105.198 E2.84232
G1 X66.813 Y105.198 E2.86849
G1 X64.416 Y102.802 E2.96421
G1 X65.343 Y102.802 E2.99037
G1 X67.740 Y105.198 E3.08609
G1 X68.666 Y105.198 E3.11226
G1 X66.269 Y102.802 E3.20798
G1 X67.196 Y102.802 E3.23414
G1 X69.593 Y105.198 E3.32986
G1 X70.519 Y105.198 E3.35603
G1 X67.302 Y101.981 E3.48453
G1 X67.302 Y101.054 E3.51070
G1 X71.446 Y105.198 E3.67621
G1 X72.372 Y105.198 E3.70237
G1 X67.302 Y100.128 E3.90488
G1 X67.302 Y99.201 E3.93105
G1 X73.299 Y105.198 E4.17056
G1 X74.225 Y105.198 E4.19673
G1 X67.302 Y98.275 E4.47325
G1 X67.302 Y97.348 E4.49942
G1 X75.152 Y105.198 E4.81294
G1 X76.079 Y105.198 E4.83911
G1 X67.302 Y96.421 E5.18964
G1 X67.302 Y95.495 E5.21580
G1 X77.005 Y105.198 E5.60334
G1 X77.932 Y105.198 E5.62950
G1 X67.302 Y94.568 E6.05404
G1 X67.302 Y93.642 E6.08021
G1 X78.858 Y105.198 E6.54175
G1 X79.785 Y105.198 E6.56791
G1 X67.302 Y92.715 E7.06646
G1 X67.302 Y91.789 E7.09263
G1 X80.711 Y105.198 E7.62818
G1 X81.638 Y105.198 E7.65434
G1 X67.302 Y90.862 E8.22690
G1 X67.302 Y89.936 E8.25307
G1 X82.564 Y105.198 E8.86263
G1 X83.491 Y105.198 E8.88879
G1 X67.302 Y89.009 E9.53536
G1 X67.302 Y88.082 E9.56152
G1 X84.418 Y105.198 E10.24509
G1 X85.344 Y105.198 E10.27126
G1 X67.302 Y87.156 E10.99183
G1 X67.302 Y86.229 E11.01800
G1 X86.271 Y105.198 E11.77557
G1 X87.197 Y105.198 E11.80174
G1 X67.302 Y85.303 E12.59632
G1 X67.302 Y84.376 E12.62249
G1 X88.124 Y105.198 E13.45407
G1 X89.050 Y105.198 E13.48024
G1 X67.302 Y83.450 E14.34883
G1 X67.302 Y82.523 E14.37500
G1 X89.977 Y105.198 E15.28059
G1 X90.903 Y105.198 E15.30676
G1 X67.302 Y81.597 E16.24936
G1 X67.433 Y80.802 E16.27211
G1 X91.830 Y105.198 E17.24646
G1 X92.757 Y105.198 E17.27263
G1 X68.360 Y80.802 E18.24698
G1 X69.286 Y80.802 E18.27314
G1 X93.683 Y105.198 E19.24749
G1 X94.610 Y105.198 E19.27366
G1 X70.213 Y80.802 E20.24800
G1 X71.139 Y80.802 E20.27417
G1 X95.536 Y105.198 E21.24852
G1 X96.463 Y105.198 E21.27468
G1 X72.066 Y80.802 E22.24903
G1 X72.993 Y80.802 E22.27520
G1 X97.389 Y105.198 E23.24954
G1 X98.316 Y105.198 E23.27571
G1 X73.919 Y80.802 E24.25006
G1 X74.846 Y80.802 E24.27622
G1 X99.242 Y105.198 E25.25057
G1 X100.169 Y105.198 E25.27674
G1 X75.772 Y80.802 E26.25109
G1 X76.699 Y80.802 E26.27725
G1 X98.698 Y102.801 E27.15586
G1 X98.699 Y102.802 F12000.000
G1 X101.096 Y105.198 F2400.000 E27.25158
G1 X102.022 Y105.198 E27.27775
G1 X99.625 Y102.802 E27.37347
G1 X100.552 Y102.802 E27.39963
