; generated by Slic3r 1.2.1 on 2015-01-09 at 21:42:01

; external perimeters extrusion width = 0.50mm
; perimeters extrusion width = 0.50mm
; infill extrusion width = 0.50mm
; solid infill extrusion width = 0.50mm
; top infill extrusion width = 0.50mm

M104 S190 ; set temperature
G28 ; home all axes
G1 Z15 F120 ; lift nozzle
M109 S190 ; wait for temperature to be reached
G21 ; set units to millimeters
G90 ; use absolute coordinates
M82 ; use absolute distances for extrusion
G92 E0
M106 S102
G1 E-2.00000 F1680.000
G92 E0
G1 Z0.400 F12000.000
G1 X38.416 Y48.046 F12000.000
G1 E2.00000 F1680.000
G1 X43.428 Y44.039 E2.19214 F1200.000
G1 X45.411 Y42.961 E2.25973
G1 X47.436 Y42.633 E2.32114
G1 X83.436 Y42.633 E3.39913
G1 X84.140 Y42.672 E3.42025
G1 X145.640 Y49.461 E5.27299 F1200.000
G1 X147.805 Y50.099 E5.34058
G1 X149.615 Y51.448 E5.40816
G1 X150.846 Y53.339 E5.47575
G1 X151.353 Y55.840 E5.55216
G1 X151.353 Y107.340 E7.09428
G1 X150.957 Y109.562 E7.16186
G1 X149.815 Y111.509 E7.22945
G1 X148.070 Y112.940 E7.29703
G1 X145.914 Y113.683 E7.36531
G1 X57.672 Y127.292 E10.03886
G1 X56.694 Y127.367 E10.06824
G1 X25.062 Y127.357 E11.01543
G1 X22.840 Y126.959 E11.08302
G1 X20.894 Y125.817 E11.15060
G1 X19.463 Y124.071 E11.21818
G1 X18.647 Y120.939 E11.31511
G1 X18.647 Y66.939 E12.93210
G1 X19.043 Y64.717 E12.99968
G1 X20.185 Y62.770 E13.06726
G1 X21.056 Y61.926 E13.10358
G1 X38.358 Y48.093 E13.76690
G1 E11.76690 F1680.000
G92 E0
G1 X28.314 Y115.215 F12000.000
G1 E2.00000 F1680.000
G1 X28.314 Y117.689 E2.06965 F1200.000
G1 X56.444 Y117.699 E2.86156
G1 X56.444 Y120.689 E2.94574
G1 X25.314 Y120.689 E3.82210
G1 X25.314 Y67.189 E5.32823
G1 X56.243 Y67.199 E6.19894
G1 X56.444 Y67.199 E6.20460 F1200.000
G1 X56.444 Y70.189 E6.28877
G1 X28.314 Y70.189 E7.08068
G1 X28.314 Y115.140 E8.34613
G1 X28.157 Y117.953 F12000.000
G1 X30.628 Y120.424 E8.44450 F2400.000
G1 X31.184 Y120.424 E8.46017
G1 X28.714 Y117.954 E8.55852
G1 X29.271 Y117.954 E8.57420
G1 X31.741 Y120.424 E8.67254
G1 X32.297 Y120.424 E8.68821
G1 X29.827 Y117.954 E8.78655
G1 X30.384 Y117.954 E8.80223
G1 X32.854 Y120.424 E8.90056
G1 X33.411 Y120.424 E8.91623
G1 X30.941 Y117.954 E9.01455
G1 X31.498 Y117.955 E9.03023
G1 X33.967 Y120.424 E9.12854
G1 X34.524 Y120.424 E9.14421
G1 X32.054 Y117.955 E9.24252
G1 X32.611 Y117.955 E9.25819
G1 X35.080 Y120.424 E9.35650
G1 X35.637 Y120.424 E9.37216
G1 X33.168 Y117.955 E9.47046
G1 X33.725 Y117.955 E9.48613
G1 X36.193 Y120.424 E9.58442
G1 X36.750 Y120.424 E9.60008
G1 X34.281 Y117.956 E9.69836
G1 X34.838 Y117.956 E9.71404
G1 X37.306 Y120.424 E9.81231
G1 X37.863 Y120.424 E9.82797
G1 X35.395 Y117.956 E9.92624
G1 X35.951 Y117.956 E9.94191
G1 X38.419 Y120.424 E10.04016
G1 X38.976 Y120.424 E10.05583
G1 X36.508 Y117.956 E10.15408
G1 X37.065 Y117.957 E10.16975
G1 X39.532 Y120.424 E10.26799
G1 X40.089 Y120.424 E10.28366
G1 X37.622 Y117.957 E10.38189
G1 X38.178 Y117.957 E10.39756
G1 X40.646 Y120.424 E10.49578
G1 X41.202 Y120.424 E10.51145
G1 X38.735 Y117.957 E10.60967
G1 X39.292 Y117.957 E10.62534
G1 X41.759 Y120.424 E10.72355
G1 X42.315 Y120.424 E10.73922
G1 X39.849 Y117.958 E10.83741
G1 X40.405 Y117.958 E10.85309
G1 X42.872 Y120.424 E10.95128
G1 X43.428 Y120.424 E10.96695
G1 X40.962 Y117.958 E11.06513
G1 X41.519 Y117.958 E11.08080
G1 X43.985 Y120.424 E11.17898
G1 X44.541 Y120.424 E11.19465
G1 X42.076 Y117.958 E11.29282
G1 X42.632 Y117.959 E11.30849
G1 X45.098 Y120.424 E11.40665
G1 X45.654 Y120.424 E11.42232
G1 X43.189 Y117.959 E11.52047
G1 X43.746 Y117.959 E11.53614
G1 X46.211 Y120.424 E11.63429
G1 X46.768 Y120.424 E11.64995
G1 X44.303 Y117.959 E11.74809
G1 X44.859 Y117.959 E11.76376
G1 X47.324 Y120.424 E11.86189
G1 X47.881 Y120.424 E11.87756
G1 X45.416 Y117.960 E11.97568
G1 X45.973 Y117.960 E11.99135
G1 X48.437 Y120.424 E12.08946
G1 X48.994 Y120.424 E12.10513
G1 X46.530 Y117.960 E12.20324
G1 X47.086 Y117.960 E12.21891
G1 X49.550 Y120.424 E12.31701
G1 X50.107 Y120.424 E12.33267
G1 X47.643 Y117.960 E12.43076
G1 X48.200 Y117.961 E12.44644
G1 X50.663 Y120.424 E12.54452
G1 X51.220 Y120.424 E12.56019
G1 X48.756 Y117.961 E12.65826
G1 X49.313 Y117.961 E12.67393
G1 X51.776 Y120.424 E12.77200
G1 X52.333 Y120.424 E12.78766
G1 X49.870 Y117.961 E12.88572
G1 X50.427 Y117.961 E12.90140
G1 X52.889 Y120.424 E12.99945
G1 X53.446 Y120.424 E13.01511
G1 X50.983 Y117.962 E13.11315
G1 X51.540 Y117.962 E13.12883
G1 X54.003 Y120.424 E13.22686
G1 X54.559 Y120.424 E13.24253
G1 X52.097 Y117.962 E13.34055
G1 X52.654 Y117.962 E13.35623
G1 X55.116 Y120.424 E13.45425
G1 X55.672 Y120.424 E13.46991
G1 X53.210 Y117.962 E13.56792
G1 X53.767 Y117.963 E13.58360
G1 X56.180 Y120.375 E13.67964
G1 X56.180 Y119.818 E13.69531
G1 X54.324 Y117.963 E13.76919
G1 X54.881 Y117.963 E13.78486
G1 X56.180 Y119.262 E13.83657
G1 X56.180 Y118.705 E13.85224
G1 X55.437 Y117.963 E13.88179
G1 X55.994 Y117.963 E13.89746
G1 X56.180 Y118.149 E13.90484
G1 X25.619 Y120.424 F12000.000
G1 X25.579 Y120.384 E13.90644 F2400.000
G1 X25.579 Y119.828 E13.92210
G1 X26.175 Y120.424 E13.94585
G1 X26.732 Y120.424 E13.96152
G1 X25.579 Y119.271 E14.00743
G1 X25.579 Y118.715 E14.02310
G1 X27.289 Y120.424 E14.09116
G1 X27.845 Y120.424 E14.10683
G1 X25.579 Y118.158 E14.19705
G1 X25.579 Y117.601 E14.21272
G1 X28.402 Y120.424 E14.32510
G1 X28.958 Y120.424 E14.34077
G1 X25.579 Y117.045 E14.47530
G1 X25.579 Y116.488 E14.49097
G1 X29.515 Y120.424 E14.64767
G1 X30.071 Y120.424 E14.66333
G1 X25.579 Y115.932 E14.84219
G1 X25.579 Y115.375 E14.85785
G1 X28.050 Y117.846 E14.95622
G1 X28.050 Y117.289 E14.97188
G1 X25.579 Y114.819 E15.07025
G1 X25.579 Y114.262 E15.08591
G1 X28.050 Y116.733 E15.18428
G1 X28.050 Y116.176 E15.19994
G1 X25.579 Y113.706 E15.29831
G1 X25.579 Y113.149 E15.31397
G1 X28.050 Y115.620 E15.41234
G1 X28.050 Y115.063 E15.42800
G1 X25.579 Y112.593 E15.52637
G1 X25.579 Y112.036 E15.54203
G1 X28.050 Y114.507 E15.64040
G1 X28.050 Y113.950 E15.65607
G1 X25.579 Y111.480 E15.75443
G1 X25.579 Y110.923 E15.77010
G1 X28.050 Y113.394 E15.86846
G1 X28.050 Y112.837 E15.88413
G1 X25.579 Y110.366 E15.98249
G1 X25.579 Y109.810 E15.99816
G1 X28.050 Y112.281 E16.09652
G1 X28.050 Y111.724 E16.11219
G1 X25.579 Y109.253 E16.21055
G1 X25.579 Y108.697 E16.22622
G1 X28.050 Y111.167 E16.32458
G1 X28.050 Y110.611 E16.34025
G1 X25.579 Y108.140 E16.43861
G1 X25.579 Y107.584 E16.45428
G1 X28.050 Y110.054 E16.55264
G1 X28.050 Y109.498 E16.56831
G1 X25.579 Y107.027 E16.66667
G1 X25.579 Y106.471 E16.68234
G1 X28.050 Y108.941 E16.78070
G1 X28.050 Y108.385 E16.79637
G1 X25.579 Y105.914 E16.89473
G1 X25.579 Y105.358 E16.91040
G1 X28.050 Y107.828 E17.00876
G1 X28.050 Y107.272 E17.02443
G1 X25.579 Y104.801 E17.12279
G1 X25.579 Y104.244 E17.13846
G1 X28.050 Y106.715 E17.23682
G1 X28.050 Y106.159 E17.25249
G1 X25.579 Y103.688 E17.35085
G1 X25.579 Y103.131 E17.36652
G1 X28.050 Y105.602 E17.46488
G1 X28.050 Y105.045 E17.48055
G1 X25.579 Y102.575 E17.57891
G1 X25.579 Y102.018 E17.59458
G1 X28.050 Y104.489 E17.69294
G1 X28.050 Y103.932 E17.70861
G1 X25.579 Y101.462 E17.80697
G1 X25.579 Y100.905 E17.82264
G1 X28.050 Y103.376 E17.92100
G1 X28.050 Y102.819 E17.93667
G1 X25.579 Y100.349 E18.03503
G1 X25.579 Y99.792 E18.05070
G1 X28.050 Y102.263 E18.14906
G1 X28.050 Y101.706 E18.16473
G1 X25.579 Y99.236 E18.26309
G1 X25.579 Y98.679 E18.27876
G1 X28.050 Y101.150 E18.37712
G1 X28.050 Y100.593 E18.39279
G1 X25.579 Y98.123 E18.49115
G1 X25.579 Y97.566 E18.50682
G1 X28.050 Y100.037 E18.60518
G1 X28.050 Y99.480 E18.62085
G1 X25.579 Y97.009 E18.71921
G1 X25.579 Y96.453 E18.73488
G1 X28.050 Y98.924 E18.83324
G1 X28.050 Y98.367 E18.84891
G1 X25.579 Y95.896 E18.94727
G1 X25.579 Y95.340 E18.96294
G1 X28.050 Y97.810 E19.06131
G1 X28.050 Y97.254 E19.07697
G1 X25.579 Y94.783 E19.17534
G1 X25.579 Y94.227 E19.19100
G1 X28.050 Y96.697 E19.28937
G1 X28.050 Y96.141 E19.30503
G1 X25.579 Y93.670 E19.40340
G1 X25.579 Y93.114 E19.41906
G1 X28.050 Y95.584 E19.51743
G1 X28.050 Y95.028 E19.53309
G1 X25.579 Y92.557 E19.63146
G1 X25.579 Y92.001 E19.64712
G1 X28.050 Y94.471 E19.74549
G1 X28.050 Y93.915 E19.76115
G1 X25.579 Y91.444 E19.85952
G1 X25.579 Y90.887 E19.87518
G1 X28.050 Y93.358 E19.97355
G1 X28.050 Y92.802 E19.98921
G1 X25.579 Y90.331 E20.08758
G1 X25.579 Y89.774 E20.10324
G1 X28.050 Y92.245 E20.20161
G1 X28.050 Y91.688 E20.21728
G1 X25.579 Y89.218 E20.31564
G1 X25.579 Y88.661 E20.33131
G1 X28.050 Y91.132 E20.42967
G1 X28.050 Y90.575 E20.44534
G1 X25.579 Y88.105 E20.54370
G1 X25.579 Y87.548 E20.55937
G1 X28.050 Y90.019 E20.65773
G1 X28.050 Y89.462 E20.67340
G1 X25.579 Y86.992 E20.77176
G1 X25.579 Y86.435 E20.78743
G1 X28.050 Y88.906 E20.88579
G1 X28.050 Y88.349 E20.90146
G1 X25.579 Y85.879 E20.99982
G1 X25.579 Y85.322 E21.01549
G1 X28.050 Y87.793 E21.11385
G1 X28.050 Y87.236 E21.12952
G1 X25.579 Y84.766 E21.22788
G1 X25.579 Y84.209 E21.24355
G1 X28.050 Y86.680 E21.34191
G1 X28.050 Y86.123 E21.35758
G1 X25.579 Y83.652 E21.45594
G1 X25.579 Y83.096 E21.47161
G1 X28.050 Y85.567 E21.56997
G1 X28.050 Y85.010 E21.58564
G1 X25.579 Y82.539 E21.68400
G1 X25.579 Y81.983 E21.69967
G1 X28.050 Y84.453 E21.79803
G1 X28.050 Y83.897 E21.81370
G1 X25.579 Y81.426 E21.91206
G1 X25.579 Y80.870 E21.92773
G1 X28.050 Y83.340 E22.02609
G1 X28.050 Y82.784 E22.04176
G1 X25.579 Y80.313 E22.14012
G1 X25.579 Y79.757 E22.15579
G1 X28.050 Y82.227 E22.25415
G1 X28.050 Y81.671 E22.26982
G1 X25.579 Y79.200 E22.36818
G1 X25.579 Y78.644 E22.38385
G1 X28.050 Y81.114 E22.48221
G1 X28.050 Y80.558 E22.49788
G1 X25.579 Y78.087 E22.59624
G1 X25.579 Y77.530 E22.61191
G1 X28.050 Y80.001 E22.71027
G1 X28.050 Y79.445 E22.72594
G1 X25.579 Y76.974 E22.82430
G1 X25.579 Y76.417 E22.83997
G1 X28.050 Y78.888 E22.93833
G1 X28.050 Y78.331 E22.95400
G1 X25.579 Y75.861 E23.05236
G1 X25.579 Y75.304 E23.06803
G1 X28.050 Y77.775 E23.16639
G1 X28.050 Y77.218 E23.18206
G1 X25.579 Y74.748 E23.28042
G1 X25.579 Y74.191 E23.29609
G1 X28.050 Y76.662 E23.39445
G1 X28.050 Y76.105 E23.41012
G1 X25.579 Y73.635 E23.50849
G1 X25.579 Y73.078 E23.52415
G1 X28.050 Y75.549 E23.62252
G1 X28.050 Y74.992 E23.63818
G1 X25.579 Y72.522 E23.73655
G1 X25.579 Y71.965 E23.75221
G1 X28.050 Y74.436 E23.85058
G1 X28.050 Y73.879 E23.86624
G1 X25.579 Y71.409 E23.96461
G1 X25.579 Y70.852 E23.98027
G1 X28.050 Y73.323 E24.07864
G1 X28.050 Y72.766 E24.09430
G1 X25.579 Y70.295 E24.19267
G1 X25.579 Y69.739 E24.20833
G1 X28.050 Y72.210 E24.30670
G1 X28.050 Y71.653 E24.32236
G1 X25.579 Y69.182 E24.42073
G1 X25.579 Y68.626 E24.43639
G1 X28.050 Y71.096 E24.53476
G1 X28.050 Y70.540 E24.55043
G1 X25.579 Y68.069 E24.64879
G1 X25.579 Y67.513 E24.66446
G1 X28.050 Y69.983 E24.76282
G1 X28.547 Y69.924 E24.77692
G1 X26.076 Y67.454 E24.87528
G1 X26.633 Y67.454 E24.89095
G1 X29.103 Y69.924 E24.98931
G1 X29.660 Y69.924 E25.00498
G1 X27.189 Y67.454 E25.10334
G1 X27.746 Y67.454 E25.11901
G1 X30.217 Y69.924 E25.21737
G1 X30.773 Y69.924 E25.23304
G1 X28.302 Y67.454 E25.33140
G1 X28.859 Y67.454 E25.34707
G1 X31.330 Y69.924 E25.44543
G1 X31.886 Y69.924 E25.46110
G1 X29.416 Y67.454 E25.55946
G1 X29.972 Y67.454 E25.57513
G1 X32.443 Y69.924 E25.67349
G1 X32.999 Y69.924 E25.68916
G1 X30.529 Y67.454 E25.78752
G1 X31.085 Y67.454 E25.80319
G1 X33.556 Y69.924 E25.90155
G1 X34.112 Y69.924 E25.91722
G1 X31.642 Y67.454 E26.01558
G1 X32.198 Y67.454 E26.03125
G1 X34.669 Y69.924 E26.12961
G1 X35.225 Y69.924 E26.14528
G1 X32.755 Y67.454 E26.24364
G1 X33.311 Y67.454 E26.25931
G1 X35.782 Y69.924 E26.35767
G1 X36.338 Y69.924 E26.37334
G1 X33.868 Y67.454 E26.47170
G1 X34.424 Y67.454 E26.48737
G1 X36.895 Y69.924 E26.58573
G1 X37.452 Y69.924 E26.60140
G1 X34.981 Y67.454 E26.69976
G1 X35.537 Y67.454 E26.71543
G1 X38.008 Y69.924 E26.81379
G1 X38.565 Y69.924 E26.82946
G1 X36.094 Y67.454 E26.92782
G1 X36.651 Y67.454 E26.94349
G1 X39.121 Y69.924 E27.04185
G1 X39.678 Y69.924 E27.05752
G1 X37.207 Y67.454 E27.15589
G1 X37.764 Y67.454 E27.17155
G1 X40.234 Y69.924 E27.26992
G1 X40.791 Y69.924 E27.28558
G1 X38.320 Y67.454 E27.38395
G1 X38.877 Y67.454 E27.39961
G1 X41.347 Y69.924 E27.49798
G1 X41.904 Y69.924 E27.51364
G1 X39.433 Y67.454 E27.61201
G1 X39.990 Y67.454 E27.62767
G1 X42.460 Y69.924 E27.72604
G1 X43.017 Y69.924 E27.74170
G1 X40.546 Y67.454 E27.84007
G1 X41.103 Y67.454 E27.85573
G1 X43.574 Y69.924 E27.95410
G1 X44.130 Y69.924 E27.96976
G1 X41.659 Y67.454 E28.06813
G1 X42.216 Y67.454 E28.08379
G1 X44.687 Y69.924 E28.18216
G1 X45.243 Y69.924 E28.19782
G1 X42.773 Y67.454 E28.29619
G1 X43.329 Y67.454 E28.31185
G1 X45.800 Y69.924 E28.41022
G1 X46.356 Y69.924 E28.42589
G1 X43.886 Y67.454 E28.52425
G1 X44.442 Y67.454 E28.53992
G1 X46.913 Y69.924 E28.63828
G1 X47.469 Y69.924 E28.65395
G1 X44.999 Y67.454 E28.75231
G1 X45.555 Y67.454 E28.76798
G1 X48.026 Y69.924 E28.86634
G1 X48.582 Y69.924 E28.88201
G1 X46.112 Y67.454 E28.98037
G1 X46.668 Y67.454 E28.99604
G1 X49.139 Y69.924 E29.09440
G1 X49.695 Y69.924 E29.11007
G1 X47.225 Y67.454 E29.20843
G1 X47.781 Y67.454 E29.22410
G1 X50.252 Y69.924 E29.32246
G1 X50.809 Y69.924 E29.33813
G1 X48.338 Y67.454 E29.43649
G1 X48.894 Y67.454 E29.45216
G1 X51.365 Y69.924 E29.55052
G1 X51.922 Y69.924 E29.56619
G1 X49.451 Y67.454 E29.66455
G1 X50.008 Y67.454 E29.68022
G1 X52.478 Y69.924 E29.77858
G1 X53.035 Y69.924 E29.79425
G1 X50.564 Y67.454 E29.89261
G1 X51.121 Y67.454 E29.90828
G1 X53.591 Y69.924 E30.00664
G1 X54.148 Y69.924 E30.02231
G1 X51.677 Y67.454 E30.12067
G1 X52.234 Y67.454 E30.13634
G1 X54.704 Y69.924 E30.23470
G1 X55.261 Y69.924 E30.25037
G1 X52.790 Y67.454 E30.34873
G1 X53.347 Y67.454 E30.36440
G1 X55.817 Y69.924 E30.46276
G1 X56.180 Y69.730 E30.47433
G1 X53.903 Y67.454 E30.56495
G1 X54.460 Y67.454 E30.58062
G1 X56.180 Y69.173 E30.64908
G1 X56.180 Y68.617 E30.66475
G1 X55.016 Y67.454 E30.71106
G1 X55.573 Y67.454 E30.72672
G1 X56.180 Y68.060 E30.75087
G1 X56.180 Y67.504 E30.76654
G1 X56.140 Y67.464 E30.76813
G1 E28.76813 F1680.000
G92 E0
G1 Z0.400 F12000.000
G1 X50.628 Y94.301 F12000.000
G1 E2.00000 F1680.000
G1 X47.686 Y94.301 E2.08282 F1200.000
G1 X47.686 Y91.301 E2.16727
G1 X80.686 Y91.301 E3.09628
G1 X80.686 Y91.051 E3.10332
G1 X83.186 Y91.051 E3.17370
G1 X83.186 Y94.301 E3.26519
G1 X50.703 Y94.301 E4.17966 F1200.000
G1 X47.950 Y93.996 F12000.000
G1 X47.990 Y94.036 E4.18125 F2400.000
G1 X48.552 Y94.036 E4.19706
G1 X47.950 Y93.435 E4.22100
G1 X47.950 Y92.874 E4.23680
G1 X49.113 Y94.036 E4.28309
G1 X49.675 Y94.036 E4.29890
G1 X47.950 Y92.312 E4.36754
G1 X47.950 Y91.751 E4.38334
G1 X50.236 Y94.036 E4.47433
G1 X50.797 Y94.036 E4.49013
G1 X48.327 Y91.566 E4.58850
G1 X48.888 Y91.566 E4.60430
G1 X51.359 Y94.036 E4.70266
G1 X51.920 Y94.036 E4.71847
G1 X49.449 Y91.566 E4.81683
G1 X50.011 Y91.566 E4.83263
G1 X52.481 Y94.036 E4.93099
G1 X53.043 Y94.036 E4.94680
G1 X50.572 Y91.566 E5.04516
G1 X51.133 Y91.566 E5.06096
G1 X53.604 Y94.036 E5.15933
G1 X54.165 Y94.036 E5.17513
G1 X51.695 Y91.566 E5.27349
G1 X52.256 Y91.566 E5.28929
G1 X54.727 Y94.036 E5.38766
G1 X55.288 Y94.036 E5.40346
G1 X52.818 Y91.566 E5.50182
G1 X53.379 Y91.566 E5.51763
G1 X55.850 Y94.036 E5.61599
G1 X56.411 Y94.036 E5.63179
G1 X53.940 Y91.566 E5.73016
G1 X54.502 Y91.566 E5.74596
G1 X56.972 Y94.036 E5.84432
G1 X57.534 Y94.036 E5.86012
G1 X55.063 Y91.566 E5.95849
G1 X55.624 Y91.566 E5.97429
G1 X58.095 Y94.036 E6.07265
G1 X58.656 Y94.036 E6.08846
G1 X56.186 Y91.566 E6.18682
G1 X56.747 Y91.566 E6.20262
G1 X59.218 Y94.036 E6.30098
G1 X59.779 Y94.036 E6.31679
G1 X57.308 Y91.566 E6.41515
G1 X57.870 Y91.566 E6.43095
G1 X60.340 Y94.036 E6.52932
G1 X60.902 Y94.036 E6.54512
G1 X58.431 Y91.566 E6.64348
G1 X58.993 Y91.566 E6.65929
G1 X61.463 Y94.036 E6.75765
G1 X62.024 Y94.036 E6.77345
G1 X59.554 Y91.566 E6.87181
G1 X60.115 Y91.566 E6.88762
G1 X62.586 Y94.036 E6.98598
G1 X63.147 Y94.036 E7.00178
G1 X60.677 Y91.566 E7.10015
G1 X61.238 Y91.566 E7.11595
G1 X63.709 Y94.036 E7.21431
G1 X64.270 Y94.036 E7.23012
G1 X61.799 Y91.566 E7.32848
G1 X62.361 Y91.566 E7.34428
G1 X64.831 Y94.036 E7.44264
G1 X65.393 Y94.036 E7.45845
G1 X62.922 Y91.566 E7.55681
G1 X63.483 Y91.566 E7.57261
G1 X65.954 Y94.036 E7.67098
G1 X66.515 Y94.036 E7.68678
G1 X64.045 Y91.566 E7.78514
G1 X64.606 Y91.566 E7.80094
G1 X67.077 Y94.036 E7.89931
