; generated by Slic3r 1.2.1 on 2015-01-09 at 19:53:43

; external perimeters extrusion width = 0.50mm
; perimeters extrusion width = 0.50mm
; infill extrusion width = 0.50mm
; solid infill extrusion width = 0.50mm
; top infill extrusion width = 0.50mm

M104 S190 ; set temperature
G28 ; home all axes
G1 Z15 F120 ; lift nozzle
M109 S190 ; wait for temperature to be reached
G21 ; set units to millimeters
G90 ; use absolute coordinates
M82 ; use absolute distances for extrusion
G92 E0
M106 S102
G1 E-2.00000 F1680.000
G92 E0
G1 Z0.400 F12000.000
G1 X23.325 Y24.204 F12000.000
G1 E2.00000 F1680.000
G1 X25.100 Y22.811 E2.06758 F1200.000
G1 X27.901 Y22.063 E2.15439
G1 X113.192 Y19.238 E4.70976
G1 X115.364 Y19.183 E4.77482
G1 X117.122 Y19.238 E4.82750 F1200.000
G1 X119.276 Y19.429 E4.89223
G1 X121.124 Y19.709 E4.94820
G1 X121.809 Y19.830 E4.96904
G1 X123.526 Y20.214 E5.02172
G1 X125.606 Y20.805 E5.08646
G1 X127.368 Y21.426 E5.14242
G1 X128.019 Y21.674 E5.16327
G1 X129.998 Y22.544 E5.22800
G1 X131.565 Y23.342 E5.28068
G1 X133.180 Y24.283 E5.33664
G1 X133.773 Y24.648 E5.35749
G1 X135.554 Y25.874 E5.42223
G1 X137.255 Y27.209 E5.48696
G1 X138.868 Y28.648 E5.55170
G1 X140.112 Y29.892 E5.60438
G1 X141.411 Y31.346 E5.66277
G1 X141.808 Y31.816 E5.68119
G1 X143.123 Y33.532 E5.74593
G1 X144.112 Y34.987 E5.79860
G1 X145.223 Y36.841 E5.86334
G1 X145.418 Y37.194 E5.87541
G1 X146.216 Y38.762 E5.92808
G1 X147.086 Y40.741 E5.99282
G1 X147.235 Y41.116 E6.00489
G1 X147.955 Y43.154 E6.06963
G1 X148.546 Y45.234 E6.13437
G1 X148.930 Y46.951 E6.18704
G1 X149.235 Y48.794 E6.24300
G1 X149.331 Y49.484 E6.26385
G1 X149.522 Y51.637 E6.32859
G1 X149.580 Y53.542 E6.38566
G1 X150.114 Y116.604 E8.27406
G1 X150.059 Y118.363 E8.32674
G1 X150.006 Y119.057 E8.34758
G1 X149.818 Y120.916 E8.40355
G1 X149.543 Y122.653 E8.45622
G1 X149.403 Y123.336 E8.47707
G1 X148.983 Y125.157 E8.53302
G1 X148.368 Y127.229 E8.59777
G1 X147.623 Y129.259 E8.66251
G1 X146.753 Y131.238 E8.72724
G1 X145.955 Y132.806 E8.77992
G1 X145.719 Y133.229 E8.79442
G1 X144.649 Y135.013 E8.85673
G1 X143.423 Y136.794 E8.92147
G1 X142.088 Y138.495 E8.98621
G1 X140.649 Y140.108 E9.05095
G1 X139.405 Y141.352 E9.10362
G1 X139.050 Y141.682 E9.11812
G1 X137.481 Y143.048 E9.18042
G1 X136.091 Y144.126 E9.23310
G1 X135.698 Y144.409 E9.24760
G1 X133.970 Y145.568 E9.30991
G1 X132.103 Y146.658 E9.37465
G1 X130.170 Y147.628 E9.43939
G1 X128.556 Y148.326 E9.49206
G1 X128.105 Y148.502 E9.50656
G1 X126.143 Y149.195 E9.56887
G1 X124.454 Y149.686 E9.62154
G1 X122.346 Y150.170 E9.68629
G1 X120.213 Y150.521 E9.75102
G1 X119.813 Y150.571 E9.76310
G1 X117.660 Y150.762 E9.82784
G1 X115.901 Y150.817 E9.88051
G1 X113.740 Y150.762 E9.94525
G1 X111.503 Y150.563 E10.01251
G1 X25.612 Y141.303 E12.59932
G1 X23.446 Y140.671 E12.66691
G1 X21.632 Y139.327 E12.73449
G1 X20.396 Y137.438 E12.80208
G1 X19.882 Y134.923 E12.87897
G1 X19.884 Y112.785 E13.54186
G1 X21.697 Y28.339 E16.07109
G1 X22.142 Y26.127 E16.13867
G1 X23.285 Y24.268 E16.20401
G1 E14.20401 F1680.000
G92 E0
G1 X59.050 Y134.673 F12000.000
G1 E2.00000 F1680.000
G1 X59.050 Y125.423 E2.26040 F1200.000
G1 X29.550 Y125.423 E3.09089
G1 X29.550 Y134.673 E3.35129
G1 X26.550 Y134.673 E3.43575
G1 X26.550 Y113.173 E4.04101
G1 X29.550 Y113.173 E4.12547
G1 X29.550 Y122.423 E4.38587
G1 X59.050 Y122.423 E5.21635 F1200.000
G1 X59.050 Y113.173 E5.47676
G1 X62.050 Y113.173 E5.56121
G1 X62.050 Y134.673 E6.16648
G1 X59.125 Y134.673 E6.24882
G1 X59.315 Y133.910 F12000.000
G1 X59.813 Y134.408 E6.26866 F2400.000
G1 X60.372 Y134.408 E6.28438
G1 X59.315 Y133.351 E6.32645
G1 X59.315 Y132.793 E6.34218
G1 X60.930 Y134.408 E6.40649
G1 X61.489 Y134.408 E6.42222
G1 X59.315 Y132.234 E6.50877
G1 X59.315 Y131.675 E6.52450
G1 X61.785 Y134.146 E6.62286
G1 X61.785 Y133.587 E6.63858
G1 X59.315 Y131.117 E6.73695
G1 X59.315 Y130.558 E6.75267
G1 X61.785 Y133.029 E6.85104
G1 X61.785 Y132.470 E6.86676
G1 X59.315 Y129.999 E6.96512
G1 X59.315 Y129.441 E6.98085
G1 X61.785 Y131.911 E7.07921
G1 X61.785 Y131.353 E7.09494
G1 X59.315 Y128.882 E7.19330
G1 X59.315 Y128.324 E7.20903
G1 X61.785 Y130.794 E7.30739
G1 X61.785 Y130.236 E7.32312
G1 X59.315 Y127.765 E7.42148
G1 X59.315 Y127.206 E7.43720
G1 X61.785 Y129.677 E7.53557
G1 X61.785 Y129.118 E7.55129
G1 X59.315 Y126.648 E7.64966
G1 X59.315 Y126.089 E7.66538
G1 X61.785 Y128.560 E7.76374
G1 X61.785 Y128.001 E7.77947
G1 X59.315 Y125.531 E7.87783
G1 X58.942 Y125.158 F12000.000
G1 X56.472 Y122.687 E7.97619 F2400.000
G1 X57.030 Y122.687 E7.99192
G1 X61.785 Y127.443 E8.18124
G1 X61.785 Y126.884 E8.19697
G1 X57.589 Y122.687 E8.36405
G1 X58.147 Y122.687 E8.37978
G1 X61.785 Y126.325 E8.52462
G1 X61.785 Y125.767 E8.54035
G1 X58.706 Y122.687 E8.66295
G1 X59.265 Y122.687 E8.67867
G1 X61.785 Y125.208 E8.77904
G1 X61.785 Y124.650 E8.79476
G1 X59.315 Y122.179 E8.89313
G1 X59.315 Y121.620 E8.90885
G1 X61.785 Y124.091 E9.00721
G1 X61.785 Y123.532 E9.02294
G1 X59.315 Y121.062 E9.12130
G1 X59.315 Y120.503 E9.13703
G1 X61.785 Y122.974 E9.23539
G1 X61.785 Y122.415 E9.25112
G1 X59.315 Y119.944 E9.34948
G1 X59.315 Y119.386 E9.36521
G1 X61.785 Y121.856 E9.46357
G1 X61.785 Y121.298 E9.47929
G1 X59.315 Y118.827 E9.57766
G1 X59.315 Y118.269 E9.59338
G1 X61.785 Y120.739 E9.69174
G1 X61.785 Y120.181 E9.70747
G1 X59.315 Y117.710 E9.80583
G1 X59.315 Y117.151 E9.82156
G1 X61.785 Y119.622 E9.91992
G1 X61.785 Y119.063 E9.93565
G1 X59.315 Y116.593 E10.03401
G1 X59.315 Y116.034 E10.04974
G1 X61.785 Y118.505 E10.14810
G1 X61.785 Y117.946 E10.16382
G1 X59.315 Y115.476 E10.26219
G1 X59.315 Y114.917 E10.27791
G1 X61.785 Y117.388 E10.37628
G1 X61.785 Y116.829 E10.39200
G1 X59.315 Y114.358 E10.49036
G1 X59.315 Y113.800 E10.50609
G1 X61.785 Y116.270 E10.60445
G1 X61.785 Y115.712 E10.62018
G1 X59.511 Y113.437 E10.71073
G1 X60.070 Y113.437 E10.72646
G1 X61.785 Y115.153 E10.79477
G1 X61.785 Y114.595 E10.81050
G1 X60.628 Y113.437 E10.85657
G1 X61.187 Y113.437 E10.87229
G1 X61.785 Y114.036 E10.89613
G1 X61.785 Y113.477 E10.91185
G1 X61.745 Y113.437 E10.91344
G1 X58.384 Y125.158 F12000.000
G1 X55.913 Y122.687 E11.01181 F2400.000
G1 X55.354 Y122.687 E11.02753
G1 X57.825 Y125.158 E11.12590
G1 X57.266 Y125.158 E11.14162
G1 X54.796 Y122.687 E11.23998
G1 X54.237 Y122.687 E11.25571
G1 X56.708 Y125.158 E11.35407
G1 X56.149 Y125.158 E11.36980
G1 X53.678 Y122.687 E11.46816
G1 X53.120 Y122.687 E11.48389
G1 X55.590 Y125.158 E11.58225
G1 X55.032 Y125.158 E11.59798
G1 X52.561 Y122.687 E11.69634
G1 X52.003 Y122.687 E11.71206
G1 X54.473 Y125.158 E11.81043
G1 X53.915 Y125.158 E11.82615
G1 X51.444 Y122.687 E11.92452
G1 X50.885 Y122.687 E11.94024
G1 X53.356 Y125.158 E12.03860
G1 X52.797 Y125.158 E12.05433
G1 X50.327 Y122.687 E12.15269
G1 X49.768 Y122.687 E12.16842
G1 X52.239 Y125.158 E12.26678
G1 X51.680 Y125.158 E12.28251
G1 X49.210 Y122.687 E12.38087
G1 X48.651 Y122.687 E12.39660
G1 X51.122 Y125.158 E12.49496
G1 X50.563 Y125.158 E12.51068
G1 X48.092 Y122.687 E12.60905
G1 X47.534 Y122.687 E12.62477
G1 X50.004 Y125.158 E12.72314
G1 X49.446 Y125.158 E12.73886
G1 X46.975 Y122.687 E12.83722
G1 X46.417 Y122.687 E12.85295
G1 X48.887 Y125.158 E12.95131
G1 X48.329 Y125.158 E12.96704
G1 X45.858 Y122.687 E13.06540
G1 X45.299 Y122.687 E13.08113
G1 X47.770 Y125.158 E13.17949
G1 X47.211 Y125.158 E13.19522
G1 X44.741 Y122.687 E13.29358
G1 X44.182 Y122.687 E13.30930
G1 X46.653 Y125.158 E13.40767
G1 X46.094 Y125.158 E13.42339
G1 X43.623 Y122.687 E13.52176
G1 X43.065 Y122.687 E13.53748
G1 X45.535 Y125.158 E13.63584
G1 X44.977 Y125.158 E13.65157
G1 X42.506 Y122.687 E13.74993
G1 X41.948 Y122.687 E13.76566
G1 X44.418 Y125.158 E13.86402
G1 X43.860 Y125.158 E13.87975
G1 X41.389 Y122.687 E13.97811
G1 X40.830 Y122.687 E13.99384
G1 X43.301 Y125.158 E14.09220
G1 X42.742 Y125.158 E14.10792
G1 X40.272 Y122.687 E14.20629
G1 X39.713 Y122.687 E14.22201
G1 X42.184 Y125.158 E14.32038
G1 X41.625 Y125.158 E14.33610
G1 X39.155 Y122.687 E14.43446
G1 X38.596 Y122.687 E14.45019
G1 X41.067 Y125.158 E14.54855
G1 X40.508 Y125.158 E14.56428
G1 X38.037 Y122.687 E14.66264
G1 X37.479 Y122.687 E14.67837
G1 X39.949 Y125.158 E14.77673
G1 X39.391 Y125.158 E14.79246
G1 X36.920 Y122.687 E14.89082
G1 X36.361 Y122.687 E14.90655
G1 X38.832 Y125.158 E15.00491
G1 X38.274 Y125.158 E15.02063
G1 X35.803 Y122.687 E15.11900
G1 X35.244 Y122.687 E15.13472
G1 X37.715 Y125.158 E15.23308
G1 X37.156 Y125.158 E15.24881
G1 X34.686 Y122.687 E15.34717
G1 X34.127 Y122.687 E15.36290
G1 X36.598 Y125.158 E15.46126
G1 X36.039 Y125.158 E15.47699
G1 X33.568 Y122.687 E15.57535
G1 X33.010 Y122.687 E15.59108
G1 X35.480 Y125.158 E15.68944
G1 X34.922 Y125.158 E15.70517
G1 X32.451 Y122.687 E15.80353
G1 X31.893 Y122.687 E15.81925
G1 X34.363 Y125.158 E15.91762
G1 X33.805 Y125.158 E15.93334
G1 X31.334 Y122.687 E16.03170
G1 X30.775 Y122.687 E16.04743
G1 X33.246 Y125.158 E16.14579
G1 X32.687 Y125.158 E16.16152
G1 X30.217 Y122.687 E16.25988
G1 X29.658 Y122.687 E16.27561
G1 X32.129 Y125.158 E16.37397
G1 X31.570 Y125.158 E16.38970
G1 X26.815 Y120.403 E16.57902
G1 X26.815 Y120.961 E16.59474
G1 X31.012 Y125.158 E16.76183
G1 X30.453 Y125.158 E16.77755
G1 X26.815 Y121.520 E16.92240
G1 X26.815 Y122.078 E16.93812
G1 X29.894 Y125.158 E17.06072
G1 X29.336 Y125.158 E17.07645
G1 X26.815 Y122.637 E17.17681
G1 X26.815 Y123.196 E17.19254
G1 X29.285 Y125.666 E17.29090
G1 X29.285 Y126.225 E17.30663
G1 X26.815 Y123.754 E17.40499
G1 X26.815 Y124.313 E17.42072
G1 X29.285 Y126.784 E17.51908
G1 X29.285 Y127.342 E17.53480
G1 X26.815 Y124.871 E17.63317
G1 X26.815 Y125.430 E17.64889
G1 X29.285 Y127.901 E17.74726
G1 X29.285 Y128.459 E17.76298
G1 X26.815 Y125.989 E17.86134
G1 X26.815 Y126.547 E17.87707
G1 X29.285 Y129.018 E17.97543
G1 X29.285 Y129.577 E17.99116
G1 X26.815 Y127.106 E18.08952
G1 X26.815 Y127.665 E18.10525
G1 X29.285 Y130.135 E18.20361
G1 X29.285 Y130.694 E18.21934
G1 X26.815 Y128.223 E18.31770
G1 X26.815 Y128.782 E18.33342
G1 X29.285 Y131.252 E18.43179
G1 X29.285 Y131.811 E18.44751
G1 X26.815 Y129.340 E18.54588
G1 X26.815 Y129.899 E18.56160
G1 X29.285 Y132.370 E18.65996
G1 X29.285 Y132.928 E18.67569
G1 X26.815 Y130.458 E18.77405
G1 X26.815 Y131.016 E18.78978
G1 X29.285 Y133.487 E18.88814
G1 X29.285 Y134.045 E18.90387
G1 X26.815 Y131.575 E19.00223
G1 X26.815 Y132.133 E19.01796
G1 X29.089 Y134.408 E19.10851
G1 X28.531 Y134.408 E19.12423
G1 X26.815 Y132.692 E19.19255
G1 X26.815 Y133.251 E19.20827
G1 X27.972 Y134.408 E19.25434
G1 X27.413 Y134.408 E19.27007
G1 X26.815 Y133.809 E19.29390
G1 X26.815 Y134.368 E19.30963
G1 X26.855 Y134.408 E19.31122
G1 X29.285 Y122.315 F12000.000
G1 X26.815 Y119.844 E19.40958 F2400.000
G1 X26.815 Y119.285 E19.42531
G1 X29.285 Y121.756 E19.52367
G1 X29.285 Y121.197 E19.53940
G1 X26.815 Y118.727 E19.63776
G1 X26.815 Y118.168 E19.65349
G1 X29.285 Y120.639 E19.75185
G1 X29.285 Y120.080 E19.76758
G1 X26.815 Y117.610 E19.86594
G1 X26.815 Y117.051 E19.88166
G1 X29.285 Y119.522 E19.98003
G1 X29.285 Y118.963 E19.99575
G1 X26.815 Y116.492 E20.09411
G1 X26.815 Y115.934 E20.10984
G1 X29.285 Y118.404 E20.20820
G1 X29.285 Y117.846 E20.22393
G1 X26.815 Y115.375 E20.32229
G1 X26.815 Y114.816 E20.33802
G1 X29.285 Y117.287 E20.43638
G1 X29.285 Y116.728 E20.45211
G1 X26.815 Y114.258 E20.55047
G1 X26.815 Y113.699 E20.56619
G1 X29.285 Y116.170 E20.66456
G1 X29.285 Y115.611 E20.68028
G1 X27.111 Y113.437 E20.76684
G1 X27.670 Y113.437 E20.78256
G1 X29.285 Y115.053 E20.84687
G1 X29.285 Y114.494 E20.86260
G1 X28.229 Y113.437 E20.90467
G1 X28.787 Y113.437 E20.92040
G1 X29.285 Y113.935 E20.94023
G1 E18.94023 F1680.000
G92 E0
G1 Z0.400 F12000.000
G1 X46.041 Y99.876 F12000.000
G1 E2.00000 F1680.000
G1 X45.905 Y99.688 E2.00654 F1200.000
G1 X45.793 Y99.485 E2.01308
G1 X45.707 Y99.269 E2.01963
G1 X45.649 Y99.043 E2.02617
G1 X45.624 Y98.845 E2.03180
G1 X45.620 Y98.580 E2.03925
G1 X45.649 Y98.350 E2.04579
G1 X45.707 Y98.125 E2.05233
G1 X45.793 Y97.909 E2.05887
G1 X45.905 Y97.705 E2.06541
G1 X46.041 Y97.517 E2.07196
G1 X46.200 Y97.348 E2.07850
G1 X46.379 Y97.200 E2.08504
G1 X46.576 Y97.075 E2.09158
G1 X46.786 Y96.976 E2.09813
G1 X47.007 Y96.904 E2.10467
G1 X47.235 Y96.861 E2.11121
G1 X47.500 Y96.848 E2.11866
G1 X47.699 Y96.861 E2.12429 F1200.000
G1 X47.927 Y96.904 E2.13083
G1 X48.148 Y96.976 E2.13737
G1 X48.359 Y97.075 E2.14391
G1 X48.555 Y97.200 E2.15046
G1 X48.734 Y97.348 E2.15700
G1 X48.893 Y97.517 E2.16354
G1 X49.030 Y97.705 E2.17008
G1 X49.142 Y97.909 E2.17662
G1 X49.227 Y98.125 E2.18317
G1 X49.285 Y98.350 E2.18971
G1 X49.314 Y98.580 E2.19625
G1 X49.314 Y98.813 E2.20279
G1 X49.285 Y99.043 E2.20934
G1 X49.227 Y99.269 E2.21588
G1 X49.142 Y99.485 E2.22242
G1 X49.030 Y99.688 E2.22896
G1 X48.893 Y99.876 E2.23550
G1 X48.734 Y100.046 E2.24205
G1 X48.555 Y100.194 E2.24859
G1 X48.359 Y100.318 E2.25513
G1 X48.148 Y100.417 E2.26167
G1 X47.927 Y100.489 E2.26821
G1 X47.699 Y100.533 E2.27476
G1 X47.467 Y100.547 E2.28130
G1 X47.235 Y100.533 E2.28784
G1 X47.007 Y100.489 E2.29438
G1 X46.786 Y100.417 E2.30093
G1 X46.576 Y100.318 E2.30747
G1 X46.379 Y100.194 E2.31401
G1 X46.093 Y99.931 E2.32496
G1 X39.897 Y105.447 F12000.000
G1 X32.317 Y105.447 E2.53836 F1200.000
G1 X32.317 Y91.947 E2.91841
G1 X52.817 Y91.947 E3.49552
G1 X52.817 Y105.447 E3.87557
G1 X39.972 Y105.447 E4.23718 F1200.000
G1 X32.582 Y105.142 F12000.000
G1 X32.622 Y105.182 E4.23877 F2400.000
G1 X33.179 Y105.182 E4.25445
G1 X32.582 Y104.585 E4.27822
G1 X32.582 Y104.028 E4.29390
G1 X33.736 Y105.182 E4.33984
G1 X34.293 Y105.182 E4.35552
G1 X32.582 Y103.471 E4.42364
G1 X32.582 Y102.914 E4.43931
G1 X34.850 Y105.182 E4.52961
G1 X35.407 Y105.182 E4.54529
G1 X32.582 Y102.357 E4.65775
G1 X32.582 Y101.800 E4.67343
G1 X35.964 Y105.182 E4.80807
G1 X36.521 Y105.182 E4.82375
G1 X32.582 Y101.243 E4.98056
G1 X32.582 Y100.686 E4.99624
G1 X37.078 Y105.182 E5.17523
G1 X37.635 Y105.182 E5.19091
G1 X32.582 Y100.129 E5.39208
G1 X32.582 Y99.572 E5.40776
G1 X38.192 Y105.182 E5.63109
G1 X38.749 Y105.182 E5.64677
G1 X32.582 Y99.015 E5.89229
G1 X32.582 Y98.458 E5.90797
G1 X39.305 Y105.182 E6.17565
G1 X39.862 Y105.182 E6.19133
G1 X32.582 Y97.901 E6.48119
G1 X32.582 Y97.344 E6.49687
G1 X40.419 Y105.182 E6.80891
G1 X40.976 Y105.182 E6.82459
G1 X32.582 Y96.787 E7.15880
G1 X32.582 Y96.230 E7.17448
G1 X41.533 Y105.182 E7.53086
G1 X42.090 Y105.182 E7.54654
G1 X32.582 Y95.674 E7.92510
G1 X32.582 Y95.117 E7.94078
G1 X42.647 Y105.182 E8.34152
G1 X43.204 Y105.182 E8.35720
G1 X32.582 Y94.560 E8.78011
G1 X32.582 Y94.003 E8.79579
G1 X43.761 Y105.182 E9.24087
G1 X44.318 Y105.182 E9.25655
G1 X32.582 Y93.446 E9.72381
G1 X32.582 Y92.889 E9.73949
G1 X44.875 Y105.182 E10.22892
G1 X45.432 Y105.182 E10.24460
G1 X32.582 Y92.332 E10.75621
G1 X33.018 Y92.211 E10.76896
G1 X45.989 Y105.182 E11.28535
G1 X46.546 Y105.182 E11.30103
G1 X33.575 Y92.211 E11.81743
G1 X34.132 Y92.211 E11.83311
G1 X47.103 Y105.182 E12.34951
G1 X47.660 Y105.182 E12.36519
G1 X34.689 Y92.211 E12.88158
G1 X35.246 Y92.211 E12.89726
G1 X48.217 Y105.182 E13.41366
G1 X48.774 Y105.182 E13.42934
G1 X35.803 Y92.211 E13.94574
G1 X36.360 Y92.211 E13.96142
G1 X49.331 Y105.182 E14.47781
G1 X49.888 Y105.182 E14.49349
G1 X36.917 Y92.211 E15.00989
G1 X37.474 Y92.211 E15.02557
G1 X50.445 Y105.182 E15.54197
G1 X51.002 Y105.182 E15.55765
G1 X38.031 Y92.211 E16.07404
G1 X38.588 Y92.211 E16.08972
G1 X45.380 Y99.003 E16.36012
G1 X45.372 Y98.438 E16.37604
G1 X39.145 Y92.211 E16.62393
G1 X39.702 Y92.211 E16.63961
G1 X45.477 Y97.987 E16.86953
G1 X45.656 Y97.608 E16.88131
G1 X40.259 Y92.211 E17.09618
G1 X40.816 Y92.211 E17.11186
G1 X45.893 Y97.288 E17.31399
G1 X46.182 Y97.020 E17.32508
G1 X41.373 Y92.211 E17.51652
G1 X41.930 Y92.211 E17.53220
