; generated by Slic3r 1.2.6 on 2015-04-02 at 22:47:57

; external perimeters extrusion width = 0.50mm
; perimeters extrusion width = 0.50mm
; infill extrusion width = 0.50mm
; solid infill extrusion width = 0.50mm
; top infill extrusion width = 0.50mm

M104 S190 ; set temperature
G28 ; home all axes
G1 Z15 F120 ; lift nozzle
M109 S190 ; wait for temperature to be reached
G21 ; set units to millimeters
G90 ; use absolute coordinates
M82 ; use absolute distances for extrusion
G92 E0
M106 S102
G1 E-2.00000 F1680.00000
G92 E0
G1 Z0.350 F12000.000
G1 X41.808 Y70.568 F12000.000
G1 E2.00000 F1680.00000
G1 X42.879 Y70.025 E2.03380 F1200.000
G1 X43.747 Y69.662 E2.06029
G1 X44.943 Y69.263 E2.09578
G1 X45.833 Y69.035 E2.12165
G1 X47.153 Y68.795 E2.15943
G1 X47.947 Y68.701 E2.18194
G1 X49.748 Y68.612 E2.23269
G1 X119.860 Y68.613 E4.20647
G1 X127.935 Y68.747 E4.43384 F1200.000
G1 X129.062 Y68.823 E4.46563
G1 X129.860 Y68.933 E4.48832
G1 X130.693 Y69.096 E4.51222
G1 X132.785 Y69.953 E4.57586
G1 X134.451 Y71.480 E4.63949
G1 X135.487 Y73.489 E4.70312
G1 X135.774 Y75.388 E4.75718
G1 X135.774 Y76.869 E4.79887
G1 X135.603 Y78.339 E4.84053
G1 X133.340 Y87.986 E5.11949
G1 X133.092 Y88.800 E5.14344
G1 X132.639 Y89.994 E5.17939
G1 X131.656 Y91.719 E5.23529
G1 X130.901 Y92.668 E5.26942
G1 X129.383 Y94.048 E5.32719
G1 X128.329 Y94.736 E5.36262
G1 X127.494 Y95.197 E5.38947
G1 X115.263 Y100.803 E5.76824
G1 X112.581 Y101.388 E5.84551
G1 X60.274 Y101.388 E7.31805
G1 X59.821 Y101.372 E7.33081
G1 X47.889 Y100.530 E7.66758
G1 X47.246 Y100.452 E7.68580
G1 X45.959 Y100.230 E7.72258
G1 X45.128 Y100.029 E7.74662
G1 X43.947 Y99.658 E7.78149
G1 X43.114 Y99.332 E7.80668
G1 X42.045 Y98.825 E7.83998
G1 X41.234 Y98.365 E7.86622
G1 X40.284 Y97.732 E7.89836
G1 X39.512 Y97.128 E7.92595
G1 X38.681 Y96.368 E7.95765
G1 X38.011 Y95.656 E7.98518
G1 X37.302 Y94.775 E8.01702
G1 X36.766 Y94.001 E8.04353
G1 X36.180 Y93.004 E8.07607
G1 X35.785 Y92.214 E8.10095
G1 X35.322 Y91.102 E8.13486
G1 X35.057 Y90.331 E8.15781
G1 X34.723 Y89.114 E8.19334
G1 X34.567 Y88.384 E8.21436
G1 X34.367 Y87.072 E8.25170
G1 X34.300 Y86.405 E8.27058
G1 X34.234 Y85.000 E8.31018
G1 X34.233 Y84.397 E8.32715
G1 X34.296 Y83.035 E8.36554
G1 X34.358 Y82.398 E8.38357
G1 X34.547 Y81.109 E8.42025
G1 X34.685 Y80.427 E8.43983
G1 X35.001 Y79.211 E8.47519
G1 X35.242 Y78.469 E8.49715
G1 X35.685 Y77.344 E8.53120
G1 X36.060 Y76.555 E8.55579
G1 X36.631 Y75.537 E8.58865
G1 X37.137 Y74.769 E8.61454
G1 X37.836 Y73.857 E8.64687
G1 X38.476 Y73.140 E8.67395
G1 X39.301 Y72.345 E8.70619
G1 X40.057 Y71.719 E8.73383
G1 X41.005 Y71.050 E8.76649
G1 X41.743 Y70.606 E8.79074
G1 E6.79074 F1680.00000
G92 E0
G1 X95.349 Y75.302 F12000.000
G1 E2.00000 F1680.00000
G1 X120.099 Y75.304 E2.64421 F720.000
G1 X127.809 Y75.432 E2.84491 F720.000
G1 X128.409 Y75.477 E2.86058
G1 X129.087 Y75.598 E2.87851
G1 X129.087 Y76.840 E2.91085
G1 X126.835 Y86.443 E3.16759
G1 X126.401 Y87.585 E3.19937
G1 X125.696 Y88.471 E3.22885
G1 X124.691 Y89.126 E3.26008
G1 X112.527 Y94.702 E3.60839
G1 X60.283 Y94.702 E4.96823
G1 X48.372 Y93.861 E5.27904
G1 X47.113 Y93.644 E5.31229
G1 X45.964 Y93.284 E5.34363
G1 X44.928 Y92.792 E5.37350
G1 X44.009 Y92.179 E5.40225
G1 X43.205 Y91.445 E5.43056
G1 X42.519 Y90.594 E5.45903
G1 X41.951 Y89.628 E5.48819
G1 X41.501 Y88.547 E5.51869
G1 X41.175 Y87.359 E5.55075
G1 X40.979 Y86.075 E5.58455
G1 X40.913 Y84.695 E5.62052
G1 X40.975 Y83.357 E5.65538
G1 X41.161 Y82.094 E5.68861
G1 X41.469 Y80.905 E5.72056
G1 X41.900 Y79.810 E5.75121
G1 X42.454 Y78.822 E5.78069
G1 X43.131 Y77.940 E5.80962
G1 X43.928 Y77.171 E5.83845
G1 X44.845 Y76.524 E5.86766
G1 X45.883 Y75.998 E5.89796
G1 X47.045 Y75.610 E5.92983
G1 X48.332 Y75.377 E5.96389
G1 X49.755 Y75.298 E6.00097
G1 X95.274 Y75.302 E7.18581
G1 X128.864 Y75.978 F12000.000
G1 X128.649 Y75.763 E7.19377 F1200.000
G1 X127.990 Y75.676 E7.21111
G1 X128.864 Y76.550 E7.24339
G1 X128.820 Y77.078 E7.25721
G1 X127.391 Y75.649 E7.30995
G1 X126.810 Y75.639 E7.32512
G1 X128.712 Y77.541 E7.39531
G1 X128.603 Y78.005 E7.40772
G1 X126.228 Y75.630 E7.49536
G1 X125.646 Y75.620 E7.51054
G1 X128.494 Y78.468 E7.61563
G1 X128.386 Y78.931 E7.62804
G1 X125.065 Y75.610 E7.75058
G1 X124.483 Y75.601 E7.76576
G1 X128.277 Y79.394 E7.90575
G1 X128.168 Y79.858 E7.91816
G1 X123.902 Y75.591 E8.07560
G1 X123.320 Y75.582 E8.09078
G1 X128.060 Y80.321 E8.26567
G1 X127.951 Y80.784 E8.27809
G1 X122.738 Y75.572 E8.47043
G1 X122.157 Y75.562 E8.48561
G1 X127.842 Y81.248 E8.69540
G1 X127.734 Y81.711 E8.70782
G1 X121.575 Y75.553 E8.93507
G1 X120.994 Y75.543 E8.95024
G1 X127.625 Y82.174 E9.19494
G1 X127.516 Y82.637 E9.20735
G1 X120.412 Y75.533 E9.46950
G1 X119.834 Y75.527 E9.48460
G1 X127.408 Y83.101 E9.76409
G1 X127.299 Y83.564 E9.77650
G1 X119.262 Y75.527 E10.07309
G1 X118.690 Y75.526 E10.08801
G1 X127.190 Y84.027 E10.40169
G1 X127.082 Y84.490 E10.41411
G1 X118.118 Y75.526 E10.74489
G1 X117.546 Y75.526 E10.75981
G1 X126.973 Y84.954 E11.10769
G1 X126.864 Y85.417 E11.12010
G1 X116.974 Y75.526 E11.48507
G1 X116.402 Y75.526 E11.50000
G1 X126.756 Y85.880 E11.88206
G1 X126.647 Y86.343 E11.89448
G1 X115.830 Y75.526 E12.29364
G1 X115.258 Y75.526 E12.30857
G1 X126.499 Y86.768 E12.72340
G1 X126.342 Y87.183 E12.73497
G1 X114.686 Y75.526 E13.16510
G1 X114.114 Y75.526 E13.18003
G1 X126.166 Y87.578 E13.62477
G1 X125.912 Y87.897 E13.63539
G1 X113.542 Y75.526 E14.09187
G1 X112.970 Y75.526 E14.10680
G1 X125.656 Y88.212 E14.57492
G1 X125.345 Y88.473 E14.58551
G1 X112.398 Y75.526 E15.06327
G1 X111.826 Y75.526 E15.07819
G1 X124.999 Y88.699 E15.56428
G1 X124.653 Y88.925 E15.57506
G1 X111.254 Y75.526 E16.06948
G1 X110.682 Y75.526 E16.08441
G1 X124.264 Y89.108 E16.58559
G1 X123.872 Y89.287 E16.59685
G1 X110.110 Y75.526 E17.10466
G1 X109.538 Y75.526 E17.11959
G1 X123.479 Y89.467 E17.63404
G1 X123.087 Y89.647 E17.64530
G1 X108.966 Y75.526 E18.16638
G1 X108.394 Y75.526 E18.18131
G1 X122.695 Y89.827 E18.70903
G1 X122.303 Y90.006 E18.72029
G1 X107.822 Y75.526 E19.25464
G1 X107.250 Y75.526 E19.26957
G1 X121.911 Y90.186 E19.81056
G1 X121.518 Y90.366 E19.82182
G1 X106.678 Y75.525 E20.36944
G1 X106.106 Y75.525 E20.38437
G1 X121.126 Y90.546 E20.93863
G1 X120.734 Y90.726 E20.94989
G1 X105.534 Y75.525 E21.51078
G1 X104.962 Y75.525 E21.52571
G1 X120.342 Y90.905 E22.09324
G1 X119.950 Y91.085 E22.10449
G1 X104.390 Y75.525 E22.67866
G1 X103.818 Y75.525 E22.69359
G1 X119.558 Y91.265 E23.27439
G1 X119.165 Y91.445 E23.28564
G1 X103.246 Y75.525 E23.87308
G1 X102.674 Y75.525 E23.88801
G1 X118.773 Y91.624 E24.48208
G1 X118.381 Y91.804 E24.49333
G1 X102.102 Y75.525 E25.09404
G1 X101.530 Y75.525 E25.10897
G1 X117.989 Y91.984 E25.71631
G1 X117.597 Y92.164 E25.72756
G1 X100.958 Y75.525 E26.34154
G1 X100.386 Y75.525 E26.35647
G1 X117.205 Y92.343 E26.97708
G1 X116.812 Y92.523 E26.98833
G1 X99.814 Y75.525 E27.61558
G1 X99.242 Y75.525 E27.63050
G1 X116.420 Y92.703 E28.26439
G1 X116.028 Y92.883 E28.27564
G1 X98.670 Y75.525 E28.91616
G1 X98.098 Y75.525 E28.93108
G1 X115.636 Y93.062 E29.57824
G1 X115.244 Y93.242 E29.58949
G1 X97.526 Y75.525 E30.24328
G1 X96.954 Y75.525 E30.25820
G1 X114.852 Y93.422 E30.91863
G1 X114.459 Y93.602 E30.92988
G1 X96.382 Y75.525 E31.59694
G1 X95.810 Y75.525 E31.61186
G1 X114.067 Y93.781 E32.28556
G1 X113.675 Y93.961 E32.29681
G1 X95.238 Y75.525 E32.97714
G1 X94.666 Y75.525 E32.99206
G1 X113.283 Y94.141 E33.67903
G1 X112.891 Y94.321 E33.69028
G1 X94.094 Y75.524 E34.38388
G1 X93.522 Y75.524 E34.39880
G1 X112.477 Y94.479 E35.09825
G1 X111.905 Y94.479 E35.11317
G1 X92.950 Y75.524 E35.81262
G1 X92.378 Y75.524 E35.82755
G1 X111.333 Y94.479 E36.52700
G1 X110.761 Y94.479 E36.54192
G1 X91.806 Y75.524 E37.24137
G1 X91.234 Y75.524 E37.25629
G1 X110.189 Y94.479 E37.95575
G1 X109.618 Y94.479 E37.97067
G1 X90.663 Y75.524 E38.67013
G1 X90.091 Y75.524 E38.68505
G1 X109.046 Y94.479 E39.38451
G1 X108.474 Y94.479 E39.39943
G1 X89.519 Y75.524 E40.09889
G1 X88.947 Y75.524 E40.11381
G1 X107.902 Y94.479 E40.81327
G1 X107.330 Y94.479 E40.82820
G1 X88.375 Y75.524 E41.52766
G1 X87.803 Y75.524 E41.54258
G1 X106.758 Y94.479 E42.24205
G1 X106.186 Y94.479 E42.25697
G1 X87.231 Y75.524 E42.95643
G1 X86.659 Y75.524 E42.97136
G1 X105.614 Y94.479 E43.67083
G1 X105.042 Y94.479 E43.68575
G1 X86.087 Y75.524 E44.38522
G1 X85.515 Y75.524 E44.40014
G1 X104.470 Y94.479 E45.09961
G1 X103.898 Y94.479 E45.11454
G1 X84.943 Y75.524 E45.81401
G1 X84.371 Y75.524 E45.82893
G1 X103.326 Y94.479 E46.52841
G1 X102.754 Y94.479 E46.54333
G1 X83.799 Y75.524 E47.24280
G1 X83.227 Y75.524 E47.25773
G1 X102.182 Y94.479 E47.95721
G1 X101.610 Y94.479 E47.97213
G1 X82.655 Y75.524 E48.67161
G1 X82.083 Y75.523 E48.68653
G1 X101.039 Y94.479 E49.38601
G1 X100.467 Y94.479 E49.40094
G1 X81.511 Y75.523 E50.10042
G1 X80.939 Y75.523 E50.11534
G1 X99.895 Y94.479 E50.81483
G1 X99.323 Y94.479 E50.82975
G1 X80.367 Y75.523 E51.52924
G1 X79.795 Y75.523 E51.54416
G1 X98.751 Y94.479 E52.24365
G1 X98.179 Y94.479 E52.25857
G1 X79.223 Y75.523 E52.95806
G1 X78.651 Y75.523 E52.97299
G1 X97.607 Y94.479 E53.67248
G1 X97.035 Y94.479 E53.68740
G1 X78.079 Y75.523 E54.38689
G1 X77.507 Y75.523 E54.40182
G1 X96.463 Y94.479 E55.10131
G1 X95.891 Y94.479 E55.11624
G1 X76.935 Y75.523 E55.81573
G1 X76.363 Y75.523 E55.83066
G1 X95.319 Y94.479 E56.53016
G1 X94.747 Y94.479 E56.54508
G1 X75.791 Y75.523 E57.24458
G1 X75.219 Y75.523 E57.25950
G1 X94.175 Y94.479 E57.95900
G1 X93.603 Y94.479 E57.97393
G1 X74.647 Y75.523 E58.67343
G1 X74.075 Y75.523 E58.68836
G1 X93.031 Y94.479 E59.38786
G1 X92.460 Y94.479 E59.40278
G1 X73.503 Y75.523 E60.10229
G1 X72.931 Y75.523 E60.11721
G1 X91.888 Y94.479 E60.81672
G1 X91.316 Y94.479 E60.83165
G1 X72.359 Y75.523 E61.53116
G1 X71.787 Y75.523 E61.54608
G1 X90.744 Y94.479 E62.24559
G1 X90.172 Y94.479 E62.26052
G1 X71.215 Y75.523 E62.96003
G1 X70.643 Y75.523 E62.97495
G1 X89.600 Y94.479 E63.67447
G1 X89.028 Y94.479 E63.68939
G1 X70.071 Y75.522 E64.38891
G1 X69.499 Y75.522 E64.40383
G1 X88.456 Y94.479 E65.10335
G1 X87.884 Y94.479 E65.11828
G1 X68.927 Y75.522 E65.81780
G1 X68.355 Y75.522 E65.83272
G1 X87.312 Y94.479 E66.53224
G1 X86.740 Y94.479 E66.54717
G1 X67.783 Y75.522 E67.24669
G1 X67.211 Y75.522 E67.26161
G1 X86.168 Y94.479 E67.96114
G1 X85.596 Y94.479 E67.97606
G1 X66.639 Y75.522 E68.67559
G1 X66.067 Y75.522 E68.69052
G1 X85.024 Y94.479 E69.39004
G1 X84.452 Y94.479 E69.40497
G1 X65.495 Y75.522 E70.10450
G1 X64.923 Y75.522 E70.11942
G1 X83.881 Y94.479 E70.81896
G1 X83.309 Y94.479 E70.83388
G1 X64.351 Y75.522 E71.53341
G1 X63.779 Y75.522 E71.54834
G1 X82.737 Y94.479 E72.24787
G1 X82.165 Y94.479 E72.26280
G1 X63.207 Y75.522 E72.96234
G1 X62.635 Y75.522 E72.97726
G1 X81.593 Y94.479 E73.67680
G1 X81.021 Y94.479 E73.69172
G1 X62.064 Y75.522 E74.39126
G1 X61.492 Y75.522 E74.40619
G1 X80.449 Y94.479 E75.10573
G1 X79.877 Y94.479 E75.12065
G1 X60.920 Y75.522 E75.82020
G1 X60.348 Y75.522 E75.83512
G1 X79.305 Y94.479 E76.53467
G1 X78.733 Y94.479 E76.54959
G1 X59.776 Y75.522 E77.24914
G1 X59.204 Y75.522 E77.26407
G1 X78.161 Y94.479 E77.96362
G1 X77.589 Y94.479 E77.97854
G1 X58.632 Y75.522 E78.67809
G1 X58.060 Y75.522 E78.69302
G1 X77.017 Y94.479 E79.39257
G1 X76.445 Y94.479 E79.40749
G1 X57.488 Y75.521 E80.10705
G1 X56.916 Y75.521 E80.12197
G1 X75.873 Y94.479 E80.82153
G1 X75.302 Y94.479 E80.83645
G1 X56.344 Y75.521 E81.53601
G1 X55.772 Y75.521 E81.55093
G1 X74.730 Y94.479 E82.25050
G1 X74.158 Y94.479 E82.26542
G1 X55.200 Y75.521 E82.96498
G1 X54.628 Y75.521 E82.97990
G1 X73.586 Y94.479 E83.67947
G1 X73.014 Y94.479 E83.69439
G1 X54.056 Y75.521 E84.39396
G1 X53.484 Y75.521 E84.40888
G1 X72.442 Y94.479 E85.10845
G1 X71.870 Y94.479 E85.12337
G1 X52.912 Y75.521 E85.82294
G1 X52.340 Y75.521 E85.83787
G1 X71.298 Y94.479 E86.53744
G1 X70.726 Y94.479 E86.55236
G1 X51.768 Y75.521 E87.25193
G1 X51.196 Y75.521 E87.26686
G1 X70.154 Y94.479 E87.96643
G1 X69.582 Y94.479 E87.98135
G1 X50.624 Y75.521 E88.68093
G1 X50.052 Y75.521 E88.69585
G1 X69.010 Y94.479 E89.39543
G1 X68.438 Y94.479 E89.41036
G1 X49.490 Y75.531 E90.10955
G1 X48.948 Y75.561 E90.12371
G1 X67.866 Y94.479 E90.82181
G1 X67.294 Y94.479 E90.83673
G1 X48.406 Y75.591 E91.53371
G1 X47.909 Y75.666 E91.54683
G1 X66.723 Y94.479 E92.24106
G1 X66.151 Y94.479 E92.25599
G1 X47.425 Y75.754 E92.94698
G1 X46.952 Y75.852 E92.95959
G1 X65.579 Y94.479 E93.64694
G1 X65.007 Y94.479 E93.66186
G1 X46.523 Y75.996 E94.34392
G1 X46.094 Y76.139 E94.35571
G1 X64.435 Y94.479 E95.03249
G1 X63.863 Y94.479 E95.04741
G1 X45.694 Y76.311 E95.71784
G1 X45.315 Y76.503 E95.72894
G1 X63.291 Y94.479 E96.39228
G1 X62.719 Y94.479 E96.40720
G1 X44.935 Y76.695 E97.06344
G1 X44.598 Y76.930 E97.07416
G1 X62.147 Y94.479 E97.72174
G1 X61.575 Y94.479 E97.73666
G1 X44.263 Y77.167 E98.37551
G1 X43.944 Y77.420 E98.38613
G1 X61.003 Y94.479 E99.01562
G1 X60.431 Y94.479 E99.03054
G1 X43.658 Y77.706 E99.64948
G1 X43.372 Y77.992 E99.66003
G1 X59.820 Y94.440 E100.26696
G1 X59.204 Y94.396 E100.28305
G1 X43.099 Y78.291 E100.87735
G1 X42.851 Y78.615 E100.88800
G1 X58.589 Y94.353 E101.46875
G1 X57.974 Y94.309 E101.48485
G1 X42.607 Y78.943 E102.05190
G1 X42.401 Y79.309 E102.06286
G1 X57.358 Y94.266 E102.61478
G1 X56.743 Y94.223 E102.63088
G1 X42.196 Y79.675 E103.16768
G1 X42.013 Y80.064 E103.17889
G1 X56.128 Y94.179 E103.69975
G1 X55.512 Y94.136 E103.71585
G1 X41.851 Y80.474 E104.21996
G1 X41.689 Y80.885 E104.23147
G1 X54.897 Y94.092 E104.71884
G1 X54.282 Y94.049 E104.73494
G1 X41.568 Y81.335 E105.20407
G1 X41.450 Y81.789 E105.21631
G1 X53.666 Y94.005 E105.66709
G1 X53.051 Y93.962 E105.68319
G1 X41.350 Y82.261 E106.11497
G1 X41.276 Y82.759 E106.12813
G1 X52.435 Y93.919 E106.53991
G1 X51.820 Y93.875 E106.55600
G1 X41.203 Y83.258 E106.94778
G1 X41.174 Y83.801 E106.96196
G1 X51.205 Y93.832 E107.33211
G1 X50.589 Y93.788 E107.34821
G1 X41.148 Y84.347 E107.69659
G1 X41.151 Y84.922 E107.71159
G1 X49.974 Y93.745 E108.03717
G1 X49.359 Y93.701 E108.05326
G1 X41.180 Y85.522 E108.35508
G1 X41.228 Y86.143 E108.37133
G1 X48.743 Y93.658 E108.64863
G1 X48.083 Y93.569 E108.66603
G1 X41.332 Y86.818 E108.91515
G1 X41.482 Y87.541 E108.93441
G1 X47.391 Y93.450 E109.15245
G1 X46.583 Y93.213 E109.17444
G1 X41.699 Y88.329 E109.35466
G1 X42.099 Y89.301 F12000.000
G1 X45.623 Y92.825 E109.48470 F1200.000
G1 X43.845 Y91.619 F12000.000
G1 X43.228 Y91.002 E109.50746 F1200.000
M104 S188 ; set temperature
G1 E107.50746 F1680.00000
G92 E0
G1 Z0.650 F12000.000
G1 X47.045 Y75.610 F12000.000
G1 E2.00000 F1680.00000
G1 X48.332 Y75.377 E2.02452 F1440.000
G1 X49.755 Y75.298 E2.05121
G1 X119.751 Y75.298 E3.36276
G1 X120.627 Y75.312 E3.37916
G1 X127.809 Y75.432 E3.51375 F1440.000
G1 X128.409 Y75.477 E3.52503
G1 X129.087 Y75.598 E3.53794
G1 X129.087 Y76.840 E3.56122
G1 X126.835 Y86.443 E3.74604
G1 X126.401 Y87.585 E3.76892
G1 X125.696 Y88.471 E3.79014
G1 X124.691 Y89.126 E3.81262
G1 X112.527 Y94.702 E4.06335
G1 X60.283 Y94.702 E5.04225
G1 X48.372 Y93.861 E5.26599
G1 X47.113 Y93.644 E5.28993
G1 X45.964 Y93.284 E5.31249
G1 X44.928 Y92.792 E5.33399
G1 X44.009 Y92.179 E5.35468
G1 X43.205 Y91.445 E5.37507
G1 X42.519 Y90.594 E5.39556
G1 X41.951 Y89.628 E5.41655
G1 X41.501 Y88.547 E5.43850
G1 X41.175 Y87.359 E5.46158
G1 X40.979 Y86.075 E5.48591
G1 X40.913 Y84.695 E5.51181
G1 X40.975 Y83.357 E5.53690
G1 X41.161 Y82.094 E5.56083
G1 X41.469 Y80.905 E5.58383
G1 X41.900 Y79.810 E5.60588
G1 X42.454 Y78.822 E5.62711
G1 X43.131 Y77.940 E5.64794
G1 X43.928 Y77.171 E5.66869
G1 X44.845 Y76.524 E5.68972
G1 X45.883 Y75.998 E5.71153
G1 X46.973 Y75.634 E5.73306
G1 X45.845 Y76.354 F12000.000
G1 X42.094 Y80.105 E5.83275 F2400.000
G1 X41.697 Y81.120 F12000.000
