; generated by Slic3r 1.1.7 on 2014-12-06 at 23:03:31

; perimeters extrusion width = 0.50mm
; infill extrusion width = 0.50mm
; solid infill extrusion width = 0.50mm
; top infill extrusion width = 0.50mm

G21 ; set units to millimeters
M104 S190 ; set temperature
G28 ; home all axes
G1 Z15 F120 ; lift nozzle
M109 S190 ; wait for temperature to be reached
G90 ; use absolute coordinates
G92 E0
M82 ; use absolute distances for extrusion
M106 S102
G1 F1680.000 E-2.00000
G92 E0
G1 Z0.350 F12000.000
G1 X33.624 Y50.147 F12000.000
G1 E2.00000 F1680.000
G1 X37.683 Y47.545 E2.15555 F1200.000
G1 X38.325 Y47.191 E2.17919
G1 X42.889 Y45.059 E2.34169
G1 X43.801 Y44.720 E2.37307
G1 X48.324 Y43.307 E2.52594
G1 X49.305 Y43.083 E2.55840
G1 X53.984 Y42.286 E2.71153
G1 X54.975 Y42.197 E2.74364
G1 X59.720 Y42.031 E2.89680
G1 X60.458 Y42.055 E2.92060
G1 X65.414 Y42.539 E3.08126 F1200.000
G1 X66.147 Y42.659 E3.10520
G1 X71.031 Y43.808 E3.26708
G1 X71.745 Y44.028 E3.29117
G1 X143.448 Y69.551 E5.74645
G1 X145.358 Y70.401 E5.81389
G1 X146.530 Y71.077 E5.85755
G1 X147.262 Y71.607 E5.88670
G1 X148.234 Y72.315 E5.92552
G1 X149.236 Y73.218 E5.96902
G1 X150.636 Y74.772 E6.03650
G1 X151.436 Y75.873 E6.08038
G1 X152.480 Y77.681 E6.14773
G1 X153.033 Y78.924 E6.19164
G1 X153.679 Y80.914 E6.25914
G1 X153.961 Y82.237 E6.30277
G1 X154.181 Y84.317 E6.37025
G1 X154.181 Y85.685 E6.41438
G1 X153.961 Y87.763 E6.48179
G1 X153.679 Y89.088 E6.52547
G1 X153.033 Y91.076 E6.59291
G1 X152.482 Y92.315 E6.63665
G1 X151.438 Y94.125 E6.70406
G1 X150.636 Y95.228 E6.74804
G1 X149.236 Y96.782 E6.81552
G1 X148.232 Y97.686 E6.85912
G1 X146.542 Y98.916 E6.92655
G1 X145.360 Y99.600 E6.97060
G1 X142.985 Y100.635 E7.05416
G1 X71.948 Y125.900 E9.48644
G1 X71.240 Y126.120 E9.51035
G1 X66.361 Y127.296 E9.67225
G1 X65.400 Y127.446 E9.70361
G1 X60.699 Y127.928 E9.85608
G1 X59.938 Y127.956 E9.88063
G1 X54.935 Y127.801 E10.04211
G1 X53.949 Y127.692 E10.07412
G1 X49.280 Y126.912 E10.22684
G1 X48.536 Y126.737 E10.25148
G1 X43.761 Y125.269 E10.41264
G1 X42.840 Y124.903 E10.44462
G1 X38.521 Y122.906 E10.59810
G1 X37.898 Y122.566 E10.62100
G1 X33.655 Y119.875 E10.78309
G1 X32.861 Y119.277 E10.81514
G1 X29.241 Y116.227 E10.96786
G1 X28.711 Y115.718 E10.99157
G1 X25.331 Y112.001 E11.15363
G1 X24.726 Y111.218 E11.18555
G1 X22.029 Y107.305 E11.33887
G1 X21.650 Y106.665 E11.36285
G1 X19.382 Y102.206 E11.52426
G1 X19.006 Y101.293 E11.55610
G1 X17.442 Y96.809 E11.70930
G1 X17.250 Y96.113 E11.73260
G1 X16.235 Y91.199 E11.89446
G1 X16.113 Y90.212 E11.92655
G1 X15.788 Y85.474 E12.07974
G1 X15.787 Y84.738 E12.10351
G1 X16.108 Y79.743 E12.26496
G1 X16.251 Y78.758 E12.29706
G1 X17.193 Y74.090 E12.45068
G1 X17.462 Y73.149 E12.48227
G1 X19.008 Y68.668 E12.63518
G1 X19.409 Y67.747 E12.66760
G1 X21.542 Y63.514 E12.82051
G1 X21.916 Y62.879 E12.84428
G1 X24.733 Y58.748 E13.00559
G1 X25.365 Y57.963 E13.03810
G1 X28.537 Y54.446 E13.19087
G1 X29.076 Y53.922 E13.21513
G1 X32.881 Y50.687 E13.37622
G1 X33.562 Y50.189 E13.40345
G1 F1680.000 E11.40345
G92 E0
G1 X82.549 Y91.533 F12000.000
G1 E2.00000 F1680.000
G1 X80.660 Y92.204 E2.06466 F720.000
G1 X78.660 Y92.341 E2.12935
G1 X76.697 Y91.933 E2.19403
G1 X74.915 Y91.011 E2.25873
G1 X73.451 Y89.642 E2.32339
G1 X72.410 Y87.930 E2.38806
G1 X71.869 Y85.999 E2.45272
G1 X71.869 Y83.993 E2.51746
G1 X72.410 Y82.062 E2.58212
G1 X73.451 Y80.350 E2.64679
G1 X74.915 Y78.981 E2.71145
G1 X76.697 Y78.059 E2.77615
G1 X78.660 Y77.651 E2.84083
G1 X80.547 Y77.780 E2.90186
G1 X80.660 Y77.788 E2.90552 F720.000
G1 X82.549 Y78.459 E2.97018
G1 X84.187 Y79.615 E3.03485
G1 X85.453 Y81.170 E3.09954
G1 X86.252 Y83.009 E3.16423
G1 X86.523 Y84.997 E3.22896
G1 X86.252 Y86.983 E3.29362
G1 X85.453 Y88.822 E3.35831
G1 X84.187 Y90.377 E3.42299
G1 X82.610 Y91.490 E3.48525
G1 F1680.000 E1.48525
G92 E0
G1 X69.474 Y71.491 F12000.000
G1 E2.00000 F1680.000
G1 X67.720 Y72.462 E2.06468 F720.000
G1 X65.769 Y72.924 E2.12936
G1 X63.766 Y72.841 E2.19402
G1 X61.859 Y72.222 E2.25871
G1 X60.190 Y71.110 E2.32342
G1 X58.883 Y69.590 E2.38809
G1 X58.034 Y67.774 E2.45276
G1 X57.707 Y65.796 E2.51743
G1 X57.924 Y63.802 E2.58215
G1 X58.674 Y61.942 E2.64684
G1 X59.896 Y60.353 E2.71149
G1 X61.501 Y59.152 E2.77616
G1 X63.371 Y58.429 E2.84084
G1 X65.367 Y58.239 E2.90554
G1 X67.229 Y58.573 E2.96656
G1 X67.341 Y58.593 E2.97022 F720.000
G1 X69.147 Y59.467 E3.03494
G1 X70.648 Y60.794 E3.09960
G1 X71.736 Y62.478 E3.16425
G1 X72.330 Y64.394 E3.22896
G1 X72.384 Y66.396 E3.29358
G1 X71.897 Y68.341 E3.35825
G1 X70.901 Y70.083 E3.42298
G1 X69.528 Y71.438 E3.48523
G1 F1680.000 E1.48523
G92 E0
G1 X49.609 Y72.603 F12000.000
G1 E2.00000 F1680.000
G1 X49.445 Y74.602 E2.06469 F720.000
G1 X48.747 Y76.482 E2.12939
G1 X47.569 Y78.104 E2.19406
G1 X45.997 Y79.348 E2.25874
G1 X44.148 Y80.121 E2.32340
G1 X42.158 Y80.367 E2.38809
G1 X40.176 Y80.067 E2.45276
G1 X38.347 Y79.243 E2.51746
G1 X36.810 Y77.957 E2.58211
G1 X35.675 Y76.302 E2.64683
G1 X35.029 Y74.405 E2.71148
G1 X34.919 Y72.402 E2.77619
G1 X35.354 Y70.445 E2.84086
G1 X36.301 Y68.679 E2.90552
G1 X37.690 Y67.231 E2.97025
G1 X39.418 Y66.212 E3.03494
G1 X41.356 Y65.699 E3.09963
G1 X43.247 Y65.724 E3.16064
G1 X43.361 Y65.725 E3.16431 F720.000
G1 X45.283 Y66.293 E3.22895
G1 X46.983 Y67.357 E3.29367
G1 X48.331 Y68.842 E3.35837
G1 X49.394 Y70.966 E3.43500
G1 X49.292 Y70.966 E3.43829
G1 X49.595 Y72.530 E3.48965
G1 F1680.000 E1.48965
G92 E0
G1 X44.148 Y89.871 F12000.000
G1 E2.00000 F1680.000
G1 X45.997 Y90.646 E2.06468 F720.000
G1 X47.569 Y91.888 E2.12932
G1 X48.747 Y93.510 E2.19398
G1 X49.445 Y95.390 E2.25869
G1 X49.609 Y97.389 E2.32338
G1 X49.228 Y99.358 E2.38809
G1 X48.331 Y101.150 E2.45271
G1 X46.983 Y102.635 E2.51742
G1 X45.283 Y103.699 E2.58213
G1 X43.361 Y104.267 E2.64678
G1 X41.356 Y104.293 E2.71145
G1 X39.418 Y103.780 E2.77614
G1 X37.690 Y102.761 E2.84084
G1 X36.301 Y101.313 E2.90557
G1 X35.354 Y99.547 E2.97022
G1 X34.919 Y97.590 E3.03490
G1 X35.029 Y95.587 E3.09960
G1 X35.675 Y93.690 E3.16425
G1 X36.810 Y92.035 E3.22898
G1 X38.347 Y90.749 E3.29362
G1 X40.176 Y89.925 E3.35833
G1 X42.158 Y89.625 E3.42300
G1 X43.979 Y89.850 E3.48220
G1 X44.073 Y89.862 E3.48527 F720.000
G1 X54.494 Y86.649 F12000.000
G1 X54.185 Y84.997 E3.53948 F720.000
G1 X54.494 Y83.343 E3.59376
G1 X55.379 Y81.912 E3.64805
G1 X56.722 Y80.897 E3.70234
G1 X58.340 Y80.438 E3.75660
G1 X59.926 Y80.584 E3.80800
G1 X60.015 Y80.592 E3.81086 F720.000
G1 X61.520 Y81.342 E3.86512
G1 X62.655 Y82.585 E3.91942
G1 X63.263 Y84.154 E3.97371
G1 X63.263 Y85.838 E4.02802
G1 X62.655 Y87.407 E4.08231
G1 X61.520 Y88.650 E4.13661
G1 X60.015 Y89.400 E4.19087
G1 X58.340 Y89.554 E4.24513
G1 X56.722 Y89.095 E4.29939
G1 X55.379 Y88.080 E4.35368
G1 X54.533 Y86.713 E4.40555
G1 X61.859 Y97.770 F12000.000
G1 X63.767 Y97.151 E4.47025 F720.000
G1 X65.769 Y97.070 E4.53490
G1 X67.609 Y97.503 E4.59589
G1 X67.720 Y97.530 E4.59956 F720.000
G1 X69.474 Y98.501 E4.66425
G1 X70.901 Y99.909 E4.72892
G1 X71.897 Y101.651 E4.79364
G1 X72.384 Y103.596 E4.85831
G1 X72.330 Y105.598 E4.92294
G1 X71.736 Y107.514 E4.98765
G1 X70.648 Y109.198 E5.05230
G1 X69.147 Y110.525 E5.11696
G1 X67.341 Y111.399 E5.18168
G1 X65.367 Y111.753 E5.24636
G1 X63.371 Y111.563 E5.31106
G1 X61.501 Y110.840 E5.37574
G1 X59.896 Y109.639 E5.44041
G1 X58.674 Y108.050 E5.50506
G1 X57.924 Y106.190 E5.56975
G1 X57.707 Y104.196 E5.63447
G1 X58.034 Y102.218 E5.69914
G1 X58.883 Y100.402 E5.76381
G1 X60.190 Y98.882 E5.82848
G1 X61.797 Y97.811 E5.89077
G1 F1680.000 E3.89077
G92 E0
G1 X64.815 Y120.713 F12000.000
G1 E2.00000 F1680.000
G1 X64.347 Y120.195 E2.02251 F720.000
G1 X63.890 Y119.643 E2.04564
G1 X63.449 Y119.066 E2.06907
G1 X63.066 Y118.518 E2.09064
G1 X62.622 Y117.802 E2.11782
G1 X61.809 Y117.883 E2.14420
G1 X61.554 Y118.584 E2.16826
G1 X61.281 Y119.239 E2.19115
G1 X60.999 Y119.844 E2.21269
G1 X60.644 Y120.528 E2.23756
G1 X60.265 Y121.191 E2.26219
G1 X59.999 Y121.202 E2.27078
G1 X59.640 Y120.680 E2.29123
G1 X59.225 Y120.017 E2.31646
G1 X58.866 Y119.387 E2.33986
G1 X58.560 Y118.792 E2.36143
G1 X58.215 Y118.023 E2.38861
G1 X57.399 Y117.995 E2.41495
G1 X57.052 Y118.656 E2.43905
G1 X56.720 Y119.227 E2.46036
G1 X56.335 Y119.831 E2.48346
G1 X55.892 Y120.462 E2.50835
G1 X55.428 Y121.068 E2.53296
G1 X55.164 Y121.044 E2.54150
G1 X54.877 Y120.479 E2.56193
G1 X54.553 Y119.766 E2.58719
G1 X54.281 Y119.094 E2.61057
G1 X54.057 Y118.462 E2.63221
G1 X53.818 Y117.655 E2.65936
G1 X53.012 Y117.520 E2.68572
G1 X52.581 Y118.129 E2.70978
G1 X52.177 Y118.648 E2.73102
G1 X51.713 Y119.197 E2.75420
G1 X51.190 Y119.764 E2.77909
G1 X50.649 Y120.301 E2.80367
G1 X50.391 Y120.242 E2.81223
G1 X50.182 Y119.643 E2.83271
G1 X49.957 Y118.895 E2.85791
G1 X49.776 Y118.192 E2.88131
G1 X49.639 Y117.537 E2.90289
G1 X49.509 Y116.706 E2.93003
G1 X48.729 Y116.463 E2.95639
G1 X48.188 Y117.040 E2.98192
G1 X47.749 Y117.471 E3.00175
G1 X47.218 Y117.952 E3.02485
G1 X46.623 Y118.444 E3.04978
G1 X46.015 Y118.905 E3.07438
G1 X45.768 Y118.812 E3.08290
G1 X45.642 Y118.191 E3.10333
G1 X45.517 Y117.419 E3.12858
G1 X45.433 Y116.700 E3.15193
G1 X45.383 Y116.029 E3.17362
G1 X45.367 Y115.192 E3.20066
G1 X44.624 Y114.843 E3.22713
G1 X44.048 Y115.319 E3.25122
G1 X43.519 Y115.713 E3.27249
G1 X42.927 Y116.119 E3.29565
G1 X42.273 Y116.527 E3.32052
G1 X41.610 Y116.903 E3.34512
G1 X41.377 Y116.777 E3.35366
G1 X41.333 Y116.144 E3.37412
G1 X41.313 Y115.365 E3.39929
G1 X41.327 Y114.639 E3.42270
G1 X41.366 Y113.971 E3.44430
G1 X41.460 Y113.134 E3.47146
G1 X40.771 Y112.693 E3.49785
G1 X40.137 Y113.085 E3.52191
G1 X39.560 Y113.408 E3.54323
G1 X38.922 Y113.731 E3.56631
G1 X38.218 Y114.049 E3.59122
G1 X37.511 Y114.333 E3.61579
G1 X37.295 Y114.176 E3.62440
G1 X37.337 Y113.544 E3.64485
G1 X37.421 Y112.767 E3.67004
G1 X37.531 Y112.052 E3.69340
G1 X37.660 Y111.394 E3.71503
G1 X37.864 Y110.578 E3.74217
G1 X37.242 Y110.050 E3.76850
G1 X36.518 Y110.370 E3.79403
G1 X35.945 Y110.596 E3.81391
G1 X35.268 Y110.831 E3.83701
G1 X34.529 Y111.051 E3.86188
G1 X33.790 Y111.238 E3.88648
G1 X33.597 Y111.054 E3.89507
G1 X33.723 Y110.434 E3.91548
G1 X33.909 Y109.676 E3.94067
G1 X34.113 Y108.980 E3.96408
G1 X34.329 Y108.346 E3.98568
G1 X34.642 Y107.565 E4.01282
G1 X34.094 Y106.956 E4.03927
G1 X33.377 Y107.167 E4.06339
G1 X32.737 Y107.326 E4.08467
G1 X32.035 Y107.467 E4.10775
G1 X31.272 Y107.589 E4.13267
G1 X30.515 Y107.676 E4.15725
G1 X30.349 Y107.468 E4.16585
G1 X30.556 Y106.870 E4.18626
G1 X30.842 Y106.143 E4.21145
G1 X31.137 Y105.481 E4.23484
G1 X31.434 Y104.880 E4.25647
G1 X31.849 Y104.148 E4.28364
G1 X31.388 Y103.471 E4.31005
G1 X30.648 Y103.587 E4.33423
G1 X29.992 Y103.658 E4.35552
G1 X29.279 Y103.705 E4.37857
G1 X28.506 Y103.723 E4.40350
G1 X27.743 Y103.709 E4.42811
G1 X27.607 Y103.482 E4.43666
G1 X27.892 Y102.915 E4.45713
G1 X28.273 Y102.232 E4.48237
G1 X28.653 Y101.615 E4.50573
G1 X29.028 Y101.060 E4.52735
G1 X29.537 Y100.389 E4.55449
G1 X29.168 Y99.658 E4.58090
G1 X28.376 Y99.672 E4.60646
G1 X27.761 Y99.657 E4.62631
G1 X27.047 Y99.609 E4.64940
G1 X26.280 Y99.523 E4.67431
G1 X25.526 Y99.407 E4.69890
G1 X25.421 Y99.163 E4.70749
G1 X25.778 Y98.640 E4.72793
G1 X26.246 Y98.015 E4.75312
G1 X26.706 Y97.456 E4.77648
G1 X27.152 Y96.954 E4.79814
G1 X27.746 Y96.357 E4.82528
G1 X27.478 Y95.583 E4.85173
G1 X26.735 Y95.499 E4.87584
G1 X26.085 Y95.393 E4.89710
G1 X25.384 Y95.251 E4.92017
G1 X24.634 Y95.065 E4.94509
G1 X23.902 Y94.848 E4.96970
G1 X23.830 Y94.594 E4.97824
G1 X24.254 Y94.124 E4.99865
G1 X24.803 Y93.564 E5.02396
G1 X25.332 Y93.070 E5.04730
G1 X25.840 Y92.633 E5.06890
G1 X26.508 Y92.123 E5.09601
G1 X26.347 Y91.320 E5.12243
G1 X25.622 Y91.137 E5.14656
G1 X24.991 Y90.946 E5.16783
G1 X24.313 Y90.711 E5.19098
G1 X23.595 Y90.425 E5.21589
G1 X22.899 Y90.114 E5.24049
G1 X22.862 Y89.851 E5.24905
G1 X23.345 Y89.441 E5.26951
G1 X23.962 Y88.963 E5.29470
G1 X24.553 Y88.542 E5.31810
G1 X25.116 Y88.179 E5.33970
G1 X25.845 Y87.761 E5.36682
G1 X25.793 Y86.942 E5.39329
G1 X25.057 Y86.644 E5.41888
G1 X24.499 Y86.391 E5.43867
G1 X23.860 Y86.068 E5.46176
G1 X23.186 Y85.690 E5.48670
G1 X22.536 Y85.289 E5.51131
G1 X22.535 Y85.024 E5.51988
G1 X23.069 Y84.683 E5.54034
G1 X23.745 Y84.289 E5.56555
G1 X24.387 Y83.952 E5.58895
G1 X24.993 Y83.664 E5.61061
G1 X25.770 Y83.346 E5.63769
G1 X25.827 Y82.530 E5.66408
G1 X25.177 Y82.162 E5.68818
G1 X24.618 Y81.811 E5.70947
G1 X24.028 Y81.407 E5.73254
G1 X23.411 Y80.941 E5.75749
G1 X22.821 Y80.458 E5.78207
G1 X22.855 Y80.195 E5.79065
G1 X23.430 Y79.927 E5.81113
G1 X24.153 Y79.627 E5.83636
G1 X24.833 Y79.379 E5.85972
G1 X25.471 Y79.176 E5.88131
G1 X26.285 Y78.964 E5.90844
G1 X26.450 Y78.163 E5.93485
G1 X25.854 Y77.711 E5.95898
G1 X25.348 Y77.289 E5.98023
G1 X24.817 Y76.809 E6.00333
G1 X24.266 Y76.266 E6.02829
G1 X23.747 Y75.708 E6.05286
G1 X23.816 Y75.451 E6.06145
G1 X24.420 Y75.263 E6.08185
G1 X25.176 Y75.063 E6.10709
G1 X25.884 Y74.907 E6.13047
G1 X26.544 Y74.790 E6.15210
G1 X27.380 Y74.690 E6.17924
G1 X27.648 Y73.916 E6.20567
G1 X27.089 Y73.357 E6.23119
G1 X26.674 Y72.904 E6.25100
G1 X26.211 Y72.357 E6.27411
G1 X25.739 Y71.746 E6.29904
G1 X25.297 Y71.124 E6.32365
G1 X25.399 Y70.879 E6.33219
G1 X26.023 Y70.773 E6.35264
G1 X26.799 Y70.675 E6.37786
G1 X27.523 Y70.615 E6.40128
G1 X28.191 Y70.587 E6.42286
G1 X29.032 Y70.598 E6.44999
G1 X29.403 Y69.870 E6.47636
G1 X28.949 Y69.276 E6.50050
G1 X28.571 Y68.735 E6.52179
G1 X28.185 Y68.131 E6.54490
G1 X27.799 Y67.463 E6.56980
G1 X27.446 Y66.789 E6.59435
G1 X27.580 Y66.558 E6.60296
G1 X28.212 Y66.537 E6.62336
G1 X28.994 Y66.543 E6.64859
G1 X29.718 Y66.580 E6.67198
G1 X30.384 Y66.641 E6.69356
G1 X31.216 Y66.765 E6.72070
G1 X31.681 Y66.090 E6.74715
G1 X31.310 Y65.443 E6.77120
G1 X31.007 Y64.856 E6.79250
G1 X30.705 Y64.206 E6.81561
G1 X30.413 Y63.493 E6.84049
G1 X30.152 Y62.775 E6.86513
G1 X30.314 Y62.566 E6.87367
G1 X30.945 Y62.629 E6.89413
G1 X31.719 Y62.739 E6.91935
G1 X32.431 Y62.872 E6.94272
G1 X33.084 Y63.023 E6.96432
G1 X33.893 Y63.256 E6.99149
G1 X34.443 Y62.650 E7.01787
G1 X34.145 Y61.916 E7.04342
G1 X33.940 Y61.337 E7.06324
G1 X33.728 Y60.652 E7.08638
G1 X33.531 Y59.906 E7.11125
G1 X33.368 Y59.162 E7.13584
G1 X33.559 Y58.974 E7.14445
G1 X34.175 Y59.122 E7.16488
G1 X34.927 Y59.334 E7.19010
G1 X35.615 Y59.559 E7.21346
G1 X36.242 Y59.797 E7.23507
G1 X37.014 Y60.135 E7.26226
G1 X37.638 Y59.606 E7.28868
G1 X37.451 Y58.885 E7.31272
G1 X37.314 Y58.239 E7.33400
G1 X37.195 Y57.533 E7.35713
G1 X37.100 Y56.766 E7.38204
G1 X37.038 Y56.007 E7.40662
G1 X37.251 Y55.847 E7.41519
G1 X37.843 Y56.076 E7.43566
G1 X38.560 Y56.385 E7.46086
G1 X39.212 Y56.702 E7.48423
G1 X39.804 Y57.020 E7.50590
G1 X40.521 Y57.458 E7.53304
G1 X41.211 Y57.020 E7.55940
G1 X41.122 Y56.278 E7.58352
G1 X41.073 Y55.619 E7.60482
G1 X41.049 Y54.902 E7.62797
G1 X41.057 Y54.132 E7.65282
G1 X41.096 Y53.370 E7.67742
G1 X41.329 Y53.240 E7.68602
G1 X41.884 Y53.543 E7.70644
G1 X42.553 Y53.948 E7.73166
G1 X43.157 Y54.349 E7.75502
G1 X43.700 Y54.743 E7.77668
G1 X44.353 Y55.271 E7.80376
G1 X45.095 Y54.930 E7.83011
G1 X45.109 Y54.138 E7.85564
G1 X45.146 Y53.523 E7.87553
G1 X45.218 Y52.812 E7.89859
G1 X45.329 Y52.047 E7.92352
G1 X45.470 Y51.297 E7.94813
G1 X45.716 Y51.201 E7.95667
G1 X46.228 Y51.577 E7.97714
G1 X46.837 Y52.065 E8.00233
G1 X47.383 Y52.542 E8.02573
G1 X47.867 Y53.004 E8.04730
G1 X48.443 Y53.617 E8.07443
G1 X49.224 Y53.377 E8.10079
G1 X49.335 Y52.638 E8.12488
G1 X49.462 Y51.990 E8.14619
G1 X49.628 Y51.292 E8.16934
G1 X49.840 Y50.549 E8.19426
G1 X50.080 Y49.826 E8.21885
G1 X50.337 Y49.762 E8.22740
G1 X50.793 Y50.204 E8.24787
G1 X51.333 Y50.770 E8.27311
G1 X51.809 Y51.314 E8.29645
G1 X52.228 Y51.838 E8.31807
G1 X52.719 Y52.521 E8.34523
G1 X53.524 Y52.387 E8.37154
G1 X53.748 Y51.628 E8.39709
G1 X53.945 Y51.045 E8.41692
G1 X54.201 Y50.375 E8.44006
G1 X54.510 Y49.668 E8.46497
G1 X54.844 Y48.982 E8.48957
G1 X55.108 Y48.954 E8.49812
G1 X55.502 Y49.451 E8.51859
G1 X55.961 Y50.084 E8.54380
G1 X56.361 Y50.689 E8.56720
G1 X56.706 Y51.263 E8.58882
G1 X57.101 Y52.006 E8.61597
G1 X57.917 Y51.979 E8.64229
G1 X58.220 Y51.298 E8.66634
G1 X58.512 Y50.704 E8.68768
G1 X58.858 Y50.076 E8.71081
G1 X59.257 Y49.417 E8.73568
G1 X59.680 Y48.783 E8.76028
G1 X59.946 Y48.789 E8.76886
