; generated by Slic3r 0.9.10b on 2013-10-07 at 14:21:33

; layer_height = 0.30
; perimeters = 2
; top_solid_layers = 3
; bottom_solid_layers = 3
; fill_density = 0.4
; perimeter_speed = 30
; infill_speed = 40
; travel_speed = 130
; nozzle_diameter = 0.5
; filament_diameter = 2.9
; extrusion_multiplier = 1
; perimeters extrusion width = 0.70mm
; infill extrusion width = 0.70mm
; solid infill extrusion width = 0.70mm
; top infill extrusion width = 0.70mm
; first layer extrusion width = 0.90mm

G21 ; set units to millimeters
M107
M190 S65 ; wait for bed temperature to be reached
M104 S195 ; set temperature
G28 ; home all axes
G1 Z5 F1000 ; lift nozzle
M109 S195 ; wait for temperature to be reached
G90 ; use absolute coordinates
G92 E0
M82 ; use absolute distances for extrusion
G1 F1800.000 E-1.00000
G92 E0
G1 Z0.450 F7800.000
G1 X88.285 Y19.838
G1 F1800.000 E1.00000
G1 X89.115 Y19.038 F720.000 E1.06394
G1 X92.415 Y16.228 E1.30435
G1 X93.115 Y15.678 E1.35373
G1 X93.585 Y15.358 E1.38527
G1 X97.225 Y13.018 E1.62529
G1 X97.605 Y12.788 E1.64993
G1 X98.475 Y12.318 E1.70478
G1 X102.405 Y10.468 E1.94571
G1 X103.285 Y10.108 E1.99844
G1 X107.885 Y8.648 E2.26614
G1 X108.845 Y8.398 E2.32116
G1 X109.305 Y8.308 E2.34716
G1 X113.575 Y7.568 E2.58753
G1 X114.495 Y7.448 E2.63900
G1 X115.015 Y7.408 E2.66792
G1 X119.355 Y7.248 E2.90882
G1 X120.275 Y7.258 E2.95985
G1 X120.805 Y7.288 E2.98929
G1 X125.595 Y7.768 E3.25631
G1 X126.525 Y7.938 E3.30875
G1 X130.745 Y8.918 E3.54905
G1 X132.145 Y9.348 E3.63029
G1 X136.195 Y10.888 E3.87062
G1 X136.675 Y11.088 E3.89946
G1 X137.505 Y11.498 E3.95081
G1 X141.315 Y13.558 E4.19105
G1 X142.165 Y14.078 E4.24632
G1 X142.555 Y14.338 E4.27232
G1 X146.055 Y16.898 E4.51284
G1 X146.385 Y17.148 E4.53581
G1 X147.165 Y17.818 E4.59284
G1 X150.295 Y20.818 E4.83332
G1 X150.635 Y21.178 E4.86079
G1 X151.265 Y21.888 E4.91344
G1 X153.965 Y25.278 E5.15382
G1 X154.515 Y26.048 E5.20631
G1 X154.785 Y26.468 E5.23400
G1 X157.015 Y30.188 E5.47458
G1 X157.265 Y30.638 E5.50313
G1 X157.675 Y31.488 E5.55548
G1 X159.385 Y35.478 E5.79626
G1 X159.715 Y36.348 E5.84787
G1 X159.875 Y36.838 E5.87646
G1 X161.035 Y41.018 E6.11708
G1 X161.325 Y42.428 E6.19692
G1 X161.925 Y46.718 E6.43719
G1 X162.015 Y47.698 E6.49178
G1 X162.045 Y52.498 E6.75803
G1 X162.035 Y53.028 E6.78743
G1 X161.955 Y53.928 E6.83755
G1 X161.405 Y58.228 E7.07800
G1 X161.315 Y58.748 E7.10727
G1 X161.115 Y59.678 E7.16003
G1 X159.985 Y63.858 E7.40021
G1 X159.515 Y65.238 E7.48107
G1 X157.835 Y69.228 E7.72120
G1 X157.435 Y70.078 E7.77331
G1 X157.195 Y70.528 E7.80160
G1 X155.005 Y74.258 E8.04151
G1 X154.495 Y75.038 E8.09321
G1 X154.195 Y75.458 E8.12184
G1 X151.525 Y78.868 E8.36206
G1 X150.915 Y79.578 E8.41398
G1 X150.905 Y79.568 E8.41476
G1 X150.655 Y79.848 E8.43559
G1 X83.015 Y148.778 E13.79227
G1 X79.555 Y152.148 E14.06017
G1 X79.145 Y152.508 E14.09043
G1 X78.705 Y152.858 E14.12162
G1 X75.225 Y155.438 E14.36191
G1 X74.405 Y155.988 E14.41667
G1 X70.225 Y158.318 E14.68211
G1 X69.465 Y158.698 E14.72924
G1 X68.915 Y158.938 E14.76253
G1 X64.875 Y160.518 E15.00314
G1 X64.395 Y160.678 E15.03121
G1 X63.485 Y160.948 E15.08386
G1 X59.285 Y161.968 E15.32359
G1 X58.255 Y162.158 E15.38169
G1 X57.855 Y162.218 E15.40412
G1 X53.545 Y162.678 E15.64454
G1 X52.615 Y162.728 E15.69620
G1 X52.085 Y162.728 E15.72560
G1 X47.755 Y162.598 E15.96588
G1 X46.785 Y162.528 E16.01982
G1 X42.045 Y161.758 E16.28618
G1 X41.115 Y161.568 E16.33883
G1 X36.475 Y160.158 E16.60782
G1 X35.685 Y159.888 E16.65413
G1 X35.125 Y159.648 E16.68792
G1 X31.185 Y157.838 E16.92842
G1 X30.725 Y157.608 E16.95695
G1 X29.915 Y157.148 E17.00862
G1 X26.255 Y154.838 E17.24868
G1 X25.445 Y154.268 E17.30362
G1 X21.385 Y150.868 E17.59735
G1 X20.925 Y150.418 E17.63304
G1 X17.525 Y146.688 E17.91299
G1 X17.185 Y146.268 E17.94296
G1 X16.885 Y145.858 E17.97114
G1 X14.415 Y142.298 E18.21148
G1 X13.885 Y141.438 E18.26751
G1 X13.665 Y141.048 E18.29235
G1 X11.695 Y137.188 E18.53272
G1 X11.485 Y136.738 E18.56027
G1 X11.125 Y135.858 E18.61301
G1 X9.685 Y131.768 E18.85352
G1 X9.535 Y131.278 E18.88194
G1 X9.305 Y130.388 E18.93293
G1 X8.415 Y126.148 E19.17323
G1 X8.325 Y125.628 E19.20251
G1 X8.215 Y124.698 E19.25445
G1 X7.905 Y120.378 E19.49468
G1 X7.895 Y119.888 E19.52187
G1 X7.905 Y118.928 E19.57512
G1 X8.175 Y114.598 E19.81576
G1 X8.285 Y113.598 E19.87156
G1 X8.365 Y113.168 E19.89582
G1 X9.205 Y108.918 E20.13612
G1 X9.445 Y107.948 E20.19154
G1 X9.585 Y107.498 E20.21768
G1 X11.135 Y103.018 E20.48063
G1 X11.545 Y102.068 E20.53802
G1 X13.485 Y98.188 E20.77863
G1 X13.755 Y97.698 E20.80967
G1 X14.215 Y96.958 E20.85800
G1 X16.645 Y93.368 E21.09845
G1 X16.985 Y92.898 E21.13063
G1 X17.545 Y92.228 E21.17906
G1 X20.435 Y88.998 E21.41947
G1 X88.200 Y19.926 E26.78664
G1 F1800.000 E25.78664
G92 E0
G1 X131.566 Y47.205 F7800.000
G1 F1800.000 E1.00000
G1 X132.746 Y45.265 F720.000 E1.12599
G1 X134.406 Y43.713 E1.25199
G1 X136.424 Y42.669 E1.37805
G1 X138.648 Y42.206 E1.50406
G1 X140.915 Y42.361 E1.63009
G1 X143.056 Y43.122 E1.75607
G1 X144.912 Y44.431 E1.88208
G1 X146.346 Y46.194 E2.00811
G1 X147.252 Y48.278 E2.13418
G1 X147.559 Y50.530 E2.26026
G1 X147.252 Y52.781 E2.38623
G1 X146.346 Y54.865 E2.51230
G1 X144.912 Y56.627 E2.63832
G1 X143.056 Y57.937 E2.76433
G1 X140.915 Y58.697 E2.89031
G1 X138.648 Y58.852 E3.01634
G1 X136.424 Y58.390 E3.14235
G1 X134.406 Y57.346 E3.26841
G1 X132.746 Y55.794 E3.39442
G1 X131.566 Y53.853 E3.52040
G1 X130.953 Y51.666 E3.64639
G1 X130.953 Y49.393 E3.77250
G1 X131.533 Y47.323 E3.89172
G1 X132.320 Y47.533 F7800.000
G1 X133.384 Y45.783 F504.000 E4.00530
G1 X134.880 Y44.385 E4.11888
G1 X136.699 Y43.443 E4.23252
G1 X138.705 Y43.026 E4.34613
G1 X140.748 Y43.166 E4.45975
G1 X142.678 Y43.851 E4.57332
G1 X144.351 Y45.032 E4.68691
G1 X145.644 Y46.621 E4.80052
G1 X146.460 Y48.500 E4.91415
G1 X146.738 Y50.530 E5.02784
G1 X146.460 Y52.559 E5.14141
G1 X145.644 Y54.438 E5.25504
G1 X144.351 Y56.027 E5.36865
G1 X142.678 Y57.207 E5.48224
G1 X140.748 Y57.893 E5.59581
G1 X138.705 Y58.032 E5.70943
G1 X136.699 Y57.616 E5.82304
G1 X134.880 Y56.674 E5.93668
G1 X133.384 Y55.276 E6.05026
G1 X132.320 Y53.526 E6.16384
G1 X131.768 Y51.554 E6.27742
G1 X131.768 Y49.504 E6.39112
G1 X132.287 Y47.650 E6.49792
G1 X133.132 Y47.477 F7800.000
G1 F1800.000 E5.49792
G92 E0
G1 X128.129 Y38.910 F7800.000
G1 F1800.000 E1.00000
G1 X125.918 Y39.433 F720.000 E1.12603
G1 X123.649 Y39.340 E1.25202
G1 X121.488 Y38.638 E1.37806
G1 X119.596 Y37.378 E1.50414
G1 X118.115 Y35.655 E1.63011
G1 X117.153 Y33.597 E1.75612
G1 X116.782 Y31.356 E1.88211
G1 X117.029 Y29.096 E2.00822
G1 X117.879 Y26.988 E2.13428
G1 X119.263 Y25.189 E2.26020
G1 X121.082 Y23.828 E2.38621
G1 X123.201 Y23.009 E2.51226
G1 X125.463 Y22.793 E2.63830
G1 X127.700 Y23.194 E2.76432
G1 X129.746 Y24.184 E2.89041
G1 X131.447 Y25.689 E3.01639
G1 X132.679 Y27.596 E3.14236
G1 X133.353 Y29.767 E3.26843
G1 X133.414 Y32.037 E3.39435
G1 X132.862 Y34.240 E3.52035
G1 X131.734 Y36.214 E3.64646
G1 X130.117 Y37.809 E3.77245
G1 X128.236 Y38.851 E3.89170
G1 X127.833 Y38.144 F7800.000
G1 X125.840 Y38.615 F504.000 E4.00530
G1 X123.794 Y38.531 E4.11887
G1 X121.846 Y37.898 E4.23250
G1 X120.140 Y36.762 E4.34615
G1 X118.806 Y35.209 E4.45973
G1 X117.938 Y33.354 E4.57333
G1 X117.604 Y31.334 E4.68692
G1 X117.826 Y29.296 E4.80060
G1 X118.592 Y27.396 E4.91422
G1 X119.840 Y25.774 E5.02776
G1 X121.480 Y24.547 E5.14135
G1 X123.390 Y23.808 E5.25496
G1 X125.430 Y23.614 E5.36860
G1 X127.446 Y23.976 E5.48221
G1 X129.290 Y24.868 E5.59588
G1 X130.824 Y26.224 E5.70945
G1 X131.935 Y27.944 E5.82301
G1 X132.542 Y29.901 E5.93666
G1 X132.597 Y31.947 E6.05018
G1 X132.100 Y33.934 E6.16376
G1 X131.082 Y35.713 E6.27745
G1 X129.625 Y37.151 E6.39104
G1 X127.940 Y38.084 E6.49788
G1 X127.223 Y37.604 F7800.000
G1 F1800.000 E5.49788
G92 E0
G1 X110.644 Y38.083 F7800.000
G1 F1800.000 E1.00000
G1 X110.458 Y40.348 F720.000 E1.12604
G1 X109.667 Y42.479 E1.25211
G1 X108.332 Y44.316 E1.37808
G1 X106.551 Y45.726 E1.50411
G1 X104.455 Y46.602 E1.63010
G1 X102.200 Y46.881 E1.75613
G1 X99.954 Y46.541 E1.88214
G1 X97.882 Y45.607 E2.00821
G1 X96.140 Y44.149 E2.13416
G1 X94.855 Y42.275 E2.26024
G1 X94.122 Y40.125 E2.38621
G1 X93.998 Y37.855 E2.51229
G1 X94.491 Y35.638 E2.63831
G1 X95.563 Y33.636 E2.76428
G1 X97.138 Y31.996 E2.89037
G1 X99.095 Y30.841 E3.01643
G1 X101.292 Y30.259 E3.14247
G1 X103.563 Y30.289 E3.26847
G1 X105.741 Y30.932 E3.39442
G1 X107.668 Y32.139 E3.52050
G1 X109.196 Y33.822 E3.64659
G1 X110.212 Y35.852 E3.77251
G1 X110.620 Y37.963 E3.89179
G1 X109.823 Y38.128 F7800.000
G1 X109.656 Y40.169 F504.000 E4.00541
G1 X108.943 Y42.090 E4.11906
G1 X107.739 Y43.747 E4.23264
G1 X106.133 Y45.018 E4.34625
G1 X104.244 Y45.807 E4.45981
G1 X102.211 Y46.059 E4.57344
G1 X100.186 Y45.752 E4.68703
G1 X98.318 Y44.910 E4.80068
G1 X96.749 Y43.597 E4.91422
G1 X95.589 Y41.906 E5.02790
G1 X94.929 Y39.969 E5.14146
G1 X94.817 Y37.923 E5.25511
G1 X95.261 Y35.923 E5.36871
G1 X96.228 Y34.119 E5.48226
G1 X97.648 Y32.640 E5.59596
G1 X99.412 Y31.599 E5.70959
G1 X101.392 Y31.075 E5.82321
G1 X103.440 Y31.102 E5.93681
G1 X105.403 Y31.682 E6.05035
G1 X107.140 Y32.769 E6.16402
G1 X108.518 Y34.286 E6.27767
G1 X109.434 Y36.116 E6.39118
G1 X109.800 Y38.008 E6.49806
G1 X109.122 Y38.541 F7800.000
G1 F1800.000 E5.49806
G92 E0
G1 X104.455 Y54.457 F7800.000
G1 F1800.000 E1.00000
G1 X106.551 Y55.335 F720.000 E1.12600
G1 X108.332 Y56.742 E1.25193
G1 X109.667 Y58.580 E1.37793
G1 X110.458 Y60.711 E1.50401
G1 X110.644 Y62.976 E1.63004
G1 X110.212 Y65.207 E1.75610
G1 X109.196 Y67.237 E1.88202
G1 X107.668 Y68.920 E2.00811
G1 X105.741 Y70.126 E2.13419
G1 X103.563 Y70.769 E2.26013
G1 X101.292 Y70.800 E2.38614
G1 X99.095 Y70.218 E2.51218
G1 X97.138 Y69.063 E2.63823
G1 X95.563 Y67.423 E2.76433
G1 X94.491 Y65.421 E2.89030
G1 X93.998 Y63.203 E3.01632
G1 X94.122 Y60.934 E3.14240
G1 X94.855 Y58.784 E3.26837
G1 X96.140 Y56.909 E3.39444
G1 X97.882 Y55.452 E3.52040
G1 X99.954 Y54.518 E3.64647
G1 X102.200 Y54.178 E3.77247
G1 X104.334 Y54.442 E3.89177
G1 X104.244 Y55.251 F7800.000
G1 X106.133 Y56.042 F504.000 E4.00537
G1 X107.739 Y57.312 E4.11890
G1 X108.943 Y58.968 E4.23248
G1 X109.656 Y60.889 E4.34613
G1 X109.823 Y62.931 E4.45975
G1 X109.434 Y64.943 E4.57341
G1 X108.518 Y66.773 E4.68692
G1 X107.140 Y68.290 E4.80057
G1 X105.403 Y69.377 E4.91423
G1 X103.440 Y69.957 E5.02778
G1 X101.392 Y69.984 E5.14138
G1 X99.412 Y69.459 E5.25500
G1 X97.648 Y68.419 E5.36863
G1 X96.228 Y66.940 E5.48232
G1 X95.261 Y65.135 E5.59588
G1 X94.817 Y63.136 E5.70948
G1 X94.929 Y61.090 E5.82313
G1 X95.589 Y59.152 E5.93669
G1 X96.749 Y57.462 E6.05036
G1 X98.318 Y56.148 E6.16391
G1 X100.186 Y55.306 E6.27756
G1 X102.211 Y54.999 E6.39115
G1 X104.123 Y55.236 E6.49801
G1 X104.420 Y56.046 F7800.000
G1 F1800.000 E5.49801
G92 E0
G1 X113.628 Y52.539 F7800.000
G1 F1800.000 E1.00000
G1 X113.252 Y50.530 F720.000 E1.11334
G1 X113.628 Y48.520 E1.22679
G1 X114.704 Y46.780 E1.34028
G1 X116.337 Y45.546 E1.45379
G1 X118.304 Y44.987 E1.56721
G1 X120.340 Y45.175 E1.68064
G1 X122.171 Y46.087 E1.79406
G1 X123.551 Y47.598 E1.90757
G1 X124.290 Y49.506 E2.02108
G1 X124.290 Y51.553 E2.13460
G1 X123.551 Y53.461 E2.24810
G1 X122.171 Y54.972 E2.36161
G1 X120.340 Y55.883 E2.47503
G1 X118.304 Y56.071 E2.58846
G1 X116.337 Y55.513 E2.70189
G1 X114.704 Y54.279 E2.81540
G1 X113.692 Y52.643 E2.92210
G1 X114.401 Y52.240 F7800.000
G1 X114.081 Y50.530 F720.000 E3.01857
G1 X114.400 Y48.819 E3.11515
G1 X115.316 Y47.337 E3.21175
G1 X116.706 Y46.288 E3.30836
G1 X118.380 Y45.812 E3.40490
G1 X120.114 Y45.972 E3.50146
G1 X121.672 Y46.748 E3.59801
G1 X122.847 Y48.034 E3.69463
G1 X123.476 Y49.658 E3.79124
G1 X123.476 Y51.400 E3.88787
G1 X122.847 Y53.024 E3.98447
G1 X121.672 Y54.311 E4.08110
G1 X120.114 Y55.087 E4.17764
G1 X118.380 Y55.247 E4.27420
G1 X116.706 Y54.771 E4.37075
G1 X115.316 Y53.721 E4.46735
G1 X114.465 Y52.344 E4.55718
G1 X114.949 Y51.638 F7800.000
G1 F1800.000 E3.55718
G92 E0
G1 X121.488 Y62.421 F7800.000
G1 F1800.000 E1.00000
G1 X123.649 Y61.719 F720.000 E1.12608
G1 X125.918 Y61.627 E1.25202
G1 X128.129 Y62.148 E1.37799
G1 X130.117 Y63.249 E1.50406
G1 X131.734 Y64.845 E1.63004
G1 X132.862 Y66.818 E1.75615
G1 X133.414 Y69.022 E1.88215
G1 X133.353 Y71.291 E2.00808
G1 X132.679 Y73.462 E2.13414
G1 X131.447 Y75.370 E2.26011
G1 X129.746 Y76.874 E2.38610
G1 X127.700 Y77.865 E2.51219
G1 X125.463 Y78.266 E2.63820
G1 X123.201 Y78.050 E2.76425
G1 X121.082 Y77.231 E2.89030
G1 X119.263 Y75.870 E3.01630
G1 X117.879 Y74.070 E3.14222
G1 X117.029 Y71.962 E3.26828
G1 X116.782 Y69.702 E3.39439
G1 X117.153 Y67.461 E3.52038
G1 X118.115 Y65.403 E3.64639
G1 X119.596 Y63.681 E3.77237
G1 X121.386 Y62.488 E3.89167
G1 X121.846 Y63.160 F7800.000
G1 X123.794 Y62.528 F504.000 E4.00531
G1 X125.840 Y62.445 E4.11886
G1 X127.833 Y62.915 E4.23243
G1 X129.625 Y63.907 E4.34605
G1 X131.082 Y65.346 E4.45964
G1 X132.100 Y67.125 E4.57333
G1 X132.597 Y69.112 E4.68692
G1 X132.542 Y71.157 E4.80043
G1 X131.935 Y73.114 E4.91408
G1 X130.824 Y74.834 E5.02764
G1 X129.290 Y76.190 E5.14121
G1 X127.446 Y77.083 E5.25488
G1 X125.430 Y77.445 E5.36849
G1 X123.390 Y77.250 E5.48213
G1 X121.480 Y76.512 E5.59574
G1 X119.840 Y75.285 E5.70933
G1 X118.592 Y73.662 E5.82287
G1 X117.826 Y71.762 E5.93650
G1 X117.604 Y69.725 E6.05017
G1 X117.938 Y67.705 E6.16376
G1 X118.806 Y65.849 E6.27736
G1 X120.140 Y64.297 E6.39094
G1 X121.744 Y63.228 E6.49782
G1 X122.498 Y63.648 F7800.000
G1 F1800.000 E5.49782
G92 E0
G1 X124.438 Y16.380 F7800.000
G1 F1800.000 E1.00000
G1 X124.806 Y17.697 F720.000 E1.07586
G1 X124.937 Y18.252 E1.10749
G1 X125.097 Y19.078 E1.15415
G1 X126.310 Y19.356 E1.22314
G1 X127.082 Y19.562 E1.26745
G1 X127.938 Y18.513 E1.34257
G1 X128.351 Y18.049 E1.37700
G1 X128.939 Y17.436 E1.42414
G1 X129.129 Y18.788 E1.49990
G1 X129.184 Y19.357 E1.53159
G1 X129.233 Y20.196 E1.57825
G1 X130.396 Y20.632 E1.64714
G1 X131.135 Y20.940 E1.69151
G1 X132.125 Y20.015 E1.76664
G1 X132.595 Y19.610 E1.80107
G1 X133.257 Y19.081 E1.84807
G1 X133.269 Y20.447 E1.92385
G1 X133.185 Y21.854 E2.00199
G1 X134.275 Y22.442 E2.07071
G1 X134.967 Y22.847 E2.11517
G1 X136.072 Y22.060 E2.19040
G1 X136.592 Y21.722 E2.22481
G1 X137.322 Y21.284 E2.27201
G1 X137.148 Y22.639 E2.34778
G1 X137.051 Y23.203 E2.37949
G1 X136.878 Y24.021 E2.42590
G1 X137.879 Y24.751 E2.49461
G1 X138.512 Y25.250 E2.53934
G1 X139.716 Y24.613 E2.61488
G1 X140.274 Y24.349 E2.64911
G1 X141.055 Y24.015 E2.69623
G1 X140.703 Y25.332 E2.77185
G1 X140.532 Y25.878 E2.80356
G1 X140.250 Y26.672 E2.85033
G1 X141.150 Y27.525 E2.91909
G1 X141.710 Y28.097 E2.96354
G1 X142.982 Y27.630 E3.03871
G1 X143.569 Y27.444 E3.07288
G1 X144.389 Y27.216 E3.12006
G1 X143.865 Y28.474 E3.19563
G1 X143.623 Y28.993 E3.22740
G1 X143.240 Y29.739 E3.27392
G1 X144.015 Y30.705 E3.34264
G1 X144.495 Y31.352 E3.38733
G1 X145.820 Y31.055 E3.46265
G1 X146.429 Y30.947 E3.49694
G1 X147.271 Y30.829 E3.54412
G1 X146.582 Y32.008 E3.61990
G1 X146.272 Y32.490 E3.65167
G1 X145.793 Y33.178 E3.69818
G1 X146.431 Y34.240 E3.76691
G1 X146.820 Y34.946 E3.81158
G1 X148.176 Y34.828 E3.88712
G1 X148.792 Y34.802 E3.92132
G1 X149.642 Y34.797 E3.96844
G1 X148.803 Y35.874 E4.04418
G1 X147.863 Y36.930 E4.12259
G1 X148.356 Y38.068 E4.19136
G1 X148.649 Y38.815 E4.23585
G1 X150.007 Y38.881 E4.31128
G1 X150.619 Y38.937 E4.34539
G1 X151.461 Y39.048 E4.39247
G1 X150.487 Y40.005 E4.46822
G1 X149.420 Y40.921 E4.54624
G1 X149.754 Y42.116 E4.61504
G1 X149.947 Y42.898 E4.65973
G1 X151.282 Y43.143 E4.73503
G1 X151.881 Y43.281 E4.76911
G1 X152.699 Y43.502 E4.81615
G1 X151.608 Y44.318 E4.89172
G1 X151.137 Y44.639 E4.92333
G1 X150.427 Y45.083 E4.96979
G1 X150.599 Y46.313 E5.03869
G1 X150.683 Y47.110 E5.08315
G1 X151.974 Y47.535 E5.15856
G1 X152.553 Y47.752 E5.19285
G1 X153.338 Y48.080 E5.24004
G1 X152.143 Y48.745 E5.31584
G1 X151.634 Y49.000 E5.34746
G1 X150.869 Y49.348 E5.39407
G1 X150.878 Y50.589 E5.46293
G1 X150.857 Y51.393 E5.50752
G1 X152.078 Y51.982 E5.58272
G1 X152.620 Y52.273 E5.61687
G1 X153.352 Y52.704 E5.66399
G1 X152.083 Y53.204 E5.73966
G1 X150.738 Y53.631 E5.81793
G1 X150.585 Y54.860 E5.88662
G1 X150.455 Y55.654 E5.93123
G1 X151.588 Y56.402 E6.00656
