; generated by Slic3r 0.9.10b on 2013-11-07 at 00:08:26

; layer_height = 0.3
; perimeters = 2
; top_solid_layers = 3
; bottom_solid_layers = 3
; fill_density = 0.4
; perimeter_speed = 30
; infill_speed = 30
; travel_speed = 200
; nozzle_diameter = 0.5
; filament_diameter = 2.9
; extrusion_multiplier = 0.95
; perimeters extrusion width = 0.70mm
; infill extrusion width = 0.70mm
; solid infill extrusion width = 0.70mm
; top infill extrusion width = 0.70mm

G21 ; set units to millimeters
M107
M190 S100 ; wait for bed temperature to be reached
M104 S230 ; set temperature
G28 ; home all axes
G1 Z15 F120 ; lift nozzle
M109 S230 ; wait for temperature to be reached
G90 ; use absolute coordinates
G92 E0
M82 ; use absolute distances for extrusion
G1 F1680.000 E-2.00000
G92 E0
G1 Z0.450 F12000.000
G1 X34.055 Y35.445
G1 F1680.000 E2.00000
G1 X34.855 Y34.775 F900.000 E2.04420
G1 X35.735 Y34.225 E2.08816
G1 X37.125 Y33.515 E2.15428
G1 X38.105 Y33.115 E2.19912
G1 X39.135 Y32.865 E2.24402
G1 X40.685 Y32.625 E2.31046
G1 X41.705 Y32.555 E2.35377
G1 X107.695 Y32.555 E5.14912
G1 X108.715 Y32.625 E5.19243
G1 X110.265 Y32.865 E5.25887
G1 X110.945 Y33.015 E5.28837
G1 X111.965 Y33.365 E5.33405
G1 X112.865 Y33.775 E5.37594
G1 X113.885 Y34.345 E5.42544
G1 X114.435 Y34.685 E5.45283
G1 X114.945 Y35.085 E5.48028
G1 X115.545 Y35.595 E5.51364
G1 X116.305 Y36.355 E5.55917
G1 X116.815 Y36.955 E5.59253
G1 X117.215 Y37.465 E5.61998
G1 X117.555 Y38.015 E5.64737
G1 X118.125 Y39.035 E5.69687
G1 X118.455 Y39.735 E5.72965
G1 X139.115 Y89.445 E8.01001
G1 X139.375 Y90.185 E8.04323
G1 X139.545 Y90.955 E8.07663
G1 X139.855 Y92.915 E8.16069
G1 X139.935 Y93.955 E8.20488
G1 X139.855 Y94.985 E8.24864
G1 X139.545 Y96.955 E8.33312
G1 X139.305 Y97.975 E8.37750
G1 X138.905 Y98.945 E8.42195
G1 X138.005 Y100.715 E8.50606
G1 X137.465 Y101.605 E8.55016
G1 X136.785 Y102.405 E8.59464
G1 X104.905 Y134.285 E10.50446
G1 X104.105 Y134.965 E10.54893
G1 X103.215 Y135.505 E10.59303
G1 X101.445 Y136.405 E10.67714
G1 X100.475 Y136.805 E10.72159
G1 X99.455 Y137.045 E10.76598
G1 X97.485 Y137.355 E10.85045
G1 X96.455 Y137.435 E10.89422
G1 X95.415 Y137.355 E10.93840
G1 X93.455 Y137.045 E11.02246
G1 X92.445 Y136.805 E11.06643
G1 X91.475 Y136.405 E11.11088
G1 X89.705 Y135.505 E11.19499
G1 X60.595 Y120.085 E12.59042
G1 X59.315 Y119.205 E12.65622
G1 X58.275 Y118.055 E12.72190
G1 X57.535 Y116.695 E12.78749
G1 X46.145 Y88.475 E14.07659
G1 X30.725 Y48.125 E15.90639
G1 X30.515 Y47.455 E15.93613
G1 X30.365 Y46.765 E15.96604
G1 X30.125 Y45.215 E16.03248
G1 X30.055 Y44.195 E16.07579
G1 X30.125 Y43.175 E16.11910
G1 X30.365 Y41.635 E16.18512
G1 X30.615 Y40.605 E16.23002
G1 X31.015 Y39.625 E16.27486
G1 X31.725 Y38.235 E16.34098
G1 X32.275 Y37.355 E16.38494
G1 X32.945 Y36.555 E16.42914
G1 X33.986 Y35.514 E16.49148
G1 F1680.000 E14.49148
G92 E0
G1 X83.979 Y43.832 F12000.000
G1 F1680.000 E2.00000
G1 X84.610 Y42.593 F900.000 E2.05889
G1 X85.593 Y41.610 E2.11779
G1 X86.832 Y40.979 E2.17669
G1 X88.205 Y40.761 E2.23559
G1 X89.578 Y40.979 E2.29448
G1 X90.817 Y41.610 E2.35338
G1 X91.800 Y42.593 E2.41228
G1 X92.431 Y43.832 E2.47118
G1 X92.649 Y45.205 E2.53007
G1 X92.431 Y46.578 E2.58897
G1 X91.800 Y47.817 E2.64786
G1 X90.817 Y48.800 E2.70676
G1 X89.578 Y49.431 E2.76566
G1 X88.205 Y49.649 E2.82456
G1 X86.832 Y49.431 E2.88345
G1 X85.593 Y48.800 E2.94235
G1 X84.610 Y47.817 E3.00125
G1 X83.979 Y46.578 E3.06014
G1 X83.761 Y45.205 E3.11904
G1 X83.963 Y43.929 E3.17378
G1 X84.609 Y44.036 F12000.000
G1 X85.146 Y42.982 F900.000 E3.22389
G1 X85.982 Y42.146 E3.27401
G1 X87.037 Y41.609 E3.32413
G1 X88.135 Y41.435 E3.37125
G1 X88.205 Y41.424 E3.37424
G1 X89.373 Y41.609 E3.42435
G1 X90.428 Y42.146 E3.47447
G1 X91.264 Y42.982 E3.52458
G1 X91.801 Y44.037 E3.57470
G1 X91.986 Y45.205 E3.62481
G1 X91.801 Y46.373 E3.67493
G1 X91.264 Y47.428 E3.72504
G1 X90.428 Y48.264 E3.77516
G1 X89.373 Y48.801 E3.82527
G1 X88.205 Y48.986 E3.87539
G1 X87.037 Y48.801 E3.92550
G1 X85.982 Y48.264 E3.97562
G1 X85.146 Y47.428 E4.02573
G1 X84.609 Y46.374 E4.07584
G1 X84.424 Y45.205 E4.12596
G1 X84.593 Y44.133 E4.17192
G1 X85.255 Y43.934 F12000.000
G1 F1680.000 E2.17192
G92 E0
G1 X95.378 Y48.878 F12000.000
G1 F1680.000 E2.00000
G1 X105.094 Y48.878 F720.000 E2.41158
G1 X107.906 Y53.291 E2.63325
G1 X111.947 Y61.055 E3.00400
G1 X114.325 Y66.797 E3.26730
G1 X111.644 Y68.803 E3.40913
G1 X110.803 Y68.191 E3.45318
G1 X108.533 Y73.059 E3.68070
G1 X109.296 Y73.614 E3.72065
G1 X109.970 Y74.542 E3.76923
G1 X110.324 Y75.631 E3.81776
G1 X110.324 Y76.779 E3.86638
G1 X109.970 Y77.868 E3.91491
G1 X109.296 Y78.796 E3.96349
G1 X108.368 Y79.470 E4.01206
G1 X107.279 Y79.824 E4.06059
G1 X106.131 Y79.824 E4.10921
G1 X105.042 Y79.470 E4.15774
G1 X104.114 Y78.796 E4.20632
G1 X103.440 Y77.868 E4.25490
G1 X103.086 Y76.779 E4.30343
G1 X103.086 Y75.631 E4.35204
G1 X103.440 Y74.542 E4.40057
G1 X104.114 Y73.614 E4.44915
G1 X104.877 Y73.059 E4.48911
G1 X102.607 Y68.191 E4.71662
G1 X101.766 Y68.803 E4.76067
G1 X99.382 Y67.020 E4.88677
G1 X97.520 Y68.882 E4.99833
G1 X99.303 Y71.266 E5.12444
G1 X98.684 Y72.117 E5.16900
G1 X97.920 Y74.471 E5.27381
G1 X95.378 Y74.838 E5.38264
G1 X95.378 Y48.976 E6.47818
G1 X95.945 Y49.205 F12000.000
G1 F1680.000 E4.47818
G92 E0
G1 X114.993 Y77.350 F12000.000
G1 F1680.000 E2.00000
G1 X118.457 Y76.849 F900.000 E2.14827
G1 X120.468 Y85.919 E2.54183
G1 X120.860 Y88.898 E2.66910
G1 X111.705 Y89.298 E3.05729
G1 X107.184 Y89.100 E3.24900
G1 X107.850 Y84.493 E3.44621
G1 X110.492 Y83.635 E3.56388
G1 X111.649 Y82.794 E3.62448
G1 X113.966 Y84.527 E3.74701
G1 X115.027 Y83.466 E3.81055
G1 X113.294 Y81.149 E3.93307
G1 X114.135 Y79.992 E3.99368
G1 X114.963 Y77.443 E4.10719
G1 X115.490 Y77.939 F12000.000
G1 X117.950 Y77.584 F720.000 E4.21248
G1 X119.823 Y86.033 E4.57909
G1 X120.118 Y88.275 E4.67489
G1 X111.705 Y88.643 E5.03161
G1 X107.935 Y88.478 E5.19147
G1 X108.439 Y84.990 E5.34078
G1 X110.793 Y84.226 E5.44558
G1 X111.644 Y83.607 E5.49015
G1 X114.028 Y85.390 E5.61625
G1 X115.890 Y83.528 E5.72781
G1 X114.107 Y81.144 E5.85392
G1 X114.726 Y80.293 E5.89848
G1 X115.459 Y78.033 E5.99913
G1 X116.053 Y78.272 F12000.000
G1 F1680.000 E3.99913
G92 E0
G1 X117.048 Y74.696 F12000.000
G1 F1680.000 E2.00000
G1 X115.490 Y74.471 F900.000 E2.06669
G1 X114.726 Y72.117 E2.17150
G1 X114.107 Y71.266 E2.21607
G1 X115.415 Y69.518 E2.30853
G1 X117.018 Y74.602 E2.53437
G1 X116.479 Y74.372 F12000.000
G1 X104.971 Y84.990
G1 X105.460 Y88.370 F720.000 E2.67904
G1 X97.731 Y88.032 E3.00672
G1 X97.346 Y87.981 E3.02319
G1 X97.337 Y88.084 E3.02756
G1 X96.465 Y87.946 E3.06496
G1 X95.378 Y88.119 E3.11160
G1 X95.378 Y77.572 E3.55837
G1 X97.920 Y77.939 E3.66720
G1 X98.684 Y80.293 E3.77201
G1 X99.303 Y81.144 E3.81657
G1 X97.520 Y83.528 E3.94268
G1 X99.382 Y85.390 E4.05424
G1 X101.766 Y83.607 E4.18034
G1 X102.617 Y84.226 E4.22491
G1 X104.877 Y84.959 E4.32556
G1 X104.638 Y85.553 F12000.000
G1 F1680.000 E2.32556
G92 E0
G1 X99.967 Y91.265 F12000.000
G1 F1680.000 E2.00000
G1 X101.178 Y92.153 F900.000 E2.06363
G1 X101.974 Y93.465 E2.12864
G1 X102.208 Y94.982 E2.19366
G1 X101.843 Y96.473 E2.25868
G1 X100.935 Y97.710 E2.32369
G1 X99.623 Y98.507 E2.38870
G1 X98.106 Y98.740 E2.45372
G1 X96.647 Y98.383 E2.51735
G1 X93.870 Y97.088 E2.64716
G1 X92.659 Y96.200 E2.71078
G1 X91.862 Y94.888 E2.77580
G1 X91.629 Y93.371 E2.84081
G1 X91.994 Y91.880 E2.90583
G1 X92.901 Y90.642 E2.97085
G1 X94.213 Y89.846 E3.03586
G1 X95.730 Y89.612 E3.10088
G1 X97.189 Y89.969 E3.16450
G1 X99.878 Y91.223 E3.29015
G1 X99.938 Y91.918 F12000.000
G1 F1680.000 E1.29015
G92 E0
G1 X96.104 Y129.332 F12000.000
G1 F1680.000 E2.00000
G1 X95.984 Y129.725 F900.000 E2.01740
G1 X94.810 Y129.539 E2.06773
G1 X93.317 Y128.778 E2.13871
G1 X92.651 Y128.111 E2.17865
G1 X92.856 Y127.818 E2.19383
G1 X96.015 Y129.290 E2.34147
G1 F1680.000 E0.34147
G92 E0
G1 X126.464 Y99.245 F12000.000
G1 F1680.000 E2.00000
G1 X125.290 Y99.059 F900.000 E2.05034
G1 X123.581 Y98.188 E2.13157
G1 X123.089 Y97.834 E2.15725
G1 X121.277 Y96.789 E2.24586
G1 X119.371 Y95.929 E2.33444
G1 X117.388 Y95.263 E2.42305
G1 X115.349 Y94.797 E2.51167
G1 X113.274 Y94.537 E2.60027
G1 X111.182 Y94.484 E2.68891
G1 X109.096 Y94.641 E2.77751
G1 X107.036 Y95.004 E2.86610
G1 X105.022 Y95.570 E2.95474
G1 X102.494 Y96.563 E3.06977
G1 X102.874 Y95.011 E3.13745
G1 X102.601 Y93.237 E3.21350
G1 X101.670 Y91.702 E3.28954
G1 X100.302 Y90.699 E3.36142
G1 X96.824 Y89.077 E3.52397
G1 X96.944 Y88.685 E3.54135
G1 X97.930 Y88.840 E3.58364
G1 X97.942 Y88.697 E3.58975
G1 X106.220 Y89.058 E3.94076
G1 X105.560 Y84.493 E4.13616
G1 X102.918 Y83.635 E4.25383
G1 X101.761 Y82.794 E4.31443
G1 X99.444 Y84.527 E4.43696
G1 X98.383 Y83.466 E4.50049
G1 X100.116 Y81.149 E4.62302
G1 X99.275 Y79.992 E4.68363
G1 X98.417 Y77.350 E4.80130
G1 X94.723 Y76.816 E4.95940
G1 X94.723 Y89.105 E5.47999
G1 X93.985 Y89.219 E5.51163
G1 X92.450 Y90.150 E5.58767
G1 X91.389 Y91.598 E5.66372
G1 X90.962 Y93.342 E5.73976
G1 X91.235 Y95.116 E5.81581
G1 X92.167 Y96.651 E5.89185
G1 X93.535 Y97.654 E5.96372
G1 X96.429 Y99.004 E6.09899
G1 X98.077 Y99.407 E6.17086
G1 X99.558 Y99.179 E6.23434
G1 X99.056 Y100.101 E6.27879
G1 X98.243 Y102.029 E6.36743
G1 X97.626 Y104.027 E6.45604
G1 X97.212 Y106.078 E6.54465
G1 X97.004 Y108.159 E6.63326
G1 X97.004 Y110.251 E6.72186
G1 X97.212 Y112.332 E6.81048
G1 X97.626 Y114.383 E6.89908
G1 X98.243 Y116.381 E6.98769
G1 X99.056 Y118.309 E7.07633
G1 X100.056 Y120.147 E7.16493
G1 X100.724 Y121.126 E7.21514
G1 X100.572 Y121.305 E7.22509
G1 X97.407 Y119.829 E7.37301
G1 X95.759 Y119.426 E7.44488
G1 X93.985 Y119.699 E7.52092
G1 X92.450 Y120.630 E7.59697
G1 X91.389 Y122.078 E7.67301
G1 X90.802 Y124.474 E7.77750
G1 X90.624 Y124.488 E7.78510
G1 X88.532 Y119.437 E8.01668
G1 X85.297 Y113.223 E8.31341
G1 X64.687 Y113.223 E9.18648
G1 X64.687 Y100.341 E9.73220
G1 X65.483 Y101.324 E9.78578
G1 X66.381 Y102.222 E9.83958
G1 X67.368 Y103.021 E9.89338
G1 X68.433 Y103.713 E9.94718
G1 X69.565 Y104.289 E10.00097
G1 X70.750 Y104.744 E10.05477
G1 X71.977 Y105.073 E10.10857
G1 X73.231 Y105.272 E10.16236
G1 X74.499 Y105.338 E10.21616
G1 X75.768 Y105.272 E10.26996
G1 X77.022 Y105.073 E10.32376
G1 X78.249 Y104.744 E10.37755
G1 X79.434 Y104.289 E10.43135
G1 X80.566 Y103.713 E10.48515
G1 X81.631 Y103.021 E10.53895
G1 X82.618 Y102.222 E10.59274
G1 X83.516 Y101.324 E10.64654
G1 X84.315 Y100.337 E10.70034
G1 X85.007 Y99.272 E10.75413
G1 X85.584 Y98.140 E10.80793
G1 X86.039 Y96.954 E10.86173
G1 X86.367 Y95.728 E10.91553
G1 X86.566 Y94.473 E10.96932
G1 X86.633 Y93.205 E11.02312
G1 X86.566 Y91.937 E11.07692
G1 X86.367 Y90.682 E11.13071
G1 X86.039 Y89.456 E11.18451
G1 X85.584 Y88.270 E11.23831
G1 X85.007 Y87.138 E11.29211
G1 X84.315 Y86.073 E11.34591
G1 X83.516 Y85.086 E11.39970
G1 X82.618 Y84.188 E11.45350
G1 X81.631 Y83.389 E11.50729
G1 X80.566 Y82.697 E11.56109
G1 X79.434 Y82.121 E11.61489
G1 X78.249 Y81.666 E11.66869
G1 X77.022 Y81.337 E11.72249
G1 X75.768 Y81.138 E11.77628
G1 X74.499 Y81.072 E11.83008
G1 X73.231 Y81.138 E11.88388
G1 X71.977 Y81.337 E11.93767
G1 X70.750 Y81.666 E11.99147
G1 X69.565 Y82.121 E12.04527
G1 X68.433 Y82.697 E12.09907
G1 X67.368 Y83.389 E12.15286
G1 X66.381 Y84.188 E12.20666
G1 X65.483 Y85.086 E12.26046
G1 X64.687 Y86.069 E12.31404
G1 X64.687 Y55.179 E13.62257
G1 X64.650 Y54.475 E13.65243
G1 X64.535 Y53.753 E13.68341
G1 X64.346 Y53.047 E13.71437
G1 X64.084 Y52.365 E13.74531
G1 X63.753 Y51.714 E13.77627
G1 X63.354 Y51.101 E13.80724
G1 X62.894 Y50.532 E13.83821
G1 X62.378 Y50.015 E13.86917
G1 X61.810 Y49.556 E13.90013
G1 X61.196 Y49.157 E13.93111
G1 X60.709 Y48.909 E13.95430
G1 X61.800 Y47.817 E14.01970
G1 X62.431 Y46.578 E14.07859
G1 X62.649 Y45.205 E14.13749
G1 X62.622 Y45.033 E14.14487
G1 X62.431 Y43.832 E14.19639
G1 X61.800 Y42.593 E14.25529
G1 X60.817 Y41.610 E14.31418
G1 X59.578 Y40.979 E14.37308
G1 X58.205 Y40.761 E14.43198
G1 X56.832 Y40.979 E14.49087
G1 X55.593 Y41.610 E14.54977
G1 X54.610 Y42.593 E14.60867
G1 X54.531 Y42.748 E14.61604
G1 X53.979 Y43.832 E14.66757
G1 X53.761 Y45.205 E14.72646
G1 X53.979 Y46.578 E14.78536
G1 X54.817 Y48.223 E14.86357
G1 X41.782 Y48.223 E15.41571
G1 X40.467 Y48.015 E15.47211
G1 X39.350 Y47.446 E15.52520
G1 X38.464 Y46.560 E15.57830
G1 X37.895 Y45.443 E15.63139
G1 X37.699 Y44.205 E15.68448
G1 X37.895 Y42.967 E15.73758
G1 X38.464 Y41.850 E15.79067
G1 X39.350 Y40.964 E15.84376
G1 X40.467 Y40.395 E15.89685
G1 X41.782 Y40.187 E15.95326
G1 X107.628 Y40.187 E18.74249
G1 X108.943 Y40.395 E18.79890
G1 X109.128 Y40.489 E18.80771
G1 X109.235 Y40.511 E18.81233
G1 X109.445 Y40.651 E18.82303
G1 X110.060 Y40.964 E18.85224
G1 X110.351 Y41.255 E18.86969
G1 X110.533 Y41.377 E18.87897
G1 X110.655 Y41.559 E18.88825
G1 X110.946 Y41.850 E18.90569
G1 X111.259 Y42.465 E18.93491
G1 X111.399 Y42.675 E18.94560
G1 X111.420 Y42.782 E18.95022
G1 X111.515 Y42.967 E18.95903
G1 X111.711 Y44.205 E19.01212
G1 X111.540 Y45.285 E19.05846
G1 X111.727 Y45.291 E19.06638
G1 X111.700 Y45.899 E19.09217
G1 X111.932 Y51.214 E19.31752
G1 X112.627 Y56.489 E19.54290
G1 X113.778 Y61.682 E19.76823
G1 X114.556 Y64.152 E19.87791
G1 X114.019 Y64.347 E19.90214
G1 X112.541 Y60.778 E20.06580
G1 X108.473 Y52.964 E20.43897
G1 X105.453 Y48.223 E20.67707
G1 X94.723 Y48.223 E21.13158
G1 X94.723 Y75.594 E22.29102
G1 X98.417 Y75.060 E22.44912
G1 X99.275 Y72.418 E22.56679
G1 X100.116 Y71.261 E22.62740
G1 X98.383 Y68.944 E22.74993
G1 X99.444 Y67.883 E22.81347
G1 X101.761 Y69.616 E22.93599
G1 X102.350 Y69.188 E22.96684
G1 X104.056 Y72.847 E23.13787
G1 X103.645 Y73.145 E23.15936
G1 X102.849 Y74.241 E23.21673
G1 X102.431 Y75.528 E23.27404
G1 X102.431 Y76.882 E23.33143
G1 X102.849 Y78.169 E23.38874
G1 X103.645 Y79.265 E23.44611
G1 X104.741 Y80.061 E23.50347
G1 X106.027 Y80.479 E23.56078
G1 X107.382 Y80.479 E23.61818
G1 X108.669 Y80.061 E23.67549
G1 X109.765 Y79.265 E23.73285
G1 X110.561 Y78.169 E23.79022
G1 X110.979 Y76.882 E23.84753
G1 X110.979 Y75.527 E23.90492
G1 X110.561 Y74.241 E23.96223
G1 X109.765 Y73.145 E24.01960
G1 X109.354 Y72.847 E24.04109
G1 X111.060 Y69.188 E24.21212
G1 X111.649 Y69.616 E24.24297
G1 X115.400 Y66.811 E24.44136
G1 X115.836 Y67.862 E24.48955
G1 X113.294 Y71.261 E24.66932
G1 X114.135 Y72.418 E24.72992
G1 X114.993 Y75.060 E24.84759
G1 X117.985 Y75.493 E24.97568
G1 X116.660 Y71.291 E25.16231
G1 X117.118 Y71.102 E25.18329
G1 X119.870 Y76.390 E25.43584
G1 X122.729 Y80.878 E25.66123
G1 X125.967 Y85.098 E25.88656
G1 X129.562 Y89.020 E26.11194
G1 X129.948 Y89.374 E26.13413
G1 X129.892 Y89.432 E26.13754
G1 X130.759 Y90.299 E26.18948
G1 X130.554 Y90.592 E26.20466
G1 X127.887 Y89.349 E26.32929
G1 X126.239 Y88.946 E26.40116
G1 X124.465 Y89.219 E26.47721
G1 X122.930 Y90.150 E26.55325
G1 X121.869 Y91.598 E26.62930
G1 X121.442 Y93.342 E26.70534
G1 X121.715 Y95.116 E26.78139
G1 X122.647 Y96.651 E26.85743
G1 X124.015 Y97.654 E26.92930
G1 X126.584 Y98.852 E27.04938
G1 X126.493 Y99.151 E27.06262
G1 X126.945 Y99.984 F12000.000
G1 X125.085 Y99.689 F720.000 E27.14238
G1 X123.240 Y98.749 E27.23012
G1 X122.734 Y98.385 E27.25652
G1 X120.978 Y97.372 E27.34236
G1 X119.132 Y96.539 E27.42818
G1 X117.211 Y95.894 E27.51403
G1 X115.235 Y95.442 E27.59988
G1 X113.225 Y95.190 E27.68571
G1 X111.198 Y95.139 E27.77158
G1 X109.177 Y95.291 E27.85742
G1 X107.182 Y95.643 E27.94323
G1 X105.231 Y96.191 E28.02911
G1 X103.344 Y96.932 E28.11496
G1 X101.541 Y97.856 E28.20077
G1 X100.799 Y98.335 E28.23821
G1 X100.615 Y98.606 E28.25205
G1 X99.647 Y100.385 E28.33786
G1 X98.859 Y102.253 E28.42374
G1 X98.261 Y104.189 E28.50958
G1 X97.860 Y106.175 E28.59541
G1 X97.659 Y108.192 E28.68125
G1 X97.659 Y110.218 E28.76710
G1 X97.860 Y112.235 E28.85295
G1 X98.261 Y114.221 E28.93878
G1 X98.859 Y116.157 E29.02462
G1 X99.647 Y118.025 E29.11049
G1 X100.615 Y119.805 E29.19632
G1 X101.236 Y120.715 E29.24298
G1 X102.189 Y122.585 E29.33191
G1 X102.484 Y124.445 E29.41167
G1 X102.362 Y125.210 E29.44448
G1 X102.169 Y125.210 E29.45269
G1 X101.974 Y123.945 E29.50690
G1 X101.178 Y122.633 E29.57192
G1 X99.967 Y121.745 E29.63554
G1 X99.733 Y121.636 E29.64644
G1 X97.189 Y120.449 E29.76535
G1 X95.730 Y120.092 E29.82898
G1 X94.213 Y120.326 E29.89399
G1 X92.901 Y121.122 E29.95901
