; generated by Slic3r 0.9.10b on 2013-11-02 at 00:10:52

; layer_height = 0.3
; perimeters = 2
; top_solid_layers = 3
; bottom_solid_layers = 3
; fill_density = 0.4
; perimeter_speed = 30
; infill_speed = 30
; travel_speed = 200
; nozzle_diameter = 0.5
; filament_diameter = 2.9
; extrusion_multiplier = 0.95
; perimeters extrusion width = 0.70mm
; infill extrusion width = 0.70mm
; solid infill extrusion width = 0.70mm
; top infill extrusion width = 0.70mm

G21 ; set units to millimeters
M107
M190 S100 ; wait for bed temperature to be reached
M104 S230 ; set temperature
G28 ; home all axes
G1 Z15 F120 ; lift nozzle
M109 S230 ; wait for temperature to be reached
G90 ; use absolute coordinates
G92 E0
M82 ; use absolute distances for extrusion
G1 F1680.000 E-2.00000
G92 E0
G1 Z0.450 F12000.000
G1 X37.935 Y36.565
G1 F1680.000 E2.00000
G1 X39.055 Y35.445 F900.000 E2.06710
G1 X39.855 Y34.775 E2.11130
G1 X40.735 Y34.225 E2.15526
G1 X42.125 Y33.515 E2.22137
G1 X43.105 Y33.115 E2.26621
G1 X44.135 Y32.865 E2.31111
G1 X45.685 Y32.625 E2.37755
G1 X46.705 Y32.555 E2.42086
G1 X112.695 Y32.555 E5.21622
G1 X113.715 Y32.625 E5.25952
G1 X115.265 Y32.865 E5.32597
G1 X115.945 Y33.015 E5.35546
G1 X116.965 Y33.365 E5.40114
G1 X117.865 Y33.775 E5.44304
G1 X118.885 Y34.345 E5.49253
G1 X119.435 Y34.685 E5.51992
G1 X119.945 Y35.085 E5.54738
G1 X120.545 Y35.595 E5.58074
G1 X121.305 Y36.355 E5.62627
G1 X121.815 Y36.955 E5.65962
G1 X122.215 Y37.465 E5.68708
G1 X122.555 Y38.015 E5.71447
G1 X123.125 Y39.035 E5.76397
G1 X123.535 Y39.935 E5.80586
G1 X123.675 Y40.305 E5.82262
G1 X123.965 Y41.265 E5.86510
G1 X134.485 Y90.605 E8.00213
G1 X134.855 Y92.915 E8.10123
G1 X134.935 Y93.955 E8.14542
G1 X134.855 Y94.985 E8.18918
G1 X134.545 Y96.955 E8.27366
G1 X134.305 Y97.975 E8.31805
G1 X133.905 Y98.945 E8.36249
G1 X133.005 Y100.715 E8.44660
G1 X132.465 Y101.605 E8.49070
G1 X131.785 Y102.405 E8.53518
G1 X99.905 Y134.285 E10.44500
G1 X99.105 Y134.965 E10.48947
G1 X98.215 Y135.505 E10.53357
G1 X96.445 Y136.405 E10.61768
G1 X95.475 Y136.805 E10.66213
G1 X94.455 Y137.045 E10.70652
G1 X92.485 Y137.355 E10.79100
G1 X91.455 Y137.435 E10.83476
G1 X90.415 Y137.355 E10.87894
G1 X88.455 Y137.045 E10.96300
G1 X87.445 Y136.805 E11.00698
G1 X86.475 Y136.405 E11.05142
G1 X84.705 Y135.505 E11.13554
G1 X55.595 Y120.085 E12.53096
G1 X54.315 Y119.205 E12.59676
G1 X53.275 Y118.055 E12.66244
G1 X52.535 Y116.695 E12.72803
G1 X41.195 Y88.585 E14.01202
G1 X40.935 Y87.815 E14.04645
G1 X37.155 Y73.715 E14.66482
G1 X37.025 Y73.085 E14.69207
G1 X36.945 Y72.445 E14.71939
G1 X35.065 Y44.645 E15.89969
G1 X35.055 Y43.905 E15.93104
G1 X35.125 Y43.175 E15.96211
G1 X35.365 Y41.635 E16.02813
G1 X35.615 Y40.615 E16.07262
G1 X36.015 Y39.645 E16.11706
G1 X36.715 Y38.265 E16.18261
G1 X37.255 Y37.365 E16.22707
G1 X37.871 Y36.640 E16.26739
G1 F1680.000 E14.26739
G92 E0
G1 X70.317 Y43.705 F12000.000
G1 F1680.000 E2.00000
G1 X70.801 Y42.216 F900.000 E2.06630
G1 X72.067 Y41.297 E2.13259
G1 X73.632 Y41.297 E2.19888
G1 X74.629 Y42.021 E2.25110
G1 X74.899 Y42.220 E2.26529
G1 X75.382 Y43.705 E2.33145
G1 X74.898 Y45.193 E2.39774
G1 X73.632 Y46.113 E2.46403
G1 X72.067 Y46.113 E2.53033
G1 X70.801 Y45.193 E2.59662
G1 X70.348 Y43.798 E2.65876
G1 X71.005 Y43.705 F12000.000
G1 X71.358 Y42.621 F900.000 E2.70704
G1 X72.280 Y41.951 E2.75532
G1 X73.419 Y41.951 E2.80360
G1 X74.243 Y42.550 E2.84673
G1 X74.342 Y42.622 E2.85192
G1 X74.694 Y43.705 E2.90015
G1 X74.341 Y44.789 E2.94842
G1 X73.419 Y45.459 E2.99670
G1 X72.280 Y45.459 E3.04498
G1 X71.358 Y44.789 E3.09326
G1 X71.036 Y43.798 E3.13738
G1 X71.603 Y43.439 F12000.000
G1 F1680.000 E1.13738
G92 E0
G1 X79.824 Y45.205 F12000.000
G1 F1680.000 E2.00000
G1 X80.014 Y44.006 F900.000 E2.05144
G1 X80.565 Y42.924 E2.10288
G1 X81.424 Y42.065 E2.15432
G1 X82.506 Y41.514 E2.20576
G1 X83.705 Y41.324 E2.25720
G1 X84.904 Y41.514 E2.30864
G1 X85.986 Y42.065 E2.36008
G1 X86.795 Y42.873 E2.40851
G1 X86.845 Y42.924 E2.41152
G1 X87.396 Y44.006 E2.46296
G1 X87.586 Y45.205 E2.51440
G1 X87.396 Y46.404 E2.56584
G1 X86.845 Y47.486 E2.61728
G1 X86.795 Y47.537 E2.62029
G1 X85.986 Y48.345 E2.66872
G1 X84.904 Y48.896 E2.72016
G1 X83.705 Y49.086 E2.77160
G1 X82.506 Y48.896 E2.82304
G1 X81.424 Y48.345 E2.87448
G1 X80.565 Y47.486 E2.92592
G1 X80.014 Y46.404 E2.97736
G1 X79.839 Y45.302 E3.02464
G1 X80.407 Y44.908 F12000.000
G1 F1680.000 E1.02464
G92 E0
G1 X89.723 Y48.223 F12000.000
G1 F1680.000 E2.00000
G1 X109.919 Y48.223 F900.000 E2.85551
G1 X110.862 Y50.501 E2.95994
G1 X113.512 Y58.903 E3.33312
G1 X115.464 Y67.707 E3.71511
G1 X110.993 Y67.060 E3.90648
G1 X110.135 Y64.418 E4.02415
G1 X109.294 Y63.261 E4.08475
G1 X111.027 Y60.944 E4.20728
G1 X109.966 Y59.883 E4.27082
G1 X107.649 Y61.616 E4.39334
G1 X107.060 Y61.188 E4.42419
G1 X105.354 Y64.847 E4.59522
G1 X105.765 Y65.145 E4.61671
G1 X106.561 Y66.241 E4.67408
G1 X106.979 Y67.527 E4.73139
G1 X106.979 Y68.882 E4.78878
G1 X106.561 Y70.169 E4.84609
G1 X105.765 Y71.265 E4.90346
G1 X104.669 Y72.061 E4.96082
G1 X103.382 Y72.479 E5.01813
G1 X102.027 Y72.479 E5.07553
G1 X100.741 Y72.061 E5.13284
G1 X99.645 Y71.265 E5.19020
G1 X98.849 Y70.169 E5.24757
G1 X98.431 Y68.882 E5.30488
G1 X98.431 Y67.528 E5.36227
G1 X98.849 Y66.241 E5.41958
G1 X99.645 Y65.145 E5.47695
G1 X100.056 Y64.847 E5.49844
G1 X98.350 Y61.188 E5.66947
G1 X97.761 Y61.616 E5.70032
G1 X95.444 Y59.883 E5.82285
G1 X94.383 Y60.944 E5.88638
G1 X96.116 Y63.261 E6.00892
G1 X95.275 Y64.418 E6.06952
G1 X94.417 Y67.060 E6.18719
G1 X89.723 Y67.739 E6.38809
G1 X89.723 Y48.321 E7.21062
G1 X90.378 Y48.878 F12000.000
G1 X109.482 Y48.878 F720.000 E8.01988
G1 X110.247 Y50.725 E8.10457
G1 X112.879 Y59.072 E8.47533
G1 X114.620 Y66.923 E8.81598
G1 X111.490 Y66.471 E8.94996
G1 X110.726 Y64.117 E9.05476
G1 X110.107 Y63.266 E9.09933
G1 X111.890 Y60.882 E9.22543
G1 X110.028 Y59.020 E9.33699
G1 X107.644 Y60.803 E9.46310
G1 X106.803 Y60.191 E9.50714
G1 X104.533 Y65.059 E9.73466
G1 X105.296 Y65.614 E9.77462
G1 X105.970 Y66.542 E9.82320
G1 X106.324 Y67.631 E9.87172
G1 X106.324 Y68.779 E9.92034
G1 X105.970 Y69.868 E9.96887
G1 X105.296 Y70.796 E10.01745
G1 X104.368 Y71.470 E10.06603
G1 X103.279 Y71.824 E10.11456
G1 X102.131 Y71.824 E10.16317
G1 X101.042 Y71.470 E10.21170
G1 X100.114 Y70.796 E10.26028
G1 X99.440 Y69.868 E10.30886
G1 X99.086 Y68.779 E10.35739
G1 X99.086 Y67.631 E10.40601
G1 X99.440 Y66.542 E10.45454
G1 X100.114 Y65.614 E10.50311
G1 X100.877 Y65.059 E10.54307
G1 X98.607 Y60.191 E10.77059
G1 X97.766 Y60.803 E10.81463
G1 X95.382 Y59.020 E10.94074
G1 X93.520 Y60.882 E11.05230
G1 X95.303 Y63.266 E11.17840
G1 X94.684 Y64.117 E11.22297
G1 X93.920 Y66.471 E11.32778
G1 X90.378 Y66.983 E11.47940
G1 X90.378 Y48.976 E12.24219
G1 X90.945 Y49.205 F12000.000
G1 F1680.000 E10.24219
G92 E0
G1 X90.378 Y69.427 F12000.000
G1 F1680.000 E2.00000
G1 X93.920 Y69.939 F720.000 E2.15163
G1 X94.684 Y72.293 E2.25644
G1 X95.303 Y73.144 E2.30100
G1 X93.520 Y75.528 E2.42711
G1 X95.382 Y77.390 E2.53867
G1 X97.766 Y75.607 E2.66477
G1 X98.617 Y76.226 E2.70933
G1 X100.971 Y76.990 E2.81414
G1 X101.388 Y79.878 E2.93776
G1 X104.022 Y79.878 E3.04931
G1 X104.439 Y76.990 E3.17292
G1 X106.793 Y76.226 E3.27773
G1 X107.644 Y75.607 E3.32230
G1 X110.028 Y77.390 E3.44840
G1 X111.890 Y75.528 E3.55996
G1 X110.107 Y73.144 E3.68606
G1 X110.726 Y72.293 E3.73063
G1 X111.490 Y69.939 E3.83544
G1 X115.012 Y69.430 E3.98620
G1 X115.915 Y76.294 E4.27949
G1 X116.298 Y85.039 E4.65027
G1 X116.158 Y88.230 E4.78556
G1 X106.705 Y88.643 E5.18637
G1 X92.731 Y88.032 E5.77886
G1 X92.346 Y87.981 E5.79533
G1 X92.337 Y88.084 E5.79970
G1 X91.465 Y87.946 E5.83710
G1 X90.378 Y88.119 E5.88373
G1 X90.378 Y69.525 E6.67136
G1 X90.911 Y69.807 F12000.000
G1 F1680.000 E4.67136
G92 E0
G1 X90.730 Y89.612 F12000.000
G1 F1680.000 E2.00000
G1 X92.189 Y89.969 F900.000 E2.06362
G1 X94.967 Y91.265 E2.19343
G1 X96.178 Y92.153 E2.25706
G1 X96.974 Y93.465 E2.32208
G1 X97.208 Y94.982 E2.38709
G1 X96.843 Y96.473 E2.45211
G1 X95.935 Y97.710 E2.51712
G1 X94.623 Y98.507 E2.58214
G1 X93.106 Y98.740 E2.64716
G1 X91.647 Y98.383 E2.71078
G1 X88.870 Y97.088 E2.84059
G1 X87.659 Y96.200 E2.90421
G1 X86.862 Y94.888 E2.96923
G1 X86.629 Y93.371 E3.03425
G1 X86.994 Y91.880 E3.09926
G1 X87.901 Y90.642 E3.16428
G1 X89.213 Y89.846 E3.22929
G1 X90.633 Y89.627 E3.29015
G1 X90.994 Y90.212 F12000.000
G1 F1680.000 E1.29015
G92 E0
G1 X87.651 Y128.111 F12000.000
G1 F1680.000 E2.00000
G1 X87.856 Y127.818 F900.000 E2.01518
G1 X91.104 Y129.332 E2.16698
G1 X90.984 Y129.725 E2.18438
G1 X89.810 Y129.539 E2.23471
G1 X88.317 Y128.778 E2.30569
G1 X87.720 Y128.181 E2.34147
G1 F1680.000 E0.34147
G92 E0
G1 X95.572 Y121.305 F12000.000
G1 F1680.000 E2.00000
G1 X92.407 Y119.829 F900.000 E2.14792
G1 X90.759 Y119.426 E2.21979
G1 X88.985 Y119.699 E2.29584
G1 X87.450 Y120.630 E2.37188
G1 X86.389 Y122.078 E2.44792
G1 X85.802 Y124.474 E2.55242
G1 X85.624 Y124.488 E2.56001
G1 X83.532 Y119.437 E2.79160
G1 X80.297 Y113.223 E3.08833
G1 X59.687 Y113.223 E3.96139
G1 X59.687 Y101.022 E4.47825
G1 X61.147 Y102.482 E4.56571
G1 X62.162 Y103.304 E4.62106
G1 X63.258 Y104.016 E4.67641
G1 X64.422 Y104.609 E4.73176
G1 X65.642 Y105.077 E4.78711
G1 X66.904 Y105.415 E4.84245
G1 X68.195 Y105.620 E4.89780
G1 X69.499 Y105.688 E4.95315
G1 X70.804 Y105.620 E5.00850
G1 X72.095 Y105.415 E5.06385
G1 X73.357 Y105.077 E5.11920
G1 X74.577 Y104.609 E5.17455
G1 X75.741 Y104.016 E5.22990
G1 X76.837 Y103.304 E5.28525
G1 X77.852 Y102.482 E5.34060
G1 X78.776 Y101.558 E5.39595
G1 X79.599 Y100.542 E5.45130
G1 X80.310 Y99.447 E5.50664
G1 X80.903 Y98.282 E5.56199
G1 X81.372 Y97.062 E5.61734
G1 X81.710 Y95.800 E5.67269
G1 X81.914 Y94.510 E5.72804
G1 X81.983 Y93.205 E5.78339
G1 X81.914 Y91.900 E5.83874
G1 X81.710 Y90.610 E5.89409
G1 X81.372 Y89.348 E5.94944
G1 X80.903 Y88.128 E6.00479
G1 X80.310 Y86.963 E6.06014
G1 X79.599 Y85.868 E6.11548
G1 X78.776 Y84.852 E6.17083
G1 X77.852 Y83.928 E6.22619
G1 X76.837 Y83.106 E6.28153
G1 X75.741 Y82.394 E6.33688
G1 X74.577 Y81.801 E6.39223
G1 X73.357 Y81.333 E6.44758
G1 X72.095 Y80.995 E6.50293
G1 X70.804 Y80.790 E6.55828
G1 X69.499 Y80.722 E6.61363
G1 X68.195 Y80.790 E6.66898
G1 X66.904 Y80.995 E6.72433
G1 X65.642 Y81.333 E6.77968
G1 X64.422 Y81.801 E6.83503
G1 X63.258 Y82.394 E6.89038
G1 X62.162 Y83.106 E6.94573
G1 X61.147 Y83.928 E7.00107
G1 X59.687 Y85.388 E7.08854
G1 X59.687 Y81.788 E7.24103
G1 X48.066 Y84.902 E7.75066
G1 X44.795 Y72.696 E8.28595
G1 X59.687 Y68.706 E8.93901
G1 X59.687 Y55.179 E9.51201
G1 X59.650 Y54.475 E9.54188
G1 X59.535 Y53.753 E9.57285
G1 X59.346 Y53.047 E9.60380
G1 X59.084 Y52.365 E9.63475
G1 X58.753 Y51.713 E9.66573
G1 X58.354 Y51.100 E9.69669
G1 X57.894 Y50.532 E9.72765
G1 X57.378 Y50.016 E9.75862
G1 X56.809 Y49.555 E9.78958
G1 X56.138 Y49.119 E9.82351
G1 X57.381 Y47.876 E9.89800
G1 X58.027 Y46.609 E9.95822
G1 X58.105 Y46.113 E9.97949
G1 X59.932 Y46.113 E10.05687
G1 X61.198 Y45.193 E10.12317
G1 X61.682 Y43.705 E10.18946
G1 X61.198 Y42.217 E10.25576
G1 X59.932 Y41.297 E10.32206
G1 X58.367 Y41.297 E10.38835
G1 X57.079 Y42.232 E10.45577
G1 X56.376 Y41.529 E10.49791
G1 X55.109 Y40.883 E10.55813
G1 X53.921 Y40.695 E10.60908
G1 X53.961 Y40.187 E10.63069
G1 X83.449 Y40.187 E11.87979
G1 X83.489 Y40.695 E11.90140
G1 X82.301 Y40.883 E11.95235
G1 X81.034 Y41.529 E12.01257
G1 X80.029 Y42.534 E12.07280
G1 X79.383 Y43.801 E12.13302
G1 X79.161 Y45.205 E12.19324
G1 X79.383 Y46.609 E12.25347
G1 X80.029 Y47.876 E12.31369
G1 X81.034 Y48.881 E12.37391
G1 X82.301 Y49.527 E12.43413
G1 X83.705 Y49.749 E12.49436
G1 X85.109 Y49.527 E12.55458
G1 X86.376 Y48.881 E12.61480
G1 X87.258 Y47.999 E12.66762
G1 X87.381 Y47.876 E12.67502
G1 X88.027 Y46.609 E12.73525
G1 X88.249 Y45.205 E12.79547
G1 X88.027 Y43.801 E12.85569
G1 X87.381 Y42.534 E12.91591
G1 X86.376 Y41.529 E12.97614
G1 X85.109 Y40.883 E13.03636
G1 X83.921 Y40.695 E13.08731
G1 X83.961 Y40.187 E13.10892
G1 X112.628 Y40.187 E14.32324
G1 X113.943 Y40.395 E14.37965
G1 X114.128 Y40.489 E14.38846
G1 X114.235 Y40.511 E14.39307
G1 X114.445 Y40.651 E14.40378
G1 X115.060 Y40.964 E14.43299
G1 X115.351 Y41.255 E14.45043
G1 X115.533 Y41.377 E14.45971
G1 X115.655 Y41.559 E14.46900
G1 X115.946 Y41.850 E14.48644
G1 X116.259 Y42.465 E14.51565
G1 X116.399 Y42.675 E14.52634
G1 X116.420 Y42.782 E14.53096
G1 X116.515 Y42.967 E14.53978
G1 X116.711 Y44.205 E14.59287
G1 X116.440 Y45.913 E14.66612
G1 X116.486 Y45.922 E14.66807
G1 X115.818 Y50.987 E14.88451
G1 X115.586 Y56.302 E15.10986
G1 X115.818 Y61.617 E15.33521
G1 X116.513 Y66.892 E15.56059
G1 X117.664 Y72.085 E15.78592
G1 X119.264 Y77.159 E16.01129
G1 X121.300 Y82.074 E16.23666
G1 X123.756 Y86.793 E16.46200
G1 X126.232 Y90.680 E16.65722
G1 X126.090 Y90.842 E16.66638
G1 X122.887 Y89.349 E16.81606
G1 X121.239 Y88.946 E16.88793
G1 X119.465 Y89.219 E16.96397
G1 X117.930 Y90.150 E17.04002
G1 X116.869 Y91.598 E17.11606
G1 X116.442 Y93.342 E17.19211
G1 X116.715 Y95.116 E17.26816
G1 X117.647 Y96.651 E17.34420
G1 X119.015 Y97.654 E17.41607
G1 X121.584 Y98.852 E17.53615
G1 X121.464 Y99.245 E17.55355
G1 X120.290 Y99.059 E17.60389
G1 X118.581 Y98.188 E17.68512
G1 X118.089 Y97.834 E17.71080
G1 X116.277 Y96.789 E17.79941
G1 X114.371 Y95.929 E17.88799
G1 X112.388 Y95.263 E17.97660
G1 X110.349 Y94.797 E18.06522
G1 X108.274 Y94.537 E18.15381
G1 X106.182 Y94.484 E18.24246
G1 X104.096 Y94.641 E18.33106
G1 X102.036 Y95.004 E18.41965
G1 X100.022 Y95.570 E18.50829
G1 X97.494 Y96.563 E18.62332
G1 X97.874 Y95.011 E18.69100
G1 X97.601 Y93.237 E18.76705
G1 X96.670 Y91.702 E18.84309
G1 X95.302 Y90.699 E18.91496
G1 X91.824 Y89.077 E19.07751
G1 X91.944 Y88.685 E19.09489
G1 X92.930 Y88.840 E19.13719
G1 X92.942 Y88.697 E19.14329
G1 X106.705 Y89.298 E19.72686
G1 X116.785 Y88.858 E20.15427
G1 X116.953 Y85.039 E20.31618
G1 X116.568 Y76.237 E20.68938
G1 X115.575 Y68.687 E21.01196
G1 X110.993 Y69.350 E21.20806
G1 X110.135 Y71.992 E21.32573
G1 X109.294 Y73.149 E21.38633
G1 X111.027 Y75.466 E21.50886
G1 X109.966 Y76.527 E21.57240
G1 X107.649 Y74.794 E21.69493
G1 X106.492 Y75.635 E21.75553
G1 X103.850 Y76.493 E21.87320
G1 X103.455 Y79.223 E21.99006
G1 X101.955 Y79.223 E22.05360
G1 X101.560 Y76.493 E22.17047
G1 X98.918 Y75.635 E22.28814
G1 X97.761 Y74.794 E22.34874
G1 X95.444 Y76.527 E22.47127
G1 X94.383 Y75.466 E22.53481
G1 X96.116 Y73.149 E22.65733
G1 X95.275 Y71.992 E22.71794
G1 X94.417 Y69.350 E22.83561
G1 X89.723 Y68.671 E23.03651
G1 X89.723 Y89.105 E23.90211
G1 X88.985 Y89.219 E23.93375
G1 X87.450 Y90.150 E24.00979
G1 X86.389 Y91.598 E24.08584
G1 X85.962 Y93.342 E24.16188
G1 X86.235 Y95.116 E24.23793
G1 X87.167 Y96.651 E24.31397
G1 X88.535 Y97.654 E24.38584
G1 X91.429 Y99.004 E24.52112
G1 X93.077 Y99.407 E24.59298
G1 X94.558 Y99.179 E24.65646
G1 X94.056 Y100.101 E24.70092
G1 X93.243 Y102.029 E24.78956
G1 X92.626 Y104.027 E24.87816
G1 X92.212 Y106.078 E24.96677
G1 X92.004 Y108.159 E25.05538
G1 X92.004 Y110.251 E25.14398
G1 X92.212 Y112.332 E25.23260
G1 X92.626 Y114.383 E25.32120
G1 X93.243 Y116.381 E25.40981
G1 X94.056 Y118.309 E25.49845
G1 X95.056 Y120.147 E25.58705
G1 X95.724 Y121.126 E25.63726
G1 X95.636 Y121.230 E25.64305
G1 F1680.000 E23.64305
G92 E0
G1 X53.489 Y40.695 F12000.000
G1 F1680.000 E2.00000
G1 X52.301 Y40.883 F900.000 E2.05095
G1 X51.034 Y41.529 E2.11117
G1 X50.029 Y42.534 E2.17140
G1 X49.383 Y43.801 E2.23162
G1 X49.161 Y45.205 E2.29184
G1 X49.383 Y46.609 E2.35206
G1 X50.206 Y48.223 E2.42880
G1 X46.782 Y48.223 E2.57382
G1 X45.467 Y48.015 E2.63023
G1 X44.350 Y47.446 E2.68332
G1 X43.464 Y46.560 E2.73642
G1 X42.895 Y45.443 E2.78951
G1 X42.699 Y44.205 E2.84260
G1 X42.895 Y42.967 E2.89569
G1 X43.464 Y41.850 E2.94878
