; generated by Slic3r 1.1.7 on 2014-12-06 at 22:19:31

; perimeters extrusion width = 0.50mm
; infill extrusion width = 0.50mm
; solid infill extrusion width = 0.50mm
; top infill extrusion width = 0.50mm

G21 ; set units to millimeters
M104 S190 ; set temperature
G28 ; home all axes
G1 Z15 F120 ; lift nozzle
M109 S190 ; wait for temperature to be reached
G90 ; use absolute coordinates
G92 E0
M82 ; use absolute distances for extrusion
M106 S102
G1 F1680.000 E-2.00000
G92 E0
G1 Z0.350 F12000.000
G1 X67.039 Y64.386 F12000.000
G1 E2.00000 F1680.000
G1 X68.787 Y62.936 E2.07328 F1200.000
G1 X72.000 Y62.086 E2.18048
G1 X98.000 Y62.086 E3.01923
G1 X100.237 Y62.483 E3.09251
G1 X102.200 Y63.625 E3.16579 F1200.000
G1 X103.651 Y65.374 E3.23907
G1 X104.500 Y68.586 E3.34627
G1 X104.480 Y102.747 E4.44829
G1 X104.271 Y104.381 E4.50143
G1 X104.127 Y104.980 E4.52131
G1 X103.809 Y105.961 E4.55457
G1 X103.574 Y106.530 E4.57444
G1 X103.106 Y107.450 E4.60772
G1 X102.784 Y107.975 E4.62760
G1 X102.179 Y108.810 E4.66088
G1 X101.778 Y109.279 E4.68076
G1 X101.050 Y110.008 E4.71401
G1 X100.582 Y110.408 E4.73388
G1 X99.747 Y111.016 E4.76718
G1 X98.303 Y111.807 E4.82029
G1 X96.754 Y112.362 E4.87338
G1 X96.154 Y112.506 E4.89328
G1 X95.135 Y112.668 E4.92657
G1 X94.000 Y112.737 E4.96326
G1 X75.490 Y112.717 E5.56037
G1 X73.858 Y112.509 E5.61348
G1 X72.277 Y112.047 E5.66661
G1 X70.788 Y111.344 E5.71973
G1 X69.428 Y110.417 E5.77282
G1 X68.230 Y109.289 E5.82588
G1 X67.216 Y107.975 E5.87945
G1 X66.431 Y106.541 E5.93217
G1 X65.876 Y104.993 E5.98522
G1 X65.569 Y103.374 E6.03840
G1 X65.500 Y102.238 E6.07511
G1 X65.500 Y68.586 E7.16069
G1 X65.897 Y66.350 E7.23397
G1 X67.002 Y64.451 E7.30483
G1 F1680.000 E5.30483
G92 E0
G1 X78.860 Y103.222 F12000.000
G1 E2.00000 F1680.000
G1 X78.006 Y103.792 E2.03310 F720.000
G1 X77.000 Y103.992 E2.06621
G1 X75.994 Y103.792 E2.09931
G1 X75.140 Y103.222 E2.13241
G1 X74.570 Y102.369 E2.16551
G1 X74.375 Y101.387 E2.19781
G1 X74.375 Y100.338 E2.23166
G1 X74.570 Y99.356 E2.26395
G1 X75.140 Y98.503 E2.29705
G1 X75.994 Y97.933 E2.33015
G1 X77.000 Y97.733 E2.36326
G1 X77.941 Y97.920 E2.39420
G1 X78.006 Y97.933 E2.39636 F720.000
G1 X78.860 Y98.503 E2.42946
G1 X79.430 Y99.356 E2.46256
G1 X79.625 Y100.338 E2.49486
G1 X79.625 Y101.387 E2.52871
G1 X79.430 Y102.369 E2.56100
G1 X78.901 Y103.160 E2.59168
G1 F1680.000 E0.59168
G92 E0
G1 X80.250 Y92.563 F12000.000
G1 E2.00000 F1680.000
G1 X80.250 Y78.162 E2.46457 F720.000
G1 X89.750 Y78.162 E2.77104
G1 X89.750 Y92.563 E3.23562
G1 X80.325 Y92.563 E3.53966
G1 F1680.000 E1.53966
G92 E0
G1 X90.570 Y99.356 F12000.000
G1 E2.00000 F1680.000
G1 X91.140 Y98.503 E2.03310 F720.000
G1 X91.994 Y97.933 E2.06620
G1 X93.000 Y97.733 E2.09931
G1 X93.941 Y97.920 E2.13025
G1 X94.006 Y97.933 E2.13241 F720.000
G1 X94.860 Y98.503 E2.16551
G1 X95.430 Y99.356 E2.19862
G1 X95.625 Y100.338 E2.23091
G1 X95.625 Y101.387 E2.26476
G1 X95.430 Y102.369 E2.29705
G1 X94.860 Y103.222 E2.33015
G1 X94.006 Y103.792 E2.36326
G1 X93.000 Y103.992 E2.39636
G1 X91.994 Y103.792 E2.42946
G1 X91.140 Y103.222 E2.46257
G1 X90.570 Y102.369 E2.49567
G1 X90.375 Y101.387 E2.52796
G1 X90.375 Y100.338 E2.56181
G1 X90.556 Y99.430 E2.59168
G1 X97.750 Y68.836 F12000.000
G1 X97.750 Y102.228 E3.66888 F720.000
G1 X97.703 Y102.824 E3.68818
G1 X97.566 Y103.396 E3.70716
G1 X97.341 Y103.940 E3.72614
G1 X97.033 Y104.441 E3.74511
G1 X96.651 Y104.889 E3.76410
G1 X96.204 Y105.271 E3.78308
G1 X95.702 Y105.578 E3.80205
G1 X95.159 Y105.803 E3.82103
G1 X94.586 Y105.941 E3.84001
G1 X93.990 Y105.987 E3.85931
G1 X76.010 Y105.987 E4.43935
G1 X75.414 Y105.941 E4.45865
G1 X74.841 Y105.803 E4.47763
G1 X74.298 Y105.578 E4.49661
G1 X73.796 Y105.271 E4.51558
G1 X73.349 Y104.889 E4.53456
G1 X72.967 Y104.441 E4.55354
G1 X72.659 Y103.940 E4.57252
G1 X72.434 Y103.396 E4.59150
G1 X72.297 Y102.824 E4.61048
G1 X72.250 Y102.228 E4.62978
G1 X72.250 Y68.836 E5.70697
G1 X97.675 Y68.836 E6.52718
G1 X97.368 Y69.179 F12000.000
G1 X97.408 Y69.219 E6.52900 F1200.000
G1 X97.408 Y69.932 E6.55202
G1 X96.654 Y69.179 E6.58639
G1 X95.941 Y69.179 E6.60940
G1 X97.408 Y70.646 E6.67633
G1 X97.408 Y71.359 E6.69934
G1 X95.227 Y69.179 E6.79881
G1 X94.514 Y69.179 E6.82182
G1 X97.408 Y72.072 E6.95384
G1 X97.408 Y72.786 E6.97686
G1 X93.800 Y69.179 E7.14142
G1 X93.087 Y69.179 E7.16443
G1 X97.408 Y73.499 E7.36155
G1 X97.408 Y74.213 E7.38456
G1 X92.374 Y69.179 E7.61422
G1 X91.660 Y69.179 E7.63724
G1 X97.408 Y74.926 E7.89945
G1 X97.408 Y75.639 E7.92246
G1 X90.947 Y69.179 E8.21722
G1 X90.233 Y69.179 E8.24023
G1 X97.408 Y76.353 E8.56754
G1 X97.408 Y77.066 E8.59055
G1 X89.520 Y69.179 E8.95040
G1 X88.806 Y69.179 E8.97342
G1 X97.408 Y77.780 E9.36582
G1 X97.408 Y78.493 E9.38883
G1 X88.093 Y69.179 E9.81378
G1 X87.380 Y69.179 E9.83680
G1 X97.408 Y79.207 E10.29429
G1 X97.408 Y79.920 E10.31731
G1 X86.666 Y69.179 E10.80735
G1 X85.953 Y69.179 E10.83037
G1 X97.408 Y80.633 E11.35296
G1 X97.408 Y81.347 E11.37597
G1 X85.239 Y69.179 E11.93111
G1 X84.526 Y69.179 E11.95413
G1 X97.408 Y82.060 E12.54182
G1 X97.408 Y82.774 E12.56483
G1 X83.812 Y69.179 E13.18507
G1 X83.099 Y69.179 E13.20808
G1 X97.408 Y83.487 E13.86087
G1 X97.408 Y84.201 E13.88388
G1 X82.386 Y69.179 E14.56921
G1 X81.672 Y69.179 E14.59223
G1 X97.408 Y84.914 E15.31011
G1 X97.408 Y85.627 E15.33312
G1 X90.092 Y78.312 E15.66685
G1 X89.600 Y77.819 F12000.000
G1 X80.959 Y69.179 E16.06106 F1200.000
G1 X80.245 Y69.179 E16.08408
G1 X88.886 Y77.819 E16.47829
G1 X88.173 Y77.819 E16.50130
G1 X79.532 Y69.179 E16.89551
G1 X78.818 Y69.179 E16.91853
G1 X87.459 Y77.819 E17.31274
G1 X86.746 Y77.819 E17.33575
G1 X78.105 Y69.179 E17.72996
G1 X77.392 Y69.179 E17.75298
G1 X86.032 Y77.819 E18.14719
G1 X85.319 Y77.819 E18.17020
G1 X76.678 Y69.179 E18.56442
G1 X75.965 Y69.179 E18.58743
G1 X84.606 Y77.819 E18.98164
G1 X83.892 Y77.819 E19.00466
G1 X75.251 Y69.179 E19.39887
G1 X74.538 Y69.179 E19.42188
G1 X83.179 Y77.819 E19.81609
G1 X82.465 Y77.819 E19.83911
G1 X73.824 Y69.179 E20.23332
G1 X73.111 Y69.179 E20.25633
G1 X81.752 Y77.819 E20.65054
G1 X81.038 Y77.819 E20.67356
G1 X72.592 Y69.374 E21.05888
G1 X72.592 Y70.087 E21.08190
G1 X80.325 Y77.819 E21.43467
G1 X79.908 Y78.115 E21.45118
G1 X72.592 Y70.800 E21.78491
G1 X72.592 Y71.514 E21.80792
G1 X79.908 Y78.829 E22.14165
G1 X79.908 Y79.542 E22.16466
G1 X72.592 Y72.227 E22.49839
G1 X72.592 Y72.941 E22.52141
G1 X79.908 Y80.256 E22.85513
G1 X79.908 Y80.969 E22.87815
G1 X72.592 Y73.654 E23.21187
G1 X72.592 Y74.367 E23.23489
G1 X79.908 Y81.683 E23.56862
G1 X79.908 Y82.396 E23.59163
G1 X72.592 Y75.081 E23.92536
G1 X72.592 Y75.794 E23.94837
G1 X79.908 Y83.109 E24.28210
G1 X79.908 Y83.823 E24.30512
G1 X72.592 Y76.508 E24.63884
G1 X72.592 Y77.221 E24.66186
G1 X79.908 Y84.536 E24.99559
G1 X79.908 Y85.250 E25.01860
G1 X72.592 Y77.935 E25.35233
G1 X72.592 Y78.648 E25.37534
G1 X79.908 Y85.963 E25.70907
G1 X79.908 Y86.677 E25.73209
G1 X72.592 Y79.361 E26.06581
G1 X72.592 Y80.075 E26.08883
G1 X79.908 Y87.390 E26.42256
G1 X79.908 Y88.103 E26.44557
G1 X72.592 Y80.788 E26.77930
G1 X72.592 Y81.502 E26.80231
G1 X79.908 Y88.817 E27.13604
G1 X79.908 Y89.530 E27.15905
G1 X72.592 Y82.215 E27.49278
G1 X72.592 Y82.929 E27.51580
G1 X79.908 Y90.244 E27.84952
G1 X79.908 Y90.957 E27.87254
G1 X72.592 Y83.642 E28.20627
G1 X72.592 Y84.355 E28.22928
G1 X79.908 Y91.670 E28.56301
G1 X79.908 Y92.384 E28.58602
G1 X72.592 Y85.069 E28.91975
G1 X72.592 Y85.782 E28.94277
G1 X92.455 Y105.645 E29.84894
G1 X93.169 Y105.645 E29.87196
G1 X80.429 Y92.906 E30.45316
G1 X81.143 Y92.906 E30.47618
G1 X90.126 Y101.889 E30.88600
G1 X90.033 Y101.082 E30.91219
G1 X81.856 Y92.906 E31.28522
G1 X82.569 Y92.906 E31.30823
G1 X90.033 Y100.369 E31.64872
G1 X90.140 Y99.763 E31.66856
G1 X83.283 Y92.906 E31.98141
G1 X83.996 Y92.906 E32.00443
G1 X90.274 Y99.183 E32.29083
G1 X90.560 Y98.756 E32.30742
G1 X84.710 Y92.906 E32.57431
G1 X85.423 Y92.906 E32.59732
G1 X90.845 Y98.328 E32.84470
G1 X91.249 Y98.018 E32.86112
G1 X86.137 Y92.906 E33.09437
G1 X86.850 Y92.906 E33.11738
G1 X91.677 Y97.732 E33.33760
G1 X92.200 Y97.542 E33.35556
G1 X87.563 Y92.906 E33.56711
G1 X88.277 Y92.906 E33.59012
G1 X92.795 Y97.424 E33.79627
G1 X93.584 Y97.500 E33.82184
G1 X88.990 Y92.906 E34.03143
G1 X89.704 Y92.906 E34.05445
G1 X97.408 Y100.609 E34.40592
G1 X97.408 Y101.323 E34.42893
G1 X95.863 Y99.778 E34.49940
G1 X95.967 Y100.596 E34.52601
G1 X97.408 Y102.036 E34.59170
G1 X97.368 Y102.711 E34.61350
G1 X95.967 Y101.310 E34.67741
G1 X95.868 Y101.923 E34.69747
G1 X97.238 Y103.293 E34.75997
G1 X97.027 Y103.796 E34.77756
G1 X95.745 Y102.514 E34.83605
G1 X95.459 Y102.941 E34.85264
G1 X96.756 Y104.238 E34.91181
G1 X96.415 Y104.611 E34.92810
G1 X95.173 Y103.369 E34.98474
G1 X94.779 Y103.688 E35.00110
G1 X96.046 Y104.955 E35.05891
G1 X95.610 Y105.233 E35.07558
G1 X94.351 Y103.974 E35.13302
G1 X93.839 Y104.175 E35.15077
G1 X95.115 Y105.451 E35.20898
G1 X94.548 Y105.598 E35.22787
G1 X93.244 Y104.293 E35.28738
G1 X92.474 Y104.237 E35.31227
G1 X93.882 Y105.645 E35.37651
G1 X91.742 Y105.645 F12000.000
G1 X72.592 Y86.496 E36.25014 F1200.000
G1 X72.592 Y87.209 E36.27316
G1 X91.028 Y105.645 E37.11424
G1 X90.315 Y105.645 E37.13725
G1 X72.592 Y87.923 E37.94579
G1 X72.592 Y88.636 E37.96880
G1 X89.602 Y105.645 E38.74479
G1 X88.888 Y105.645 E38.76781
G1 X72.592 Y89.349 E39.51124
G1 X72.592 Y90.063 E39.53426
G1 X88.175 Y105.645 E40.24515
G1 X87.461 Y105.645 E40.26817
G1 X72.592 Y90.776 E40.94651
G1 X72.592 Y91.490 E40.96952
G1 X86.748 Y105.645 E41.61532
G1 X86.034 Y105.645 E41.63833
G1 X79.787 Y99.398 E41.92334
G1 X79.964 Y100.288 E41.95264
G1 X85.321 Y105.645 E42.19701
G1 X84.608 Y105.645 E42.22003
G1 X79.967 Y101.005 E42.43172
G1 X79.918 Y101.669 E42.45320
G1 X83.894 Y105.645 E42.63459
G1 X83.181 Y105.645 E42.65761
G1 X79.800 Y102.264 E42.81185
G1 X79.581 Y102.759 E42.82930
G1 X82.467 Y105.645 E42.96098
G1 X81.754 Y105.645 E42.98399
G1 X79.295 Y103.187 E43.09615
G1 X78.961 Y103.566 E43.11246
G1 X81.040 Y105.645 E43.20731
G1 X80.327 Y105.645 E43.23032
G1 X78.534 Y103.852 E43.31213
G1 X78.093 Y104.124 E43.32886
G1 X79.614 Y105.645 E43.39824
G1 X78.900 Y105.645 E43.42125
G1 X77.498 Y104.243 E43.48523
G1 X76.854 Y104.313 E43.50611
G1 X78.187 Y105.645 E43.56690
G1 X77.473 Y105.645 E43.58991
G1 X75.964 Y104.135 E43.65878
G1 X76.046 Y105.645 F12000.000
G1 X72.592 Y102.191 E43.81636 F1200.000
G1 X72.592 Y101.478 E43.83938
G1 X76.760 Y105.645 E44.02950
G1 X75.233 Y105.545 F12000.000
G1 X72.692 Y103.004 E44.14541 F1200.000
G1 X73.426 Y104.451 F12000.000
G1 X73.786 Y104.812 E44.16186 F1200.000
G1 X74.227 Y102.399 F12000.000
G1 X72.592 Y100.764 E44.23644 F1200.000
G1 X72.592 Y100.051 E44.25945
G1 X74.050 Y101.508 E44.32594
G1 X74.033 Y100.777 E44.34952
G1 X72.592 Y99.337 E44.41522
G1 X72.592 Y98.624 E44.43824
G1 X74.072 Y100.104 E44.50575
G1 X74.191 Y99.509 E44.52532
G1 X72.592 Y97.911 E44.59824
G1 X72.592 Y97.197 E44.62125
G1 X74.396 Y99.001 E44.70353
G1 X74.682 Y98.573 E44.72012
G1 X72.592 Y96.484 E44.81544
G1 X72.592 Y95.770 E44.83845
G1 X75.004 Y98.182 E44.94848
G1 X75.432 Y97.896 E44.96507
G1 X72.592 Y95.057 E45.09461
G1 X72.592 Y94.343 E45.11763
G1 X75.860 Y97.610 E45.26668
G1 X76.454 Y97.492 E45.28624
G1 X72.592 Y93.630 E45.46244
G1 X72.592 Y92.917 E45.48545
G1 X77.074 Y97.398 E45.68991
G1 X77.965 Y97.575 E45.71920
G1 X72.592 Y92.203 E45.96429
G1 F1680.000 E43.96429
G92 E0
G1 X90.092 Y91.867 F12000.000
G1 E2.00000 F1680.000
G1 X97.408 Y99.183 E2.33373 F1200.000
G1 X97.408 Y99.896 E2.35674
G1 X90.092 Y92.581 E2.69047
G1 X90.092 Y91.154 F12000.000
G1 X97.408 Y98.469 E3.02420 F1200.000
G1 X97.408 Y97.756 E3.04721
G1 X90.092 Y90.441 E3.38094
G1 X90.092 Y89.727 E3.40395
G1 X97.408 Y97.042 E3.73768
G1 X97.408 Y96.329 E3.76070
G1 X90.092 Y89.014 E4.09442
G1 X90.092 Y88.300 E4.11744
G1 X97.408 Y95.615 E4.45117
G1 X97.408 Y94.902 E4.47418
G1 X90.092 Y87.587 E4.80791
G1 X90.092 Y86.874 E4.83092
G1 X97.408 Y94.189 E5.16465
G1 X97.408 Y93.475 E5.18767
G1 X90.092 Y86.160 E5.52139
G1 X90.092 Y85.447 E5.54441
G1 X97.408 Y92.762 E5.87813
G1 X97.408 Y92.048 E5.90115
G1 X90.092 Y84.733 E6.23488
G1 X90.092 Y84.020 E6.25789
G1 X97.408 Y91.335 E6.59162
G1 X97.408 Y90.621 E6.61463
G1 X90.092 Y83.306 E6.94836
G1 X90.092 Y82.593 E6.97138
G1 X97.408 Y89.908 E7.30510
G1 X97.408 Y89.195 E7.32812
G1 X90.092 Y81.880 E7.66185
G1 X90.092 Y81.166 E7.68486
G1 X97.408 Y88.481 E8.01859
G1 X97.408 Y87.768 E8.04160
G1 X90.092 Y80.453 E8.37533
G1 X90.092 Y79.739 E8.39835
G1 X97.408 Y87.054 E8.73207
G1 X97.408 Y86.341 E8.75509
G1 X90.092 Y79.026 E9.08882
M106 S179
M104 S188 ; set temperature
G1 F1680.000 E7.08882
G92 E0
G1 Z0.650 F12000.000
G1 X78.216 Y98.073 F12000.000
G1 E2.00000 F1680.000
G1 X78.860 Y98.503 E2.01665 F1440.000
G1 X79.430 Y99.356 E2.03872
G1 X79.625 Y100.338 E2.06025
G1 X79.625 Y101.387 E2.08281
G1 X79.430 Y102.369 E2.10434
G1 X78.860 Y103.222 E2.12641
G1 X78.006 Y103.792 E2.14848
G1 X77.000 Y103.992 E2.17055
G1 X75.994 Y103.792 E2.19262
G1 X75.140 Y103.222 E2.21468
G1 X74.570 Y102.369 E2.23675
G1 X74.375 Y101.387 E2.25828
G1 X74.375 Y100.338 E2.28085
G1 X74.570 Y99.356 E2.30238
G1 X75.140 Y98.503 E2.32444
G1 X75.994 Y97.933 E2.34651
G1 X77.000 Y97.733 E2.36858
G1 X77.912 Y97.914 E2.38858
G1 X78.006 Y97.933 E2.39065 F1440.000
G1 X78.154 Y98.031 E2.39446
G1 X80.250 Y93.047 F12000.000
G1 X80.250 Y77.678 E2.72497 F1440.000
G1 X89.750 Y77.678 E2.92928
G1 X89.750 Y93.047 E3.25979
G1 X80.325 Y93.047 E3.46249
G1 F1680.000 E1.46249
G92 E0
G1 X90.570 Y99.356 F12000.000
G1 E2.00000 F1680.000
G1 X91.140 Y98.503 E2.02207 F1440.000
G1 X91.994 Y97.933 E2.04414
G1 X93.000 Y97.733 E2.06621
G1 X93.912 Y97.914 E2.08621
G1 X94.006 Y97.933 E2.08827 F1440.000
G1 X94.860 Y98.503 E2.11034
G1 X95.430 Y99.356 E2.13241
G1 X95.625 Y100.338 E2.15394
G1 X95.625 Y101.387 E2.17651
G1 X95.430 Y102.369 E2.19803
G1 X94.860 Y103.222 E2.22010
G1 X94.006 Y103.792 E2.24217
G1 X93.000 Y103.992 E2.26424
G1 X91.994 Y103.792 E2.28631
G1 X91.140 Y103.222 E2.30838
G1 X90.570 Y102.369 E2.33044
G1 X90.375 Y101.387 E2.35197
G1 X90.375 Y100.338 E2.37454
G1 X90.556 Y99.430 E2.39446
G1 X97.750 Y68.620 F12000.000
G1 X97.750 Y102.228 E3.11724 F1440.000
G1 X97.703 Y102.824 E3.13011
G1 X97.566 Y103.396 E3.14276
G1 X97.341 Y103.940 E3.15542
G1 X97.033 Y104.441 E3.16807
G1 X96.651 Y104.889 E3.18072
G1 X96.204 Y105.271 E3.19337
G1 X95.702 Y105.578 E3.20602
G1 X95.159 Y105.803 E3.21868
G1 X94.586 Y105.941 E3.23133
G1 X93.990 Y105.987 E3.24420
G1 X76.010 Y105.987 E3.63089
G1 X75.414 Y105.941 E3.64375
G1 X74.841 Y105.803 E3.65641
G1 X74.298 Y105.578 E3.66906
G1 X73.796 Y105.271 E3.68171
G1 X73.349 Y104.889 E3.69436
G1 X72.967 Y104.441 E3.70702
G1 X72.659 Y103.940 E3.71967
G1 X72.434 Y103.396 E3.73232
G1 X72.297 Y102.824 E3.74498
G1 X72.250 Y102.228 E3.75784
G1 X72.250 Y68.620 E4.48063
G1 X97.675 Y68.620 E5.02743
G1 X72.592 Y69.002 F12000.000
G1 X72.632 Y68.962 E5.02865 F2400.000
G1 X73.340 Y68.962 E5.04386
G1 X72.592 Y69.710 E5.06660
G1 X72.592 Y70.417 E5.08181
G1 X74.047 Y68.962 E5.12607
G1 X74.755 Y68.962 E5.14128
G1 X72.592 Y71.125 E5.20706
G1 X72.592 Y71.832 E5.22227
G1 X75.463 Y68.962 E5.30956
G1 X76.170 Y68.962 E5.32478
G1 X72.592 Y72.540 E5.43359
G1 X72.592 Y73.247 E5.44881
G1 X76.878 Y68.962 E5.57914
G1 X77.585 Y68.962 E5.59435
G1 X72.592 Y73.955 E5.74620
G1 X72.592 Y74.662 E5.76141
G1 X78.293 Y68.962 E5.93478
G1 X79.000 Y68.962 E5.95000
G1 X72.592 Y75.370 E6.14488
G1 X72.592 Y76.077 E6.16010
G1 X79.708 Y68.962 E6.37650
G1 X80.415 Y68.962 E6.39172
G1 X72.592 Y76.785 E6.62964
G1 X72.592 Y77.492 E6.64486
G1 X81.123 Y68.962 E6.90430
G1 X81.830 Y68.962 E6.91951
G1 X72.592 Y78.200 E7.20047
G1 X72.592 Y78.907 E7.21569
G1 X82.538 Y68.962 E7.51817
G1 X83.245 Y68.962 E7.53338
G1 X72.592 Y79.615 E7.85738
G1 X72.592 Y80.322 E7.87260
G1 X83.953 Y68.962 E8.21811
G1 X84.660 Y68.962 E8.23333
G1 X72.592 Y81.030 E8.60036
G1 X72.592 Y81.737 E8.61558
G1 X85.368 Y68.962 E9.00413
G1 X86.075 Y68.962 E9.01935
G1 X72.592 Y82.445 E9.42942
G1 X72.592 Y83.152 E9.44464
G1 X86.783 Y68.962 E9.87623
G1 X87.490 Y68.962 E9.89144
G1 X72.592 Y83.860 E10.34455
G1 X75.747 Y97.686 F12000.000
G1 X80.044 Y93.389 E10.47524 F2400.000
