; generated by Slic3r 1.1.7 on 2014-12-06 at 14:08:11

; perimeters extrusion width = 0.50mm
; infill extrusion width = 0.50mm
; solid infill extrusion width = 0.50mm
; top infill extrusion width = 0.50mm

G21 ; set units to millimeters
M104 S190 ; set temperature
G28 ; home all axes
G1 Z15 F120 ; lift nozzle
M109 S190 ; wait for temperature to be reached
G90 ; use absolute coordinates
G92 E0
M82 ; use absolute distances for extrusion
M106 S102
G1 F1680.000 E-2.00000
G92 E0
G1 Z0.350 F12000.000
G1 X14.980 Y25.945 F12000.000
G1 E2.00000 F1680.000
G1 X39.313 Y11.896 E2.90641 F1200.000
G1 X41.448 Y11.121 E2.97969
G1 X43.461 Y11.088 E3.04464
G1 X131.135 Y23.322 E5.90038
G1 X133.295 Y24.024 E5.97366 F1200.000
G1 X134.781 Y25.112 E6.03305
G1 X171.641 Y61.149 E7.69603
G1 X172.963 Y62.996 E7.76931
G1 X173.597 Y65.796 E7.86194
G1 X173.597 Y111.593 E9.33931
G1 X173.201 Y113.829 E9.41259
G1 X171.641 Y116.240 E9.50522
G1 X134.781 Y152.277 E11.16820
G1 X132.904 Y153.557 E11.24148
G1 X130.595 Y154.120 E11.31813
G1 X41.883 Y158.939 E14.18418
G1 X39.388 Y158.677 E14.26511
G1 X38.059 Y158.394 E14.30895
G1 X35.673 Y157.619 E14.38988
G1 X34.431 Y157.066 E14.43374
G1 X32.259 Y155.812 E14.51465
G1 X31.161 Y155.014 E14.55843
G1 X29.296 Y153.335 E14.63938
G1 X28.385 Y152.324 E14.68329
G1 X26.911 Y150.295 E14.76420
G1 X26.324 Y149.315 E14.80106
G1 X-2.944 Y89.059 E16.96205
G1 X-3.597 Y86.220 E17.05606
G1 X-3.597 Y40.423 E18.53343
G1 X-3.201 Y38.187 E18.60671
G1 X-2.058 Y36.223 E18.67999
G1 X-0.347 Y34.794 E18.75190
G1 X14.915 Y25.982 E19.32042
G1 F1680.000 E17.32042
G92 E0
G1 X18.197 Y57.375 F12000.000
G1 E2.00000 F1680.000
G1 X17.320 Y55.855 E2.05663 F720.000
G1 X18.174 Y54.320 E2.11327
G1 X23.797 Y54.320 E2.29467
G1 X23.892 Y57.285 E2.39034
G1 X18.272 Y57.374 E2.57163
G1 X17.729 Y57.549 F12000.000
G1 F1680.000 E0.57163
G92 E0
G1 X57.126 Y76.472 F12000.000
G1 E2.00000 F1680.000
G1 X59.741 Y75.073 E2.09567 F720.000
G1 X62.553 Y79.943 E2.27706
G1 X61.650 Y81.449 E2.33369
G1 X59.895 Y81.449 E2.39032
G1 X57.163 Y76.538 E2.57162
G1 X56.888 Y76.033 F12000.000
G1 F1680.000 E0.57162
G92 E0
G1 X50.743 Y73.726 F12000.000
G1 E2.00000 F1680.000
G1 X54.862 Y73.726 E2.13288 F720.000
G1 X54.818 Y75.094 E2.17705
G1 X52.040 Y79.735 E2.35155
G1 X46.631 Y79.821 E2.52605
G1 X45.423 Y79.175 E2.57024
G1 X47.483 Y75.608 E2.70315
G1 X45.113 Y75.608 E2.77963
G1 X45.113 Y65.082 E3.11917
G1 X53.078 Y69.681 E3.41589
G1 X50.780 Y73.661 E3.56413
G1 X51.212 Y73.555 F12000.000
G1 X55.663 Y65.203 F12000.000
G1 X53.328 Y69.248 E3.71478 F720.000
G1 X45.113 Y64.505 E4.02081
G1 X45.113 Y62.138 E4.09717
G1 X53.328 Y57.395 E4.40320
G1 X55.663 Y61.439 E4.55385
G1 X57.723 Y57.872 E4.68675
G1 X58.886 Y58.595 E4.73093
G1 X61.515 Y63.321 E4.90542
G1 X58.886 Y68.048 E5.07991
G1 X57.723 Y68.771 E5.12409
G1 X55.700 Y65.268 E5.25456
G1 X55.576 Y65.696 F12000.000
G1 F1680.000 E3.25456
G92 E0
G1 X45.113 Y57.590 F12000.000
G1 E2.00000 F1680.000
G1 X42.813 Y57.590 E2.07420 F720.000
G1 X42.813 Y51.035 E2.28564
G1 X47.484 Y51.035 E2.43632
G1 X45.423 Y47.468 E2.56923
G1 X46.631 Y46.822 E2.61342
G1 X52.040 Y46.908 E2.78793
G1 X54.818 Y51.549 E2.96242
G1 X54.862 Y52.917 E3.00660
G1 X50.743 Y52.917 E3.13947
G1 X53.078 Y56.962 E3.29014
G1 X45.113 Y61.560 E3.58685
G1 X45.113 Y57.665 E3.71253
G1 X44.680 Y57.840 F12000.000
G1 X40.013 Y57.590 F12000.000
G1 X40.013 Y61.561 E3.84063 F720.000
G1 X32.048 Y56.962 E4.13731
G1 X34.383 Y52.917 E4.28796
G1 X30.263 Y52.917 E4.42085
G1 X30.308 Y51.548 E4.46503
G1 X33.087 Y46.908 E4.63952
G1 X38.494 Y46.822 E4.81400
G1 X39.702 Y47.468 E4.85819
G1 X37.643 Y51.035 E4.99108
G1 X42.313 Y51.035 E5.14173
G1 X42.313 Y57.590 E5.35317
G1 X40.088 Y57.590 E5.42495
G1 X40.263 Y58.023 F12000.000
G1 F1680.000 E3.42495
G92 E0
G1 X29.463 Y61.439 F12000.000
G1 E2.00000 F1680.000
G1 X31.798 Y57.395 E2.15067 F720.000
G1 X40.013 Y62.138 E2.45667
G1 X40.013 Y64.505 E2.53303
G1 X31.798 Y69.248 E2.83903
G1 X29.463 Y65.203 E2.98969
G1 X27.403 Y68.771 E3.12258
G1 X26.240 Y68.048 E3.16677
G1 X23.610 Y63.321 E3.34125
G1 X26.240 Y58.595 E3.51573
G1 X27.403 Y57.872 E3.55991
G1 X29.425 Y61.375 E3.69038
G1 X29.549 Y60.947 F12000.000
G1 F1680.000 E1.69038
G92 E0
G1 X25.384 Y75.073 F12000.000
G1 E2.00000 F1680.000
G1 X28.000 Y76.472 E2.09569 F720.000
G1 X25.231 Y81.449 E2.27942
G1 X23.475 Y81.449 E2.33606
G1 X22.573 Y79.943 E2.39268
G1 X25.347 Y75.138 E2.57166
G1 X25.625 Y74.635 F12000.000
G1 F1680.000 E0.57166
G92 E0
G1 X34.383 Y73.726 F12000.000
G1 E2.00000 F1680.000
G1 X32.048 Y69.681 E2.15065 F720.000
G1 X40.013 Y65.082 E2.44734
G1 X40.013 Y75.608 E2.78688
G1 X37.643 Y75.608 E2.86333
G1 X39.702 Y79.175 E2.99622
G1 X38.494 Y79.821 E3.04041
G1 X33.087 Y79.735 E3.21489
G1 X30.308 Y75.094 E3.38937
G1 X30.263 Y73.726 E3.43356
G1 X34.308 Y73.726 E3.56402
G1 X34.000 Y73.404 F12000.000
G1 F1680.000 E1.56402
G92 E0
G1 X38.456 Y82.509 F12000.000
G1 E2.00000 F1680.000
G1 X40.013 Y83.477 E2.05913 F720.000
G1 X40.013 Y85.740 E2.13215
G1 X38.164 Y88.944 E2.25148
G1 X36.408 Y88.915 E2.30812
G1 X35.530 Y87.395 E2.36475
G1 X38.417 Y82.574 E2.54606
G1 X38.717 Y82.083 F12000.000
G1 F1680.000 E0.54606
G92 E0
G1 X46.671 Y82.509 F12000.000
G1 E2.00000 F1680.000
G1 X49.596 Y87.395 E2.18371 F720.000
G1 X48.717 Y88.915 E2.24034
G1 X46.963 Y88.944 E2.29695
G1 X45.113 Y85.740 E2.41629
G1 X45.113 Y83.477 E2.48931
G1 X46.607 Y82.549 E2.54605
G1 X47.098 Y82.250 F12000.000
G1 F1680.000 E0.54605
G92 E0
G1 X46.219 Y93.237 F12000.000
G1 E2.00000 F1680.000
G1 X45.553 Y94.392 E2.04300 F720.000
G1 X45.113 Y94.138 E2.05941
G1 X45.113 Y93.237 E2.08849
G1 X46.144 Y93.237 E2.12177
G1 X46.689 Y93.408 F12000.000
G1 X47.832 Y90.449 F12000.000
G1 X47.249 Y89.439 E2.15938 F720.000
G1 X48.426 Y89.420 E2.19736
G1 X47.869 Y90.384 E2.23328
G1 X47.448 Y90.770 F12000.000
G1 X49.300 Y88.906 F12000.000
G1 X49.890 Y87.886 E2.27128 F720.000
G1 X50.488 Y88.886 E2.30886
G1 X49.375 Y88.904 E2.34479
G1 X48.829 Y88.737 F12000.000
G1 X53.709 Y88.834 F12000.000
G1 X54.574 Y87.279 E2.40216 F720.000
G1 X55.020 Y87.392 E2.41701
G1 X55.043 Y88.812 E2.46283
G1 X53.784 Y88.832 E2.50345
G1 X53.236 Y88.670 F12000.000
G1 F1680.000 E0.50345
G92 E0
G1 X57.180 Y86.144 F12000.000
G1 E2.00000 F1680.000
G1 X57.306 Y85.702 E2.01484 F720.000
G1 X59.084 Y85.730 E2.07221
G1 X58.398 Y86.874 E2.11525
G1 X57.244 Y86.183 E2.15866
G1 X56.750 Y85.980 F12000.000
G1 X60.740 Y82.968 F12000.000
G1 X60.173 Y81.949 E2.19626 F720.000
G1 X61.351 Y81.949 E2.23425
G1 X60.778 Y82.904 E2.27016
G1 X60.351 Y83.283 F12000.000
G1 X62.233 Y81.448 F12000.000
G1 X62.839 Y80.438 E2.30815 F720.000
G1 X63.421 Y81.448 E2.34576
G1 X62.308 Y81.448 E2.38167
G1 X61.765 Y81.272 F12000.000
G1 X66.642 Y81.447 F12000.000
G1 X67.531 Y79.907 E2.43904 F720.000
G1 X67.975 Y80.026 E2.45388
G1 X67.976 Y81.446 E2.49971
G1 X66.717 Y81.447 E2.54033
G1 X66.172 Y81.276 F12000.000
G1 X69.735 Y76.977 F12000.000
G1 X69.410 Y76.652 E2.55517 F720.000
G1 X70.299 Y75.112 E2.61254
G1 X70.966 Y76.268 E2.65559
G1 X69.800 Y76.940 E2.69899
G1 X69.383 Y77.273 F12000.000
G1 X68.690 Y72.322 F12000.000
G1 X67.524 Y72.322 E2.73660 F720.000
G1 X68.096 Y71.293 E2.77458
G1 X68.653 Y72.257 E2.81050
G1 X68.777 Y72.815 F12000.000
G1 X66.952 Y72.322 F12000.000
G1 X61.329 Y72.322 E2.99189 F720.000
G1 X61.234 Y69.358 E3.08756
G1 X66.928 Y69.267 E3.27128
G1 X67.805 Y70.788 E3.32791
G1 X66.989 Y72.257 E3.38212
G1 X66.868 Y72.815 F12000.000
G1 X68.088 Y70.278 F12000.000
G1 X67.500 Y69.258 E3.42010 F720.000
G1 X68.666 Y69.240 E3.45771
G1 X68.125 Y70.213 E3.49362
G1 X67.707 Y70.602 F12000.000
G1 X70.230 Y66.425 F12000.000
G1 X69.316 Y64.899 E3.55099 F720.000
G1 X69.636 Y64.569 E3.56584
G1 X70.878 Y65.259 E3.61166
G1 X70.266 Y66.359 E3.65228
G1 X69.852 Y66.752 F12000.000
G1 F1680.000 E1.65228
G92 E0
G1 X69.636 Y62.074 F12000.000
G1 E2.00000 F1680.000
G1 X69.316 Y61.744 E2.01484 F720.000
G1 X70.230 Y60.218 E2.07221
G1 X70.878 Y61.384 E2.11525
G1 X69.702 Y62.038 E2.15866
G1 X69.279 Y62.364 F12000.000
G1 X68.666 Y57.403 F12000.000
G1 X67.500 Y57.384 E2.19626 F720.000
G1 X68.088 Y56.364 E2.23425
G1 X68.629 Y57.337 E2.27016
G1 X68.744 Y57.897 F12000.000
G1 X66.928 Y57.375 F12000.000
G1 X61.234 Y57.285 E2.45389 F720.000
G1 X61.329 Y54.320 E2.54956
G1 X66.952 Y54.320 E2.73095
G1 X67.805 Y55.855 E2.78758
G1 X66.966 Y57.310 E2.84179
G1 X66.836 Y57.867 F12000.000
G1 X68.096 Y55.350 F12000.000
G1 X67.524 Y54.320 E2.87977 F720.000
G1 X68.690 Y54.320 E2.91738
G1 X68.134 Y55.285 E2.95329
G1 X67.710 Y55.667 F12000.000
G1 X70.299 Y51.531 F12000.000
G1 X69.410 Y49.991 E3.01066 F720.000
G1 X69.735 Y49.665 E3.02550
G1 X70.966 Y50.375 E3.07133
G1 X70.337 Y51.466 E3.11195
G1 X69.916 Y51.852 F12000.000
G1 X67.975 Y46.617 F12000.000
G1 X67.531 Y46.736 E3.12680 F720.000
G1 X66.642 Y45.196 E3.18417
G1 X67.976 Y45.197 E3.22721
G1 X67.975 Y46.542 E3.27061
G1 X68.055 Y47.070 F12000.000
G1 X63.421 Y45.195 F12000.000
G1 X62.839 Y46.205 E3.30821 F720.000
G1 X62.233 Y45.195 E3.34620
G1 X63.346 Y45.195 E3.38212
G1 X63.891 Y45.366 F12000.000
G1 X62.553 Y46.700 F12000.000
G1 X59.741 Y51.570 E3.56351 F720.000
G1 X57.126 Y50.170 E3.65918
G1 X59.895 Y45.194 E3.84291
G1 X61.650 Y45.194 E3.89953
G1 X62.514 Y46.636 E3.95374
G1 X62.937 Y47.019 F12000.000
G1 X61.351 Y44.694 F12000.000
G1 X60.173 Y44.694 E3.99173 F720.000
G1 X60.740 Y43.675 E4.02933
G1 X61.312 Y44.630 E4.06525
G1 X61.440 Y45.186 F12000.000
G1 X59.084 Y40.913 F12000.000
G1 X57.306 Y40.941 E4.12262 F720.000
G1 X57.180 Y40.499 E4.13746
G1 X58.398 Y39.768 E4.18328
G1 X59.046 Y40.848 E4.22391
G1 X59.179 Y41.404 F12000.000
G1 F1680.000 E2.22391
G92 E0
G1 X55.020 Y39.251 F12000.000
G1 E2.00000 F1680.000
G1 X54.574 Y39.363 E2.01484 F720.000
G1 X53.708 Y37.809 E2.07222
G1 X55.043 Y37.831 E2.11527
G1 X55.021 Y39.176 E2.15867
G1 X55.093 Y39.706 F12000.000
G1 X50.488 Y37.757 F12000.000
G1 X49.890 Y38.757 E2.19626 F720.000
G1 X49.300 Y37.737 E2.23426
G1 X50.413 Y37.755 E2.27019
G1 X50.955 Y37.935 F12000.000
G1 X49.596 Y39.247 F12000.000
G1 X46.671 Y44.134 E2.45390 F720.000
G1 X44.151 Y42.569 E2.54958
G1 X46.963 Y37.699 E2.73098
G1 X48.717 Y37.728 E2.78759
G1 X49.558 Y39.182 E2.84179
G1 X49.975 Y39.573 F12000.000
G1 X48.426 Y37.223 F12000.000
G1 X47.249 Y37.204 E2.87978 F720.000
G1 X47.832 Y36.194 E2.91739
G1 X48.388 Y37.158 E2.95330
G1 X48.507 Y37.716 F12000.000
G1 X46.219 Y33.406 F12000.000
G1 X44.442 Y33.406 E3.01065 F720.000
G1 X44.322 Y32.961 E3.02549
G1 X45.553 Y32.250 E3.07134
G1 X46.182 Y33.341 E3.11194
G1 X46.306 Y33.898 F12000.000
G1 X40.684 Y33.406 F12000.000
G1 X38.905 Y33.406 E3.16931 F720.000
G1 X39.573 Y32.251 E3.21236
G1 X40.803 Y32.961 E3.25818
G1 X40.703 Y33.333 E3.27060
G1 X40.640 Y33.904 F12000.000
G1 X38.164 Y37.699 F12000.000
G1 X40.974 Y42.569 E3.45198 F720.000
G1 X38.456 Y44.134 E3.54763
G1 X35.530 Y39.247 E3.73136
G1 X36.408 Y37.728 E3.78799
G1 X38.089 Y37.700 E3.84222
G1 X38.632 Y37.525 F12000.000
G1 X37.878 Y37.204 F12000.000
G1 X36.698 Y37.223 E3.88028 F720.000
G1 X37.295 Y36.195 E3.91862
G1 X37.840 Y37.139 E3.95377
G1 X37.970 Y37.695 F12000.000
G1 X35.825 Y37.737 F12000.000
G1 X35.235 Y38.757 E3.99177 F720.000
G1 X34.637 Y37.757 E4.02936
G1 X35.750 Y37.738 E4.06528
G1 X36.296 Y37.906 F12000.000
G1 X31.417 Y37.809 F12000.000
G1 X30.553 Y39.363 E4.12264 F720.000
G1 X30.106 Y39.252 E4.13748
G1 X30.082 Y37.831 E4.18331
G1 X31.342 Y37.811 E4.22394
G1 X31.889 Y37.973 F12000.000
G1 F1680.000 E2.22394
G92 E0
G1 X27.820 Y40.941 F12000.000
G1 E2.00000 F1680.000
G1 X26.041 Y40.913 E2.05738 F720.000
G1 X26.728 Y39.768 E2.10043
G1 X27.946 Y40.499 E2.14625
G1 X27.840 Y40.869 E2.15867
G1 X27.768 Y41.438 F12000.000
G1 X25.231 Y45.194 F12000.000
G1 X28.000 Y50.170 E2.34240 F720.000
G1 X25.384 Y51.570 E2.43809
G1 X22.573 Y46.700 E2.61948
G1 X23.475 Y45.194 E2.67611
G1 X25.156 Y45.194 E2.73033
G1 X25.702 Y45.027 F12000.000
G1 X24.953 Y44.694 F12000.000
G1 X23.776 Y44.694 E2.76831 F720.000
G1 X24.385 Y43.675 E2.80663
G1 X24.916 Y44.628 E2.84183
G1 X25.038 Y45.186 F12000.000
G1 X22.892 Y45.195 F12000.000
G1 X22.287 Y46.204 E2.87982 F720.000
G1 X21.704 Y45.195 E2.91742
G1 X22.817 Y45.195 E2.95334
G1 X23.360 Y45.371 F12000.000
G1 X18.484 Y45.196 F12000.000
G1 X17.595 Y46.736 E3.01070 F720.000
G1 X17.151 Y46.617 E3.02554
G1 X17.149 Y45.197 E3.07137
G1 X18.409 Y45.196 E3.11199
G1 X18.953 Y45.367 F12000.000
G1 X15.391 Y49.665 F12000.000
G1 X15.716 Y49.991 E3.12683 F720.000
G1 X14.826 Y51.531 E3.18421
G1 X14.160 Y50.375 E3.22725
G1 X15.326 Y49.703 E3.27065
G1 X15.743 Y49.370 F12000.000
G1 X16.436 Y54.320 F12000.000
G1 X17.601 Y54.320 E3.30826 F720.000
G1 X17.030 Y55.350 E3.34624
G1 X16.473 Y54.385 E3.38216
G1 X16.349 Y53.828 F12000.000
G1 X17.038 Y56.365 F12000.000
G1 X17.625 Y57.384 E3.42012 F720.000
G1 X16.459 Y57.403 E3.45773
G1 X17.002 Y56.430 E3.49367
G1 X17.420 Y56.042 F12000.000
G1 X14.895 Y60.218 F12000.000
G1 X15.810 Y61.743 E3.55105 F720.000
G1 X15.490 Y62.074 E3.56589
G1 X14.248 Y61.384 E3.61173
G1 X14.859 Y60.283 E3.65234
G1 X15.273 Y59.890 F12000.000
G1 F1680.000 E1.65234
G92 E0
G1 X15.490 Y64.569 F12000.000
G1 E2.00000 F1680.000
G1 X15.810 Y64.899 E2.01485 F720.000
G1 X14.895 Y66.425 E2.07222
G1 X14.248 Y65.259 E2.11525
G1 X15.424 Y64.605 E2.15866
G1 X15.847 Y64.279 F12000.000
G1 X18.197 Y69.267 F12000.000
G1 X23.892 Y69.358 E2.34238 F720.000
G1 X23.797 Y72.322 E2.43805
G1 X18.174 Y72.322 E2.61945
G1 X17.320 Y70.788 E2.67608
G1 X18.160 Y69.332 E2.73029
G1 X18.290 Y68.776 F12000.000
G1 X17.625 Y69.258 F12000.000
G1 X17.038 Y70.278 E2.76825 F720.000
G1 X16.459 Y69.240 E2.80661
G1 X17.550 Y69.257 E2.84180
G1 X18.094 Y69.431 F12000.000
G1 X17.030 Y71.293 F12000.000
G1 X17.601 Y72.322 E2.87978 F720.000
G1 X16.436 Y72.322 E2.91739
G1 X16.992 Y71.358 E2.95331
G1 X17.416 Y70.976 F12000.000
G1 X14.826 Y75.112 F12000.000
G1 X15.716 Y76.652 E3.01069 F720.000
G1 X15.391 Y76.977 E3.02553
G1 X14.160 Y76.268 E3.07136
G1 X14.789 Y75.177 E3.11198
G1 X15.209 Y74.790 F12000.000
G1 X17.151 Y80.025 F12000.000
G1 X17.595 Y79.907 E3.12682 F720.000
G1 X18.483 Y81.447 E3.18418
G1 X17.149 Y81.446 E3.22722
G1 X17.151 Y80.100 E3.27063
G1 X17.071 Y79.572 F12000.000
G1 X21.704 Y81.448 F12000.000
G1 X22.287 Y80.438 E3.30823 F720.000
G1 X22.892 Y81.448 E3.34622
G1 X21.779 Y81.448 E3.38214
G1 X21.234 Y81.277 F12000.000
G1 X23.776 Y81.949 F12000.000
G1 X24.953 Y81.949 E3.42012 F720.000
G1 X24.385 Y82.968 E3.45774
G1 X23.814 Y82.013 E3.49364
G1 X23.687 Y81.457 F12000.000
G1 X26.041 Y85.730 F12000.000
G1 X27.820 Y85.702 E3.55102 F720.000
G1 X27.946 Y86.144 E3.56586
G1 X26.728 Y86.874 E3.61168
G1 X26.080 Y85.794 E3.65231
G1 X25.946 Y85.239 F12000.000
G1 F1680.000 E1.65231
G92 E0
G1 X30.106 Y87.391 F12000.000
G1 E2.00000 F1680.000
G1 X30.553 Y87.280 E2.01484 F720.000
G1 X31.416 Y88.834 E2.07220
G1 X30.082 Y88.812 E2.11524
G1 X30.105 Y87.466 E2.15865
G1 X30.034 Y86.937 F12000.000
G1 X34.637 Y88.886 F12000.000
G1 X35.235 Y87.886 E2.19624 F720.000
G1 X35.825 Y88.906 E2.23424
G1 X34.712 Y88.887 E2.27016
G1 X34.170 Y88.708 F12000.000
G1 X36.698 Y89.420 F12000.000
G1 X37.878 Y89.439 E2.30823 F720.000
G1 X37.295 Y90.448 E2.34579
G1 X36.736 Y89.485 E2.38172
G1 X36.616 Y88.927 F12000.000
G1 X38.905 Y93.237 F12000.000
G1 X40.013 Y93.237 E2.41744 F720.000
G1 X40.013 Y94.138 E2.44650
G1 X39.574 Y94.393 E2.46288
G1 X38.943 Y93.302 E2.50352
G1 X38.818 Y92.745 F12000.000
G1 F1680.000 E0.50352
G92 E0
G1 X44.645 Y129.391 F12000.000
G1 E2.00000 F1680.000
G1 X47.137 Y130.201 E2.08454 F900.000
G1 X49.173 Y131.377 E2.16039
G1 X50.920 Y132.950 E2.23623
G1 X52.302 Y134.852 E2.31207
G1 X53.135 Y136.725 E2.37820
G1 X53.200 Y136.725 E2.38028
G1 X53.748 Y139.299 E2.46519
G1 X53.748 Y141.650 E2.54103
G1 X53.200 Y144.225 E2.62594
G1 X53.135 Y144.225 E2.62802
G1 X52.302 Y146.098 E2.69415
G1 X50.920 Y148.000 E2.76999
G1 X49.173 Y149.573 E2.84583
G1 X47.137 Y150.748 E2.92168
G1 X44.901 Y151.475 E2.99753
G1 X42.563 Y151.721 E3.07338
G1 X40.224 Y151.475 E3.14922
G1 X37.988 Y150.748 E3.22507
G1 X35.953 Y149.573 E3.30090
G1 X34.205 Y148.000 E3.37676
G1 X32.824 Y146.098 E3.45258
G1 X31.868 Y143.950 E3.52843
G1 X31.379 Y141.650 E3.60427
G1 X31.379 Y139.299 E3.68011
