; generated by Slic3r 0.9.9 on 2013-05-28 at 12:24:07

; layer_height = 0.3
; perimeters = 3
; top_solid_layers = 2
; bottom_solid_layers = 2
; fill_density = 0.3
; perimeter_speed = 30
; infill_speed = 60
; travel_speed = 130
; nozzle_diameter = 0.5
; filament_diameter = 2.8
; extrusion_multiplier = 0.9
; perimeters extrusion width = 0.70mm
; infill extrusion width = 0.70mm
; solid infill extrusion width = 0.70mm
; top infill extrusion width = 0.70mm
; first layer extrusion width = 0.40mm

G21 ; set units to millimeters
M107
M104 S200 ; set temperature
G28 ; home all axes
G1 Z5 F100 ; lift nozzle
M109 S200 ; wait for temperature to be reached
G90 ; use absolute coordinates
G92 E0
M82 ; use absolute distances for extrusion
G1 F1200.000 E-2.00000
G92 E0
G1 Z0.200 F7800.000
G1 X72.487 Y70.188
G1 F1200.000 E2.00000
G1 X72.927 Y69.768 F600.000 E2.00749
G1 X73.407 Y69.388 E2.01504
G1 X78.117 Y66.028 E2.08632
G1 X79.577 Y65.048 E2.10798
G1 X80.547 Y64.508 E2.12166
G1 X85.597 Y62.248 E2.18982
G1 X87.317 Y61.558 E2.21266
G1 X88.377 Y61.238 E2.22630
G1 X94.877 Y59.868 E2.30814
G1 X95.367 Y59.788 E2.31426
G1 X95.607 Y59.758 E2.31724
G1 X96.107 Y59.738 E2.32340
G1 X102.427 Y59.658 E2.40127
G1 X102.807 Y59.668 E2.40596
G1 X104.347 Y59.738 E2.42495
G1 X104.607 Y59.768 E2.42817
G1 X105.367 Y59.918 E2.43772
G1 X106.117 Y60.148 E2.44738
G1 X106.817 Y60.478 E2.45692
G1 X107.267 Y60.738 E2.46332
G1 X107.697 Y61.038 E2.46978
G1 X108.287 Y61.548 E2.47939
G1 X108.807 Y62.128 E2.48899
G1 X109.117 Y62.548 E2.49542
G1 X109.387 Y62.988 E2.50178
G1 X109.727 Y63.698 E2.51148
G1 X109.907 Y64.178 E2.51779
G1 X109.977 Y64.428 E2.52099
G1 X110.137 Y65.188 E2.53056
G1 X110.197 Y65.708 E2.53701
G1 X110.207 Y66.228 E2.54342
G1 X110.177 Y66.748 E2.54983
G1 X110.107 Y67.268 E2.55630
G1 X109.997 Y67.768 E2.56261
G1 X109.847 Y68.268 E2.56904
G1 X109.547 Y68.988 E2.57865
G1 X109.297 Y69.438 E2.58499
G1 X107.107 Y73.088 E2.63743
G1 X106.787 Y73.568 E2.64454
G1 X106.617 Y73.798 E2.64806
G1 X106.237 Y74.228 E2.65513
G1 X105.817 Y74.628 E2.66228
G1 X105.377 Y74.978 E2.66921
G1 X69.947 Y98.408 E3.19253
G1 X69.487 Y98.658 E3.19898
G1 X69.017 Y98.868 E3.20532
G1 X68.277 Y99.118 E3.21495
G1 X67.767 Y99.228 E3.22137
G1 X67.247 Y99.298 E3.22784
G1 X66.467 Y99.328 E3.23746
G1 X65.947 Y99.298 E3.24387
G1 X65.177 Y99.168 E3.25349
G1 X64.677 Y99.028 E3.25989
G1 X64.427 Y98.938 E3.26316
G1 X63.707 Y98.628 E3.27282
G1 X63.257 Y98.378 E3.27916
G1 X62.617 Y97.928 E3.28880
G1 X62.417 Y97.758 E3.29204
G1 X61.857 Y97.208 E3.30171
G1 X61.367 Y96.598 E3.31135
G1 X61.087 Y96.158 E3.31777
G1 X60.737 Y95.458 E3.32742
G1 X60.547 Y94.978 E3.33378
G1 X60.337 Y94.218 E3.34349
G1 X60.257 Y93.708 E3.34985
G1 X60.207 Y93.188 E3.35629
G1 X60.207 Y92.668 E3.36269
G1 X60.247 Y92.148 E3.36912
G1 X60.387 Y91.378 E3.37876
G1 X60.707 Y90.388 E3.39158
G1 X60.797 Y90.148 E3.39474
G1 X61.017 Y89.678 E3.40113
G1 X71.577 Y71.408 E3.66112
G1 X71.907 Y70.888 E3.66871
G1 X72.087 Y70.648 E3.67240
G1 X72.445 Y70.236 E3.67913
G1 F1200.000 E1.67913
G92 E0
G1 X66.629 Y92.913 F7800.000
G1 F1200.000 E2.00000
G1 X66.755 Y92.796 F600.000 E2.00211
G1 X66.710 Y92.668 E2.00378
G1 F1200.000 E0.00378
G92 E0
G1 X77.144 Y74.625 F7800.000
G1 F1200.000 E2.00000
G1 X77.458 Y74.542 F600.000 E2.00400
G1 X77.897 Y74.158 E2.01118
G1 X77.897 Y74.158 F7800.000
G1 X78.251 Y73.880 F600.000 E2.01673
G1 X78.251 Y73.880 F7800.000
G1 X79.348 Y73.300 F600.000 E2.03202
G1 X79.725 Y73.251 E2.03670
G1 X80.113 Y73.434 E2.04199
G1 X80.377 Y73.954 E2.04918
G1 X80.802 Y76.232 E2.07773
G1 X80.958 Y76.396 E2.08051
G1 F1200.000 E0.08051
G92 E0
G1 X81.688 Y73.519 F7800.000
G1 F1200.000 E2.00000
G1 X83.270 Y74.364 F600.000 E2.02210
G1 X83.545 Y74.621 E2.02674
G1 F1200.000 E0.02674
G92 E0
G1 X81.688 Y73.519 F7800.000
G1 F1200.000 E2.00000
G1 X81.116 Y73.140 F600.000 E2.00844
G1 X81.116 Y73.140 F7800.000
G1 X80.847 Y72.796 F600.000 E2.01383
G1 X80.847 Y72.796 F7800.000
G1 X80.812 Y72.587 F600.000 E2.01644
G1 X80.812 Y72.587 F7800.000
G1 X80.923 Y72.230 F600.000 E2.02105
G1 X81.156 Y71.891 E2.02612
G1 X81.156 Y71.891 F7800.000
G1 X81.853 Y71.259 F600.000 E2.03771
G1 X83.169 Y70.376 E2.05724
G1 F1200.000 E0.05724
G92 E0
G1 X86.921 Y69.408 F7800.000
G1 F1200.000 E2.00000
G1 X87.114 Y69.801 F600.000 E2.00539
G1 X87.114 Y69.801 F7800.000
G1 X87.594 Y70.290 F600.000 E2.01383
G1 X87.594 Y70.290 F7800.000
G1 X88.966 Y71.445 F600.000 E2.03593
G1 X89.327 Y71.867 E2.04277
G1 X89.327 Y71.867 F7800.000
G1 X89.371 Y72.002 F600.000 E2.04452
G1 F1200.000 E0.04452
G92 E0
G1 X86.921 Y69.408 F7800.000
G1 F1200.000 E2.00000
G1 X86.931 Y69.197 F600.000 E2.00261
G1 X86.931 Y69.197 F7800.000
G1 X87.113 Y68.870 F600.000 E2.00722
G1 X87.412 Y68.587 E2.01229
G1 X87.412 Y68.587 F7800.000
G1 X88.225 Y68.114 F600.000 E2.02388
G1 X89.702 Y67.527 E2.04346
G1 F1200.000 E0.04346
G92 E0
G1 X93.567 Y67.358 F7800.000
G1 F1200.000 E2.00000
G1 X93.619 Y67.167 F600.000 E2.00244
G1 X93.619 Y67.167 F7800.000
G1 X93.749 Y66.970 F600.000 E2.00534
G1 X93.749 Y66.970 F7800.000
G1 X93.867 Y66.871 F600.000 E2.00724
G1 X93.867 Y66.871 F7800.000
G1 X94.664 Y66.481 F600.000 E2.01817
G1 X96.191 Y66.161 E2.03739
G1 F1200.000 E0.03739
G92 E0
G1 X93.567 Y67.358 F7800.000
G1 F1200.000 E2.00000
G1 X93.585 Y67.522 F600.000 E2.00203
G1 X93.585 Y67.522 F7800.000
G1 X93.794 Y68.024 F600.000 E2.00874
G1 X94.327 Y68.742 E2.01975
G1 X94.327 Y68.742 F7800.000
G1 X94.939 Y69.525 F600.000 E2.03199
G1 X94.970 Y69.673 E2.03386
G1 F1200.000 E0.03386
G92 E0
G1 X100.750 Y67.813 F7800.000
G1 F1200.000 E2.00000
G1 X101.534 Y69.426 F600.000 E2.02210
G1 X101.605 Y69.796 E2.02674
G1 F1200.000 E0.02674
G92 E0
G1 X100.750 Y67.813 F7800.000
G1 F1200.000 E2.00000
G1 X100.511 Y67.171 F600.000 E2.00844
G1 X100.511 Y67.171 F7800.000
G1 X100.495 Y66.734 F600.000 E2.01383
G1 X100.495 Y66.734 F7800.000
G1 X100.509 Y66.671 F600.000 E2.01462
G1 X100.509 Y66.671 F7800.000
G1 X100.585 Y66.558 F600.000 E2.01630
G1 X100.585 Y66.558 F7800.000
G1 X100.589 Y66.544 F600.000 E2.01648
G1 X100.589 Y66.544 F7800.000
G1 X100.889 Y66.320 F600.000 E2.02108
G1 X101.277 Y66.183 E2.02616
G1 X102.511 Y66.082 E2.04141
G1 X102.511 Y66.082 F7800.000
G1 X103.120 Y66.136 F600.000 E2.04894
G1 X103.120 Y66.136 F7800.000
G1 X103.590 Y66.168 F600.000 E2.05475
G1 X103.590 Y66.168 F7800.000
G1 X103.622 Y66.181 F600.000 E2.05517
G1 X103.622 Y66.181 F7800.000
G1 X103.796 Y66.141 F600.000 E2.05737
M106 S255
G1 F1200.000 E0.05737
G92 E0
G1 Z0.500 F7800.000
G1 X71.341 Y98.305
G1 F1200.000 E2.00000
G1 X71.905 Y97.785 F600.000 E2.02201
G1 X71.341 Y98.305 F7800.000
G1 X70.908 Y98.520 F600.000 E2.03588
G1 X70.908 Y98.520 F7800.000
G1 X70.364 Y98.557 F600.000 E2.05152
G1 X70.364 Y98.557 F7800.000
G1 X69.894 Y98.602 F600.000 E2.06507
G1 F1200.000 E0.06507
G92 E0
G1 X70.843 Y92.373 F7800.000
G1 F1200.000 E2.00000
G1 X71.331 Y92.438 F600.000 E2.01414
G1 X71.331 Y92.438 F7800.000
G1 X71.767 Y92.497 F600.000 E2.02677
G1 X71.767 Y92.497 F7800.000
G1 X71.998 Y92.473 F600.000 E2.03343
G1 X71.998 Y92.473 F7800.000
G1 X72.451 Y92.345 F600.000 E2.04694
G1 X72.451 Y92.345 F7800.000
G1 X72.979 Y91.993 F600.000 E2.06517
G1 F1200.000 E0.06517
G92 E0
G1 X73.735 Y86.929 F7800.000
G1 F1200.000 E2.00000
G1 X74.404 Y86.995 F600.000 E2.01930
G1 X75.160 Y86.766 E2.04197
G1 X73.735 Y86.929 F7800.000
G1 X73.355 Y86.827 F600.000 E2.05324
G1 F1200.000 E0.05324
G92 E0
G1 X76.672 Y81.306 F7800.000
G1 F1200.000 E2.00000
G1 X77.174 Y81.584 F600.000 E2.01645
G1 X77.174 Y81.584 F7800.000
G1 X77.481 Y81.731 F600.000 E2.02623
G1 X77.481 Y81.731 F7800.000
G1 X77.644 Y81.794 F600.000 E2.03124
G1 X77.644 Y81.794 F7800.000
G1 X78.350 Y81.751 F600.000 E2.05155
G1 X78.350 Y81.751 F7800.000
G1 X78.572 Y81.695 F600.000 E2.05813
G1 X76.672 Y81.306 F7800.000
G1 X76.582 Y81.194 F600.000 E2.06227
G1 X76.582 Y81.194 F7800.000
G1 X76.466 Y81.173 F600.000 E2.06565
G1 F1200.000 E0.06565
G92 E0
G1 X80.899 Y76.294 F7800.000
G1 F1200.000 E2.00000
G1 X80.496 Y74.336 F600.000 E2.05736
G1 X79.953 Y73.279 E2.09146
G1 X78.996 Y73.317 E2.11895
G1 X77.694 Y74.186 E2.16388
G1 X77.694 Y74.186 F7800.000
G1 X77.281 Y74.558 F600.000 E2.17984
G1 X77.281 Y74.558 F7800.000
G1 X77.279 Y74.559 F600.000 E2.17990
G1 F1200.000 E0.17990
G92 E0
G1 X80.835 Y72.814 F7800.000
G1 F1200.000 E2.00000
G1 X81.363 Y73.337 F600.000 E2.02131
G1 X83.457 Y74.495 E2.09000
G1 F1200.000 E0.09000
G92 E0
G1 X80.835 Y72.814 F7800.000
G1 F1200.000 E2.00000
G1 X80.813 Y72.719 F600.000 E2.00281
G1 X80.813 Y72.719 F7800.000
G1 X80.796 Y72.428 F600.000 E2.01118
G1 X80.796 Y72.428 F7800.000
G1 X80.841 Y72.223 F600.000 E2.01720
G1 X80.841 Y72.223 F7800.000
G1 X81.108 Y71.830 F600.000 E2.03082
G1 X81.108 Y71.830 F7800.000
G1 X81.851 Y71.112 F600.000 E2.06048
G1 X83.045 Y70.390 E2.10053
G1 F1200.000 E0.10053
G92 E0
G1 X86.906 Y69.424 F7800.000
G1 F1200.000 E2.00000
G1 X86.983 Y69.573 F600.000 E2.00483
G1 X86.983 Y69.573 F7800.000
G1 X87.314 Y70.044 F600.000 E2.02135
G1 X89.269 Y71.782 E2.09643
G1 F1200.000 E0.09643
G92 E0
G1 X86.906 Y69.424 F7800.000
G1 F1200.000 E2.00000
G1 X86.948 Y69.038 F600.000 E2.01115
G1 X86.948 Y69.038 F7800.000
G1 X87.280 Y68.571 F600.000 E2.02757
G1 X87.280 Y68.571 F7800.000
G1 X88.253 Y67.970 F600.000 E2.06042
G1 X89.581 Y67.514 E2.10070
G1 F1200.000 E0.10070
G92 E0
G1 X93.549 Y67.370 F7800.000
G1 F1200.000 E2.00000
G1 X93.590 Y67.557 F600.000 E2.00551
G1 X93.590 Y67.557 F7800.000
G1 X93.632 Y67.695 F600.000 E2.00965
G1 X93.632 Y67.695 F7800.000
G1 X93.639 Y67.703 F600.000 E2.00996
G1 X93.639 Y67.703 F7800.000
G1 X94.971 Y69.563 F600.000 E2.07561
G1 F1200.000 E0.07561
G92 E0
G1 X93.549 Y67.370 F7800.000
G1 F1200.000 E2.00000
G1 X93.568 Y67.273 F600.000 E2.00281
G1 X93.568 Y67.273 F7800.000
G1 X93.604 Y67.223 F600.000 E2.00459
G1 X93.604 Y67.223 F7800.000
G1 X93.862 Y66.806 F600.000 E2.01867
G1 X93.862 Y66.806 F7800.000
G1 X94.514 Y66.407 F600.000 E2.04061
G1 X96.206 Y66.091 E2.09000
G1 F1200.000 E0.09000
G92 E0
G1 X100.475 Y66.741 F7800.000
G1 F1200.000 E2.00000
G1 X100.595 Y67.474 F600.000 E2.02131
G1 X101.608 Y69.643 E2.09000
G1 F1200.000 E0.09000
G92 E0
G1 X100.475 Y66.741 F7800.000
G1 F1200.000 E2.00000
G1 X100.827 Y66.267 F600.000 E2.01697
G1 X101.354 Y66.053 E2.03329
G1 X102.297 Y65.961 E2.06047
G1 X103.688 Y66.079 E2.10053
G1 F1200.000 E0.10053
G92 E0
G1 Z0.800 F7800.000
G1 X69.922 Y98.582
G1 F1200.000 E2.00000
G1 X71.219 Y98.401 F600.000 E2.03759
G1 X72.027 Y97.664 E2.06897
G1 F1200.000 E0.06897
G92 E0
G1 X71.122 Y92.408 F7800.000
G1 F1200.000 E2.00000
G1 X72.123 Y92.470 F600.000 E2.02880
G1 X73.124 Y91.899 E2.06185
G1 F1200.000 E0.06185
G92 E0
G1 X71.122 Y92.408 F7800.000
G1 F1200.000 E2.00000
G1 X70.938 Y92.338 F600.000 E2.00565
G1 X70.938 Y92.338 F7800.000
G1 X70.874 Y92.360 F600.000 E2.00759
G1 F1200.000 E0.00759
G92 E0
G1 X73.278 Y86.627 F7800.000
G1 F1200.000 E2.00000
G1 X73.299 Y86.623 F600.000 E2.00063
G1 X73.299 Y86.623 F7800.000
G1 X73.642 Y86.781 F600.000 E2.01146
G1 X73.642 Y86.781 F7800.000
G1 X74.398 Y86.945 F600.000 E2.03364
G1 X75.184 Y86.747 E2.05692
G1 F1200.000 E0.05692
G92 E0
G1 X77.653 Y81.789 F7800.000
G1 F1200.000 E2.00000
G1 X78.742 Y81.668 F600.000 E2.03145
G1 X77.653 Y81.789 F7800.000
G1 X76.987 Y81.502 F600.000 E2.05226
G1 X76.987 Y81.502 F7800.000
G1 X76.699 Y81.311 F600.000 E2.06218
G1 X76.699 Y81.311 F7800.000
G1 X76.567 Y81.180 F600.000 E2.06754
G1 X76.567 Y81.180 F7800.000
G1 X76.499 Y81.173 F600.000 E2.06948
G1 F1200.000 E0.06948
G92 E0
G1 X80.912 Y76.286 F7800.000
G1 F1200.000 E2.00000
G1 X80.772 Y76.133 F600.000 E2.00595
G1 X80.421 Y74.070 E2.06602
G1 X79.871 Y73.219 E2.09510
G1 X79.517 Y73.117 E2.10565
G1 X78.799 Y73.251 E2.12663
G1 X77.574 Y74.102 E2.16943
G1 X77.574 Y74.102 F7800.000
G1 X77.204 Y74.386 F600.000 E2.18281
G1 X77.204 Y74.386 F7800.000
G1 X77.180 Y74.444 F600.000 E2.18462
G1 F1200.000 E0.18462
G92 E0
G1 X80.860 Y72.865 F7800.000
G1 F1200.000 E2.00000
G1 X80.894 Y72.883 F600.000 E2.00111
G1 X80.894 Y72.883 F7800.000
G1 X81.404 Y73.374 F600.000 E2.02142
G1 X83.430 Y74.485 E2.08774
G1 F1200.000 E0.08774
G92 E0
G1 X80.860 Y72.865 F7800.000
G1 F1200.000 E2.00000
G1 X80.742 Y72.258 F600.000 E2.01775
G1 X80.742 Y72.258 F7800.000
G1 X80.929 Y71.831 F600.000 E2.03114
G1 X80.929 Y71.831 F7800.000
G1 X81.575 Y71.129 F600.000 E2.05851
G1 X82.982 Y70.253 E2.10607
G1 F1200.000 E0.10607
G92 E0
G1 X86.878 Y69.370 F7800.000
G1 F1200.000 E2.00000
G1 X86.920 Y69.478 F600.000 E2.00334
G1 X86.920 Y69.478 F7800.000
G1 X86.949 Y69.503 F600.000 E2.00445
G1 X86.949 Y69.503 F7800.000
G1 X87.347 Y70.089 F600.000 E2.02476
G1 X88.921 Y71.404 E2.08363
G1 X89.267 Y71.874 E2.10038
G1 F1200.000 E0.10038
G92 E0
G1 X86.878 Y69.370 F7800.000
G1 F1200.000 E2.00000
G1 X86.877 Y69.192 F600.000 E2.00511
G1 X86.877 Y69.192 F7800.000
G1 X86.880 Y69.082 F600.000 E2.00827
G1 X86.880 Y69.082 F7800.000
G1 X86.913 Y69.027 F600.000 E2.01009
G1 X86.913 Y69.027 F7800.000
G1 X87.203 Y68.481 F600.000 E2.02784
G1 X87.203 Y68.481 F7800.000
G1 X87.980 Y67.929 F600.000 E2.05522
G1 X89.549 Y67.364 E2.10306
G1 F1200.000 E0.10306
G92 E0
G1 X93.569 Y67.137 F7800.000
G1 F1200.000 E2.00000
G1 X93.626 Y67.655 F600.000 E2.01496
G1 X93.626 Y67.655 F7800.000
G1 X93.658 Y67.786 F600.000 E2.01884
G1 X93.658 Y67.786 F7800.000
G1 X94.992 Y69.589 F600.000 E2.08320
G1 F1200.000 E0.08320
G92 E0
G1 X93.569 Y67.137 F7800.000
G1 F1200.000 E2.00000
G1 X93.788 Y66.747 F600.000 E2.01282
G1 X93.788 Y66.747 F7800.000
G1 X94.636 Y66.217 F600.000 E2.04152
G1 X96.265 Y65.922 E2.08904
G1 F1200.000 E0.08904
G92 E0
G1 X100.481 Y67.018 F7800.000
G1 F1200.000 E2.00000
G1 X100.590 Y66.418 F600.000 E2.01748
G1 X101.129 Y66.001 E2.03705
G1 X102.064 Y65.813 E2.06442
G1 X103.717 Y65.932 E2.11198
G1 F1200.000 E0.11198
G92 E0
G1 X100.490 Y67.036 F7800.000
G1 F1200.000 E2.00000
G1 X100.774 Y67.926 F600.000 E2.02681
G1 X100.774 Y67.926 F7800.000
G1 X101.592 Y69.619 F600.000 E2.08076
G1 F1200.000 E0.08076
G92 E0
G1 X100.490 Y67.036 F7800.000
G1 F1200.000 E2.00000
G1 X100.481 Y67.018 F600.000 E2.00060
G1 F1200.000 E0.00060
G92 E0
G1 Z1.100 F7800.000
G1 X71.424 Y98.291
G1 F1200.000 E2.00000
G1 X72.042 Y97.667 F600.000 E2.02522
G1 X71.424 Y98.291 F7800.000
G1 X70.953 Y98.554 F600.000 E2.04068
G1 X70.953 Y98.554 F7800.000
G1 X70.609 Y98.619 F600.000 E2.05074
G1 X70.609 Y98.619 F7800.000
G1 X70.519 Y98.607 F600.000 E2.05334
G1 X70.519 Y98.607 F7800.000
G1 X70.413 Y98.642 F600.000 E2.05654
G1 X70.413 Y98.642 F7800.000
G1 X70.186 Y98.635 F600.000 E2.06307
G1 X70.186 Y98.635 F7800.000
G1 X70.177 Y98.631 F600.000 E2.06335
G1 X70.177 Y98.631 F7800.000
G1 X69.973 Y98.673 F600.000 E2.06934
G1 F1200.000 E0.06934
G92 E0
G1 X70.905 Y92.459 F7800.000
G1 F1200.000 E2.00000
G1 X71.114 Y92.460 F600.000 E2.00599
G1 X71.114 Y92.460 F7800.000
G1 X71.342 Y92.520 F600.000 E2.01277
G1 X71.342 Y92.520 F7800.000
G1 X71.787 Y92.534 F600.000 E2.02554
G1 X71.787 Y92.534 F7800.000
G1 X72.106 Y92.505 F600.000 E2.03475
G1 X72.106 Y92.505 F7800.000
G1 X72.493 Y92.354 F600.000 E2.04667
G1 X72.493 Y92.354 F7800.000
G1 X73.138 Y91.905 F600.000 E2.06922
G1 F1200.000 E0.06922
G92 E0
G1 X73.599 Y86.759 F7800.000
G1 F1200.000 E2.00000
G1 X74.314 Y86.945 F600.000 E2.02120
G1 X75.200 Y86.721 E2.04745
G1 X73.599 Y86.759 F7800.000
G1 X73.291 Y86.629 F600.000 E2.05703
G1 X73.291 Y86.629 F7800.000
G1 X73.096 Y86.585 F600.000 E2.06276
G1 F1200.000 E0.06276
G92 E0
G1 X76.655 Y81.270 F7800.000
G1 F1200.000 E2.00000
G1 X76.993 Y81.496 F600.000 E2.01168
G1 X76.993 Y81.496 F7800.000
G1 X77.662 Y81.784 F600.000 E2.03259
G1 X77.662 Y81.784 F7800.000
