; generated by Slic3r 1.0.0RC2 on 2014-02-07 at 19:21:43

; layer_height = 0.3
; perimeters = 3
; top_solid_layers = 3
; bottom_solid_layers = 3
; fill_density = 0.2
; perimeter_speed = 30
; infill_speed = 60
; travel_speed = 130
; nozzle_diameter = 0.5
; filament_diameter = 3
; extrusion_multiplier = 1
; perimeters extrusion width = 0.50mm
; infill extrusion width = 0.70mm
; solid infill extrusion width = 0.70mm
; top infill extrusion width = 0.70mm
; first layer extrusion width = 0.70mm

G21 ; set units to millimeters
M107
M104 S195 ; set temperature
G28 ; home all axes
G1 Z5 F5000 ; lift nozzle
M109 S195 ; wait for temperature to be reached
G90 ; use absolute coordinates
G92 E0
M82 ; use absolute distances for extrusion
G1 F1800.000 E-1.00000
G92 E0
G1 Z0.350 F7800.000
G1 X30.360 Y28.025 F7800.000
G1 E1.00000 F1800.000
G1 X30.870 Y27.505 E1.02370 F540.000
G1 X31.880 Y26.595 E1.06793
G1 X32.320 Y26.235 E1.08642
G1 X33.390 Y25.425 E1.13009
G1 X33.840 Y25.115 E1.14787
G1 X35.360 Y24.165 E1.20618
G1 X36.460 Y23.575 E1.24680
G1 X36.980 Y23.325 E1.26557
G1 X38.050 Y22.865 E1.30346
G1 X39.480 Y22.355 E1.35286
G1 X41.110 Y21.895 E1.40796
G1 X42.180 Y21.655 E1.44364
G1 X42.750 Y21.555 E1.46247
G1 X43.960 Y21.415 E1.50210
G1 X44.690 Y21.385 E1.52587
G1 X45.830 Y21.415 E1.56297
G1 X46.840 Y21.505 E1.59596
G1 X47.810 Y21.655 E1.62790
G1 X48.880 Y21.895 E1.66357
G1 X50.510 Y22.355 E1.71868
G1 X51.940 Y22.865 E1.76807
G1 X53.010 Y23.325 E1.80597
G1 X53.530 Y23.575 E1.82474
G1 X54.630 Y24.165 E1.86535
G1 X56.150 Y25.115 E1.92367
G1 X56.600 Y25.425 E1.94145
G1 X57.670 Y26.235 E1.98511
G1 X58.110 Y26.595 E2.00361
G1 X59.120 Y27.505 E2.04784
G1 X59.630 Y28.025 E2.07153
G1 X60.530 Y29.035 E2.11555
G1 X60.860 Y29.435 E2.13242
G1 X61.660 Y30.485 E2.17537
G1 X61.980 Y30.945 E2.19360
G1 X62.660 Y32.015 E2.23485
G1 X62.960 Y32.535 E2.25438
G1 X63.490 Y33.565 E2.29207
G1 X63.710 Y34.035 E2.30895
G1 X64.110 Y34.985 E2.34249
G1 X64.350 Y35.675 E2.36625
G1 X64.620 Y36.585 E2.39714
G1 X64.760 Y37.115 E2.41497
G1 X64.950 Y38.025 E2.44522
G1 X65.180 Y39.615 E2.49749
G1 X65.290 Y40.635 E2.53087
G1 X65.390 Y41.855 E2.57069
G1 X65.470 Y43.425 E2.62184
G1 X65.490 Y44.585 E2.65958
G1 X65.480 Y45.935 E2.70351
G1 X65.400 Y47.615 E2.75823
G1 X65.300 Y48.915 E2.80065
G1 X65.090 Y50.725 E2.85993
G1 X64.860 Y52.405 E2.91510
G1 X64.500 Y54.575 E2.98667
G1 X64.000 Y57.405 E3.08017
G1 X63.630 Y58.685 E3.12352
G1 X63.020 Y59.875 E3.16703
G1 X62.190 Y60.915 E3.21032
G1 X61.160 Y61.765 E3.25377
G1 X53.610 Y66.855 E3.55002
G1 X52.450 Y67.475 E3.59281
G1 X51.200 Y67.865 E3.63541
G1 X49.890 Y67.995 E3.67824
G1 X40.100 Y67.995 E3.99676
G1 X38.790 Y67.865 E4.03959
G1 X37.530 Y67.475 E4.08251
G1 X36.380 Y66.855 E4.12501
G1 X28.840 Y61.765 E4.42100
G1 X27.810 Y60.915 E4.46444
G1 X26.980 Y59.875 E4.50774
G1 X26.370 Y58.685 E4.55124
G1 X26.000 Y57.405 E4.59459
G1 X25.500 Y54.575 E4.68809
G1 X25.140 Y52.405 E4.75966
G1 X24.910 Y50.725 E4.81483
G1 X24.700 Y48.915 E4.87411
G1 X24.600 Y47.615 E4.91653
G1 X24.520 Y45.935 E4.97125
G1 X24.510 Y44.755 E5.00965
G1 X24.530 Y43.425 E5.05292
G1 X24.590 Y42.115 E5.09559
G1 X24.710 Y40.635 E5.14390
G1 X24.820 Y39.615 E5.17728
G1 X25.050 Y38.025 E5.22955
G1 X25.240 Y37.115 E5.25979
G1 X25.380 Y36.585 E5.27763
G1 X25.650 Y35.675 E5.30851
G1 X25.890 Y34.985 E5.33228
G1 X26.290 Y34.035 E5.36582
G1 X27.010 Y32.585 E5.41849
G1 X27.330 Y32.015 E5.43976
G1 X28.010 Y30.945 E5.48100
G1 X28.330 Y30.485 E5.49923
G1 X29.130 Y29.435 E5.54218
G1 X29.460 Y29.035 E5.55905
G1 X30.294 Y28.099 E5.59986
G1 F1800.000 E4.59986
G92 E0
G1 X41.971 Y42.148 F7800.000
G1 E1.00000 F1800.000
G1 X44.572 Y41.161 E1.09054 F540.000
G1 X47.335 Y41.497 E1.18107
G1 X49.625 Y43.078 E1.27161
G1 X50.918 Y45.542 E1.36215
G1 X50.918 Y48.324 E1.45269
G1 X49.625 Y50.788 E1.54322
G1 X47.335 Y52.369 E1.63376
G1 X44.573 Y52.705 E1.72430
G1 X41.971 Y51.718 E1.81484
G1 X40.125 Y49.635 E1.90537
G1 X39.459 Y46.933 E1.99591
G1 X40.125 Y44.231 E2.08645
G1 X41.905 Y42.222 E2.17378
G1 X42.355 Y42.705 F7800.000
G1 X44.654 Y41.833 E2.25378 F540.000
G1 X47.095 Y42.130 E2.33377
G1 X49.119 Y43.526 E2.41377
G1 X50.261 Y45.703 E2.49377
G1 X50.261 Y48.162 E2.57377
G1 X49.119 Y50.339 E2.65377
G1 X47.095 Y51.736 E2.73377
G1 X44.654 Y52.033 E2.81377
G1 X42.355 Y51.161 E2.89377
G1 X40.724 Y49.320 E2.97376
G1 X40.136 Y46.933 E3.05376
G1 X40.724 Y44.546 E3.13376
G1 X42.290 Y42.779 E3.21055
G1 X42.739 Y43.262 F7800.000
G1 X44.736 Y42.505 E3.28001 F540.000
G1 X46.855 Y42.762 E3.34947
G1 X48.612 Y43.975 E3.41893
G1 X49.604 Y45.865 E3.48839
G1 X49.604 Y48.000 E3.55785
G1 X48.612 Y49.891 E3.62731
G1 X46.855 Y51.104 E3.69677
G1 X44.736 Y51.361 E3.76623
G1 X42.739 Y50.604 E3.83569
G1 X41.324 Y49.006 E3.90515
G1 X40.813 Y46.933 E3.97461
G1 X41.324 Y44.860 E4.04407
G1 X42.674 Y43.336 E4.11033
G1 X42.739 Y42.605 F7800.000
G1 X32.980 Y41.504 F7800.000
G1 X33.085 Y40.542 E4.14183 F540.000
G1 X33.208 Y39.677 E4.17025
G1 X33.371 Y38.889 E4.19642
G1 X33.600 Y38.126 E4.22235
G1 X33.932 Y37.316 E4.25084
G1 X34.401 Y36.421 E4.28371
G1 X35.004 Y35.472 E4.32030
G1 X35.715 Y34.530 E4.35868
G1 X36.518 Y33.641 E4.39768
G1 X37.408 Y32.834 E4.43677
G1 X38.366 Y32.108 E4.47587
G1 X39.356 Y31.477 E4.51407
G1 X40.339 Y30.955 E4.55027
G1 X41.293 Y30.544 E4.58406
G1 X42.186 Y30.232 E4.61485
G1 X42.992 Y30.004 E4.64211
G1 X43.660 Y29.852 E4.66438
G1 X44.480 Y29.727 E4.69137
G1 X45.520 Y29.727 E4.72522
G1 X46.340 Y29.852 E4.75221
G1 X47.008 Y30.004 E4.77448
G1 X47.814 Y30.232 E4.80174
G1 X48.707 Y30.544 E4.83253
G1 X49.661 Y30.955 E4.86632
G1 X50.644 Y31.477 E4.90252
G1 X51.634 Y32.108 E4.94072
G1 X52.592 Y32.834 E4.97982
G1 X53.482 Y33.641 E5.01891
G1 X54.285 Y34.530 E5.05791
G1 X54.996 Y35.471 E5.09629
G1 X55.599 Y36.421 E5.13288
G1 X56.068 Y37.316 E5.16575
G1 X56.400 Y38.126 E5.19424
G1 X56.629 Y38.889 E5.22017
G1 X56.792 Y39.677 E5.24634
G1 X56.915 Y40.542 E5.27476
G1 X57.020 Y41.504 E5.30626
G1 X57.101 Y42.525 E5.33956
G1 X57.153 Y43.598 E5.37453
G1 X57.173 Y44.705 E5.41055
G1 X57.160 Y45.833 E5.44723
G1 X57.081 Y47.340 E5.49634
G1 X57.007 Y48.254 E5.52617
G1 X56.855 Y49.609 E5.57053
G1 X56.648 Y51.068 E5.61849
G1 X56.235 Y53.563 E5.70076
G1 X51.153 Y53.558 E5.86610
G1 X48.760 Y59.676 E6.07982
G1 X41.240 Y59.676 E6.32450
G1 X38.847 Y53.558 E6.53822
G1 X33.765 Y53.563 E6.70356
G1 X33.352 Y51.068 E6.78583
G1 X33.145 Y49.609 E6.83379
G1 X32.993 Y48.254 E6.87815
G1 X32.894 Y47.016 E6.91857
G1 X32.840 Y45.833 E6.95709
G1 X32.826 Y44.705 E6.99377
G1 X32.847 Y43.598 E7.02979
G1 X32.899 Y42.525 E7.06477
G1 X32.972 Y41.603 E7.09486
G1 X32.325 Y41.443 F7800.000
G1 X32.433 Y40.460 E7.12702 F540.000
G1 X32.560 Y39.564 E7.15646
G1 X32.733 Y38.728 E7.18423
G1 X32.980 Y37.906 E7.21217
G1 X33.335 Y37.040 E7.24264
G1 X33.832 Y36.092 E7.27745
G1 X34.463 Y35.097 E7.31577
G1 X35.208 Y34.111 E7.35598
G1 X36.053 Y33.176 E7.39698
G1 X36.988 Y32.328 E7.43807
G1 X37.990 Y31.568 E7.47899
G1 X39.025 Y30.909 E7.51890
G1 X40.055 Y30.362 E7.55684
G1 X41.054 Y29.931 E7.59224
G1 X41.989 Y29.605 E7.62446
G1 X42.830 Y29.367 E7.65289
G1 X43.530 Y29.208 E7.67626
G1 X44.053 Y29.115 E7.69352
G1 X44.426 Y29.071 E7.70577
G1 X44.719 Y29.057 E7.71530
G1 X45.574 Y29.071 E7.74310
G1 X45.947 Y29.115 E7.75535
G1 X46.470 Y29.208 E7.77260
G1 X47.170 Y29.367 E7.79598
G1 X48.011 Y29.605 E7.82441
G1 X48.946 Y29.931 E7.85663
G1 X49.945 Y30.362 E7.89203
G1 X50.975 Y30.909 E7.92997
G1 X52.010 Y31.568 E7.96988
G1 X53.012 Y32.328 E8.01080
G1 X53.947 Y33.176 E8.05189
G1 X54.792 Y34.111 E8.09289
G1 X55.537 Y35.097 E8.13310
G1 X56.168 Y36.092 E8.17142
G1 X56.665 Y37.040 E8.20623
G1 X57.020 Y37.906 E8.23670
G1 X57.267 Y38.728 E8.26463
G1 X57.440 Y39.564 E8.29240
G1 X57.567 Y40.460 E8.32185
G1 X57.675 Y41.443 E8.35401
G1 X57.756 Y42.484 E8.38798
G1 X57.810 Y43.576 E8.42356
G1 X57.831 Y44.703 E8.46023
G1 X57.817 Y45.852 E8.49763
G1 X57.736 Y47.391 E8.54776
G1 X57.661 Y48.318 E8.57800
G1 X57.508 Y49.688 E8.62289
G1 X57.297 Y51.168 E8.67150
G1 X56.787 Y54.221 E8.77223
G1 X51.602 Y54.215 E8.94091
G1 X49.208 Y60.334 E9.15470
G1 X40.792 Y60.334 E9.42854
G1 X38.398 Y54.215 E9.64233
G1 X33.213 Y54.221 E9.81101
G1 X32.703 Y51.168 E9.91174
G1 X32.493 Y49.689 E9.96035
G1 X32.339 Y48.318 E10.00524
G1 X32.238 Y47.054 E10.04647
G1 X32.183 Y45.852 E10.08562
G1 X32.169 Y44.703 E10.12301
G1 X32.190 Y43.576 E10.15968
G1 X32.244 Y42.484 E10.19526
G1 X32.318 Y41.541 E10.22603
G1 X31.671 Y41.381 F7800.000
G1 X31.781 Y40.378 E10.25885 F378.000
G1 X31.912 Y39.451 E10.28931
G1 X32.095 Y38.567 E10.31868
G1 X32.360 Y37.686 E10.34862
G1 X32.738 Y36.763 E10.38107
G1 X33.263 Y35.763 E10.41783
G1 X33.922 Y34.723 E10.45787
G1 X34.701 Y33.692 E10.49992
G1 X35.587 Y32.712 E10.54292
G1 X36.568 Y31.821 E10.58602
G1 X37.615 Y31.028 E10.62875
G1 X38.694 Y30.341 E10.67037
G1 X39.771 Y29.769 E10.71004
G1 X40.815 Y29.319 E10.74704
G1 X41.792 Y28.977 E10.78072
G1 X42.667 Y28.730 E10.81031
G1 X43.401 Y28.564 E10.83479
G1 X43.957 Y28.464 E10.85315
G1 X44.703 Y28.400 E10.87753
G1 X45.297 Y28.400 E10.89684
G1 X46.043 Y28.464 E10.92122
G1 X46.599 Y28.564 E10.93958
G1 X47.333 Y28.730 E10.96406
G1 X48.208 Y28.977 E10.99365
G1 X49.185 Y29.319 E11.02732
G1 X50.229 Y29.769 E11.06432
G1 X51.306 Y30.341 E11.10400
G1 X52.385 Y31.028 E11.14562
G1 X53.432 Y31.821 E11.18835
G1 X54.413 Y32.712 E11.23145
G1 X55.299 Y33.692 E11.27444
G1 X56.078 Y34.723 E11.31649
G1 X56.737 Y35.763 E11.35654
G1 X57.262 Y36.763 E11.39330
G1 X57.640 Y37.686 E11.42574
G1 X57.905 Y38.567 E11.45568
G1 X58.088 Y39.451 E11.48505
G1 X58.219 Y40.378 E11.51551
G1 X58.329 Y41.381 E11.54834
G1 X58.392 Y42.184 E11.57453
G1 X58.466 Y43.554 E11.61917
G1 X58.488 Y44.701 E11.65649
G1 X58.473 Y45.872 E11.69460
G1 X58.391 Y47.442 E11.74576
G1 X58.315 Y48.381 E11.77642
G1 X58.160 Y49.768 E11.82181
G1 X57.947 Y51.268 E11.87110
G1 X57.689 Y52.861 E11.92360
G1 X57.122 Y56.062 E12.02938
G1 X56.365 Y55.653 E12.05740
G1 X56.366 Y54.878 E12.08263
G1 X52.051 Y54.871 E12.22302
G1 X49.657 Y60.992 E12.43688
G1 X40.343 Y60.992 E12.73988
G1 X37.949 Y54.871 E12.95374
G1 X33.634 Y54.878 E13.09413
G1 X33.636 Y55.653 E13.11936
G1 X32.878 Y56.062 E13.14739
G1 X32.396 Y53.362 E13.23662
G1 X32.053 Y51.268 E13.30567
G1 X31.840 Y49.768 E13.35495
G1 X31.685 Y48.381 E13.40035
G1 X31.582 Y47.093 E13.44241
G1 X31.527 Y45.872 E13.48218
G1 X31.512 Y44.701 E13.52028
G1 X31.534 Y43.554 E13.55760
G1 X31.588 Y42.443 E13.59379
G1 X31.663 Y41.479 E13.62523
G1 X32.270 Y41.110 F7800.000
G1 X34.203 Y53.120 F7800.000
G1 X34.128 Y53.045 E13.62874 F1080.000
G1 X35.154 Y53.119 E13.66303
G1 X33.939 Y51.904 E13.72029
G1 X33.757 Y50.770 E13.75859
G1 X36.105 Y53.118 E13.86929
G1 X37.056 Y53.117 E13.90100
G1 X33.599 Y49.660 E14.06398
G1 X33.476 Y48.584 E14.10008
G1 X38.008 Y53.117 E14.31373
G1 X38.959 Y53.116 E14.34544
G1 X33.379 Y47.536 E14.60850
G1 X33.320 Y46.524 E14.64227
G1 X46.029 Y59.233 E15.24140
G1 X46.981 Y59.233 E15.27314
G1 X33.279 Y45.532 E15.91906
G1 X33.272 Y44.572 E15.95105
G1 X47.933 Y59.233 E16.64222
G1 X48.578 Y58.927 E16.66603
G1 X33.289 Y43.638 E17.38679
G1 X33.333 Y42.729 E17.41711
G1 X39.483 Y48.880 E17.70706
G1 X39.172 Y47.616 E17.75043
G1 X33.397 Y41.841 E18.02266
G1 X33.483 Y40.975 E18.05169
G1 X39.090 Y46.582 E18.31602
G1 X39.278 Y45.818 E18.34224
G1 X33.590 Y40.130 E18.61038
G1 X33.733 Y39.321 E18.63777
G1 X39.466 Y45.054 E18.90804
G1 X39.655 Y44.291 E18.93427
G1 X33.930 Y38.566 E19.20414
G1 X34.184 Y37.868 E19.22890
G1 X40.010 Y43.694 E19.50353
G1 X40.457 Y43.189 E19.52602
G1 X34.484 Y37.216 E19.80759
G1 X34.815 Y36.595 E19.83105
G1 X40.904 Y42.684 E20.11811
G1 X41.352 Y42.179 E20.14059
G1 X35.185 Y36.012 E20.43131
G1 X35.575 Y35.450 E20.45412
G1 X41.846 Y41.722 E20.74978
G1 X42.537 Y41.460 E20.77439
G1 X35.984 Y34.908 E21.08328
G1 X36.431 Y34.403 E21.10576
G1 X43.227 Y41.198 E21.42613
G1 X43.917 Y40.936 E21.45074
G1 X36.907 Y33.926 E21.78120
G1 X37.385 Y33.452 E21.80364
G1 X44.659 Y40.726 E22.14654
G1 X45.742 Y40.857 E22.18293
G1 X37.901 Y33.016 E22.55260
G1 X38.442 Y32.605 E22.57526
G1 X46.826 Y40.989 E22.97049
G1 X48.668 Y41.879 F7800.000
G1 X39.011 Y32.222 E23.42577 F1080.000
G1 X39.593 Y31.852 E23.44877
G1 X56.504 Y48.763 E24.24600
G1 X56.407 Y49.618 E24.27467
G1 X50.410 Y43.621 E24.55736
G1 X51.361 Y45.524 F7800.000
G1 X56.288 Y50.451 E24.78965 F1080.000
G1 X56.164 Y51.279 E24.81755
G1 X51.361 Y46.476 E25.04399
G1 X51.361 Y47.428 E25.07573
G1 X56.029 Y52.096 E25.29579
G1 X55.894 Y52.913 E25.32339
G1 X51.361 Y48.380 E25.53708
G1 X51.052 Y49.023 E25.56086
G1 X55.148 Y53.119 E25.75397
G1 X54.195 Y53.118 E25.78574
G1 X50.724 Y49.647 E25.94938
G1 X50.396 Y50.272 E25.97289
G1 X53.242 Y53.118 E26.10706
G1 X52.289 Y53.117 E26.13882
G1 X50.068 Y50.896 E26.24351
G1 X49.579 Y51.358 E26.26597
G1 X51.336 Y53.116 E26.34883
G1 X50.720 Y53.451 E26.37223
G1 X49.015 Y51.747 E26.45257
G1 X48.452 Y52.136 E26.47539
G1 X50.452 Y54.136 E26.56967
G1 X50.184 Y54.820 E26.59417
G1 X47.889 Y52.525 E26.70238
G1 X47.239 Y52.827 E26.72628
G1 X49.917 Y55.505 E26.85252
G1 X49.649 Y56.189 E26.87702
G1 X46.390 Y52.930 E27.03066
G1 X45.541 Y53.033 E27.05917
G1 X49.381 Y56.873 E27.24022
G1 X49.113 Y57.558 E27.26472
G1 X44.692 Y53.136 E27.47317
G1 X43.298 Y52.695 E27.52189
G1 X48.846 Y58.242 E27.78341
G1 X45.077 Y59.233 F7800.000
G1 X39.271 Y53.428 E28.05709 F1080.000
G1 X39.883 Y54.992 F7800.000
G1 X44.125 Y59.233 E28.25706 F1080.000
G1 X43.172 Y59.233 E28.28879
G1 X40.495 Y56.556 E28.41504
G1 X41.106 Y58.119 F7800.000
G1 X42.220 Y59.233 E28.46756 F1080.000
G1 X56.591 Y47.898 F7800.000
G1 X40.215 Y31.522 E29.23957 F1080.000
G1 X40.858 Y31.213 E29.26336
G1 X56.661 Y47.016 E30.00835
G1 X56.704 Y46.106 E30.03870
G1 X41.528 Y30.931 E30.75413
G1 X42.234 Y30.684 E30.77904
G1 X56.725 Y45.175 E31.46220
G1 X56.722 Y44.220 E31.49404
G1 X42.971 Y30.470 E32.14227
G1 X43.742 Y30.288 E32.16865
G1 X56.690 Y43.236 E32.77907
G1 X56.633 Y42.228 E32.81274
G1 X44.578 Y30.172 E33.38106
G1 X45.535 Y30.177 E33.41295
G1 X56.540 Y41.182 E33.93176
G1 X56.405 Y40.095 E33.96829
G1 X46.697 Y30.387 E34.42591
G1 X48.043 Y30.781 E34.47264
G1 X56.174 Y38.912 E34.85596
G1 X55.609 Y37.395 F7800.000
G1 X49.681 Y31.466 E35.13546 F1080.000
G1 X52.655 Y33.488 F7800.000
G1 X53.613 Y34.447 E35.18066 F1080.000
M106 S255
M104 S190 ; set temperature
G1 F1800.000 E34.18066
G92 E0
G1 Z0.650 F7800.000
G1 X47.483 Y42.102 F7800.000
G1 E1.00000 F1800.000
G1 X49.306 Y43.360 E1.04701 F1604.242
G1 X50.504 Y45.644 E1.10173
G1 X50.504 Y48.222 E1.15645
G1 X49.306 Y50.505 E1.21117
G1 X47.184 Y51.970 E1.26589
G1 X44.624 Y52.281 E1.32061
G1 X42.213 Y51.367 E1.37533
G1 X40.503 Y49.437 E1.43005
G1 X39.886 Y46.933 E1.48477
G1 X40.503 Y44.429 E1.53948
G1 X42.213 Y42.499 E1.59420
G1 X44.624 Y41.585 E1.64892
G1 X47.184 Y41.896 E1.70364
G1 X47.421 Y42.059 E1.70976
G1 X47.199 Y42.513 F7800.000
G1 X48.920 Y43.702 E1.75415 F1604.242
G1 X50.004 Y45.767 E1.80364
G1 X50.004 Y48.099 E1.85313
G1 X48.920 Y50.164 E1.90262
G1 X47.001 Y51.489 E1.95211
G1 X44.686 Y51.770 E2.00160
G1 X42.505 Y50.943 E2.05109
G1 X40.959 Y49.197 E2.10058
G1 X40.401 Y46.933 E2.15006
G1 X40.959 Y44.669 E2.19955
G1 X42.505 Y42.923 E2.24904
G1 X44.686 Y42.096 E2.29853
G1 X47.001 Y42.377 E2.34802
G1 X47.137 Y42.471 E2.35152
G1 X46.818 Y42.859 F7800.000
G1 X48.535 Y44.043 E2.39578 F1604.242
G1 X49.504 Y45.890 E2.44004
G1 X49.504 Y47.976 E2.48430
G1 X48.535 Y49.822 E2.52855
G1 X46.818 Y51.007 E2.57281
G1 X44.748 Y51.259 E2.61707
G1 X42.798 Y50.519 E2.66133
G1 X41.492 Y49.045 E2.70311
G1 X41.415 Y48.958 E2.70559
G1 X40.916 Y46.933 E2.74985
G1 X41.415 Y44.908 E2.79411
G1 X42.798 Y43.347 E2.83836
G1 X44.748 Y42.607 E2.88262
G1 X46.744 Y42.850 E2.92529
G1 X47.230 Y42.575 F7800.000
G1 X57.343 Y41.857 F7800.000
G1 X57.400 Y42.594 E2.94097 F1604.242
G1 X57.452 Y43.682 E2.96409
G1 X57.473 Y44.806 E2.98794
G1 X57.459 Y45.954 E3.01230
G1 X57.407 Y47.155 E3.03783
G1 X57.311 Y48.413 E3.06459
G1 X57.164 Y49.774 E3.09366
G1 X56.962 Y51.232 E3.12488
G1 X56.514 Y53.978 E3.18392
G1 X51.436 Y53.972 E3.29167
G1 X49.043 Y60.091 E3.43110
G1 X40.957 Y60.091 E3.60268
G1 X38.564 Y53.972 E3.74210
G1 X33.486 Y53.978 E3.84985
