; generated by Slic3r 0.9.10b on 2014-02-03 at 13:49:23

; layer_height = 0.2
; perimeters = 2
; top_solid_layers = 2
; bottom_solid_layers = 2
; fill_density = 0.2
; perimeter_speed = 30
; infill_speed = 30
; travel_speed = 200
; nozzle_diameter = 0.5
; filament_diameter = 2.98
; extrusion_multiplier = 0.9
; perimeters extrusion width = 0.50mm
; infill extrusion width = 0.50mm
; solid infill extrusion width = 0.50mm
; top infill extrusion width = 0.50mm

G21 ; set units to millimeters
M107
M104 S190 ; set temperature
G28 ; home all axes
G1 Z15 F120 ; lift nozzle
M109 S190 ; wait for temperature to be reached
G90 ; use absolute coordinates
G92 E0
M82 ; use absolute distances for extrusion
G1 F1680.000 E-2.00000
G92 E0
G1 Z0.300 F12000.000
G1 X10.548 Y17.922
G1 F1680.000 E2.00000
G1 X17.708 Y13.142 F900.000 E2.16663
G1 X18.458 Y12.712 E2.18337
G1 X19.258 Y12.382 E2.20012
G1 X20.298 Y12.122 E2.22087
G1 X21.338 Y12.042 E2.24106
G1 X31.648 Y12.022 E2.44061
G1 X66.658 Y12.022 E3.11826
G1 X67.928 Y12.152 E3.14297
G1 X69.148 Y12.522 E3.16765
G1 X70.278 Y13.122 E3.19241
G1 X77.448 Y17.932 E3.35953
G1 X78.488 Y18.802 E3.38577
G1 X79.328 Y19.872 E3.41210
G1 X79.928 Y21.092 E3.43842
G1 X80.258 Y22.412 E3.46476
G1 X81.998 Y34.522 E3.70156
G1 X82.268 Y36.622 E3.74254
G1 X82.328 Y37.532 E3.76020
G1 X82.308 Y38.282 E3.77472
G1 X82.198 Y39.022 E3.78920
G1 X81.108 Y44.492 E3.89716
G1 X80.748 Y45.712 E3.92178
G1 X80.148 Y46.832 E3.94637
G1 X77.048 Y51.482 E4.05454
G1 X76.228 Y52.472 E4.07942
G1 X75.238 Y53.282 E4.10418
G1 X70.548 Y56.402 E4.21321
G1 X69.428 Y57.002 E4.23781
G1 X68.218 Y57.362 E4.26224
G1 X62.758 Y58.452 E4.37001
G1 X62.128 Y58.552 E4.38236
G1 X61.488 Y58.582 E4.39476
G1 X26.488 Y58.582 E5.07221
G1 X25.848 Y58.552 E5.08461
G1 X25.218 Y58.452 E5.09696
G1 X19.768 Y57.362 E5.20454
G1 X18.558 Y57.002 E5.22897
G1 X17.438 Y56.402 E5.25357
G1 X12.748 Y53.282 E5.36260
G1 X11.758 Y52.472 E5.38736
G1 X10.938 Y51.482 E5.41224
G1 X7.838 Y46.832 E5.52041
G1 X7.238 Y45.712 E5.54500
G1 X6.878 Y44.492 E5.56962
G1 X5.788 Y39.022 E5.67758
G1 X5.678 Y38.282 E5.69206
G1 X5.658 Y37.532 E5.70658
G1 X5.668 Y37.232 E5.71239
G1 X5.728 Y36.592 E5.72484
G1 X6.008 Y34.432 E5.76700
G1 X7.718 Y22.412 E6.00199
G1 X8.058 Y21.092 E6.02838
G1 X8.658 Y19.872 E6.05469
G1 X9.498 Y18.802 E6.08102
G1 X10.491 Y17.971 E6.10609
G1 F1680.000 E4.10609
G92 E0
G1 X21.951 Y29.025 F12000.000
G1 F1680.000 E2.00000
G1 X22.365 Y28.617 F900.000 E2.01125
G1 X22.835 Y28.236 E2.02296
G1 X23.342 Y27.906 E2.03467
G1 X23.863 Y27.633 E2.04606
G1 X24.316 Y27.446 E2.05555
G1 X24.915 Y27.262 E2.06767
G1 X25.556 Y27.136 E2.08032
G1 X26.105 Y27.083 E2.09098
G1 X26.631 Y27.080 E2.10116
G1 X27.244 Y27.136 E2.11308
G1 X27.885 Y27.262 E2.12573
G1 X28.484 Y27.445 E2.13785
G1 X29.043 Y27.683 E2.14961
G1 X29.551 Y27.961 E2.16083
G1 X29.965 Y28.236 E2.17044
G1 X30.435 Y28.617 E2.18215
G1 X30.893 Y29.073 E2.19466
G1 X31.299 Y29.573 E2.20713
G1 X31.615 Y30.058 E2.21833
G1 X31.856 Y30.508 E2.22822
G1 X32.081 Y31.043 E2.23945
G1 X32.246 Y31.567 E2.25008
G1 X32.367 Y32.130 E2.26122
G1 X32.442 Y32.806 E2.27440
G1 X32.446 Y33.371 E2.28532
G1 X32.397 Y33.933 E2.29624
G1 X32.267 Y34.606 E2.30951
G1 X32.081 Y35.212 E2.32179
G1 X31.856 Y35.747 E2.33302
G1 X31.575 Y36.264 E2.34442
G1 X31.299 Y36.682 E2.35411
G1 X30.893 Y37.182 E2.36658
G1 X30.435 Y37.638 E2.37908
G1 X29.964 Y38.019 E2.39080
G1 X29.551 Y38.294 E2.40041
G1 X29.043 Y38.572 E2.41163
G1 X28.484 Y38.810 E2.42339
G1 X27.885 Y38.993 E2.43551
G1 X27.244 Y39.119 E2.44816
G1 X26.696 Y39.171 E2.45881
G1 X26.169 Y39.174 E2.46900
G1 X25.556 Y39.119 E2.48091
G1 X24.915 Y38.993 E2.49357
G1 X24.316 Y38.809 E2.50569
G1 X23.757 Y38.572 E2.51744
G1 X23.249 Y38.294 E2.52866
G1 X22.835 Y38.019 E2.53827
G1 X22.365 Y37.638 E2.54999
G1 X21.907 Y37.182 E2.56250
G1 X21.501 Y36.682 E2.57497
G1 X21.185 Y36.197 E2.58616
G1 X20.944 Y35.747 E2.59606
G1 X20.719 Y35.212 E2.60728
G1 X20.554 Y34.688 E2.61791
G1 X20.434 Y34.132 E2.62893
G1 X20.357 Y33.448 E2.64224
G1 X20.353 Y32.885 E2.65315
G1 X20.403 Y32.322 E2.66408
G1 X20.533 Y31.649 E2.67735
G1 X20.719 Y31.043 E2.68962
G1 X20.944 Y30.508 E2.70085
G1 X21.225 Y29.991 E2.71225
G1 X21.501 Y29.573 E2.72193
G1 X21.901 Y29.080 E2.73422
G1 X22.280 Y29.407 F12000.000
G1 X22.699 Y28.990 F900.000 E2.74566
G1 X23.127 Y28.644 E2.75631
G1 X23.495 Y28.397 E2.76490
G1 X23.974 Y28.134 E2.77546
G1 X24.486 Y27.916 E2.78624
G1 X25.045 Y27.745 E2.79755
G1 X25.614 Y27.633 E2.80877
G1 X26.124 Y27.583 E2.81869
G1 X26.676 Y27.583 E2.82939
G1 X27.186 Y27.633 E2.83931
G1 X27.755 Y27.745 E2.85053
G1 X28.314 Y27.916 E2.86183
G1 X28.826 Y28.134 E2.87262
G1 X29.305 Y28.397 E2.88318
G1 X29.673 Y28.644 E2.89176
G1 X30.101 Y28.990 E2.90242
G1 X30.520 Y29.407 E2.91386
G1 X30.892 Y29.865 E2.92527
G1 X31.144 Y30.245 E2.93411
G1 X31.388 Y30.690 E2.94393
G1 X31.612 Y31.218 E2.95504
G1 X31.763 Y31.697 E2.96475
G1 X31.873 Y32.202 E2.97476
G1 X31.938 Y32.761 E2.98565
G1 X31.947 Y33.325 E2.99658
G1 X31.907 Y33.823 E3.00625
G1 X31.817 Y34.337 E3.01634
G1 X31.655 Y34.914 E3.02793
G1 X31.465 Y35.400 E3.03805
G1 X31.217 Y35.887 E3.04861
G1 X30.929 Y36.337 E3.05896
G1 X30.589 Y36.771 E3.06962
G1 X30.175 Y37.197 E3.08113
G1 X29.764 Y37.542 E3.09151
G1 X29.304 Y37.858 E3.10231
G1 X28.826 Y38.121 E3.11287
G1 X28.314 Y38.339 E3.12366
G1 X27.755 Y38.510 E3.13496
G1 X27.284 Y38.607 E3.14427
G1 X26.728 Y38.668 E3.15509
G1 X26.189 Y38.674 E3.16554
G1 X25.614 Y38.622 E3.17672
G1 X25.045 Y38.510 E3.18794
G1 X24.486 Y38.339 E3.19924
G1 X23.974 Y38.121 E3.21003
G1 X23.495 Y37.858 E3.22059
G1 X23.127 Y37.611 E3.22918
G1 X22.699 Y37.265 E3.23983
G1 X22.280 Y36.848 E3.25127
G1 X21.908 Y36.390 E3.26268
G1 X21.616 Y35.943 E3.27303
G1 X21.395 Y35.530 E3.28209
G1 X21.188 Y35.037 E3.29245
G1 X21.037 Y34.558 E3.30216
G1 X20.927 Y34.052 E3.31219
G1 X20.857 Y33.429 E3.32432
G1 X20.853 Y32.904 E3.33449
G1 X20.900 Y32.380 E3.34467
G1 X20.983 Y31.918 E3.35375
G1 X21.145 Y31.341 E3.36534
G1 X21.335 Y30.855 E3.37546
G1 X21.583 Y30.368 E3.38602
G1 X21.885 Y29.897 E3.39687
G1 X22.231 Y29.464 E3.40759
G1 X22.597 Y29.805 F12000.000
G1 X22.969 Y29.421 F900.000 E3.41794
G1 X23.339 Y29.111 E3.42728
G1 X23.742 Y28.833 E3.43677
G1 X24.190 Y28.586 E3.44667
G1 X24.656 Y28.387 E3.45648
G1 X25.122 Y28.242 E3.46592
G1 X25.594 Y28.142 E3.47526
G1 X26.091 Y28.086 E3.48493
G1 X26.592 Y28.080 E3.49463
G1 X27.065 Y28.121 E3.50382
G1 X27.518 Y28.202 E3.51273
G1 X28.035 Y28.349 E3.52314
G1 X28.504 Y28.536 E3.53290
G1 X28.950 Y28.768 E3.54263
G1 X29.382 Y29.051 E3.55263
G1 X29.767 Y29.363 E3.56223
G1 X30.147 Y29.741 E3.57259
G1 X30.448 Y30.108 E3.58179
G1 X30.713 Y30.499 E3.59094
G1 X30.936 Y30.906 E3.59992
G1 X31.144 Y31.394 E3.61018
G1 X31.280 Y31.827 E3.61896
G1 X31.379 Y32.283 E3.62800
G1 X31.438 Y32.780 E3.63768
G1 X31.447 Y33.306 E3.64787
G1 X31.410 Y33.766 E3.65680
G1 X31.336 Y34.196 E3.66524
G1 X31.187 Y34.738 E3.67613
G1 X31.013 Y35.184 E3.68539
G1 X30.781 Y35.640 E3.69529
G1 X30.522 Y36.046 E3.70462
G1 X30.216 Y36.437 E3.71422
G1 X29.831 Y36.834 E3.72494
G1 X29.461 Y37.144 E3.73428
G1 X29.058 Y37.422 E3.74376
G1 X28.610 Y37.669 E3.75366
G1 X28.144 Y37.868 E3.76347
G1 X27.678 Y38.013 E3.77292
G1 X27.205 Y38.113 E3.78227
G1 X26.709 Y38.168 E3.79193
G1 X26.208 Y38.174 E3.80163
G1 X25.735 Y38.134 E3.81082
G1 X25.282 Y38.053 E3.81972
G1 X24.765 Y37.906 E3.83013
G1 X24.324 Y37.732 E3.83929
G1 X23.895 Y37.513 E3.84862
G1 X23.492 Y37.257 E3.85786
G1 X23.087 Y36.939 E3.86783
G1 X22.697 Y36.562 E3.87833
G1 X22.399 Y36.209 E3.88727
G1 X22.087 Y35.756 E3.89793
G1 X21.864 Y35.349 E3.90691
G1 X21.656 Y34.861 E3.91717
G1 X21.520 Y34.428 E3.92595
G1 X21.421 Y33.972 E3.93500
G1 X21.361 Y33.475 E3.94467
G1 X21.352 Y32.949 E3.95486
G1 X21.390 Y32.489 E3.96379
G1 X21.464 Y32.059 E3.97223
G1 X21.605 Y31.540 E3.98265
G1 X21.787 Y31.071 E3.99238
G1 X22.019 Y30.615 E4.00228
G1 X22.278 Y30.209 E4.01161
G1 X22.548 Y29.861 E4.02013
G1 X23.086 Y29.910 F12000.000
G1 F1680.000 E2.02013
G92 E0
G1 X55.374 Y32.581 F12000.000
G1 F1680.000 E2.00000
G1 X55.455 Y31.999 F900.000 E2.01139
G1 X55.596 Y31.414 E2.02302
G1 X55.775 Y30.897 E2.03362
G1 X55.996 Y30.403 E2.04409
G1 X56.382 Y29.744 E2.05888
G1 X56.684 Y29.337 E2.06868
G1 X57.066 Y28.905 E2.07985
G1 X57.560 Y28.450 E2.09284
G1 X58.020 Y28.109 E2.10393
G1 X58.557 Y27.786 E2.11606
G1 X59.206 Y27.488 E2.12988
G1 X59.666 Y27.331 E2.13929
G1 X60.195 Y27.197 E2.14986
G1 X60.814 Y27.105 E2.16197
G1 X61.514 Y27.077 E2.17552
G1 X61.986 Y27.105 E2.18467
G1 X62.605 Y27.197 E2.19678
G1 X63.134 Y27.331 E2.20736
G1 X63.594 Y27.488 E2.21676
G1 X64.242 Y27.786 E2.23058
G1 X64.780 Y28.109 E2.24272
G1 X65.240 Y28.450 E2.25380
G1 X65.632 Y28.803 E2.26402
G1 X66.067 Y29.276 E2.27645
G1 X66.418 Y29.745 E2.28778
G1 X66.804 Y30.403 E2.30256
G1 X67.025 Y30.897 E2.31303
G1 X67.204 Y31.414 E2.32362
G1 X67.325 Y31.897 E2.33326
G1 X67.420 Y32.516 E2.34538
G1 X67.449 Y32.989 E2.35454
G1 X67.426 Y33.674 E2.36781
G1 X67.345 Y34.257 E2.37920
G1 X67.204 Y34.841 E2.39083
G1 X67.025 Y35.358 E2.40143
G1 X66.804 Y35.852 E2.41189
G1 X66.418 Y36.511 E2.42668
G1 X66.116 Y36.918 E2.43649
G1 X65.734 Y37.350 E2.44766
G1 X65.240 Y37.805 E2.46065
G1 X64.780 Y38.146 E2.47174
G1 X64.242 Y38.469 E2.48388
G1 X63.594 Y38.767 E2.49769
G1 X63.134 Y38.924 E2.50710
G1 X62.605 Y39.058 E2.51767
G1 X61.986 Y39.150 E2.52978
G1 X61.286 Y39.177 E2.54332
G1 X60.814 Y39.150 E2.55248
G1 X60.246 Y39.068 E2.56359
G1 X59.716 Y38.939 E2.57415
G1 X59.316 Y38.809 E2.58228
G1 X58.757 Y38.572 E2.59404
G1 X58.249 Y38.294 E2.60526
G1 X57.835 Y38.019 E2.61487
G1 X57.365 Y37.638 E2.62659
G1 X56.838 Y37.104 E2.64111
G1 X56.463 Y36.629 E2.65282
G1 X56.147 Y36.133 E2.66420
G1 X55.884 Y35.617 E2.67542
G1 X55.653 Y35.020 E2.68780
G1 X55.475 Y34.358 E2.70108
G1 X55.393 Y33.863 E2.71078
G1 X55.350 Y33.266 E2.72236
G1 X55.368 Y32.656 E2.73417
G1 X55.867 Y32.692 F12000.000
G1 X55.933 Y32.165 F900.000 E2.74445
G1 X56.037 Y31.697 E2.75375
G1 X56.188 Y31.218 E2.76345
G1 X56.412 Y30.690 E2.77457
G1 X56.656 Y30.245 E2.78438
G1 X56.909 Y29.865 E2.79322
G1 X57.280 Y29.407 E2.80463
G1 X57.699 Y28.990 E2.81607
G1 X58.127 Y28.644 E2.82673
G1 X58.495 Y28.397 E2.83531
G1 X58.974 Y28.134 E2.84588
G1 X59.486 Y27.916 E2.85666
G1 X60.045 Y27.745 E2.86796
G1 X60.614 Y27.633 E2.87919
G1 X61.189 Y27.580 E2.89036
G1 X61.728 Y27.586 E2.90081
G1 X62.284 Y27.648 E2.91163
G1 X62.755 Y27.745 E2.92094
G1 X63.314 Y27.916 E2.93225
G1 X63.826 Y28.134 E2.94303
G1 X64.305 Y28.397 E2.95359
G1 X64.765 Y28.713 E2.96440
G1 X65.175 Y29.058 E2.97478
G1 X65.589 Y29.485 E2.98628
G1 X65.929 Y29.918 E2.99694
G1 X66.217 Y30.369 E3.00730
G1 X66.465 Y30.855 E3.01786
G1 X66.655 Y31.341 E3.02797
G1 X66.814 Y31.905 E3.03930
G1 X66.907 Y32.432 E3.04966
G1 X66.947 Y32.930 E3.05933
G1 X66.938 Y33.494 E3.07026
G1 X66.873 Y34.052 E3.08113
G1 X66.763 Y34.558 E3.09116
G1 X66.612 Y35.037 E3.10086
G1 X66.388 Y35.565 E3.11198
G1 X66.144 Y36.010 E3.12180
G1 X65.891 Y36.390 E3.13064
G1 X65.520 Y36.848 E3.14205
G1 X65.101 Y37.265 E3.15348
G1 X64.673 Y37.612 E3.16414
G1 X64.304 Y37.858 E3.17273
G1 X63.826 Y38.121 E3.18329
G1 X63.313 Y38.339 E3.19407
G1 X62.755 Y38.510 E3.20538
G1 X62.186 Y38.622 E3.21660
G1 X61.611 Y38.674 E3.22777
G1 X61.072 Y38.668 E3.23822
G1 X60.516 Y38.607 E3.24905
G1 X60.045 Y38.510 E3.25836
G1 X59.486 Y38.339 E3.26966
G1 X58.974 Y38.121 E3.28044
G1 X58.495 Y37.858 E3.29100
G1 X58.035 Y37.542 E3.30181
G1 X57.625 Y37.197 E3.31219
G1 X57.211 Y36.770 E3.32369
G1 X56.871 Y36.337 E3.33435
G1 X56.583 Y35.886 E3.34470
G1 X56.335 Y35.400 E3.35527
G1 X56.145 Y34.914 E3.36538
G1 X55.986 Y34.350 E3.37671
G1 X55.893 Y33.823 E3.38707
G1 X55.852 Y33.325 E3.39674
G1 X55.861 Y32.767 E3.40755
G1 X56.361 Y32.780 F12000.000
G1 X56.421 Y32.283 F900.000 E3.41724
G1 X56.520 Y31.827 E3.42627
G1 X56.656 Y31.394 E3.43506
G1 X56.864 Y30.906 E3.44531
G1 X57.087 Y30.499 E3.45430
G1 X57.352 Y30.108 E3.46344
G1 X57.653 Y29.741 E3.47264
G1 X58.033 Y29.363 E3.48300
G1 X58.418 Y29.051 E3.49260
G1 X58.850 Y28.768 E3.50260
G1 X59.296 Y28.536 E3.51233
G1 X59.765 Y28.349 E3.52209
G1 X60.282 Y28.202 E3.53250
G1 X60.735 Y28.121 E3.54141
G1 X61.208 Y28.080 E3.55060
G1 X61.709 Y28.086 E3.56030
G1 X62.205 Y28.142 E3.56995
G1 X62.678 Y28.242 E3.57931
G1 X63.144 Y28.387 E3.58875
G1 X63.610 Y28.586 E3.59856
G1 X64.006 Y28.801 E3.60728
G1 X64.382 Y29.051 E3.61603
G1 X64.767 Y29.363 E3.62563
G1 X65.147 Y29.741 E3.63599
G1 X65.484 Y30.156 E3.64635
G1 X65.713 Y30.499 E3.65433
G1 X65.953 Y30.941 E3.66407
G1 X66.144 Y31.394 E3.67357
G1 X66.293 Y31.878 E3.68338
G1 X66.403 Y32.437 E3.69441
G1 X66.446 Y32.923 E3.70385
G1 X66.442 Y33.410 E3.71328
G1 X66.380 Y33.970 E3.72419
G1 X66.289 Y34.393 E3.73255
G1 X66.144 Y34.861 E3.74205
G1 X65.953 Y35.314 E3.75155
G1 X65.713 Y35.756 E3.76129
G1 X65.448 Y36.147 E3.77044
G1 X65.147 Y36.514 E3.77963
G1 X64.767 Y36.892 E3.78999
G1 X64.382 Y37.204 E3.79959
G1 X64.006 Y37.454 E3.80834
G1 X63.610 Y37.669 E3.81706
G1 X63.143 Y37.868 E3.82687
G1 X62.625 Y38.027 E3.83736
G1 X62.129 Y38.125 E3.84715
G1 X61.657 Y38.171 E3.85633
G1 X61.143 Y38.171 E3.86629
G1 X60.671 Y38.125 E3.87547
G1 X60.175 Y38.027 E3.88526
G1 X59.656 Y37.868 E3.89575
G1 X59.190 Y37.669 E3.90556
G1 X58.794 Y37.454 E3.91428
G1 X58.418 Y37.204 E3.92303
G1 X58.032 Y36.892 E3.93262
G1 X57.653 Y36.514 E3.94299
G1 X57.316 Y36.099 E3.95334
G1 X57.087 Y35.756 E3.96133
G1 X56.847 Y35.314 E3.97107
G1 X56.656 Y34.861 E3.98057
G1 X56.507 Y34.377 E3.99038
G1 X56.397 Y33.818 E4.00140
G1 X56.353 Y33.332 E4.01085
G1 X56.357 Y32.855 E4.02009
G1 X56.814 Y32.567 F12000.000
G1 F1680.000 E2.02009
G92 E0
G1 X54.546 Y26.058 F12000.000
G1 F1680.000 E2.00000
G1 X54.627 Y25.484 F900.000 E2.01122
G1 X54.998 Y25.549 E2.01852
G1 X55.010 Y25.245 E2.02440
G1 X56.144 Y25.278 E2.04636
G1 X55.570 Y24.015 E2.07322
G1 X57.223 Y19.790 E2.16102
G1 X65.786 Y19.789 E2.32677
G1 X67.577 Y24.397 E2.42244
G1 X68.421 Y24.618 E2.43933
G1 X68.814 Y24.649 E2.44696
G1 X70.696 Y24.657 E2.48339
G1 X71.026 Y24.736 E2.48997
G1 X71.338 Y24.920 E2.49698
G1 X72.534 Y25.407 E2.52197
G1 X72.816 Y25.059 E2.53064
G1 X74.314 Y35.543 E2.73563
G1 X74.577 Y37.547 E2.77474
G1 X74.581 Y37.660 E2.77693
G1 X73.569 Y42.739 E2.87718
G1 X70.737 Y46.979 E2.97587
G1 X66.496 Y49.813 E3.07459
G1 X61.497 Y50.811 E3.17327
G1 X56.504 Y49.814 E3.27183
G1 X52.260 Y46.976 E3.37063
G1 X49.431 Y42.741 E3.46922
G1 X48.419 Y37.660 E3.56950
G1 X48.424 Y37.545 E3.57173
G1 X48.647 Y35.818 E3.60544
G1 X50.208 Y24.891 E3.81908
G1 X52.320 Y24.890 E3.85996
G1 X52.474 Y25.208 E3.86679
G1 X54.477 Y26.029 E3.90869
G1 X56.876 Y19.292 F12000.000
G1 X66.129 Y19.289 F900.000 E4.08779
G1 X67.951 Y23.978 E4.18515
G1 X68.505 Y24.123 E4.19623
G1 X68.834 Y24.149 E4.20262
G1 X70.803 Y24.158 E4.24074
G1 X71.252 Y24.289 E4.24978
G1 X71.581 Y24.479 E4.25715
G1 X72.379 Y24.804 E4.27382
G1 X72.625 Y24.500 E4.28138
G1 X73.237 Y24.471 E4.29324
G1 X74.807 Y35.458 E4.50807
G1 X75.076 Y37.512 E4.54817
G1 X75.084 Y37.697 E4.55175
G1 X74.039 Y42.937 E4.65517
G1 X71.097 Y47.339 E4.75766
G1 X66.692 Y50.284 E4.86023
G1 X61.497 Y51.321 E4.96275
G1 X56.309 Y50.285 E5.06516
G1 X51.899 Y47.337 E5.16782
G1 X48.960 Y42.937 E5.27024
G1 X47.916 Y37.697 E5.37365
G1 X47.924 Y37.511 E5.37726
G1 X48.151 Y35.752 E5.41159
G1 X49.821 Y24.065 E5.64010
G1 X50.195 Y24.391 E5.64970
G1 X52.634 Y24.390 E5.69691
G1 X52.841 Y24.818 E5.70610
G1 X54.140 Y25.351 E5.73329
G1 X54.204 Y24.901 E5.74208
G1 X54.520 Y24.957 E5.74830
G1 X54.529 Y24.731 E5.75267
G1 X55.357 Y24.755 E5.76872
G1 X55.028 Y24.030 E5.78413
G1 X56.850 Y19.362 E5.88112
G1 X56.375 Y19.183 F12000.000
G1 X56.529 Y18.793 F720.000 E5.88923
G1 X66.470 Y18.789 E6.08166
G1 X68.325 Y23.559 E6.18071
G1 X68.589 Y23.628 E6.18598
G1 X68.854 Y23.649 E6.19112
G1 X70.908 Y23.658 E6.23088
G1 X71.043 Y23.717 E6.23375
G1 X71.283 Y23.765 E6.23849
G1 X71.465 Y23.835 E6.24226
G1 X71.825 Y24.039 E6.25026
G1 X72.223 Y24.201 E6.25858
G1 X72.377 Y24.011 E6.26331
G1 X72.787 Y23.992 E6.27126
G1 X72.796 Y23.926 E6.27254
G1 X72.900 Y23.923 E6.27454
G1 X72.943 Y23.901 E6.27548
G1 X73.379 Y23.901 E6.28392
G1 X73.382 Y23.658 E6.28863
