; generated by Slic3r 0.9.10b on 2014-01-10 at 22:42:28

; layer_height = 0.2
; perimeters = 2
; top_solid_layers = 2
; bottom_solid_layers = 2
; fill_density = 0.5
; perimeter_speed = 30
; infill_speed = 30
; travel_speed = 200
; nozzle_diameter = 0.5
; filament_diameter = 2.9
; extrusion_multiplier = 0.95
; perimeters extrusion width = 0.50mm
; infill extrusion width = 0.50mm
; solid infill extrusion width = 0.50mm
; top infill extrusion width = 0.50mm

G21 ; set units to millimeters
M107
M104 S240 ; set temperature
G28 ; home all axes
G1 Z15 F120 ; lift nozzle
M109 S240 ; wait for temperature to be reached
G90 ; use absolute coordinates
G92 E0
M82 ; use absolute distances for extrusion
G1 F1680.000 E-2.00000
G92 E0
G1 Z0.300 F12000.000
G1 X67.999 Y68.802
G1 F1680.000 E2.00000
G1 X69.049 Y67.922 F900.000 E2.02956
G1 X76.209 Y63.142 E2.21529
G1 X76.959 Y62.712 E2.23394
G1 X77.789 Y62.372 E2.25329
G1 X78.799 Y62.122 E2.27573
G1 X79.839 Y62.042 E2.29824
G1 X90.149 Y62.022 E2.52066
G1 X91.419 Y62.142 E2.54819
G1 X92.649 Y62.522 E2.57596
G1 X93.779 Y63.122 E2.60356
G1 X100.949 Y67.932 E2.78983
G1 X101.989 Y68.802 E2.81908
G1 X102.829 Y69.872 E2.84843
G1 X103.429 Y71.092 E2.87776
G1 X103.759 Y72.412 E2.90711
G1 X105.499 Y84.522 E3.17106
G1 X105.769 Y86.622 E3.21674
G1 X105.829 Y87.532 E3.23641
G1 X105.809 Y88.282 E3.25260
G1 X105.699 Y89.022 E3.26874
G1 X104.609 Y94.492 E3.38907
G1 X104.239 Y95.712 E3.41657
G1 X103.639 Y96.832 E3.44398
G1 X100.529 Y101.482 E3.56467
G1 X99.719 Y102.472 E3.59227
G1 X98.739 Y103.282 E3.61969
G1 X94.059 Y106.402 E3.74104
G1 X92.939 Y107.002 E3.76845
G1 X91.719 Y107.362 E3.79589
G1 X86.259 Y108.452 E3.91601
G1 X84.989 Y108.582 E3.94355
G1 X83.719 Y108.452 E3.97110
G1 X78.269 Y107.362 E4.09100
G1 X77.059 Y107.002 E4.11824
G1 X75.939 Y106.402 E4.14565
G1 X71.249 Y103.282 E4.26718
G1 X70.259 Y102.472 E4.29477
G1 X69.439 Y101.482 E4.32250
G1 X66.339 Y96.832 E4.44307
G1 X65.739 Y95.712 E4.47048
G1 X65.379 Y94.492 E4.49793
G1 X64.289 Y89.022 E4.61826
G1 X64.179 Y88.282 E4.63440
G1 X64.159 Y87.532 E4.65058
G1 X64.229 Y86.592 E4.67092
G1 X64.509 Y84.432 E4.71791
G1 X66.219 Y72.412 E4.97984
G1 X66.559 Y71.092 E5.00924
G1 X67.159 Y69.872 E5.03857
G1 X67.953 Y68.861 E5.06630
G1 F1680.000 E3.06630
G92 E0
G1 X80.655 Y79.552 F12000.000
G1 F1680.000 E2.00000
G1 X81.024 Y79.155 F900.000 E2.01170
G1 X81.430 Y78.796 E2.02337
G1 X81.868 Y78.479 E2.03506
G1 X82.337 Y78.205 E2.04678
G1 X82.843 Y77.973 E2.05877
G1 X83.355 Y77.797 E2.07047
G1 X83.883 Y77.671 E2.08217
G1 X84.420 Y77.598 E2.09386
G1 X84.962 Y77.578 E2.10555
G1 X85.516 Y77.612 E2.11753
G1 X86.051 Y77.698 E2.12923
G1 X86.574 Y77.836 E2.14091
G1 X87.083 Y78.025 E2.15260
G1 X87.571 Y78.262 E2.16432
G1 X88.032 Y78.546 E2.17600
G1 X88.464 Y78.873 E2.18768
G1 X88.862 Y79.241 E2.19939
G1 X89.223 Y79.647 E2.21109
G1 X89.541 Y80.084 E2.22276
G1 X89.816 Y80.551 E2.23444
G1 X90.043 Y81.042 E2.24613
G1 X90.222 Y81.554 E2.25783
G1 X90.350 Y82.080 E2.26950
G1 X90.428 Y82.631 E2.28151
G1 X90.450 Y83.173 E2.29321
G1 X90.419 Y83.713 E2.30489
G1 X90.335 Y84.249 E2.31658
G1 X90.200 Y84.775 E2.32830
G1 X90.009 Y85.297 E2.34029
G1 X89.773 Y85.784 E2.35196
G1 X89.491 Y86.246 E2.36365
G1 X89.165 Y86.679 E2.37534
G1 X88.797 Y87.079 E2.38707
G1 X88.394 Y87.440 E2.39874
G1 X87.956 Y87.760 E2.41043
G1 X87.490 Y88.036 E2.42211
G1 X86.999 Y88.265 E2.43381
G1 X86.489 Y88.445 E2.44549
G1 X85.961 Y88.575 E2.45721
G1 X85.426 Y88.652 E2.46886
G1 X84.885 Y88.677 E2.48056
G1 X84.343 Y88.649 E2.49227
G1 X83.807 Y88.569 E2.50396
G1 X83.282 Y88.436 E2.51565
G1 X82.772 Y88.253 E2.52732
G1 X82.270 Y88.015 E2.53933
G1 X81.805 Y87.734 E2.55105
G1 X81.371 Y87.411 E2.56271
G1 X80.960 Y87.036 E2.57472
G1 X80.597 Y86.633 E2.58641
G1 X80.275 Y86.196 E2.59812
G1 X79.998 Y85.731 E2.60981
G1 X79.768 Y85.240 E2.62150
G1 X79.586 Y84.730 E2.63317
G1 X79.455 Y84.204 E2.64487
G1 X79.376 Y83.668 E2.65657
G1 X79.350 Y83.113 E2.66855
G1 X79.378 Y82.572 E2.68024
G1 X79.459 Y82.035 E2.69196
G1 X79.591 Y81.509 E2.70365
G1 X79.774 Y81.000 E2.71532
G1 X80.006 Y80.510 E2.72702
G1 X80.284 Y80.046 E2.73870
G1 X80.607 Y79.610 E2.75040
G1 X80.994 Y79.927 F12000.000
G1 X81.324 Y79.561 F900.000 E2.76104
G1 X81.689 Y79.229 E2.77168
G1 X82.084 Y78.935 E2.78231
G1 X82.506 Y78.681 E2.79294
G1 X82.952 Y78.468 E2.80359
G1 X83.416 Y78.301 E2.81423
G1 X83.894 Y78.179 E2.82487
G1 X84.381 Y78.104 E2.83550
G1 X84.873 Y78.078 E2.84612
G1 X85.365 Y78.099 E2.85676
G1 X85.853 Y78.168 E2.86740
G1 X86.333 Y78.285 E2.87804
G1 X86.811 Y78.453 E2.88897
G1 X87.257 Y78.661 E2.89961
G1 X87.682 Y78.913 E2.91025
G1 X88.079 Y79.204 E2.92088
G1 X88.447 Y79.533 E2.93152
G1 X88.780 Y79.896 E2.94216
G1 X89.077 Y80.290 E2.95280
G1 X89.340 Y80.722 E2.96372
G1 X89.554 Y81.167 E2.97436
G1 X89.723 Y81.630 E2.98500
G1 X89.846 Y82.107 E2.99563
G1 X89.922 Y82.594 E3.00626
G1 X89.950 Y83.087 E3.01691
G1 X89.930 Y83.579 E3.02754
G1 X89.859 Y84.081 E3.03847
G1 X89.743 Y84.560 E3.04911
G1 X89.580 Y85.025 E3.05974
G1 X89.372 Y85.473 E3.07038
G1 X89.123 Y85.897 E3.08101
G1 X88.832 Y86.296 E3.09165
G1 X88.504 Y86.665 E3.10230
G1 X88.142 Y86.999 E3.11294
G1 X87.749 Y87.297 E3.12357
G1 X87.318 Y87.561 E3.13449
G1 X86.874 Y87.776 E3.14512
G1 X86.411 Y87.946 E3.15577
G1 X85.933 Y88.071 E3.16641
G1 X85.446 Y88.148 E3.17704
G1 X84.955 Y88.177 E3.18767
G1 X84.462 Y88.158 E3.19830
G1 X83.973 Y88.092 E3.20895
G1 X83.494 Y87.978 E3.21959
G1 X83.028 Y87.818 E3.23022
G1 X82.579 Y87.613 E3.24086
G1 X82.141 Y87.357 E3.25179
G1 X81.742 Y87.068 E3.26242
G1 X81.373 Y86.742 E3.27306
G1 X81.037 Y86.381 E3.28369
G1 X80.738 Y85.988 E3.29433
G1 X80.479 Y85.568 E3.30498
G1 X80.257 Y85.113 E3.31590
G1 X80.085 Y84.652 E3.32653
G1 X79.960 Y84.175 E3.33717
G1 X79.881 Y83.688 E3.34781
G1 X79.850 Y83.196 E3.35845
G1 X79.868 Y82.703 E3.36908
G1 X79.933 Y82.215 E3.37971
G1 X80.046 Y81.735 E3.39035
G1 X80.205 Y81.268 E3.40098
G1 X80.409 Y80.818 E3.41164
G1 X80.655 Y80.392 E3.42226
G1 X80.947 Y79.985 E3.43305
G1 X81.479 Y80.014 F12000.000
G1 F1680.000 E1.43305
G92 E0
G1 X72.460 Y92.936 F12000.000
G1 F1680.000 E2.00000
G1 X71.417 Y87.697 F900.000 E2.11526
G1 X71.424 Y87.512 E2.11925
G1 X71.689 Y85.487 E2.16331
G1 X73.321 Y74.065 E2.41224
G1 X73.694 Y74.392 E2.42295
G1 X76.131 Y74.391 E2.47552
G1 X76.338 Y74.818 E2.48576
G1 X77.638 Y75.348 E2.51607
G1 X77.703 Y74.900 E2.52584
G1 X78.020 Y74.955 E2.53278
G1 X78.028 Y74.730 E2.53762
G1 X78.862 Y74.752 E2.55561
G1 X78.529 Y74.027 E2.57282
G1 X80.370 Y69.291 E2.68243
G1 X89.629 Y69.289 E2.88218
G1 X91.452 Y73.978 E2.99072
G1 X92.006 Y74.123 E3.00307
G1 X92.334 Y74.150 E3.01016
G1 X94.303 Y74.158 E3.05264
G1 X94.752 Y74.291 E3.06275
G1 X95.084 Y74.481 E3.07100
G1 X95.880 Y74.804 E3.08954
G1 X96.125 Y74.500 E3.09797
G1 X96.736 Y74.471 E3.11117
G1 X98.306 Y85.454 E3.35054
G1 X98.546 Y87.238 E3.38937
G1 X98.583 Y87.697 E3.39930
G1 X97.539 Y92.939 E3.51461
G1 X94.598 Y97.338 E3.62877
G1 X90.192 Y100.284 E3.74311
G1 X84.997 Y101.321 E3.85741
G1 X79.808 Y100.284 E3.97156
G1 X75.399 Y97.336 E4.08598
G1 X72.502 Y92.999 E4.19852
G1 X71.989 Y93.131 F12000.000
G1 X70.914 Y87.734 F720.000 E4.31724
G1 X70.925 Y87.477 E4.32280
G1 X71.196 Y85.398 E4.36803
G1 X72.877 Y73.641 E4.62425
G1 X73.232 Y73.650 E4.63192
G1 X73.311 Y73.718 E4.63417
G1 X73.559 Y73.718 E4.63952
G1 X73.729 Y73.757 E4.64328
G1 X73.883 Y73.893 E4.64770
G1 X76.433 Y73.891 E4.70271
G1 X76.555 Y74.083 E4.70762
G1 X76.704 Y74.428 E4.71573
G1 X77.234 Y74.644 E4.72807
G1 X77.281 Y74.319 E4.73515
G1 X77.542 Y74.364 E4.74087
G1 X77.547 Y74.218 E4.74403
G1 X78.072 Y74.231 E4.75536
G1 X77.897 Y73.848 E4.76445
G1 X78.134 Y73.662 E4.77097
G1 X80.027 Y68.793 E4.88367
G1 X89.970 Y68.789 E5.09819
G1 X91.826 Y73.559 E5.20860
G1 X92.090 Y73.628 E5.21449
G1 X92.354 Y73.650 E5.22020
G1 X94.407 Y73.658 E5.26450
G1 X94.544 Y73.718 E5.26772
G1 X94.780 Y73.766 E5.27291
G1 X94.965 Y73.837 E5.27720
G1 X95.326 Y74.040 E5.28613
G1 X95.724 Y74.201 E5.29539
G1 X95.877 Y74.011 E5.30066
G1 X96.287 Y73.992 E5.30950
G1 X96.296 Y73.926 E5.31093
G1 X96.399 Y73.923 E5.31316
G1 X96.443 Y73.902 E5.31421
G1 X96.879 Y73.902 E5.32361
G1 X96.882 Y73.658 E5.32887
G1 X97.125 Y73.658 E5.33413
G1 X98.844 Y85.686 E5.59626
G1 X99.044 Y87.185 E5.62888
G1 X99.086 Y87.734 E5.64077
G1 X98.011 Y93.128 E5.75942
G1 X94.958 Y97.698 E5.87799
G1 X90.366 Y100.759 E5.99705
G1 X84.997 Y101.831 E6.11517
G1 X79.630 Y100.759 E6.23324
G1 X79.546 Y100.711 E6.23532
G1 X75.039 Y97.697 E6.35230
G1 X72.031 Y93.194 E6.46914
G1 X72.319 Y92.755 F12000.000
G1 X73.335 Y93.595
G1 X79.147 Y99.406 F1200.000 E6.64672
G1 X80.502 Y100.053 E6.67918
G1 X72.691 Y92.242 E6.91787
G1 X72.515 Y91.358 E6.93735
G1 X81.388 Y100.230 E7.20847
G1 X82.273 Y100.407 E7.22797
G1 X72.339 Y90.474 E7.53152
G1 X72.163 Y89.589 E7.55100
G1 X83.158 Y100.584 E7.88697
G1 X84.043 Y100.761 E7.90647
G1 X71.987 Y88.705 E8.27487
G1 X71.811 Y87.821 E8.29435
G1 X84.928 Y100.938 E8.69518
G1 X85.541 Y100.843 E8.70859
G1 X71.833 Y87.135 E9.12747
G1 X71.916 Y86.510 E9.14109
G1 X86.132 Y100.725 E9.57547
G1 X86.722 Y100.607 E9.58848
G1 X72.000 Y85.885 E10.03835
G1 X72.087 Y85.265 E10.05189
G1 X87.312 Y100.489 E10.51712
G1 X87.903 Y100.372 E10.53013
G1 X72.176 Y84.645 E11.01070
G1 X72.264 Y84.025 E11.02422
G1 X88.493 Y100.254 E11.52013
G1 X89.083 Y100.136 E11.53313
G1 X72.353 Y83.405 E12.04437
G1 X72.441 Y82.786 E12.05790
G1 X89.674 Y100.018 E12.58447
G1 X90.204 Y99.840 E12.59656
G1 X72.530 Y82.166 E13.13663
G1 X72.618 Y81.546 E13.15016
G1 X90.628 Y99.556 E13.70049
G1 X91.053 Y99.273 E13.71153
G1 X72.707 Y80.927 E14.27213
G1 X72.796 Y80.307 E14.28565
G1 X91.477 Y98.989 E14.85652
G1 X91.902 Y98.705 E14.86755
G1 X72.884 Y79.687 E15.44868
G1 X72.973 Y79.068 E15.46221
G1 X79.565 Y85.660 E15.66366
G1 X79.170 Y84.557 E15.68898
G1 X73.061 Y78.448 E15.87566
G1 X73.150 Y77.828 E15.88918
G1 X79.015 Y83.694 E16.06842
G1 X78.995 Y82.966 E16.08415
G1 X73.238 Y77.209 E16.26008
G1 X73.327 Y76.589 E16.27360
G1 X79.051 Y82.313 E16.44852
G1 X79.165 Y81.719 E16.46159
G1 X73.415 Y75.969 E16.63729
G1 X73.504 Y75.349 E16.65082
G1 X79.327 Y81.173 E16.82877
G1 X79.530 Y80.668 E16.84053
G1 X73.617 Y74.754 E17.02125
G1 X74.325 Y74.754 E17.03655
G1 X79.770 Y80.199 E17.20294
G1 X80.042 Y79.764 E17.21405
G1 X75.033 Y74.754 E17.36714
G1 X75.741 Y74.754 E17.38244
G1 X76.057 Y75.070 E17.39209
G1 X76.100 Y75.113 F12000.000
G1 X80.346 Y79.359 F1200.000 E17.52184
G1 X80.682 Y78.987 E17.53268
G1 X77.294 Y75.599 E17.63620
G1 X77.973 Y75.570 E17.65087
G1 X81.050 Y78.647 E17.74491
G1 X81.447 Y78.336 E17.75581
G1 X78.371 Y75.259 E17.84982
G1 X78.937 Y75.117 E17.86243
G1 X81.875 Y78.055 E17.95223
G1 X82.336 Y77.808 E17.96353
G1 X79.243 Y74.715 E18.05802
G1 X79.014 Y73.778 E18.07887
G1 X82.832 Y77.596 E18.19552
G1 X83.368 Y77.424 E18.20768
G1 X79.213 Y73.268 E18.33466
G1 X79.411 Y72.758 E18.34648
G1 X83.951 Y77.298 E18.48522
G1 X84.591 Y77.230 E18.49913
G1 X79.609 Y72.248 E18.65137
G1 X79.807 Y71.738 E18.66320
G1 X85.304 Y77.235 E18.83115
G1 X86.123 Y77.346 E18.84901
G1 X80.005 Y71.228 E19.03594
G1 X80.204 Y70.718 E19.04776
G1 X87.144 Y77.659 E19.25984
G1 X90.370 Y80.885 F12000.000
G1 X98.042 Y88.557 F1200.000 E19.49428
G1 X97.925 Y89.148 E19.50729
G1 X90.681 Y81.904 E19.72863
G1 X90.793 Y82.724 E19.74652
G1 X97.807 Y89.738 E19.96085
G1 X97.689 Y90.329 E19.97386
G1 X90.797 Y83.437 E20.18446
G1 X90.729 Y84.076 E20.19836
G1 X97.572 Y90.919 E20.40745
G1 X97.454 Y91.510 E20.42046
G1 X90.604 Y84.660 E20.62978
G1 X90.432 Y85.196 E20.64195
G1 X97.336 Y92.100 E20.85292
G1 X97.218 Y92.691 E20.86593
G1 X90.220 Y85.692 E21.07979
G1 X89.972 Y86.152 E21.09109
G1 X96.965 Y93.145 E21.30477
G1 X96.681 Y93.569 E21.31581
G1 X89.692 Y86.580 E21.52939
G1 X89.381 Y86.978 E21.54029
G1 X96.397 Y93.994 E21.75469
G1 X96.114 Y94.418 E21.76572
G1 X89.040 Y87.345 E21.98186
G1 X88.669 Y87.682 E21.99269
G1 X95.830 Y94.843 E22.21153
G1 X95.546 Y95.267 E22.22256
G1 X88.264 Y87.985 E22.44509
G1 X87.828 Y88.257 E22.45620
G1 X95.262 Y95.692 E22.68338
G1 X94.979 Y96.116 E22.69441
G1 X87.359 Y88.497 E22.92725
G1 X86.854 Y88.700 E22.93900
G1 X94.695 Y96.541 E23.17859
G1 X94.411 Y96.965 E23.18962
G1 X86.308 Y88.863 E23.43722
G1 X85.714 Y88.977 E23.45029
G1 X94.024 Y97.286 E23.70420
G1 X93.599 Y97.570 E23.71523
G1 X85.062 Y89.032 E23.97612
G1 X84.334 Y89.012 E23.99186
G1 X93.175 Y97.854 E24.26202
G1 X92.750 Y98.137 E24.27305
G1 X83.470 Y88.857 E24.55663
G1 X82.366 Y88.461 E24.58197
G1 X92.326 Y98.421 E24.88632
G1 X98.160 Y87.966 F12000.000
G1 X80.402 Y70.208 F1200.000 E25.42896
G1 X80.600 Y69.698 E25.44078
G1 X98.186 Y87.285 E25.97817
G1 X98.077 Y86.467 E25.99599
G1 X81.262 Y69.652 E26.50982
G1 X81.970 Y69.652 E26.52512
G1 X97.967 Y85.649 E27.01394
G1 X97.850 Y84.824 E27.03195
G1 X82.678 Y69.652 E27.49556
G1 X83.386 Y69.652 E27.51087
G1 X97.732 Y83.998 E27.94923
G1 X97.614 Y83.171 E27.96727
G1 X84.095 Y69.652 E28.38039
G1 X84.803 Y69.652 E28.39569
G1 X97.496 Y82.345 E28.78355
G1 X97.378 Y81.519 E28.80159
G1 X85.511 Y69.652 E29.16421
G1 X86.219 Y69.652 E29.17951
G1 X97.260 Y80.692 E29.51687
G1 X97.142 Y79.866 E29.53491
G1 X91.691 Y74.415 E29.70147
G1 X92.496 Y74.512 E29.71899
G1 X97.023 Y79.040 E29.85735
G1 X96.905 Y78.213 E29.87538
G1 X93.203 Y74.511 E29.98850
G1 X93.911 Y74.511 E30.00380
G1 X96.787 Y77.387 E30.09167
G1 X96.669 Y76.561 E30.10971
G1 X94.910 Y74.801 E30.16347
G1 X96.022 Y75.206 E30.18905
G1 X96.551 Y75.734 E30.20520
G1 X96.433 Y74.908 E30.22324
G1 X96.338 Y74.813 E30.22613
G1 X90.942 Y73.667 F12000.000
G1 X86.927 Y69.652 F1200.000 E30.34881
G1 X87.636 Y69.652 E30.36412
G1 X90.491 Y72.508 E30.45138
G1 X90.041 Y71.349 E30.47825
G1 X88.344 Y69.652 E30.53011
G1 X89.052 Y69.652 E30.54541
G1 X89.590 Y70.190 E30.56184
G1 F1680.000 E28.56184
G92 E0
G1 X74.760 Y95.728 F12000.000
G1 F1680.000 E2.00000
G1 X77.010 Y97.978 F1200.000 E2.06875
M106 S216
G1 F1680.000 E0.06875
G92 E0
G1 Z0.500 F12000.000
G1 X82.297 Y88.029
G1 F1680.000 E2.00000
G1 X81.831 Y87.752 F1800.000 E2.00780
G1 X81.395 Y87.431 E2.01559
G1 X80.992 Y87.068 E2.02338
G1 X80.626 Y86.668 E2.03119
G1 X80.293 Y86.222 E2.03919
G1 X80.013 Y85.758 E2.04698
G1 X79.780 Y85.268 E2.05478
G1 X79.595 Y84.760 E2.06256
G1 X79.461 Y84.234 E2.07036
G1 X79.379 Y83.699 E2.07815
G1 X79.350 Y83.158 E2.08595
G1 X79.374 Y82.616 E2.09374
G1 X79.450 Y82.080 E2.10153
G1 X79.578 Y81.553 E2.10933
G1 X79.757 Y81.042 E2.11712
G1 X79.986 Y80.548 E2.12494
G1 X80.268 Y80.071 E2.13292
G1 X80.588 Y79.633 E2.14072
G1 X80.949 Y79.230 E2.14850
G1 X81.348 Y78.863 E2.15630
G1 X81.781 Y78.537 E2.16410
G1 X82.243 Y78.255 E2.17188
G1 X82.731 Y78.019 E2.17968
G1 X83.240 Y77.832 E2.18747
G1 X83.763 Y77.695 E2.19526
G1 X84.299 Y77.610 E2.20306
G1 X84.842 Y77.578 E2.21087
G1 X85.382 Y77.598 E2.21865
G1 X85.918 Y77.672 E2.22644
G1 X86.460 Y77.801 E2.23444
G1 X86.972 Y77.979 E2.24224
G1 X87.464 Y78.205 E2.25003
G1 X87.932 Y78.479 E2.25783
G1 X88.371 Y78.796 E2.26562
G1 X88.787 Y79.166 E2.27363
G1 X89.155 Y79.564 E2.28142
G1 X89.482 Y79.996 E2.28921
G1 X89.766 Y80.457 E2.29700
G1 X90.003 Y80.945 E2.30480
G1 X90.192 Y81.454 E2.31261
G1 X90.330 Y81.979 E2.32042
G1 X90.417 Y82.526 E2.32839
G1 X90.450 Y83.069 E2.33621
G1 X90.429 Y83.609 E2.34398
G1 X90.356 Y84.146 E2.35177
G1 X90.231 Y84.673 E2.35956
G1 X90.054 Y85.186 E2.36736
G1 X89.829 Y85.678 E2.37515
G1 X89.557 Y86.146 E2.38294
G1 X89.241 Y86.586 E2.39073
G1 X88.882 Y86.993 E2.39853
G1 X88.485 Y87.364 E2.40635
G1 X88.045 Y87.701 E2.41432
G1 X87.583 Y87.986 E2.42212
G1 X87.097 Y88.224 E2.42992
G1 X86.589 Y88.414 E2.43771
G1 X86.066 Y88.554 E2.44550
