; generated by Slic3r 0.9.10b on 2014-01-09 at 23:38:10

; layer_height = 0.2
; perimeters = 2
; top_solid_layers = 2
; bottom_solid_layers = 2
; fill_density = 0.5
; perimeter_speed = 30
; infill_speed = 30
; travel_speed = 200
; nozzle_diameter = 0.5
; filament_diameter = 2.98
; extrusion_multiplier = 0.9
; perimeters extrusion width = 0.50mm
; infill extrusion width = 0.50mm
; solid infill extrusion width = 0.50mm
; top infill extrusion width = 0.50mm

G21 ; set units to millimeters
M107
M104 S190 ; set temperature
G28 ; home all axes
G1 Z15 F120 ; lift nozzle
M109 S190 ; wait for temperature to be reached
G90 ; use absolute coordinates
G92 E0
M82 ; use absolute distances for extrusion
G1 F1680.000 E-2.00000
G92 E0
G1 Z0.300 F12000.000
G1 X67.999 Y68.802
G1 F1680.000 E2.00000
G1 X69.049 Y67.922 F900.000 E2.02652
G1 X76.209 Y63.142 E2.19315
G1 X76.959 Y62.712 E2.20988
G1 X77.789 Y62.372 E2.22725
G1 X78.799 Y62.122 E2.24738
G1 X79.839 Y62.042 E2.26757
G1 X90.149 Y62.022 E2.46713
G1 X91.419 Y62.142 E2.49182
G1 X92.649 Y62.522 E2.51674
G1 X93.779 Y63.122 E2.54151
G1 X100.949 Y67.932 E2.70862
G1 X101.989 Y68.802 E2.73487
G1 X102.829 Y69.872 E2.76120
G1 X103.429 Y71.092 E2.78751
G1 X103.759 Y72.412 E2.81385
G1 X105.499 Y84.522 E3.05066
G1 X105.769 Y86.622 E3.09164
G1 X105.829 Y87.532 E3.10929
G1 X105.809 Y88.282 E3.12381
G1 X105.699 Y89.022 E3.13829
G1 X104.609 Y94.492 E3.24625
G1 X104.239 Y95.712 E3.27093
G1 X103.639 Y96.832 E3.29552
G1 X100.529 Y101.482 E3.40380
G1 X99.719 Y102.472 E3.42856
G1 X98.739 Y103.282 E3.45317
G1 X94.059 Y106.402 E3.56204
G1 X92.939 Y107.002 E3.58663
G1 X91.719 Y107.362 E3.61125
G1 X86.259 Y108.452 E3.71902
G1 X84.989 Y108.582 E3.74373
G1 X83.719 Y108.452 E3.76844
G1 X78.269 Y107.362 E3.87602
G1 X77.059 Y107.002 E3.90045
G1 X75.939 Y106.402 E3.92505
G1 X71.249 Y103.282 E4.03408
G1 X70.259 Y102.472 E4.05884
G1 X69.439 Y101.482 E4.08372
G1 X66.339 Y96.832 E4.19189
G1 X65.739 Y95.712 E4.21648
G1 X65.379 Y94.492 E4.24110
G1 X64.289 Y89.022 E4.34906
G1 X64.179 Y88.282 E4.36354
G1 X64.159 Y87.532 E4.37806
G1 X64.229 Y86.592 E4.39631
G1 X64.509 Y84.432 E4.43847
G1 X66.219 Y72.412 E4.67347
G1 X66.559 Y71.092 E4.69985
G1 X67.159 Y69.872 E4.72617
G1 X67.953 Y68.861 E4.75104
G1 F1680.000 E2.75104
G92 E0
G1 X80.655 Y79.552 F12000.000
G1 F1680.000 E2.00000
G1 X81.024 Y79.155 F900.000 E2.01049
G1 X81.430 Y78.796 E2.02097
G1 X81.868 Y78.479 E2.03146
G1 X82.337 Y78.205 E2.04197
G1 X82.843 Y77.973 E2.05273
G1 X83.355 Y77.797 E2.06322
G1 X83.883 Y77.671 E2.07372
G1 X84.420 Y77.598 E2.08421
G1 X84.962 Y77.578 E2.09470
G1 X85.516 Y77.612 E2.10544
G1 X86.051 Y77.698 E2.11594
G1 X86.574 Y77.836 E2.12642
G1 X87.083 Y78.025 E2.13691
G1 X87.571 Y78.262 E2.14742
G1 X88.032 Y78.546 E2.15791
G1 X88.464 Y78.873 E2.16838
G1 X88.862 Y79.241 E2.17889
G1 X89.223 Y79.647 E2.18939
G1 X89.541 Y80.084 E2.19986
G1 X89.816 Y80.551 E2.21034
G1 X90.043 Y81.042 E2.22082
G1 X90.222 Y81.554 E2.23133
G1 X90.350 Y82.080 E2.24179
G1 X90.428 Y82.631 E2.25256
G1 X90.450 Y83.173 E2.26306
G1 X90.419 Y83.713 E2.27354
G1 X90.335 Y84.249 E2.28403
G1 X90.200 Y84.775 E2.29454
G1 X90.009 Y85.297 E2.30530
G1 X89.773 Y85.784 E2.31577
G1 X89.491 Y86.246 E2.32627
G1 X89.165 Y86.679 E2.33675
G1 X88.797 Y87.079 E2.34727
G1 X88.394 Y87.440 E2.35774
G1 X87.956 Y87.760 E2.36824
G1 X87.490 Y88.036 E2.37871
G1 X86.999 Y88.265 E2.38921
G1 X86.489 Y88.445 E2.39969
G1 X85.961 Y88.575 E2.41020
G1 X85.426 Y88.652 E2.42066
G1 X84.885 Y88.677 E2.43115
G1 X84.343 Y88.649 E2.44165
G1 X83.807 Y88.569 E2.45215
G1 X83.282 Y88.436 E2.46263
G1 X82.772 Y88.253 E2.47311
G1 X82.270 Y88.015 E2.48388
G1 X81.805 Y87.734 E2.49439
G1 X81.371 Y87.411 E2.50486
G1 X80.960 Y87.036 E2.51563
G1 X80.597 Y86.633 E2.52611
G1 X80.275 Y86.196 E2.53663
G1 X79.998 Y85.731 E2.54711
G1 X79.768 Y85.240 E2.55760
G1 X79.586 Y84.730 E2.56807
G1 X79.455 Y84.204 E2.57857
G1 X79.376 Y83.668 E2.58907
G1 X79.350 Y83.113 E2.59981
G1 X79.378 Y82.572 E2.61031
G1 X79.459 Y82.035 E2.62081
G1 X79.591 Y81.509 E2.63130
G1 X79.774 Y81.000 E2.64178
G1 X80.006 Y80.510 E2.65227
G1 X80.284 Y80.046 E2.66275
G1 X80.607 Y79.610 E2.67325
G1 X80.994 Y79.927 F12000.000
G1 X81.324 Y79.561 F900.000 E2.68279
G1 X81.689 Y79.229 E2.69234
G1 X82.084 Y78.935 E2.70188
G1 X82.506 Y78.681 E2.71141
G1 X82.952 Y78.468 E2.72097
G1 X83.416 Y78.301 E2.73051
G1 X83.894 Y78.179 E2.74006
G1 X84.381 Y78.104 E2.74960
G1 X84.873 Y78.078 E2.75913
G1 X85.365 Y78.099 E2.76867
G1 X85.853 Y78.168 E2.77822
G1 X86.333 Y78.285 E2.78777
G1 X86.811 Y78.453 E2.79757
G1 X87.257 Y78.661 E2.80711
G1 X87.682 Y78.913 E2.81666
G1 X88.079 Y79.204 E2.82620
G1 X88.447 Y79.533 E2.83574
G1 X88.780 Y79.896 E2.84529
G1 X89.077 Y80.290 E2.85484
G1 X89.340 Y80.722 E2.86464
G1 X89.554 Y81.167 E2.87418
G1 X89.723 Y81.630 E2.88373
G1 X89.846 Y82.107 E2.89326
G1 X89.922 Y82.594 E2.90280
G1 X89.950 Y83.087 E2.91236
G1 X89.930 Y83.579 E2.92190
G1 X89.859 Y84.081 E2.93170
G1 X89.743 Y84.560 E2.94125
G1 X89.580 Y85.025 E2.95078
G1 X89.372 Y85.473 E2.96033
G1 X89.123 Y85.897 E2.96987
G1 X88.832 Y86.296 E2.97942
G1 X88.504 Y86.665 E2.98897
G1 X88.142 Y86.999 E2.99851
G1 X87.749 Y87.297 E3.00805
G1 X87.318 Y87.561 E3.01784
G1 X86.874 Y87.776 E3.02739
G1 X86.411 Y87.946 E3.03694
G1 X85.933 Y88.071 E3.04648
G1 X85.446 Y88.148 E3.05603
G1 X84.955 Y88.177 E3.06556
G1 X84.462 Y88.158 E3.07510
G1 X83.973 Y88.092 E3.08465
G1 X83.494 Y87.978 E3.09420
G1 X83.028 Y87.818 E3.10373
G1 X82.579 Y87.613 E3.11328
G1 X82.141 Y87.357 E3.12309
G1 X81.742 Y87.068 E3.13263
G1 X81.373 Y86.742 E3.14217
G1 X81.037 Y86.381 E3.15171
G1 X80.738 Y85.988 E3.16125
G1 X80.479 Y85.568 E3.17081
G1 X80.257 Y85.113 E3.18061
G1 X80.085 Y84.652 E3.19014
G1 X79.960 Y84.175 E3.19969
G1 X79.881 Y83.688 E3.20923
G1 X79.850 Y83.196 E3.21878
G1 X79.868 Y82.703 E3.22832
G1 X79.933 Y82.215 E3.23786
G1 X80.046 Y81.735 E3.24740
G1 X80.205 Y81.268 E3.25694
G1 X80.409 Y80.818 E3.26650
G1 X80.655 Y80.392 E3.27604
G1 X80.947 Y79.985 E3.28571
G1 X81.479 Y80.014 F12000.000
G1 F1680.000 E1.28571
G92 E0
G1 X71.417 Y87.697 F12000.000
G1 F1680.000 E2.00000
G1 X71.454 Y87.238 F900.000 E2.00890
G1 X71.652 Y85.751 E2.03794
G1 X73.321 Y74.065 E2.26644
G1 X73.694 Y74.392 E2.27605
G1 X76.131 Y74.391 E2.32322
G1 X76.338 Y74.818 E2.33241
G1 X77.638 Y75.348 E2.35960
G1 X77.703 Y74.900 E2.36837
G1 X78.020 Y74.955 E2.37460
G1 X78.028 Y74.730 E2.37894
G1 X78.862 Y74.752 E2.39507
G1 X78.529 Y74.027 E2.41051
G1 X80.370 Y69.291 E2.50886
G1 X89.629 Y69.289 E2.68807
G1 X91.452 Y73.978 E2.78545
G1 X92.006 Y74.123 E2.79653
G1 X92.334 Y74.150 E2.80289
G1 X94.303 Y74.158 E2.84101
G1 X94.752 Y74.291 E2.85007
G1 X95.084 Y74.481 E2.85748
G1 X95.880 Y74.804 E2.87411
G1 X96.125 Y74.500 E2.88168
G1 X96.736 Y74.471 E2.89352
G1 X98.306 Y85.454 E3.10827
G1 X98.576 Y87.512 E3.14844
G1 X98.583 Y87.697 E3.15202
G1 X97.539 Y92.939 E3.25548
G1 X94.598 Y97.338 E3.35790
G1 X90.192 Y100.284 E3.46049
G1 X84.997 Y101.321 E3.56303
G1 X79.808 Y100.284 E3.66545
G1 X75.399 Y97.336 E3.76811
G1 X72.460 Y92.936 E3.87053
G1 X71.431 Y87.770 E3.97248
G1 X70.914 Y87.734 F12000.000
G1 X70.956 Y87.185 F720.000 E3.98315
G1 X71.156 Y85.686 E4.01242
G1 X72.877 Y73.641 E4.24792
G1 X73.232 Y73.650 E4.25480
G1 X73.311 Y73.718 E4.25683
G1 X73.559 Y73.718 E4.26162
G1 X73.729 Y73.757 E4.26500
G1 X73.883 Y73.893 E4.26896
G1 X76.433 Y73.891 E4.31831
G1 X76.555 Y74.083 E4.32272
G1 X76.704 Y74.428 E4.33000
G1 X77.234 Y74.644 E4.34107
G1 X77.281 Y74.319 E4.34742
G1 X77.542 Y74.364 E4.35255
G1 X77.547 Y74.218 E4.35539
G1 X78.072 Y74.231 E4.36555
G1 X77.897 Y73.848 E4.37371
G1 X78.134 Y73.662 E4.37956
G1 X80.027 Y68.793 E4.48067
G1 X89.970 Y68.789 E4.67313
G1 X91.826 Y73.559 E4.77219
G1 X92.090 Y73.628 E4.77748
G1 X92.354 Y73.650 E4.78260
G1 X94.407 Y73.658 E4.82235
G1 X94.544 Y73.718 E4.82524
G1 X94.780 Y73.766 E4.82989
G1 X94.965 Y73.837 E4.83374
G1 X95.326 Y74.040 E4.84175
G1 X95.724 Y74.201 E4.85006
G1 X95.877 Y74.011 E4.85479
G1 X96.287 Y73.992 E4.86272
G1 X96.296 Y73.926 E4.86400
G1 X96.399 Y73.923 E4.86600
G1 X96.443 Y73.902 E4.86695
G1 X96.879 Y73.902 E4.87538
G1 X96.882 Y73.658 E4.88010
G1 X97.125 Y73.658 E4.88481
G1 X98.802 Y85.388 E5.11417
G1 X99.075 Y87.477 E5.15495
G1 X99.086 Y87.734 E5.15994
G1 X98.011 Y93.128 E5.26639
G1 X94.958 Y97.698 E5.37276
G1 X90.366 Y100.759 E5.47958
G1 X84.997 Y101.831 E5.58556
G1 X79.630 Y100.759 E5.69149
G1 X79.546 Y100.711 E5.69336
G1 X75.039 Y97.697 E5.79831
G1 X71.989 Y93.131 E5.90458
G1 X70.929 Y87.808 E6.00965
G1 X71.344 Y87.478 F12000.000
G1 X73.335 Y93.595
G1 X79.147 Y99.406 F1200.000 E6.16897
G1 X80.502 Y100.053 E6.19809
G1 X72.691 Y92.242 E6.41224
G1 X72.515 Y91.358 E6.42972
G1 X81.388 Y100.230 E6.67297
G1 X82.273 Y100.407 E6.69046
G1 X72.339 Y90.474 E6.96280
G1 X72.163 Y89.589 E6.98028
G1 X83.158 Y100.584 E7.28171
G1 X84.043 Y100.761 E7.29920
G1 X71.987 Y88.705 E7.62972
G1 X71.811 Y87.821 E7.64720
G1 X84.928 Y100.938 E8.00682
G1 X85.541 Y100.843 E8.01885
G1 X71.833 Y87.135 E8.39466
G1 X71.916 Y86.510 E8.40688
G1 X86.132 Y100.725 E8.79660
G1 X86.722 Y100.607 E8.80827
G1 X72.000 Y85.885 E9.21189
G1 X72.087 Y85.265 E9.22404
G1 X87.312 Y100.489 E9.64144
G1 X87.903 Y100.372 E9.65311
G1 X72.176 Y84.645 E10.08427
G1 X72.264 Y84.025 E10.09640
G1 X88.493 Y100.254 E10.54132
G1 X89.083 Y100.136 E10.55299
G1 X72.353 Y83.405 E11.01167
G1 X72.441 Y82.786 E11.02380
G1 X89.674 Y100.018 E11.49624
G1 X90.204 Y99.840 E11.50708
G1 X72.530 Y82.166 E11.99163
G1 X72.618 Y81.546 E12.00376
G1 X90.628 Y99.556 E12.49752
G1 X91.053 Y99.273 E12.50741
G1 X72.707 Y80.927 E13.01038
G1 X72.796 Y80.307 E13.02251
G1 X91.477 Y98.989 E13.53469
G1 X91.902 Y98.705 E13.54458
G1 X72.884 Y79.687 E14.06597
G1 X72.973 Y79.068 E14.07810
G1 X79.565 Y85.660 E14.25884
G1 X79.170 Y84.557 E14.28156
G1 X73.061 Y78.448 E14.44904
G1 X73.150 Y77.828 E14.46118
G1 X79.015 Y83.694 E14.62198
G1 X78.995 Y82.966 E14.63610
G1 X73.238 Y77.209 E14.79394
G1 X73.327 Y76.589 E14.80607
G1 X79.051 Y82.313 E14.96301
G1 X79.165 Y81.719 E14.97473
G1 X73.415 Y75.969 E15.13237
G1 X73.504 Y75.349 E15.14451
G1 X79.327 Y81.173 E15.30416
G1 X79.530 Y80.668 E15.31471
G1 X73.617 Y74.754 E15.47685
G1 X74.325 Y74.754 E15.49058
G1 X79.770 Y80.199 E15.63986
G1 X80.042 Y79.764 E15.64983
G1 X75.033 Y74.754 E15.78718
G1 X75.741 Y74.754 E15.80090
G1 X76.057 Y75.070 E15.80957
G1 X76.100 Y75.113 F12000.000
G1 X80.346 Y79.359 F1200.000 E15.92598
G1 X80.682 Y78.987 E15.93570
G1 X77.294 Y75.599 E16.02857
G1 X77.973 Y75.570 E16.04174
G1 X81.050 Y78.647 E16.12611
G1 X81.447 Y78.336 E16.13589
G1 X78.371 Y75.259 E16.22024
G1 X78.937 Y75.117 E16.23155
G1 X81.875 Y78.055 E16.31211
G1 X82.336 Y77.808 E16.32225
G1 X79.243 Y74.715 E16.40703
G1 X79.014 Y73.778 E16.42573
G1 X82.832 Y77.596 E16.53039
G1 X83.368 Y77.424 E16.54130
G1 X79.213 Y73.268 E16.65522
G1 X79.411 Y72.758 E16.66583
G1 X83.951 Y77.298 E16.79030
G1 X84.591 Y77.230 E16.80278
G1 X79.609 Y72.248 E16.93937
G1 X79.807 Y71.738 E16.94998
G1 X85.304 Y77.235 E17.10067
G1 X86.123 Y77.346 E17.11669
G1 X80.005 Y71.228 E17.28440
G1 X80.204 Y70.718 E17.29501
G1 X87.144 Y77.659 E17.48528
G1 X90.370 Y80.885 F12000.000
G1 X98.042 Y88.557 F1200.000 E17.69562
G1 X97.925 Y89.148 E17.70729
G1 X90.681 Y81.904 E17.90588
G1 X90.793 Y82.724 E17.92192
G1 X97.807 Y89.738 E18.11422
G1 X97.689 Y90.329 E18.12589
G1 X90.797 Y83.437 E18.31484
G1 X90.729 Y84.076 E18.32731
G1 X97.572 Y90.919 E18.51491
G1 X97.454 Y91.510 E18.52658
G1 X90.604 Y84.660 E18.71437
G1 X90.432 Y85.196 E18.72529
G1 X97.336 Y92.100 E18.91457
G1 X97.218 Y92.691 E18.92625
G1 X90.220 Y85.692 E19.11812
G1 X89.972 Y86.152 E19.12826
G1 X96.965 Y93.145 E19.31997
G1 X96.681 Y93.569 E19.32987
G1 X89.692 Y86.580 E19.52149
G1 X89.381 Y86.978 E19.53127
G1 X96.397 Y93.994 E19.72363
G1 X96.114 Y94.418 E19.73353
G1 X89.040 Y87.345 E19.92744
G1 X88.669 Y87.682 E19.93716
G1 X95.830 Y94.843 E20.13349
G1 X95.546 Y95.267 E20.14339
G1 X88.264 Y87.985 E20.34304
G1 X87.828 Y88.257 E20.35301
G1 X95.262 Y95.692 E20.55684
G1 X94.979 Y96.116 E20.56673
G1 X87.359 Y88.497 E20.77563
G1 X86.854 Y88.700 E20.78618
G1 X94.695 Y96.541 E21.00113
G1 X94.411 Y96.965 E21.01103
G1 X86.308 Y88.863 E21.23317
G1 X85.714 Y88.977 E21.24490
G1 X94.024 Y97.286 E21.47270
G1 X93.599 Y97.570 E21.48260
G1 X85.062 Y89.032 E21.71666
G1 X84.334 Y89.012 E21.73078
G1 X93.175 Y97.854 E21.97317
G1 X92.750 Y98.137 E21.98307
G1 X83.470 Y88.857 E22.23749
G1 X82.366 Y88.461 E22.26022
G1 X92.326 Y98.421 E22.53328
G1 X98.160 Y87.966 F12000.000
G1 X80.402 Y70.208 F1200.000 E23.02013
G1 X80.600 Y69.698 E23.03074
G1 X98.186 Y87.285 E23.51287
G1 X98.077 Y86.467 E23.52886
G1 X81.262 Y69.652 E23.98986
G1 X81.970 Y69.652 E24.00359
G1 X97.967 Y85.649 E24.44216
G1 X97.850 Y84.824 E24.45831
G1 X82.678 Y69.652 E24.87426
G1 X83.386 Y69.652 E24.88799
G1 X97.732 Y83.998 E25.28128
G1 X97.614 Y83.171 E25.29746
G1 X84.095 Y69.652 E25.66811
G1 X84.803 Y69.652 E25.68184
G1 X97.496 Y82.345 E26.02982
G1 X97.378 Y81.519 E26.04601
G1 X85.511 Y69.652 E26.37134
G1 X86.219 Y69.652 E26.38507
G1 X97.260 Y80.692 E26.68775
G1 X97.142 Y79.866 E26.70393
G1 X91.691 Y74.415 E26.85337
G1 X92.496 Y74.512 E26.86908
G1 X97.023 Y79.040 E26.99322
G1 X96.905 Y78.213 E27.00940
G1 X93.203 Y74.511 E27.11088
G1 X93.911 Y74.511 E27.12461
G1 X96.787 Y77.387 E27.20345
G1 X96.669 Y76.561 E27.21963
G1 X94.910 Y74.801 E27.26786
G1 X96.022 Y75.206 E27.29081
G1 X96.551 Y75.734 E27.30531
G1 X96.433 Y74.908 E27.32149
G1 X96.338 Y74.813 E27.32408
G1 X90.942 Y73.667 F12000.000
G1 X86.927 Y69.652 F1200.000 E27.43415
G1 X87.636 Y69.652 E27.44788
G1 X90.491 Y72.508 E27.52618
G1 X90.041 Y71.349 E27.55028
G1 X88.344 Y69.652 E27.59680
G1 X89.052 Y69.652 E27.61053
G1 X89.590 Y70.190 E27.62528
G1 F1680.000 E25.62528
G92 E0
G1 X74.760 Y95.728 F12000.000
G1 F1680.000 E2.00000
G1 X77.010 Y97.978 F1200.000 E2.06168
M106 S216
M104 S188 ; set temperature
G1 F1680.000 E0.06168
G92 E0
G1 Z0.500 F12000.000
G1 X82.297 Y88.029
G1 F1680.000 E2.00000
G1 X81.831 Y87.752 F1800.000 E2.00700
G1 X81.395 Y87.431 E2.01398
G1 X80.992 Y87.068 E2.02098
G1 X80.626 Y86.668 E2.02798
G1 X80.293 Y86.222 E2.03516
G1 X80.013 Y85.758 E2.04215
G1 X79.780 Y85.268 E2.04915
G1 X79.595 Y84.760 E2.05613
G1 X79.461 Y84.234 E2.06313
G1 X79.379 Y83.699 E2.07012
G1 X79.350 Y83.158 E2.07711
G1 X79.374 Y82.616 E2.08410
G1 X79.450 Y82.080 E2.09109
G1 X79.578 Y81.553 E2.09809
G1 X79.757 Y81.042 E2.10508
G1 X79.986 Y80.548 E2.11210
G1 X80.268 Y80.071 E2.11925
G1 X80.588 Y79.633 E2.12625
G1 X80.949 Y79.230 E2.13323
G1 X81.348 Y78.863 E2.14023
G1 X81.781 Y78.537 E2.14723
G1 X82.243 Y78.255 E2.15421
G1 X82.731 Y78.019 E2.16120
G1 X83.240 Y77.832 E2.16820
G1 X83.763 Y77.695 E2.17518
G1 X84.299 Y77.610 E2.18218
G1 X84.842 Y77.578 E2.18919
G1 X85.382 Y77.598 E2.19617
G1 X85.918 Y77.672 E2.20316
G1 X86.460 Y77.801 E2.21034
G1 X86.972 Y77.979 E2.21734
G1 X87.464 Y78.205 E2.22432
G1 X87.932 Y78.479 E2.23132
G1 X88.371 Y78.796 E2.23831
G1 X88.787 Y79.166 E2.24549
G1 X89.155 Y79.564 E2.25249
G1 X89.482 Y79.996 E2.25948
G1 X89.766 Y80.457 E2.26647
G1 X90.003 Y80.945 E2.27346
G1 X90.192 Y81.454 E2.28047
G1 X90.330 Y81.979 E2.28747
G1 X90.417 Y82.526 E2.29463
G1 X90.450 Y83.069 E2.30164
G1 X90.429 Y83.609 E2.30861
G1 X90.356 Y84.146 E2.31560
G1 X90.231 Y84.673 E2.32260
G1 X90.054 Y85.186 E2.32959
G1 X89.829 Y85.678 E2.33658
G1 X89.557 Y86.146 E2.34357
G1 X89.241 Y86.586 E2.35056
G1 X88.882 Y86.993 E2.35756
G1 X88.485 Y87.364 E2.36457
G1 X88.045 Y87.701 E2.37173
G1 X87.583 Y87.986 E2.37872
G1 X87.097 Y88.224 E2.38571
G1 X86.589 Y88.414 E2.39270
