; generated by Slic3r 0.9.10b on 2014-01-13 at 12:40:20

; layer_height = 0.2
; perimeters = 1
; top_solid_layers = 2
; bottom_solid_layers = 2
; fill_density = 0.2
; perimeter_speed = 30
; infill_speed = 30
; travel_speed = 200
; nozzle_diameter = 0.5
; filament_diameter = 2.98
; extrusion_multiplier = 0.9
; perimeters extrusion width = 0.50mm
; infill extrusion width = 0.50mm
; solid infill extrusion width = 0.50mm
; top infill extrusion width = 0.50mm

G21 ; set units to millimeters
M107
M104 S190 ; set temperature
G28 ; home all axes
G1 Z15 F120 ; lift nozzle
M109 S190 ; wait for temperature to be reached
G90 ; use absolute coordinates
G92 E0
M82 ; use absolute distances for extrusion
G1 F1680.000 E-2.00000
G92 E0
G1 Z0.300 F12000.000
G1 X67.910 Y69.185
G1 F1680.000 E2.00000
G1 X68.910 Y68.355 F900.000 E2.02515
G1 X76.470 Y63.265 E2.20156
G1 X77.600 Y62.655 E2.22642
G1 X78.820 Y62.285 E2.25109
G1 X80.100 Y62.155 E2.27599
G1 X89.890 Y62.155 E2.46549
G1 X91.170 Y62.285 E2.49039
G1 X92.390 Y62.655 E2.51507
G1 X93.520 Y63.265 E2.53992
G1 X101.080 Y68.355 E2.71633
G1 X102.080 Y69.185 E2.74148
G1 X102.900 Y70.205 E2.76681
G1 X103.500 Y71.355 E2.79192
G1 X103.850 Y72.615 E2.81723
G1 X104.400 Y75.685 E2.87760
G1 X104.720 Y77.645 E2.91604
G1 X104.980 Y79.465 E2.95163
G1 X105.140 Y80.855 E2.97871
G1 X105.260 Y82.415 E3.00899
G1 X105.340 Y84.075 E3.04116
G1 X105.350 Y85.425 E3.06729
G1 X105.330 Y86.575 E3.08955
G1 X105.260 Y87.935 E3.11591
G1 X105.150 Y89.365 E3.14367
G1 X105.020 Y90.565 E3.16704
G1 X104.890 Y91.505 E3.18540
G1 X104.620 Y92.855 E3.21205
G1 X104.470 Y93.435 E3.22365
G1 X104.190 Y94.345 E3.24208
G1 X103.990 Y94.905 E3.25359
G1 X103.600 Y95.855 E3.27346
G1 X103.350 Y96.405 E3.28516
G1 X102.810 Y97.435 E3.30767
G1 X102.560 Y97.865 E3.31729
G1 X101.890 Y98.935 E3.34173
G1 X101.550 Y99.425 E3.35327
G1 X100.750 Y100.475 E3.37882
G1 X100.410 Y100.885 E3.38913
G1 X99.500 Y101.895 E3.41545
G1 X99.020 Y102.375 E3.42859
G1 X98.010 Y103.285 E3.45490
G1 X97.610 Y103.615 E3.46494
G1 X96.540 Y104.435 E3.49103
G1 X96.080 Y104.755 E3.50188
G1 X94.540 Y105.715 E3.53700
G1 X93.430 Y106.305 E3.56133
G1 X92.950 Y106.535 E3.57164
G1 X91.880 Y106.995 E3.59418
G1 X91.460 Y107.165 E3.60295
G1 X90.070 Y107.635 E3.63135
G1 X89.180 Y107.885 E3.64924
G1 X87.780 Y108.195 E3.67700
G1 X86.530 Y108.395 E3.70150
G1 X85.840 Y108.455 E3.71491
G1 X84.270 Y108.455 E3.74530
G1 X83.460 Y108.395 E3.76102
G1 X82.800 Y108.305 E3.77391
G1 X81.880 Y108.135 E3.79202
G1 X80.810 Y107.885 E3.81329
G1 X79.530 Y107.515 E3.83908
G1 X78.530 Y107.165 E3.85958
G1 X77.040 Y106.535 E3.89090
G1 X76.560 Y106.305 E3.90120
G1 X75.450 Y105.715 E3.92553
G1 X73.910 Y104.755 E3.96066
G1 X73.450 Y104.435 E3.97150
G1 X72.380 Y103.615 E3.99759
G1 X71.980 Y103.285 E4.00763
G1 X70.970 Y102.375 E4.03395
G1 X70.490 Y101.895 E4.04708
G1 X69.580 Y100.885 E4.07340
G1 X69.240 Y100.475 E4.08371
G1 X68.440 Y99.425 E4.10926
G1 X68.100 Y98.935 E4.12080
G1 X67.180 Y97.435 E4.15486
G1 X66.640 Y96.405 E4.17737
G1 X66.390 Y95.855 E4.18907
G1 X66.000 Y94.905 E4.20894
G1 X65.800 Y94.345 E4.22045
G1 X65.520 Y93.435 E4.23888
G1 X65.370 Y92.855 E4.25048
G1 X65.100 Y91.505 E4.27713
G1 X64.970 Y90.565 E4.29549
G1 X64.820 Y89.205 E4.32198
G1 X64.730 Y88.125 E4.34295
G1 X64.660 Y86.575 E4.37299
G1 X64.640 Y85.255 E4.39854
G1 X64.650 Y84.075 E4.42138
G1 X64.740 Y82.305 E4.45568
G1 X64.850 Y80.855 E4.48383
G1 X65.010 Y79.465 E4.51091
G1 X65.270 Y77.655 E4.54631
G1 X65.530 Y76.055 E4.57768
G1 X66.140 Y72.615 E4.64530
G1 X66.490 Y71.365 E4.67043
G1 X67.090 Y70.205 E4.69571
G1 X67.863 Y69.243 E4.71959
G1 F1680.000 E2.71959
G92 E0
G1 X81.465 Y80.178 F12000.000
G1 F1680.000 E2.00000
G1 X83.182 Y78.993 F900.000 E2.04037
G1 X85.252 Y78.741 E2.08074
G1 X87.202 Y79.481 E2.12111
G1 X88.585 Y81.042 E2.16148
G1 X89.065 Y82.989 E2.20028
G1 X89.084 Y83.067 E2.20185
G1 X88.585 Y85.092 E2.24221
G1 X87.202 Y86.653 E2.28258
G1 X85.252 Y87.393 E2.32295
G1 X83.182 Y87.141 E2.36332
G1 X81.465 Y85.957 E2.40369
G1 X80.496 Y84.110 E2.44406
G1 X80.496 Y82.024 E2.48443
G1 X81.430 Y80.244 E2.52335
G1 X77.881 Y75.030 F12000.000
G1 X80.275 Y68.908 F720.000 E2.65058
G1 X89.725 Y68.908 E2.83349
G1 X92.119 Y75.030 E2.96072
G1 X96.274 Y75.023 E3.04113
G1 X96.272 Y74.290 E3.05531
G1 X97.076 Y73.854 E3.07301
G1 X97.234 Y73.926 E3.07637
G1 X97.802 Y77.135 E3.13945
G1 X98.061 Y78.733 E3.17078
G1 X98.276 Y80.238 E3.20021
G1 X98.432 Y81.628 E3.22728
G1 X98.517 Y82.674 E3.24760
G1 X98.592 Y84.143 E3.27606
G1 X98.606 Y85.316 E3.29877
G1 X98.585 Y86.465 E3.32102
G1 X98.516 Y87.760 E3.34612
G1 X98.447 Y88.643 E3.36326
G1 X98.337 Y89.648 E3.38283
G1 X98.205 Y90.579 E3.40102
G1 X98.020 Y91.469 E3.41862
G1 X97.753 Y92.358 E3.43660
G1 X97.371 Y93.289 E3.45607
G1 X96.842 Y94.298 E3.47813
G1 X96.178 Y95.346 E3.50213
G1 X95.392 Y96.385 E3.52735
G1 X94.499 Y97.374 E3.55315
G1 X93.509 Y98.272 E3.57901
G1 X92.454 Y99.072 E3.60464
G1 X91.367 Y99.764 E3.62959
G1 X90.281 Y100.341 E3.65339
G1 X89.228 Y100.795 E3.67559
G1 X88.243 Y101.139 E3.69578
G1 X87.361 Y101.389 E3.71352
G1 X86.621 Y101.557 E3.72821
G1 X86.060 Y101.657 E3.73924
G1 X85.636 Y101.706 E3.74750
G1 X85.300 Y101.722 E3.75402
G1 X84.364 Y101.706 E3.77213
G1 X83.940 Y101.657 E3.78038
G1 X83.379 Y101.557 E3.79142
G1 X82.639 Y101.389 E3.80611
G1 X81.757 Y101.139 E3.82385
G1 X80.772 Y100.795 E3.84404
G1 X79.719 Y100.341 E3.86624
G1 X78.633 Y99.764 E3.89003
G1 X77.546 Y99.072 E3.91499
G1 X76.491 Y98.272 E3.94062
G1 X75.501 Y97.374 E3.96648
G1 X74.608 Y96.385 E3.99228
G1 X73.822 Y95.346 E4.01749
G1 X73.158 Y94.298 E4.04150
G1 X72.629 Y93.289 E4.06356
G1 X72.247 Y92.358 E4.08303
G1 X71.980 Y91.469 E4.10101
G1 X71.795 Y90.579 E4.11860
G1 X71.663 Y89.648 E4.13679
G1 X71.553 Y88.643 E4.15637
G1 X71.470 Y87.578 E4.17704
G1 X71.415 Y86.465 E4.19861
G1 X71.394 Y85.316 E4.22086
G1 X71.408 Y84.143 E4.24357
G1 X71.465 Y82.920 E4.26727
G1 X71.568 Y81.628 E4.29235
G1 X71.724 Y80.238 E4.31942
G1 X71.939 Y78.733 E4.34884
G1 X72.198 Y77.135 E4.38017
G1 X72.766 Y73.926 E4.44326
G1 X72.924 Y73.854 E4.44661
G1 X73.728 Y74.290 E4.46431
G1 X73.726 Y75.023 E4.47850
G1 X77.806 Y75.030 E4.55746
G1 X89.814 Y70.130 F12000.000
G1 X88.955 Y69.272 F1200.000 E4.58108
G1 X88.244 Y69.272 E4.59493
G1 X90.271 Y71.298 E4.65071
G1 X90.727 Y72.466 E4.67512
G1 X87.533 Y69.271 E4.76306
G1 X86.822 Y69.271 E4.77691
G1 X91.184 Y73.634 E4.89701
G1 X91.641 Y74.802 F12000.000
G1 X86.111 Y69.271 F1200.000 E5.04926
G1 X85.399 Y69.271 E5.06311
G1 X98.096 Y81.967 E5.41263
G1 X98.157 Y82.740 E5.42772
G1 X84.688 Y69.271 E5.79852
G1 X83.977 Y69.271 E5.81237
G1 X98.199 Y83.493 E6.20389
G1 X98.230 Y84.236 E6.21836
G1 X83.266 Y69.271 E6.63033
G1 X82.554 Y69.271 E6.64417
G1 X98.239 Y84.956 E7.07597
G1 X98.237 Y85.665 E7.08977
G1 X81.843 Y69.271 E7.54109
G1 X81.132 Y69.271 E7.55493
G1 X98.224 Y86.363 E8.02547
G1 X98.194 Y87.044 E8.03873
G1 X80.494 Y69.344 E8.52600
G1 X80.294 Y69.855 E8.53668
G1 X98.156 Y87.717 E9.02841
G1 X98.104 Y88.376 E9.04128
G1 X80.094 Y70.366 E9.53709
G1 X79.894 Y70.877 E9.54777
G1 X98.040 Y89.024 E10.04733
G1 X93.393 Y97.888 F12000.000
G1 X82.876 Y87.371 F1200.000 E10.33685
G1 X83.798 Y87.581 E10.35525
G1 X93.766 Y97.550 E10.62967
G1 X94.139 Y97.211 E10.63947
G1 X84.607 Y87.680 E10.90187
G1 X85.373 Y87.734 E10.91682
G1 X94.486 Y96.848 E11.16770
G1 X94.824 Y96.474 E11.17750
G1 X85.889 Y87.539 E11.42347
G1 X86.404 Y87.343 E11.43421
G1 X95.157 Y96.096 E11.67515
G1 X95.463 Y95.691 E11.68503
G1 X86.920 Y87.148 E11.92021
G1 X87.428 Y86.945 E11.93086
G1 X95.769 Y95.286 E12.16048
G1 X96.056 Y94.862 E12.17045
G1 X87.762 Y86.568 E12.39878
G1 X88.096 Y86.191 E12.40858
G1 X96.332 Y94.426 E12.63531
G1 X96.599 Y93.982 E12.64540
G1 X88.430 Y85.814 E12.87027
G1 X88.764 Y85.436 E12.88008
G1 X96.843 Y93.516 E13.10249
G1 X97.081 Y93.042 E13.11281
G1 X88.992 Y84.954 E13.33548
G1 X89.133 Y84.383 E13.34691
G1 X97.288 Y92.538 E13.57141
G1 X97.478 Y92.017 E13.58221
G1 X89.274 Y83.813 E13.80806
G1 X89.414 Y83.242 E13.81949
G1 X97.642 Y91.470 E14.04599
G1 X97.771 Y90.887 E14.05760
G1 X89.296 Y82.413 E14.29090
G1 X89.064 Y81.469 E14.30982
G1 X97.880 Y90.286 E14.55254
G1 X97.969 Y89.663 E14.56478
G1 X79.694 Y71.388 E15.06787
G1 X79.494 Y71.900 E15.07855
G1 X86.374 Y78.779 E15.26794
G1 X85.259 Y78.376 E15.29102
G1 X79.294 Y72.411 E15.45523
G1 X79.094 Y72.922 E15.46591
G1 X84.625 Y78.452 E15.61816
G1 X83.991 Y78.529 E15.63060
G1 X78.894 Y73.433 E15.77090
G1 X78.694 Y73.944 E15.78158
G1 X83.356 Y78.606 E15.90993
G1 X82.832 Y78.794 E15.92076
G1 X78.494 Y74.455 E16.04018
G1 X78.294 Y74.967 E16.05087
G1 X82.412 Y79.084 E16.16421
G1 X81.991 Y79.374 E16.17416
G1 X78.008 Y75.392 E16.28381
G1 X77.296 Y75.390 E16.29767
G1 X81.570 Y79.665 E16.41534
G1 X81.165 Y79.970 E16.42523
G1 X76.583 Y75.389 E16.55134
G1 X75.871 Y75.388 E16.56521
G1 X80.920 Y80.437 E16.70420
G1 X80.675 Y80.903 E16.71445
G1 X75.159 Y75.387 E16.86631
G1 X74.447 Y75.386 E16.88017
G1 X80.430 Y81.369 E17.04490
G1 X80.186 Y81.836 E17.05515
G1 X73.734 Y75.384 E17.23275
G1 X73.022 Y75.383 E17.24662
G1 X80.134 Y82.495 E17.44239
G1 X80.134 Y83.206 E17.45624
G1 X72.791 Y75.863 E17.65838
G1 X72.688 Y76.472 E17.67039
G1 X80.134 Y83.917 E17.87535
G1 X80.607 Y85.102 E17.90020
G1 X72.585 Y77.080 E18.12104
G1 X72.483 Y77.689 E18.13305
G1 X92.998 Y98.204 E18.69783
G1 X92.594 Y98.511 E18.70771
G1 X72.380 Y78.297 E19.26418
G1 X72.280 Y78.908 E19.27623
G1 X92.185 Y98.813 E19.82420
G1 X91.751 Y99.090 E19.83422
G1 X72.191 Y79.531 E20.37268
G1 X72.103 Y80.153 E20.38492
G1 X91.316 Y99.367 E20.91385
G1 X90.861 Y99.623 E20.92402
G1 X72.027 Y80.789 E21.44250
G1 X71.955 Y81.428 E21.45502
G1 X90.397 Y99.869 E21.96270
G1 X89.919 Y100.103 E21.97305
G1 X71.895 Y82.079 E22.46922
G1 X71.843 Y82.738 E22.48208
G1 X89.422 Y100.317 E22.96601
G1 X88.914 Y100.520 E22.97665
G1 X71.805 Y83.411 E23.44766
G1 X71.773 Y84.091 E23.46091
G1 X88.387 Y100.705 E23.91828
G1 X87.846 Y100.875 E23.92932
G1 X71.763 Y84.791 E24.37208
G1 X71.760 Y85.499 E24.38587
G1 X87.292 Y101.032 E24.81346
G1 X86.713 Y101.164 E24.82502
G1 X71.773 Y86.224 E25.23631
G1 X71.802 Y86.964 E25.25073
G1 X86.117 Y101.278 E25.64479
G1 X85.471 Y101.344 E25.65741
G1 X71.844 Y87.717 E26.03256
G1 X71.905 Y88.489 E26.04763
G1 X84.776 Y101.360 E26.40197
G1 X84.004 Y101.299 E26.41705
G1 X71.988 Y89.283 E26.74783
G1 X72.093 Y90.100 E26.76386
G1 X83.120 Y101.126 E27.06741
G1 X82.159 Y100.876 E27.08674
G1 X72.245 Y90.962 E27.35966
G1 X72.494 Y91.923 E27.37898
G1 X81.095 Y100.524 E27.61576
G1 X79.873 Y100.012 E27.64155
G1 X72.931 Y93.071 E27.83266
G1 X73.829 Y94.680 E27.86852
G1 X78.221 Y99.072 E27.98945
G1 F1680.000 E25.98945
G92 E0
G1 X92.230 Y75.391 F12000.000
G1 F1680.000 E2.00000
G1 X98.014 Y81.175 F1200.000 E2.15922
G1 X97.920 Y80.370 E2.17501
G1 X92.940 Y75.390 E2.31209
G1 X93.650 Y75.389 E2.32591
G1 X97.807 Y79.546 E2.44034
G1 X97.677 Y78.705 E2.45690
G1 X94.360 Y75.388 E2.54822
G1 X95.070 Y75.386 E2.56204
G1 X97.548 Y77.864 E2.63024
G1 X97.414 Y77.019 E2.64689
G1 X95.780 Y75.385 E2.69186
G1 X96.490 Y75.384 E2.70568
G1 X97.264 Y76.158 E2.72697
G1 X73.226 Y74.877 F12000.000
G1 X73.122 Y74.772 F600.000 E2.72982
G1 X96.839 Y75.022 F12000.000
G1 X96.774 Y74.956 F600.000 E2.73162
M106 S221
M104 S185 ; set temperature
G1 F1680.000 E0.73162
G92 E0
G1 Z0.500 F12000.000
G1 X88.585 Y81.042
G1 F1680.000 E2.00000
G1 X89.084 Y83.067 F1800.000 E2.02691
G1 X88.585 Y85.092 E2.05383
G1 X87.202 Y86.653 E2.08074
G1 X85.252 Y87.393 E2.10765
G1 X83.182 Y87.141 E2.13456
G1 X81.465 Y85.957 E2.16148
G1 X80.496 Y84.110 E2.18839
G1 X80.496 Y82.024 E2.21530
G1 X81.465 Y80.178 E2.24221
G1 X83.182 Y78.993 E2.26913
G1 X85.252 Y78.741 E2.29604
G1 X87.202 Y79.481 E2.32295
G1 X88.535 Y80.986 E2.34890
G1 X92.119 Y75.030 F12000.000
G1 X96.237 Y75.023 F1440.000 E2.40203
G1 X96.231 Y74.279 E2.41162
G1 X97.030 Y73.847 E2.42334
G1 X97.185 Y73.919 E2.42555
G1 X97.735 Y77.076 E2.46690
G1 X97.988 Y78.656 E2.48754
G1 X98.196 Y80.150 E2.50701
G1 X98.349 Y81.537 E2.52501
G1 X98.449 Y82.831 E2.54176
G1 X98.504 Y84.059 E2.55763
G1 X98.518 Y85.238 E2.57284
G1 X98.496 Y86.390 E2.58771
G1 X98.443 Y87.505 E2.60212
G1 X98.359 Y88.572 E2.61592
G1 X98.249 Y89.581 E2.62902
G1 X98.116 Y90.516 E2.64121
G1 X97.931 Y91.412 E2.65301
G1 X97.663 Y92.306 E2.66506
G1 X97.281 Y93.239 E2.67806
G1 X96.755 Y94.246 E2.69273
G1 X96.094 Y95.288 E2.70865
G1 X95.314 Y96.321 E2.72535
G1 X94.427 Y97.303 E2.74242
G1 X93.445 Y98.194 E2.75954
G1 X92.398 Y98.988 E2.77649
G1 X91.319 Y99.675 E2.79300
G1 X90.241 Y100.247 E2.80874
G1 X89.197 Y100.697 E2.82342
G1 X88.219 Y101.038 E2.83678
G1 X87.344 Y101.285 E2.84851
G1 X86.609 Y101.451 E2.85823
G1 X86.052 Y101.550 E2.86554
G1 X85.631 Y101.598 E2.87100
G1 X84.702 Y101.615 E2.88299
G1 X84.369 Y101.598 E2.88730
G1 X83.948 Y101.550 E2.89277
G1 X83.391 Y101.451 E2.90007
G1 X82.656 Y101.285 E2.90979
G1 X81.781 Y101.038 E2.92152
G1 X80.803 Y100.697 E2.93488
G1 X79.759 Y100.247 E2.94956
G1 X78.681 Y99.675 E2.96530
G1 X77.602 Y98.988 E2.98181
G1 X76.555 Y98.194 E2.99876
G1 X75.573 Y97.303 E3.01588
G1 X74.686 Y96.321 E3.03295
G1 X73.906 Y95.288 E3.04965
G1 X73.245 Y94.246 E3.06557
G1 X72.719 Y93.239 E3.08024
G1 X72.337 Y92.306 E3.09325
G1 X72.069 Y91.412 E3.10529
G1 X71.884 Y90.516 E3.11709
G1 X71.751 Y89.581 E3.12929
G1 X71.601 Y88.066 E3.14893
G1 X71.504 Y86.390 E3.17059
G1 X71.482 Y85.238 E3.18546
G1 X71.496 Y84.059 E3.20067
G1 X71.551 Y82.831 E3.21653
G1 X71.607 Y82.077 E3.22630
G1 X71.804 Y80.150 E3.25129
G1 X72.012 Y78.656 E3.27076
G1 X72.265 Y77.076 E3.29139
G1 X72.815 Y73.919 E3.33275
G1 X72.970 Y73.847 E3.33495
G1 X73.769 Y74.279 E3.34667
G1 X73.763 Y75.023 E3.35627
G1 X77.881 Y75.030 E3.40940
G1 X80.275 Y68.908 E3.49422
G1 X89.725 Y68.908 E3.61616
G1 X92.092 Y74.960 E3.70001
G1 X81.199 Y79.921 F12000.000
G1 X90.144 Y70.976 F2400.000 E3.86418
G1 X90.344 Y71.487 E3.87131
G1 X83.206 Y78.625 E4.00231
G1 X84.016 Y78.526 E4.01289
G1 X90.544 Y71.998 E4.13271
G1 X90.744 Y72.509 E4.13983
G1 X84.825 Y78.428 E4.24846
G1 X85.512 Y78.452 E4.25738
G1 X90.944 Y73.020 E4.35708
G1 X91.144 Y73.531 E4.36420
G1 X86.028 Y78.648 E4.45810
G1 X86.543 Y78.844 E4.46526
G1 X91.344 Y74.043 E4.55337
G1 X91.544 Y74.554 E4.56049
G1 X87.059 Y79.039 E4.64281
G1 X87.518 Y79.291 E4.64960
G1 X91.744 Y75.065 E4.72716
G1 X92.129 Y75.391 E4.73371
G1 X87.852 Y79.668 E4.81220
G1 X88.186 Y80.045 E4.81874
G1 X92.841 Y75.390 E4.90418
G1 X93.554 Y75.389 E4.91342
G1 X88.520 Y80.422 E5.00580
G1 X88.854 Y80.799 E5.01233
G1 X94.266 Y75.388 E5.11165
G1 X94.978 Y75.387 E5.12090
G1 X89.030 Y81.334 E5.23006
G1 X89.171 Y81.905 E5.23768
G1 X95.691 Y75.385 E5.35733
G1 X96.403 Y75.384 E5.36658
G1 X89.312 Y82.475 E5.49672
G1 X89.452 Y83.046 E5.50435
G1 X97.082 Y75.417 E5.64437
G1 X97.183 Y76.026 E5.65239
G1 X89.233 Y83.976 E5.79828
G1 X89.001 Y84.920 E5.81090
G1 X97.284 Y76.636 E5.96292
G1 X97.386 Y77.246 E5.97094
G1 X76.750 Y97.882 E6.34967
G1 X77.151 Y98.191 E6.35625
G1 X97.487 Y77.856 E6.72947
G1 X97.589 Y78.465 E6.73749
G1 X77.556 Y98.498 E7.10514
G1 X77.972 Y98.793 E7.11176
G1 X97.681 Y79.083 E7.47349
G1 X97.769 Y79.707 E7.48167
G1 X78.406 Y99.070 E7.83703
G1 X78.840 Y99.347 E7.84371
G1 X97.852 Y80.335 E8.19263
G1 X97.923 Y80.976 E8.20100
G1 X79.303 Y99.595 E8.54271
G1 X79.768 Y99.842 E8.54954
G1 X97.992 Y81.618 E8.88400
G1 X98.043 Y82.278 E8.89258
G1 X80.255 Y100.066 E9.21905
G1 X80.752 Y100.280 E9.22607
G1 X98.091 Y82.940 E9.54430
G1 X98.122 Y83.621 E9.55314
G1 X81.268 Y100.475 E9.86245
G1 X81.795 Y100.659 E9.86970
G1 X98.144 Y84.310 E10.16975
G1 X98.153 Y85.013 E10.17887
G1 X82.345 Y100.820 E10.46899
G1 X82.907 Y100.970 E10.47653
G1 X98.146 Y85.730 E10.75622
G1 X98.130 Y86.457 E10.76565
G1 X83.488 Y101.100 E11.03439
G1 X84.099 Y101.199 E11.04243
G1 X98.094 Y87.204 E11.29928
G1 X98.043 Y87.967 E11.30919
G1 X84.758 Y101.252 E11.55302
G1 X85.486 Y101.235 E11.56247
G1 X97.976 Y88.745 E11.79170
G1 X97.889 Y89.543 E11.80212
G1 X86.293 Y101.139 E12.01493
G1 X87.197 Y100.946 E12.02692
G1 X97.771 Y90.372 E12.22098
G1 X97.592 Y91.263 E12.23277
G1 X88.190 Y100.664 E12.40531
G1 X89.314 Y100.252 E12.42084
G1 X97.280 Y92.286 E12.56703
