; generated by Slic3r 0.9.10b on 2014-01-09 at 23:55:54

; layer_height = 0.2
; perimeters = 2
; top_solid_layers = 2
; bottom_solid_layers = 2
; fill_density = 0.5
; perimeter_speed = 30
; infill_speed = 30
; travel_speed = 200
; nozzle_diameter = 0.5
; filament_diameter = 2.98
; extrusion_multiplier = 0.9
; perimeters extrusion width = 0.50mm
; infill extrusion width = 0.50mm
; solid infill extrusion width = 0.50mm
; top infill extrusion width = 0.50mm

G21 ; set units to millimeters
M107
M104 S190 ; set temperature
G28 ; home all axes
G1 Z15 F120 ; lift nozzle
M109 S190 ; wait for temperature to be reached
G90 ; use absolute coordinates
G92 E0
M82 ; use absolute distances for extrusion
G1 F1680.000 E-2.00000
G92 E0
G1 Z0.300 F12000.000
G1 X70.459 Y71.152
G1 F1680.000 E2.00000
G1 X71.499 Y70.282 F900.000 E2.02624
G1 X77.209 Y66.442 E2.15943
G1 X78.339 Y65.832 E2.18429
G1 X79.559 Y65.462 E2.20897
G1 X80.819 Y65.332 E2.23348
G1 X89.119 Y65.312 E2.39414
G1 X90.409 Y65.432 E2.41921
G1 X91.639 Y65.812 E2.44413
G1 X92.769 Y66.422 E2.46899
G1 X98.489 Y70.272 E2.60245
G1 X99.529 Y71.142 E2.62869
G1 X100.369 Y72.212 E2.65502
G1 X100.959 Y73.432 E2.68125
G1 X101.299 Y74.742 E2.70745
G1 X102.669 Y84.362 E2.89553
G1 X102.889 Y86.122 E2.92986
G1 X102.949 Y86.962 E2.94616
G1 X102.919 Y87.832 E2.96301
G1 X102.829 Y88.462 E2.97533
G1 X101.959 Y92.842 E3.06176
G1 X101.589 Y94.052 E3.08625
G1 X100.989 Y95.182 E3.11102
G1 X98.509 Y98.902 E3.19756
G1 X97.689 Y99.892 E3.22244
G1 X96.699 Y100.702 E3.24720
G1 X92.959 Y103.192 E3.33416
G1 X91.839 Y103.792 E3.35876
G1 X90.629 Y104.152 E3.38319
G1 X86.259 Y105.022 E3.46944
G1 X84.989 Y105.152 E3.49415
G1 X83.719 Y105.022 E3.51886
G1 X79.359 Y104.152 E3.60491
G1 X78.149 Y103.792 E3.62935
G1 X77.029 Y103.192 E3.65394
G1 X73.289 Y100.702 E3.74091
G1 X72.299 Y99.892 E3.76567
G1 X71.479 Y98.902 E3.79055
G1 X68.999 Y95.182 E3.87709
G1 X68.399 Y94.052 E3.90185
G1 X68.029 Y92.842 E3.92634
G1 X67.159 Y88.462 E4.01278
G1 X67.059 Y87.692 E4.02781
G1 X67.049 Y86.912 E4.04290
G1 X67.099 Y86.152 E4.05765
G1 X67.309 Y84.472 E4.09042
G1 X68.699 Y74.752 E4.28047
G1 X69.029 Y73.442 E4.30662
G1 X69.619 Y72.222 E4.33285
G1 X70.413 Y71.211 E4.35773
G1 F1680.000 E2.35773
G92 E0
G1 X81.417 Y80.536 F12000.000
G1 F1680.000 E2.00000
G1 X81.723 Y80.208 F900.000 E2.00868
G1 X82.070 Y79.904 E2.01761
G1 X82.434 Y79.644 E2.02626
G1 X82.823 Y79.419 E2.03496
G1 X83.230 Y79.234 E2.04361
G1 X83.654 Y79.090 E2.05228
G1 X84.090 Y78.988 E2.06095
G1 X84.535 Y78.928 E2.06964
G1 X84.995 Y78.913 E2.07854
G1 X85.442 Y78.942 E2.08722
G1 X85.884 Y79.014 E2.09589
G1 X86.317 Y79.130 E2.10457
G1 X86.738 Y79.287 E2.11326
G1 X87.139 Y79.484 E2.12192
G1 X87.520 Y79.720 E2.13059
G1 X87.877 Y79.991 E2.13926
G1 X88.205 Y80.296 E2.14793
G1 X88.502 Y80.632 E2.15662
G1 X88.765 Y80.996 E2.16530
G1 X88.991 Y81.381 E2.17394
G1 X89.178 Y81.788 E2.18262
G1 X89.325 Y82.212 E2.19130
G1 X89.430 Y82.648 E2.19998
G1 X89.492 Y83.092 E2.20865
G1 X89.510 Y83.540 E2.21733
G1 X89.484 Y83.988 E2.22601
G1 X89.415 Y84.430 E2.23467
G1 X89.300 Y84.875 E2.24357
G1 X89.145 Y85.296 E2.25226
G1 X88.950 Y85.699 E2.26092
G1 X88.716 Y86.082 E2.26961
G1 X88.447 Y86.440 E2.27828
G1 X88.143 Y86.770 E2.28696
G1 X87.809 Y87.069 E2.29564
G1 X87.448 Y87.333 E2.30430
G1 X87.062 Y87.562 E2.31299
G1 X86.657 Y87.751 E2.32164
G1 X86.233 Y87.900 E2.33034
G1 X85.799 Y88.007 E2.33899
G1 X85.354 Y88.071 E2.34768
G1 X84.907 Y88.092 E2.35634
G1 X84.459 Y88.069 E2.36503
G1 X84.005 Y88.000 E2.37392
G1 X83.570 Y87.889 E2.38260
G1 X83.149 Y87.737 E2.39128
G1 X82.745 Y87.544 E2.39995
G1 X82.360 Y87.312 E2.40863
G1 X82.001 Y87.044 E2.41730
G1 X81.670 Y86.743 E2.42597
G1 X81.370 Y86.411 E2.43463
G1 X81.103 Y86.051 E2.44331
G1 X80.872 Y85.666 E2.45200
G1 X80.676 Y85.250 E2.46090
G1 X80.525 Y84.827 E2.46958
G1 X80.417 Y84.392 E2.47827
G1 X80.352 Y83.949 E2.48693
G1 X80.330 Y83.501 E2.49561
G1 X80.352 Y83.054 E2.50428
G1 X80.417 Y82.610 E2.51295
G1 X80.526 Y82.176 E2.52162
G1 X80.681 Y81.742 E2.53054
G1 X80.873 Y81.337 E2.53921
G1 X81.103 Y80.953 E2.54788
G1 X81.369 Y80.593 E2.55654
G1 X81.756 Y80.910 F12000.000
G1 X82.032 Y80.606 F900.000 E2.56449
G1 X82.328 Y80.338 E2.57222
G1 X82.649 Y80.100 E2.57995
G1 X82.992 Y79.895 E2.58768
G1 X83.353 Y79.724 E2.59541
G1 X83.728 Y79.589 E2.60313
G1 X84.116 Y79.492 E2.61087
G1 X84.510 Y79.433 E2.61859
G1 X84.920 Y79.412 E2.62653
G1 X85.319 Y79.432 E2.63427
G1 X85.714 Y79.490 E2.64199
G1 X86.102 Y79.586 E2.64972
G1 X86.477 Y79.720 E2.65744
G1 X86.839 Y79.890 E2.66517
G1 X87.182 Y80.094 E2.67290
G1 X87.503 Y80.331 E2.68063
G1 X87.800 Y80.598 E2.68836
G1 X88.070 Y80.893 E2.69609
G1 X88.309 Y81.212 E2.70382
G1 X88.517 Y81.554 E2.71156
G1 X88.689 Y81.914 E2.71928
G1 X88.829 Y82.299 E2.72721
G1 X88.928 Y82.687 E2.73496
G1 X88.988 Y83.081 E2.74268
G1 X89.010 Y83.480 E2.75040
G1 X88.993 Y83.879 E2.75813
G1 X88.936 Y84.274 E2.76586
G1 X88.842 Y84.662 E2.77359
G1 X88.710 Y85.039 E2.78132
G1 X88.542 Y85.401 E2.78905
G1 X88.340 Y85.745 E2.79678
G1 X88.105 Y86.069 E2.80451
G1 X87.839 Y86.367 E2.81224
G1 X87.546 Y86.638 E2.81997
G1 X87.228 Y86.879 E2.82769
G1 X86.887 Y87.088 E2.83543
G1 X86.519 Y87.267 E2.84336
G1 X86.144 Y87.405 E2.85109
G1 X85.757 Y87.505 E2.85882
G1 X85.363 Y87.568 E2.86655
G1 X84.964 Y87.592 E2.87429
G1 X84.565 Y87.577 E2.88201
G1 X84.170 Y87.523 E2.88973
G1 X83.781 Y87.430 E2.89748
G1 X83.404 Y87.300 E2.90519
G1 X83.040 Y87.134 E2.91293
G1 X82.695 Y86.934 E2.92066
G1 X82.371 Y86.701 E2.92838
G1 X82.071 Y86.437 E2.93611
G1 X81.799 Y86.145 E2.94384
G1 X81.556 Y85.828 E2.95157
G1 X81.345 Y85.489 E2.95930
G1 X81.164 Y85.121 E2.96724
G1 X81.024 Y84.747 E2.97497
G1 X80.921 Y84.361 E2.98270
G1 X80.857 Y83.967 E2.99043
G1 X80.831 Y83.569 E2.99815
G1 X80.844 Y83.169 E3.00589
G1 X80.895 Y82.773 E3.01361
G1 X80.986 Y82.385 E3.02134
G1 X81.113 Y82.006 E3.02906
G1 X81.277 Y81.642 E3.03680
G1 X81.476 Y81.296 E3.04452
G1 X81.709 Y80.968 E3.05230
G1 X82.160 Y80.982 F12000.000
G1 F1680.000 E1.05230
G92 E0
G1 X74.296 Y87.144 F12000.000
G1 F1680.000 E2.00000
G1 X74.349 Y86.566 F900.000 E2.01124
G1 X74.473 Y85.620 E2.02970
G1 X75.743 Y76.724 E2.20365
G1 X77.701 Y76.723 E2.24155
G1 X77.817 Y76.962 E2.24670
G1 X78.439 Y77.216 E2.25969
G1 X79.035 Y77.242 E2.27125
G1 X79.136 Y77.096 E2.27468
G1 X79.562 Y77.170 E2.28305
G1 X79.571 Y76.940 E2.28750
G1 X80.334 Y76.960 E2.30227
G1 X79.989 Y76.209 E2.31827
G1 X81.398 Y72.583 E2.39357
G1 X88.600 Y72.582 E2.53296
G1 X90.050 Y76.308 E2.61036
G1 X90.642 Y76.463 E2.62221
G1 X90.869 Y76.482 E2.62662
G1 X92.396 Y76.490 E2.65617
G1 X92.922 Y76.720 E2.66729
G1 X93.062 Y76.820 E2.67062
G1 X93.746 Y77.097 E2.68490
G1 X94.225 Y76.503 E2.69967
G1 X95.496 Y85.393 E2.87350
G1 X95.700 Y87.021 E2.90524
G1 X95.704 Y87.144 E2.90763
G1 X94.878 Y91.288 E2.98941
G1 X92.561 Y94.754 E3.07010
G1 X89.090 Y97.075 E3.15092
G1 X84.997 Y97.892 E3.23171
G1 X80.910 Y97.075 E3.31239
G1 X77.436 Y94.752 E3.39327
G1 X75.121 Y91.286 E3.47396
G1 X74.311 Y87.218 E3.55425
G1 X73.794 Y87.182 F12000.000
G1 X73.852 Y86.512 F720.000 E3.56726
G1 X74.008 Y85.327 E3.59039
G1 X75.346 Y75.969 E3.77336
G1 X75.557 Y75.977 E3.77745
G1 X75.638 Y76.045 E3.77951
G1 X75.822 Y76.045 E3.78308
G1 X75.903 Y76.064 E3.78468
G1 X76.085 Y76.224 E3.78938
G1 X77.976 Y76.223 E3.82597
G1 X78.183 Y76.572 E3.83383
G1 X78.547 Y76.720 E3.84143
G1 X78.782 Y76.730 E3.84598
G1 X78.908 Y76.549 E3.85025
G1 X79.084 Y76.579 E3.85372
G1 X79.090 Y76.427 E3.85667
G1 X79.544 Y76.439 E3.86547
G1 X79.390 Y76.103 E3.87263
G1 X79.539 Y75.987 E3.87628
G1 X81.056 Y72.084 E3.95732
G1 X88.942 Y72.082 E4.10997
G1 X90.423 Y75.889 E4.18904
G1 X90.726 Y75.968 E4.19510
G1 X90.889 Y75.982 E4.19827
G1 X92.504 Y75.993 E4.22952
G1 X92.936 Y76.171 E4.23857
G1 X93.166 Y76.280 E4.24350
G1 X93.305 Y76.379 E4.24679
G1 X93.590 Y76.494 E4.25275
G1 X93.760 Y76.284 E4.25799
G1 X94.069 Y76.269 E4.26397
G1 X94.073 Y76.234 E4.26465
G1 X94.197 Y76.174 E4.26731
G1 X94.683 Y76.174 E4.27672
G1 X95.990 Y85.317 E4.45550
G1 X96.199 Y86.986 E4.48805
G1 X96.206 Y87.182 E4.49185
G1 X95.350 Y91.479 E4.57665
G1 X92.922 Y95.114 E4.66127
G1 X89.273 Y97.548 E4.74617
G1 X84.997 Y98.401 E4.83055
G1 X80.724 Y97.547 E4.91491
G1 X80.670 Y97.516 E4.91611
G1 X77.076 Y95.113 E4.99980
G1 X77.044 Y95.065 E5.00092
G1 X74.650 Y91.481 E5.08434
G1 X73.808 Y87.255 E5.16774
G1 X74.225 Y86.928 F12000.000
G1 X75.902 Y91.804
G1 X80.389 Y96.291 F1200.000 E5.29173
G1 X81.669 Y96.857 E5.31908
G1 X75.339 Y90.526 E5.49403
G1 X75.161 Y89.635 E5.51179
G1 X82.562 Y97.035 E5.71629
G1 X83.454 Y97.214 E5.73407
G1 X74.984 Y88.744 E5.96813
G1 X74.806 Y87.852 E5.98589
G1 X84.346 Y97.392 E6.24952
G1 X85.158 Y97.490 E6.26550
G1 X74.673 Y87.005 E6.55526
G1 X74.742 Y86.360 E6.56793
G1 X85.753 Y97.371 E6.87223
G1 X86.348 Y97.252 E6.88409
G1 X74.824 Y85.728 E7.20256
G1 X74.913 Y85.103 E7.21490
G1 X86.943 Y97.134 E7.54737
G1 X87.538 Y97.015 E7.55923
G1 X75.002 Y84.478 E7.90568
G1 X75.091 Y83.854 E7.91801
G1 X88.133 Y96.896 E8.27843
G1 X88.728 Y96.777 E8.29029
G1 X75.180 Y83.229 E8.66470
G1 X75.269 Y82.604 E8.67703
G1 X89.218 Y96.553 E9.06251
G1 X89.646 Y96.267 E9.07257
G1 X75.359 Y81.980 E9.46740
G1 X75.448 Y81.355 E9.47973
G1 X90.074 Y95.981 E9.88392
G1 X90.502 Y95.695 E9.89398
G1 X82.757 Y87.951 E10.10799
G1 X83.856 Y88.335 E10.13073
G1 X90.929 Y95.409 E10.32621
G1 X91.357 Y95.123 E10.33627
G1 X84.677 Y88.443 E10.52088
G1 X85.380 Y88.432 E10.53462
G1 X91.785 Y94.837 E10.71162
G1 X92.213 Y94.551 E10.72167
G1 X85.994 Y88.332 E10.89353
G1 X86.549 Y88.173 E10.90480
G1 X92.528 Y94.152 E11.07003
G1 X92.814 Y93.724 E11.08009
G1 X87.054 Y87.964 E11.23925
G1 X87.517 Y87.713 E11.24953
G1 X93.100 Y93.296 E11.40383
G1 X93.386 Y92.868 E11.41388
G1 X87.939 Y87.422 E11.56440
G1 X88.324 Y87.093 E11.57430
G1 X93.672 Y92.440 E11.72208
G1 X93.958 Y92.012 E11.73213
G1 X88.673 Y86.727 E11.87819
G1 X88.985 Y86.325 E11.88813
G1 X94.244 Y91.585 E12.03347
G1 X94.530 Y91.157 E12.04353
G1 X89.258 Y85.885 E12.18920
G1 X89.492 Y85.405 E12.19964
G1 X94.653 Y90.566 E12.34225
G1 X94.771 Y89.970 E12.35411
G1 X89.675 Y84.875 E12.49494
G1 X89.804 Y84.289 E12.50665
G1 X94.890 Y89.375 E12.64721
G1 X95.008 Y88.780 E12.65907
G1 X89.866 Y83.637 E12.80118
G1 X89.829 Y82.887 E12.81586
G1 X95.127 Y88.185 E12.96226
G1 X95.246 Y87.589 E12.97412
G1 X89.625 Y81.968 E13.12946
G1 X88.800 Y80.430 E13.16356
G1 X95.321 Y86.951 E13.34376
G1 X95.232 Y86.148 E13.35954
G1 X82.028 Y72.944 E13.72443
G1 X81.554 Y73.184 E13.73482
G1 X87.994 Y79.624 E13.91279
G1 X86.454 Y78.797 E13.94694
G1 X81.354 Y73.698 E14.08788
G1 X81.154 Y74.212 E14.09866
G1 X85.535 Y78.593 E14.21972
G1 X84.785 Y78.556 E14.23440
G1 X80.954 Y74.726 E14.34026
G1 X80.754 Y75.240 E14.35104
G1 X84.133 Y78.618 E14.44440
G1 X83.547 Y78.746 E14.45611
G1 X80.554 Y75.754 E14.53882
G1 X80.466 Y76.379 E14.55115
G1 X83.017 Y78.930 E14.62167
G1 X82.537 Y79.164 E14.63211
G1 X80.705 Y77.332 E14.68272
G1 X79.972 Y77.313 E14.69705
G1 X82.097 Y79.437 E14.75576
G1 X81.695 Y79.749 E14.76571
G1 X79.466 Y77.521 E14.82729
G1 X78.827 Y77.595 E14.83987
G1 X81.329 Y80.098 E14.90903
G1 X81.001 Y80.483 E14.91893
G1 X77.909 Y77.391 E15.00437
G1 X76.890 Y77.086 E15.02516
G1 X80.709 Y80.906 E15.13072
G1 X80.458 Y81.368 E15.14101
G1 X76.176 Y77.086 E15.25933
G1 X75.983 Y77.607 E15.27018
G1 X80.249 Y81.873 E15.38808
G1 X80.090 Y82.428 E15.39936
G1 X75.894 Y78.232 E15.51532
G1 X75.805 Y78.856 E15.52765
G1 X79.990 Y83.042 E15.64332
G1 X79.979 Y83.745 E15.65706
G1 X75.715 Y79.481 E15.77490
G1 X75.626 Y80.106 E15.78723
G1 X80.088 Y84.567 E15.91052
G1 X80.470 Y85.664 E15.93321
G1 X75.537 Y80.730 E16.06954
G1 X82.742 Y72.944 F12000.000
G1 X95.119 Y85.321 F1200.000 E16.41160
G1 X95.000 Y84.489 E16.42804
G1 X83.456 Y72.944 E16.74707
G1 X84.170 Y72.944 E16.76102
G1 X94.881 Y83.656 E17.05704
G1 X94.762 Y82.823 E17.07348
G1 X84.883 Y72.944 E17.34648
G1 X85.597 Y72.944 E17.36043
G1 X94.643 Y81.990 E17.61042
G1 X94.524 Y81.157 E17.62686
G1 X90.050 Y76.683 E17.75050
G1 X89.652 Y76.285 F12000.000
G1 X86.311 Y72.944 F1200.000 E17.84282
G1 X87.025 Y72.944 E17.85677
G1 X89.197 Y75.116 E17.91680
G1 X88.743 Y73.948 E17.94129
G1 X87.739 Y72.944 E17.96904
G1 X90.925 Y76.844 F12000.000
G1 X94.405 Y80.324 F1200.000 E18.06521
G1 X94.286 Y79.491 E18.08165
G1 X91.639 Y76.844 E18.15482
G1 X92.406 Y76.897 E18.16985
G1 X94.167 Y78.658 E18.21852
G1 X94.048 Y77.825 E18.23496
G1 X93.687 Y77.464 E18.24494
G1 F1680.000 E16.24494
G92 E0
G1 X77.339 Y93.954 F12000.000
G1 F1680.000 E2.00000
G1 X78.235 Y94.851 F1200.000 E2.02478
M106 S255
M104 S188 ; set temperature
G1 F1680.000 E0.02478
G92 E0
G1 Z0.500 F12000.000
G1 X82.593 Y87.458
G1 F1680.000 E2.00000
G1 X82.218 Y87.212 F1464.119 E2.00578
G1 X81.869 Y86.931 E2.01156
G1 X81.549 Y86.618 E2.01735
G1 X81.261 Y86.274 E2.02313
G1 X81.009 Y85.904 E2.02891
G1 X80.792 Y85.509 E2.03472
G1 X80.612 Y85.087 E2.04064
G1 X80.478 Y84.660 E2.04642
G1 X80.387 Y84.221 E2.05221
G1 X80.338 Y83.776 E2.05799
G1 X80.333 Y83.328 E2.06376
G1 X80.372 Y82.881 E2.06955
G1 X80.454 Y82.441 E2.07533
G1 X80.579 Y82.011 E2.08111
G1 X80.745 Y81.594 E2.08689
G1 X80.951 Y81.196 E2.09268
G1 X81.195 Y80.820 E2.09846
G1 X81.476 Y80.468 E2.10427
G1 X81.795 Y80.140 E2.11018
G1 X82.138 Y79.851 E2.11597
G1 X82.507 Y79.597 E2.12174
G1 X82.899 Y79.381 E2.12753
G1 X83.311 Y79.203 E2.13331
G1 X83.738 Y79.067 E2.13910
G1 X84.176 Y78.973 E2.14488
G1 X84.621 Y78.922 E2.15066
G1 X85.070 Y78.914 E2.15645
G1 X85.518 Y78.951 E2.16225
G1 X85.969 Y79.033 E2.16817
G1 X86.400 Y79.157 E2.17395
G1 X86.816 Y79.322 E2.17973
G1 X87.215 Y79.527 E2.18551
G1 X87.592 Y79.770 E2.19130
G1 X87.943 Y80.048 E2.19708
G1 X88.265 Y80.359 E2.20286
G1 X88.556 Y80.700 E2.20865
G1 X88.812 Y81.068 E2.21443
G1 X89.030 Y81.459 E2.22021
G1 X89.210 Y81.870 E2.22599
G1 X89.349 Y82.298 E2.23180
G1 X89.447 Y82.746 E2.23772
G1 X89.499 Y83.191 E2.24350
G1 X89.508 Y83.639 E2.24928
G1 X89.473 Y84.086 E2.25506
G1 X89.394 Y84.527 E2.26085
G1 X89.273 Y84.958 E2.26663
G1 X89.110 Y85.376 E2.27241
G1 X88.907 Y85.776 E2.27820
G1 X88.667 Y86.154 E2.28398
G1 X88.382 Y86.515 E2.28992
G1 X88.072 Y86.839 E2.29570
G1 X87.731 Y87.130 E2.30149
G1 X87.364 Y87.387 E2.30726
G1 X86.974 Y87.607 E2.31305
G1 X86.563 Y87.788 E2.31884
G1 X86.138 Y87.927 E2.32461
G1 X85.701 Y88.025 E2.33039
G1 X85.256 Y88.080 E2.33618
G1 X84.808 Y88.091 E2.34196
G1 X84.359 Y88.058 E2.34777
G1 X83.907 Y87.979 E2.35369
G1 X83.476 Y87.859 E2.35947
G1 X83.057 Y87.697 E2.36525
G1 X82.658 Y87.496 E2.37103
G1 X82.904 Y87.061 F12000.000
G1 X82.566 Y86.847 F1464.119 E2.37618
G1 X82.252 Y86.602 E2.38133
G1 X81.962 Y86.327 E2.38649
G1 X81.701 Y86.025 E2.39164
G1 X81.470 Y85.699 E2.39679
G1 X81.272 Y85.351 E2.40196
G1 X81.105 Y84.977 E2.40724
G1 X80.980 Y84.598 E2.41239
G1 X80.892 Y84.209 E2.41754
G1 X80.842 Y83.812 E2.42270
G1 X80.831 Y83.413 E2.42785
G1 X80.859 Y83.015 E2.43300
G1 X80.926 Y82.620 E2.43817
G1 X81.034 Y82.225 E2.44345
G1 X81.177 Y81.853 E2.44860
G1 X81.356 Y81.495 E2.45376
G1 X81.569 Y81.158 E2.45891
G1 X81.813 Y80.842 E2.46406
G1 X82.087 Y80.552 E2.46921
G1 X82.389 Y80.290 E2.47437
G1 X82.714 Y80.058 E2.47952
G1 X83.060 Y79.859 E2.48467
G1 X83.424 Y79.695 E2.48982
G1 X83.804 Y79.567 E2.49499
G1 X84.203 Y79.475 E2.50027
G1 X84.599 Y79.425 E2.50542
G1 X84.998 Y79.413 E2.51058
G1 X85.396 Y79.440 E2.51573
G1 X85.790 Y79.506 E2.52088
G1 X86.176 Y79.609 E2.52603
G1 X86.549 Y79.750 E2.53119
G1 X86.907 Y79.927 E2.53634
G1 X87.246 Y80.138 E2.54149
G1 X87.563 Y80.381 E2.54664
G1 X87.855 Y80.653 E2.55179
G1 X88.119 Y80.953 E2.55695
G1 X88.352 Y81.277 E2.56210
G1 X88.553 Y81.622 E2.56725
G1 X88.719 Y81.986 E2.57240
G1 X88.848 Y82.363 E2.57756
G1 X88.941 Y82.752 E2.58271
G1 X88.996 Y83.158 E2.58801
G1 X89.010 Y83.557 E2.59316
G1 X88.985 Y83.956 E2.59831
G1 X88.921 Y84.350 E2.60346
G1 X88.819 Y84.736 E2.60862
G1 X88.680 Y85.111 E2.61377
G1 X88.506 Y85.470 E2.61892
G1 X88.297 Y85.810 E2.62407
G1 X88.055 Y86.128 E2.62922
G1 X87.785 Y86.421 E2.63438
G1 X87.486 Y86.687 E2.63953
G1 X87.163 Y86.922 E2.64468
G1 X86.818 Y87.125 E2.64985
G1 X86.456 Y87.293 E2.65501
G1 X86.069 Y87.427 E2.66028
G1 X85.681 Y87.521 E2.66544
