; generated by Slic3r 1.2.9 on 2016-11-05 at 22:49:15

; external perimeters extrusion width = 0.50mm
; perimeters extrusion width = 0.50mm
; infill extrusion width = 0.50mm
; solid infill extrusion width = 0.50mm
; top infill extrusion width = 0.50mm

M107
M104 S190 ; set temperature
G28 ; home all axes
G29 ; autolevel	
G92 E0                  ;zero the extruded length
G1 F200 E5              ;extrude 3mm of feed stock
G92 E0 
G1 Z15 F120 ; lift nozzle
M109 S190 ; wait for temperature to be reached
G21 ; set units to millimeters
G90 ; use absolute coordinates
M82 ; use absolute distances for extrusion
G92 E0
G1 E-2.00000 F1680.00000
G92 E0
G1 Z0.300 F12000.000
G1 X54.682 Y47.673 F12000.000
G1 E2.00000 F1680.00000
G1 X55.447 Y46.822 E2.06579 F1200.000
G1 X59.276 Y42.993 E2.37697
G1 X61.616 Y41.216 E2.54580
G1 X64.346 Y40.133 E2.71463
G1 X66.939 Y39.819 E2.86474
G1 X75.939 Y39.819 E3.38197
G1 X78.850 Y40.217 E3.55079
G1 X81.547 Y41.382 E3.71962 F1200.000
G1 X83.603 Y42.993 E3.86973
G1 X87.138 Y46.529 E4.15708
G1 X88.073 Y47.594 E4.23853
G1 X88.868 Y48.630 E4.31357
G1 X90.282 Y51.080 E4.47616
G1 X90.782 Y52.286 E4.55117
G1 X91.514 Y55.019 E4.71376
G1 X91.684 Y56.313 E4.78878
G1 X91.777 Y57.728 E4.87025
G1 X91.777 Y88.936 E6.66378
G1 X91.705 Y90.181 E6.73544
G1 X91.652 Y90.639 E6.76196
G1 X91.083 Y93.066 E6.90522
G1 X90.927 Y93.499 E6.93165
G1 X89.818 Y95.731 E7.07490
G1 X89.567 Y96.118 E7.10142
G1 X88.828 Y97.123 E7.17308
G1 X77.809 Y110.433 E8.16613
G1 X76.835 Y111.463 E8.24759
G1 X76.453 Y111.819 E8.27760
G1 X74.147 Y113.456 E8.44014
G1 X73.684 Y113.701 E8.47021
G1 X71.033 Y114.686 E8.63277
G1 X70.523 Y114.802 E8.66280
G1 X67.706 Y115.068 E8.82540
G1 X67.185 Y115.048 E8.85540
G1 X64.395 Y114.575 E9.01799
G1 X63.896 Y114.422 E9.04799
G1 X61.324 Y113.243 E9.21059
G1 X60.882 Y112.965 E9.24060
G1 X59.733 Y112.135 E9.32206
G1 X46.189 Y100.921 E10.33259
G1 X45.187 Y99.978 E10.41167
G1 X44.841 Y99.608 E10.44079
G1 X43.233 Y97.381 E10.59864
G1 X42.991 Y96.936 E10.62777
G1 X41.995 Y94.376 E10.78561
G1 X41.873 Y93.884 E10.81474
G1 X41.552 Y91.157 E10.97258
G1 X41.557 Y90.648 E11.00184
G1 X41.932 Y87.932 E11.15940
G1 X42.084 Y87.371 E11.19277
G1 X51.529 Y53.348 E13.22198
G1 X52.300 Y51.356 E13.34474
G1 X52.777 Y50.414 E13.40543
G1 X54.018 Y48.494 E13.53685
G1 X54.644 Y47.720 E13.59405
G1 X54.970 Y47.983 F12000.000
G1 X55.743 Y47.118 E13.66074 F1200.000
G1 X59.572 Y43.289 E13.97192
G1 X61.871 Y41.554 E14.13744
G1 X64.556 Y40.514 E14.30296
G1 X66.939 Y40.238 E14.44082
G1 X75.939 Y40.238 E14.95805
G1 X78.792 Y40.636 E15.12356
G1 X81.426 Y41.799 E15.28908 F1200.000
G1 X83.307 Y43.289 E15.42695
G1 X86.842 Y46.825 E15.71429
G1 X87.741 Y47.849 E15.79260
G1 X88.535 Y48.885 E15.86763
G1 X89.895 Y51.240 E16.02394
G1 X90.395 Y52.446 E16.09895
G1 X91.099 Y55.073 E16.25526
G1 X91.269 Y56.368 E16.33027
G1 X91.358 Y57.728 E16.40859
G1 X91.358 Y88.936 E18.20213
G1 X91.289 Y90.133 E18.27102
G1 X91.236 Y90.591 E18.29753
G1 X90.689 Y92.924 E18.43525
G1 X90.533 Y93.357 E18.46169
G1 X89.467 Y95.503 E18.59940
G1 X89.215 Y95.890 E18.62592
G1 X88.505 Y96.856 E18.69480
G1 X77.486 Y110.166 E19.68785
G1 X76.550 Y111.156 E19.76617
G1 X76.168 Y111.512 E19.79618
G1 X73.951 Y113.086 E19.95243
G1 X73.488 Y113.331 E19.98250
G1 X70.939 Y114.278 E20.13878
G1 X70.430 Y114.394 E20.16881
G1 X67.722 Y114.649 E20.32512
G1 X67.200 Y114.630 E20.35513
G1 X64.519 Y114.175 E20.51143
G1 X64.020 Y114.021 E20.54144
G1 X61.547 Y112.888 E20.69775
G1 X61.105 Y112.611 E20.72775
G1 X60.000 Y111.812 E20.80607
G1 X46.456 Y100.599 E21.81660
G1 X45.493 Y99.692 E21.89262
G1 X45.147 Y99.322 E21.92175
G1 X43.601 Y97.181 E22.07349
G1 X43.359 Y96.736 E22.10262
G1 X42.402 Y94.275 E22.25436
G1 X42.279 Y93.783 E22.28349
G1 X41.971 Y91.161 E22.43523
G1 X41.976 Y90.652 E22.46448
G1 X42.337 Y88.041 E22.61595
G1 X42.488 Y87.483 E22.64916
G1 X51.932 Y53.460 E24.67837
G1 X52.674 Y51.545 E24.79639
G1 X53.150 Y50.603 E24.85707
G1 X54.344 Y48.757 E24.98341
G1 X54.932 Y48.030 E25.03716
G1 E23.03716 F1680.00000
G92 E0
G1 X80.254 Y77.280 F12000.000
G1 E2.00000 F1680.00000
G1 X80.254 Y88.896 E2.69426 F900.000
G1 X80.215 Y89.235 E2.71465
G1 X80.112 Y89.519 E2.73265
G1 X79.927 Y89.805 E2.75304
G1 X68.961 Y103.050 E3.78072
G1 X68.678 Y103.313 E3.80384
G1 X68.376 Y103.473 E3.82426
G1 X68.043 Y103.549 E3.84467
G1 X67.701 Y103.536 E3.86509
G1 X67.375 Y103.435 E3.88550
G1 X67.047 Y103.230 E3.90863
G1 X53.571 Y92.073 E4.95424
G1 X53.315 Y91.799 E4.97669
G1 X53.156 Y91.507 E4.99651
G1 X53.076 Y91.185 E5.01634
G1 X53.079 Y90.854 E5.03616
G1 X53.179 Y90.486 E5.05892
G1 X54.745 Y86.521 E5.31375
G1 X56.209 Y82.464 E5.57149
G1 X57.550 Y78.365 E5.82924
G1 X58.773 Y74.208 E6.08822
G1 X59.860 Y70.056 E6.34472
G1 X60.827 Y65.854 E6.60246
G1 X61.668 Y61.624 E6.86021
G1 X62.374 Y57.412 E7.11547
G1 X62.616 Y56.492 E7.17233
G1 X63.027 Y55.680 E7.22669
G1 X63.621 Y54.944 E7.28324
G1 X66.254 Y52.312 E7.50574
G1 X66.254 Y82.842 E9.33042
G1 X76.625 Y82.842 E9.95027 F900.000
G1 X76.625 Y52.312 E11.77496
G1 X78.958 Y54.645 E11.97217
G1 X79.671 Y55.573 E12.04210
G1 X80.101 Y56.612 E12.10932
G1 X80.254 Y57.772 E12.17925
G1 X80.254 Y77.220 E13.34156
G1 X80.689 Y77.220 F12000.000
G1 X80.689 Y88.922 E14.04092 F720.000
G1 X80.641 Y89.335 E14.06582
G1 X80.505 Y89.714 E14.08985
G1 X80.278 Y90.063 E14.11475
G1 X69.278 Y103.349 E15.14564
G1 X68.932 Y103.671 E15.17390
G1 X68.529 Y103.884 E15.20117
G1 X68.084 Y103.986 E15.22844
G1 X67.628 Y103.969 E15.25571
G1 X67.192 Y103.835 E15.28298
G1 X66.791 Y103.584 E15.31124
G1 X53.272 Y92.391 E16.36021
G1 X52.958 Y92.056 E16.38765
G1 X52.747 Y91.667 E16.41412
G1 X52.640 Y91.237 E16.44060
G1 X52.644 Y90.794 E16.46707
G1 X52.765 Y90.349 E16.49462
G1 X54.338 Y86.367 E16.75052
G1 X55.797 Y82.322 E17.00748
G1 X57.134 Y78.236 E17.26444
G1 X58.354 Y74.092 E17.52264
G1 X59.437 Y69.952 E17.77836
G1 X60.401 Y65.763 E18.03532
G1 X61.239 Y61.546 E18.29228
G1 X61.948 Y57.320 E18.54834
G1 X62.206 Y56.336 E18.60914
G1 X62.659 Y55.442 E18.66903
G1 X63.297 Y54.652 E18.72971
G1 X66.689 Y51.260 E19.01645
G1 X66.689 Y82.406 E20.87795
G1 X76.189 Y82.406 E21.44573 F720.000
G1 X76.189 Y51.260 E23.30723
G1 X79.287 Y54.357 E23.56901
G1 X80.051 Y55.354 E23.64407
G1 X80.525 Y56.499 E23.71815
G1 X80.689 Y57.744 E23.79321
G1 X80.689 Y77.160 E24.95364
G1 X80.343 Y77.420 F12000.000
G1 X76.883 Y82.741 F12000.000
G1 X79.996 Y85.854 E25.21746 F1200.000
G1 X79.996 Y85.237 E25.25447
G1 X76.883 Y82.124 E25.51828
G1 X76.883 Y81.506 E25.55529
G1 X79.996 Y84.619 E25.81910
G1 X79.996 Y84.001 E25.85612
G1 X76.883 Y80.888 E26.11993
G1 X76.883 Y80.271 E26.15694
G1 X79.996 Y83.384 E26.42075
G1 X79.996 Y82.766 E26.45776
G1 X76.883 Y79.653 E26.72157
G1 X76.883 Y79.035 E26.75859
G1 X79.996 Y82.148 E27.02240
G1 X79.996 Y81.531 E27.05941
G1 X76.883 Y78.418 E27.32322
G1 X76.883 Y77.800 E27.36023
G1 X79.996 Y80.913 E27.62405
G1 X79.996 Y80.295 E27.66106
G1 X76.883 Y77.182 E27.92487
G1 X76.883 Y76.565 E27.96188
G1 X79.996 Y79.678 E28.22569
G1 X79.996 Y79.060 E28.26271
G1 X76.883 Y75.947 E28.52652
G1 X76.883 Y75.329 E28.56353
G1 X79.996 Y78.442 E28.82734
G1 X79.996 Y77.825 E28.86435
G1 X76.883 Y74.712 E29.12816
G1 X76.883 Y74.094 E29.16518
G1 X79.996 Y77.207 E29.42899
G1 X79.996 Y76.589 E29.46600
G1 X76.883 Y73.476 E29.72981
G1 X76.883 Y72.859 E29.76682
G1 X79.996 Y75.972 E30.03064
G1 X79.996 Y75.354 E30.06765
G1 X76.883 Y72.241 E30.33146
G1 X76.883 Y71.623 E30.36847
G1 X79.996 Y74.736 E30.63228
G1 X79.996 Y74.119 E30.66930
G1 X76.883 Y71.006 E30.93311
G1 X76.883 Y70.388 E30.97012
G1 X79.996 Y73.501 E31.23393
G1 X79.996 Y72.883 E31.27094
G1 X76.883 Y69.770 E31.53475
G1 X76.883 Y69.153 E31.57177
G1 X79.996 Y72.266 E31.83558
G1 X79.996 Y71.648 E31.87259
G1 X76.883 Y68.535 E32.13640
G1 X76.883 Y67.917 E32.17341
G1 X79.996 Y71.030 E32.43723
G1 X79.996 Y70.413 E32.47424
G1 X76.883 Y67.300 E32.73805
G1 X76.883 Y66.682 E32.77506
G1 X79.996 Y69.795 E33.03887
G1 X79.996 Y69.177 E33.07589
G1 X76.883 Y66.064 E33.33970
G1 X76.883 Y65.447 E33.37671
G1 X79.996 Y68.560 E33.64052
G1 X79.996 Y67.942 E33.67753
G1 X76.883 Y64.829 E33.94134
G1 X76.883 Y64.211 E33.97836
G1 X79.996 Y67.324 E34.24217
G1 X79.996 Y66.707 E34.27918
G1 X76.883 Y63.594 E34.54299
G1 X76.883 Y62.976 E34.58000
G1 X79.996 Y66.089 E34.84382
G1 X79.996 Y65.471 E34.88083
G1 X76.883 Y62.358 E35.14464
G1 X76.883 Y61.741 E35.18165
G1 X79.996 Y64.854 E35.44546
G1 X79.996 Y64.236 E35.48248
G1 X76.883 Y61.123 E35.74629
G1 X76.883 Y60.505 E35.78330
G1 X79.996 Y63.618 E36.04711
G1 X79.996 Y63.001 E36.08412
G1 X76.883 Y59.888 E36.34793
G1 X76.883 Y59.270 E36.38495
G1 X79.996 Y62.383 E36.64876
G1 X79.996 Y61.765 E36.68577
G1 X76.883 Y58.652 E36.94958
G1 X76.883 Y58.035 E36.98659
G1 X79.996 Y61.148 E37.25041
G1 X79.996 Y60.530 E37.28742
G1 X76.883 Y57.417 E37.55123
G1 X76.883 Y56.799 E37.58824
G1 X79.996 Y59.912 E37.85205
G1 X79.996 Y59.295 E37.88907
G1 X76.883 Y56.182 E38.15288
G1 X76.883 Y55.564 E38.18989
G1 X79.996 Y58.677 E38.45370
G1 X79.996 Y58.059 E38.49071
G1 X76.883 Y54.946 E38.75452
G1 X76.883 Y54.328 E38.79154
G1 X79.928 Y57.374 E39.04961
G1 X79.770 Y56.598 E39.09706
G1 X76.883 Y53.711 E39.34174
G1 X76.883 Y53.093 E39.37875
G1 X78.880 Y55.090 E39.54800
G1 E37.54800 F1680.00000
G92 E0
G1 X65.996 Y53.324 F12000.000
G1 E2.00000 F1680.00000
G1 X65.788 Y53.116 E2.01763 F1200.000
G1 X65.479 Y53.425 E2.04380
G1 X65.996 Y53.942 E2.08759
G1 X65.996 Y54.560 E2.12461
G1 X65.170 Y53.734 E2.19457
G1 X64.861 Y54.043 E2.22075
G1 X65.996 Y55.177 E2.31689
G1 X65.996 Y55.795 E2.35390
G1 X64.553 Y54.352 E2.47621
G1 X64.244 Y54.660 E2.50238
G1 X65.996 Y56.413 E2.65087
G1 X65.996 Y57.030 E2.68788
G1 X63.935 Y54.969 E2.86254
G1 X63.631 Y55.283 E2.88871
G1 X65.996 Y57.648 E3.08914
G1 X65.996 Y58.266 E3.12615
G1 X63.355 Y55.624 E3.34997
G1 X63.116 Y56.004 E3.37682
G1 X65.996 Y58.883 E3.62085
G1 X65.996 Y59.501 E3.65786
G1 X62.909 Y56.414 E3.91947
G1 X62.759 Y56.882 E3.94891
G1 X65.996 Y60.119 E4.22322
G1 X65.996 Y60.736 E4.26023
G1 X62.631 Y57.371 E4.54542
G1 X62.540 Y57.898 E4.57747
G1 X65.996 Y61.354 E4.87033
G1 X65.996 Y61.972 E4.90735
G1 X62.451 Y58.427 E5.20772
G1 X62.363 Y58.956 E5.23986
G1 X65.996 Y62.589 E5.54776
G1 X65.996 Y63.207 E5.58477
G1 X62.274 Y59.485 E5.90018
G1 X62.185 Y60.014 E5.93232
G1 X65.996 Y63.825 E6.25525
G1 X65.996 Y64.442 E6.29226
G1 X62.097 Y60.543 E6.62271
G1 X62.008 Y61.072 E6.65485
G1 X65.996 Y65.060 E6.99281
G1 X65.996 Y65.678 E7.02983
G1 X61.919 Y61.601 E7.37532
G1 X61.817 Y62.116 E7.40680
G1 X65.996 Y66.295 E7.76097
G1 X65.996 Y66.913 E7.79798
G1 X61.714 Y62.631 E8.16083
G1 X61.612 Y63.147 E8.19231
G1 X65.996 Y67.531 E8.56384
G1 X65.996 Y68.148 E8.60085
G1 X61.509 Y63.662 E8.98106
G1 X61.407 Y64.177 E9.01254
G1 X65.996 Y68.766 E9.40142
G1 X65.996 Y69.384 E9.43843
G1 X61.305 Y64.692 E9.83599
G1 X61.202 Y65.208 E9.86747
G1 X65.996 Y70.001 E10.27371
G1 X65.996 Y70.619 E10.31072
G1 X61.100 Y65.723 E10.72564
G1 X60.987 Y66.228 E10.75664
G1 X65.996 Y71.237 E11.18110
G1 X65.996 Y71.854 E11.21812
G1 X60.872 Y66.730 E11.65237
G1 X60.756 Y67.232 E11.68325
G1 X65.996 Y72.472 E12.12729
G1 X65.996 Y73.090 E12.16431
G1 X60.640 Y67.734 E12.61815
G1 X60.525 Y68.236 E12.64902
G1 X65.996 Y73.707 E13.11265
G1 X65.996 Y74.325 E13.14967
G1 X60.409 Y68.739 E13.62309
G1 X60.294 Y69.241 E13.65396
G1 X65.996 Y74.943 E14.13718
G1 X65.996 Y75.560 E14.17419
G1 X60.178 Y69.743 E14.66720
G1 X60.058 Y70.240 E14.69785
G1 X65.996 Y76.178 E15.20107
G1 X65.996 Y76.796 E15.23808
G1 X59.930 Y70.729 E15.75216
G1 X59.801 Y71.219 E15.78249
G1 X65.996 Y77.413 E16.30742
G1 X65.996 Y78.031 E16.34444
G1 X59.673 Y71.709 E16.88024
G1 X59.545 Y72.198 E16.91056
G1 X65.996 Y78.649 E17.45722
G1 X65.996 Y79.266 E17.49423
G1 X59.417 Y72.688 E18.05175
G1 X59.289 Y73.177 E18.08207
G1 X65.996 Y79.884 E18.65045
G1 X65.996 Y80.502 E18.68746
G1 X59.161 Y73.667 E19.26670
G1 X59.033 Y74.156 E19.29703
G1 X65.996 Y81.119 E19.88713
G1 X65.996 Y81.737 E19.92414
G1 X58.893 Y74.635 E20.52603
G1 X58.753 Y75.112 E20.55584
G1 X65.996 Y82.355 E21.16963
G1 X76.624 Y83.100 F12000.000
G1 X79.996 Y86.472 E21.45540 F1200.000
G1 X79.996 Y87.090 E21.49241
G1 X76.006 Y83.100 E21.83052
G1 X75.388 Y83.100 E21.86753
G1 X79.996 Y87.707 E22.25799
G1 X79.996 Y88.325 E22.29500
G1 X74.771 Y83.100 E22.73780
G1 X74.153 Y83.100 E22.77481
G1 X79.996 Y88.943 E23.26996
G1 X79.889 Y89.454 E23.30124
G1 X73.535 Y83.100 E23.83968
G1 X72.918 Y83.100 E23.87670
G1 X79.633 Y89.815 E24.44573
G1 X79.353 Y90.153 E24.47201
G1 X72.300 Y83.100 E25.06968
G1 X71.682 Y83.100 E25.10669
G1 X79.073 Y90.491 E25.73300
G1 X78.793 Y90.828 E25.75928
G1 X71.065 Y83.100 E26.41422
G1 X70.447 Y83.100 E26.45124
G1 X78.513 Y91.166 E27.13481
G1 X78.234 Y91.504 E27.16110
G1 X69.829 Y83.100 E27.87331
G1 X69.212 Y83.100 E27.91032
G1 X77.954 Y91.842 E28.65117
G1 X77.674 Y92.180 E28.67745
G1 X68.594 Y83.100 E29.44694
G1 X67.976 Y83.100 E29.48395
G1 X77.394 Y92.518 E30.28207
G1 X77.115 Y92.856 E30.30835
G1 X67.359 Y83.100 E31.13511
G1 X66.741 Y83.100 E31.17212
G1 X76.835 Y93.194 E32.02751
G1 X76.555 Y93.532 E32.05380
G1 X58.613 Y75.589 E33.57431
G1 X58.472 Y76.066 E33.60412
G1 X76.275 Y93.870 E35.11283
G1 X75.996 Y94.208 E35.13912
G1 X58.332 Y76.544 E36.63602
G1 X58.191 Y77.021 E36.66583
G1 X75.716 Y94.545 E38.15093
G1 X75.436 Y94.883 E38.17721
G1 X58.051 Y77.498 E39.65050
G1 X57.910 Y77.975 E39.68031
G1 X75.156 Y95.221 E41.14180
G1 X74.877 Y95.559 E41.16809
G1 X57.768 Y78.451 E42.61792
G1 X57.616 Y78.916 E42.64727
G1 X74.597 Y95.897 E44.08630
G1 X74.317 Y96.235 E44.11259
G1 X57.463 Y79.381 E45.54082
G1 X57.311 Y79.847 E45.57016
G1 X74.037 Y96.573 E46.98759
G1 X73.758 Y96.911 E47.01388
G1 X57.159 Y80.312 E48.42050
G1 X57.007 Y80.778 E48.44985
G1 X73.478 Y97.249 E49.84567
G1 X73.198 Y97.587 E49.87196
G1 X56.854 Y81.243 E51.25698
G1 X56.702 Y81.708 E51.28632
G1 X72.918 Y97.925 E52.66053
G1 X72.639 Y98.263 E52.68682
G1 X56.550 Y82.174 E54.05024
G1 X56.394 Y82.635 E54.07943
G1 X72.359 Y98.600 E55.43237
G1 X72.079 Y98.938 E55.45865
G1 X56.230 Y83.089 E56.80176
G1 X56.066 Y83.543 E56.83067
G1 X71.799 Y99.276 E58.16394
G1 X71.520 Y99.614 E58.19023
G1 X55.902 Y83.997 E59.51367
G1 X55.739 Y84.451 E59.54259
G1 X71.240 Y99.952 E60.85620
G1 X70.960 Y100.290 E60.88249
G1 X55.575 Y84.905 E62.18627
G1 X55.411 Y85.359 E62.21518
G1 X70.680 Y100.628 E63.50913
G1 X70.400 Y100.966 E63.53542
G1 X55.247 Y85.813 E64.81954
G1 X55.084 Y86.267 E64.84846
G1 X70.121 Y101.304 E66.12275
G1 X69.841 Y101.642 E66.14904
G1 X54.916 Y86.716 E67.41385
G1 X54.741 Y87.159 E67.44237
G1 X69.561 Y101.980 E68.69830
G1 X69.281 Y102.317 E68.72459
G1 X54.566 Y87.602 E69.97163
G1 X54.391 Y88.045 E70.00016
G1 X69.002 Y102.655 E71.23832
G1 X68.700 Y102.971 E71.26450
G1 X54.216 Y88.487 E72.49190
G1 X54.041 Y88.930 E72.52042
G1 X68.345 Y103.234 E73.73256
G1 X67.738 Y103.245 E73.76893
G1 X53.866 Y89.373 E74.94448
G1 X53.691 Y89.816 E74.97300
G1 X64.835 Y100.960 E75.91739
G1 X61.246 Y97.988 F12000.000
G1 X53.516 Y90.258 E76.57246 F1200.000
G1 X53.361 Y90.720 E76.60167
G1 X57.657 Y95.017 E76.96578
G1 X54.068 Y92.046 F12000.000
G1 X53.492 Y91.469 E77.01462 F1200.000
M106 S155.55
M104 S188 ; set temperature
G1 E75.01462 F1680.00000
G92 E0
G1 Z0.500 F12000.000
G1 X80.232 Y83.423 F12000.000
G1 E2.00000 F1680.00000
G1 X80.232 Y88.895 E2.22876 F1800.000
G1 X80.194 Y89.230 E2.24286
G1 X80.093 Y89.509 E2.25525
G1 X79.909 Y89.792 E2.26935
G1 X68.946 Y103.035 E2.98811
G1 X68.665 Y103.295 E3.00411
G1 X68.368 Y103.452 E3.01815
G1 X68.041 Y103.527 E3.03220
G1 X67.705 Y103.515 E3.04624
G1 X67.384 Y103.416 E3.06029
G1 X67.060 Y103.212 E3.07628
G1 X53.586 Y92.057 E3.80758
G1 X53.332 Y91.786 E3.82312
G1 X53.176 Y91.499 E3.83676
G1 X53.097 Y91.183 E3.85039
G1 X53.101 Y90.857 E3.86403
G1 X53.199 Y90.493 E3.87979
G1 X54.765 Y86.528 E4.05800
G1 X56.229 Y82.471 E4.23832
G1 X57.571 Y78.372 E4.41864
G1 X58.788 Y74.234 E4.59896
G1 X59.881 Y70.062 E4.77928
G1 X60.848 Y65.858 E4.95960
G1 X61.689 Y61.628 E5.13992
G1 X62.395 Y57.416 E5.31846
G1 X62.636 Y56.499 E5.35809
G1 X63.045 Y55.692 E5.39593
G1 X63.637 Y54.959 E5.43534
G1 X66.232 Y52.363 E5.58877
