; generated by Slic3r 1.0.0RC1 on 2014-11-29 at 18:13:01

; layer_height = 0.3
; perimeters = 1
; top_solid_layers = 2
; bottom_solid_layers = 2
; fill_density = 0.2
; perimeter_speed = 30
; infill_speed = 30
; travel_speed = 200
; nozzle_diameter = 0.5
; filament_diameter = 2.90
; extrusion_multiplier = 1.1
; perimeters extrusion width = 0.50mm
; infill extrusion width = 0.50mm
; solid infill extrusion width = 0.50mm
; top infill extrusion width = 0.50mm

G21 ; set units to millimeters
M107
M104 S190 ; set temperature
G28 ; home all axes
G1 Z15 F120 ; lift nozzle
M109 S190 ; wait for temperature to be reached
G90 ; use absolute coordinates
G92 E0
M82 ; use absolute distances for extrusion
G1 F1680.000 E-2.00000
G92 E0
G1 Z0.450 F12000.000
G1 X70.400 Y70.400 F12000.000
G1 E2.00000 F1680.000
G1 X71.390 Y69.600 E2.04769 F876.299
G1 X72.510 Y68.990 E2.09548
G1 X73.730 Y68.620 E2.14325
G1 X75.000 Y68.500 E2.19105
G1 X95.000 Y68.500 E2.94046
G1 X96.270 Y68.620 E2.98826
G1 X97.490 Y68.990 E3.03603
G1 X98.610 Y69.600 E3.08382
G1 X99.600 Y70.400 E3.13151
G1 X100.400 Y71.390 E3.17921
G1 X101.010 Y72.510 E3.22699
G1 X101.380 Y73.730 E3.27476
G1 X101.500 Y75.000 E3.32256
G1 X101.500 Y95.000 E4.07197
G1 X101.380 Y96.270 E4.11977
G1 X101.010 Y97.490 E4.16754
G1 X100.400 Y98.610 E4.21533
G1 X99.600 Y99.600 E4.26302
G1 X98.610 Y100.400 E4.31072
G1 X97.490 Y101.010 E4.35850
G1 X96.270 Y101.380 E4.40627
G1 X95.000 Y101.500 E4.45407
G1 X75.000 Y101.500 E5.20348
G1 X73.730 Y101.380 E5.25128
G1 X72.510 Y101.010 E5.29905
G1 X71.390 Y100.400 E5.34684
G1 X70.400 Y99.600 E5.39453
G1 X69.600 Y98.610 E5.44223
G1 X68.990 Y97.490 E5.49002
G1 X68.620 Y96.270 E5.53779
G1 X68.500 Y95.000 E5.58559
G1 X68.500 Y75.000 E6.33500
G1 X68.620 Y73.730 E6.38279
G1 X68.990 Y72.510 E6.43056
G1 X69.600 Y71.390 E6.47835
G1 X70.353 Y70.458 E6.52324
G1 F1680.000 E4.52324
G92 E0
G1 X75.125 Y75.125 F12000.000
G1 E2.00000 F1680.000
G1 X75.292 Y75.292 E2.00883 F701.039
G1 X75.375 Y75.250 E2.01232
G1 X94.625 Y75.250 E2.73363
G1 X94.708 Y75.292 E2.73712
G1 X94.875 Y75.125 E2.74595
G1 X94.708 Y75.292 F12000.000
G1 X94.750 Y75.375 E2.74944 F701.039
G1 X94.750 Y94.625 E3.47075
G1 X94.708 Y94.708 E3.47424
G1 X94.625 Y94.750 E3.47773
G1 X75.375 Y94.750 E4.19904
G1 X75.292 Y94.708 E4.20253
G1 X75.250 Y94.625 E4.20602
G1 X75.250 Y75.375 E4.92733
G1 X75.292 Y75.292 E4.93082
G1 X75.292 Y94.708 F12000.000
G1 X75.125 Y94.875 E4.93965 F701.039
G1 X94.708 Y94.708 F12000.000
G1 X94.875 Y94.875 E4.94848 F701.039
M106 S255
M104 S188 ; set temperature
G1 F1680.000 E2.94848
G92 E0
G1 Z0.750 F12000.000
G1 X75.125 Y75.125 F12000.000
G1 E2.00000 F1680.000
G1 X75.292 Y75.292 E2.00589 F600.000
G1 X75.375 Y75.250 E2.00822
G1 X94.625 Y75.250 E2.48909
G1 X94.708 Y75.292 E2.49141
G1 X94.875 Y75.125 E2.49730
G1 X94.708 Y75.292 F12000.000
G1 X94.750 Y75.375 E2.49963 F600.000
G1 X94.750 Y94.625 E2.98050
G1 X94.708 Y94.708 E2.98283
G1 X94.625 Y94.750 E2.98516
G1 X75.375 Y94.750 E3.46603
G1 X75.292 Y94.708 E3.46835
G1 X75.250 Y94.625 E3.47068
G1 X75.250 Y75.375 E3.95155
G1 X75.292 Y75.292 E3.95388
G1 X75.292 Y94.708 F12000.000
G1 X75.125 Y94.875 E3.95977 F600.000
G1 X94.708 Y94.708 F12000.000
G1 X94.875 Y94.875 E3.96566 F600.000
G1 F1680.000 E1.96566
G92 E0
G1 Z1.050 F12000.000
G1 X75.125 Y75.125 F12000.000
G1 E2.00000 F1680.000
G1 X75.292 Y75.292 E2.00589 F600.000
G1 X75.375 Y75.250 E2.00822
G1 X94.625 Y75.250 E2.48909
G1 X94.708 Y75.292 E2.49141
G1 X94.875 Y75.125 E2.49730
G1 X94.708 Y75.292 F12000.000
G1 X94.750 Y75.375 E2.49963 F600.000
G1 X94.750 Y94.625 E2.98050
G1 X94.708 Y94.708 E2.98283
G1 X94.625 Y94.750 E2.98516
G1 X75.375 Y94.750 E3.46603
G1 X75.292 Y94.708 E3.46835
G1 X75.250 Y94.625 E3.47068
G1 X75.250 Y75.375 E3.95155
G1 X75.292 Y75.292 E3.95388
G1 X75.292 Y94.708 F12000.000
G1 X75.125 Y94.875 E3.95977 F600.000
G1 X94.708 Y94.708 F12000.000
G1 X94.875 Y94.875 E3.96566 F600.000
G1 F1680.000 E1.96566
G92 E0
G1 Z1.350 F12000.000
G1 X75.125 Y75.125 F12000.000
G1 E2.00000 F1680.000
G1 X75.292 Y75.292 E2.00589 F600.000
G1 X75.375 Y75.250 E2.00822
G1 X94.625 Y75.250 E2.48909
G1 X94.708 Y75.292 E2.49141
G1 X94.875 Y75.125 E2.49730
G1 X94.708 Y75.292 F12000.000
G1 X94.750 Y75.375 E2.49963 F600.000
G1 X94.750 Y94.625 E2.98050
G1 X94.708 Y94.708 E2.98283
G1 X94.625 Y94.750 E2.98516
G1 X75.375 Y94.750 E3.46603
G1 X75.292 Y94.708 E3.46835
G1 X75.250 Y94.625 E3.47068
G1 X75.250 Y75.375 E3.95155
G1 X75.292 Y75.292 E3.95388
G1 X75.292 Y94.708 F12000.000
G1 X75.125 Y94.875 E3.95977 F600.000
G1 X94.708 Y94.708 F12000.000
G1 X94.875 Y94.875 E3.96566 F600.000
G1 F1680.000 E1.96566
G92 E0
G1 Z1.650 F12000.000
G1 X75.125 Y75.125 F12000.000
G1 E2.00000 F1680.000
G1 X75.292 Y75.292 E2.00589 F600.000
G1 X75.375 Y75.250 E2.00822
G1 X94.625 Y75.250 E2.48909
G1 X94.708 Y75.292 E2.49141
G1 X94.875 Y75.125 E2.49730
G1 X94.708 Y75.292 F12000.000
G1 X94.750 Y75.375 E2.49963 F600.000
G1 X94.750 Y94.625 E2.98050
G1 X94.708 Y94.708 E2.98283
G1 X94.625 Y94.750 E2.98516
G1 X75.375 Y94.750 E3.46603
G1 X75.292 Y94.708 E3.46835
G1 X75.250 Y94.625 E3.47068
G1 X75.250 Y75.375 E3.95155
G1 X75.292 Y75.292 E3.95388
G1 X75.292 Y94.708 F12000.000
G1 X75.125 Y94.875 E3.95977 F600.000
G1 X94.708 Y94.708 F12000.000
G1 X94.875 Y94.875 E3.96566 F600.000
G1 F1680.000 E1.96566
G92 E0
G1 Z1.950 F12000.000
G1 X75.125 Y75.125 F12000.000
G1 E2.00000 F1680.000
G1 X75.292 Y75.292 E2.00589 F600.000
G1 X75.375 Y75.250 E2.00822
G1 X94.625 Y75.250 E2.48909
G1 X94.708 Y75.292 E2.49141
G1 X94.875 Y75.125 E2.49730
G1 X94.708 Y75.292 F12000.000
G1 X94.750 Y75.375 E2.49963 F600.000
G1 X94.750 Y94.625 E2.98050
G1 X94.708 Y94.708 E2.98283
G1 X94.625 Y94.750 E2.98516
G1 X75.375 Y94.750 E3.46603
G1 X75.292 Y94.708 E3.46835
G1 X75.250 Y94.625 E3.47068
G1 X75.250 Y75.375 E3.95155
G1 X75.292 Y75.292 E3.95388
G1 X75.292 Y94.708 F12000.000
G1 X75.125 Y94.875 E3.95977 F600.000
G1 X94.708 Y94.708 F12000.000
G1 X94.875 Y94.875 E3.96566 F600.000
G1 F1680.000 E1.96566
G92 E0
G1 Z2.250 F12000.000
G1 X75.125 Y75.125 F12000.000
G1 E2.00000 F1680.000
G1 X75.292 Y75.292 E2.00589 F600.000
G1 X75.375 Y75.250 E2.00822
G1 X94.625 Y75.250 E2.48909
G1 X94.708 Y75.292 E2.49141
G1 X94.875 Y75.125 E2.49730
G1 X94.708 Y75.292 F12000.000
G1 X94.750 Y75.375 E2.49963 F600.000
G1 X94.750 Y94.625 E2.98050
G1 X94.708 Y94.708 E2.98283
G1 X94.625 Y94.750 E2.98516
G1 X75.375 Y94.750 E3.46603
G1 X75.292 Y94.708 E3.46835
G1 X75.250 Y94.625 E3.47068
G1 X75.250 Y75.375 E3.95155
G1 X75.292 Y75.292 E3.95388
G1 X75.292 Y94.708 F12000.000
G1 X75.125 Y94.875 E3.95977 F600.000
G1 X94.708 Y94.708 F12000.000
G1 X94.875 Y94.875 E3.96566 F600.000
G1 F1680.000 E1.96566
G92 E0
G1 Z2.550 F12000.000
G1 X75.125 Y75.125 F12000.000
G1 E2.00000 F1680.000
G1 X75.292 Y75.292 E2.00589 F600.000
G1 X75.375 Y75.250 E2.00822
G1 X94.625 Y75.250 E2.48909
G1 X94.708 Y75.292 E2.49141
G1 X94.875 Y75.125 E2.49730
G1 X94.708 Y75.292 F12000.000
G1 X94.750 Y75.375 E2.49963 F600.000
G1 X94.750 Y94.625 E2.98050
G1 X94.708 Y94.708 E2.98283
G1 X94.625 Y94.750 E2.98516
G1 X75.375 Y94.750 E3.46603
G1 X75.292 Y94.708 E3.46835
G1 X75.250 Y94.625 E3.47068
G1 X75.250 Y75.375 E3.95155
G1 X75.292 Y75.292 E3.95388
G1 X75.292 Y94.708 F12000.000
G1 X75.125 Y94.875 E3.95977 F600.000
G1 X94.708 Y94.708 F12000.000
G1 X94.875 Y94.875 E3.96566 F600.000
G1 F1680.000 E1.96566
G92 E0
G1 Z2.850 F12000.000
G1 X75.125 Y75.125 F12000.000
G1 E2.00000 F1680.000
G1 X75.292 Y75.292 E2.00589 F600.000
G1 X75.375 Y75.250 E2.00822
G1 X94.625 Y75.250 E2.48909
G1 X94.708 Y75.292 E2.49141
G1 X94.875 Y75.125 E2.49730
G1 X94.708 Y75.292 F12000.000
G1 X94.750 Y75.375 E2.49963 F600.000
G1 X94.750 Y94.625 E2.98050
G1 X94.708 Y94.708 E2.98283
G1 X94.625 Y94.750 E2.98516
G1 X75.375 Y94.750 E3.46603
G1 X75.292 Y94.708 E3.46835
G1 X75.250 Y94.625 E3.47068
G1 X75.250 Y75.375 E3.95155
G1 X75.292 Y75.292 E3.95388
G1 X75.292 Y94.708 F12000.000
G1 X75.125 Y94.875 E3.95977 F600.000
G1 X94.708 Y94.708 F12000.000
G1 X94.875 Y94.875 E3.96566 F600.000
G1 F1680.000 E1.96566
G92 E0
G1 Z3.150 F12000.000
G1 X75.125 Y75.125 F12000.000
G1 E2.00000 F1680.000
G1 X75.292 Y75.292 E2.00589 F600.000
G1 X75.375 Y75.250 E2.00822
G1 X94.625 Y75.250 E2.48909
G1 X94.708 Y75.292 E2.49141
G1 X94.875 Y75.125 E2.49730
G1 X94.708 Y75.292 F12000.000
G1 X94.750 Y75.375 E2.49963 F600.000
G1 X94.750 Y94.625 E2.98050
G1 X94.708 Y94.708 E2.98283
G1 X94.625 Y94.750 E2.98516
G1 X75.375 Y94.750 E3.46603
G1 X75.292 Y94.708 E3.46835
G1 X75.250 Y94.625 E3.47068
G1 X75.250 Y75.375 E3.95155
G1 X75.292 Y75.292 E3.95388
G1 X75.292 Y94.708 F12000.000
G1 X75.125 Y94.875 E3.95977 F600.000
G1 X94.708 Y94.708 F12000.000
G1 X94.875 Y94.875 E3.96566 F600.000
G1 F1680.000 E1.96566
G92 E0
G1 Z3.450 F12000.000
G1 X75.125 Y75.125 F12000.000
G1 E2.00000 F1680.000
G1 X75.292 Y75.292 E2.00589 F600.000
G1 X75.375 Y75.250 E2.00822
G1 X94.625 Y75.250 E2.48909
G1 X94.708 Y75.292 E2.49141
G1 X94.875 Y75.125 E2.49730
G1 X94.708 Y75.292 F12000.000
G1 X94.750 Y75.375 E2.49963 F600.000
G1 X94.750 Y94.625 E2.98050
G1 X94.708 Y94.708 E2.98283
G1 X94.625 Y94.750 E2.98516
G1 X75.375 Y94.750 E3.46603
G1 X75.292 Y94.708 E3.46835
G1 X75.250 Y94.625 E3.47068
G1 X75.250 Y75.375 E3.95155
G1 X75.292 Y75.292 E3.95388
G1 X75.292 Y94.708 F12000.000
G1 X75.125 Y94.875 E3.95977 F600.000
G1 X94.708 Y94.708 F12000.000
G1 X94.875 Y94.875 E3.96566 F600.000
G1 F1680.000 E1.96566
G92 E0
G1 Z3.750 F12000.000
G1 X75.125 Y75.125 F12000.000
G1 E2.00000 F1680.000
G1 X75.292 Y75.292 E2.00589 F600.000
G1 X75.375 Y75.250 E2.00822
G1 X94.625 Y75.250 E2.48909
G1 X94.708 Y75.292 E2.49141
G1 X94.875 Y75.125 E2.49730
G1 X94.708 Y75.292 F12000.000
G1 X94.750 Y75.375 E2.49963 F600.000
G1 X94.750 Y94.625 E2.98050
G1 X94.708 Y94.708 E2.98283
G1 X94.625 Y94.750 E2.98516
G1 X75.375 Y94.750 E3.46603
G1 X75.292 Y94.708 E3.46835
G1 X75.250 Y94.625 E3.47068
G1 X75.250 Y75.375 E3.95155
G1 X75.292 Y75.292 E3.95388
G1 X75.292 Y94.708 F12000.000
G1 X75.125 Y94.875 E3.95977 F600.000
G1 X94.708 Y94.708 F12000.000
G1 X94.875 Y94.875 E3.96566 F600.000
G1 F1680.000 E1.96566
G92 E0
G1 Z4.050 F12000.000
G1 X75.125 Y75.125 F12000.000
G1 E2.00000 F1680.000
G1 X75.292 Y75.292 E2.00589 F600.000
G1 X75.375 Y75.250 E2.00822
G1 X94.625 Y75.250 E2.48909
G1 X94.708 Y75.292 E2.49141
G1 X94.875 Y75.125 E2.49730
G1 X94.708 Y75.292 F12000.000
G1 X94.750 Y75.375 E2.49963 F600.000
G1 X94.750 Y94.625 E2.98050
G1 X94.708 Y94.708 E2.98283
G1 X94.625 Y94.750 E2.98516
G1 X75.375 Y94.750 E3.46603
G1 X75.292 Y94.708 E3.46835
G1 X75.250 Y94.625 E3.47068
G1 X75.250 Y75.375 E3.95155
G1 X75.292 Y75.292 E3.95388
G1 X75.292 Y94.708 F12000.000
G1 X75.125 Y94.875 E3.95977 F600.000
G1 X94.708 Y94.708 F12000.000
G1 X94.875 Y94.875 E3.96566 F600.000
G1 F1680.000 E1.96566
G92 E0
G1 Z4.350 F12000.000
G1 X75.125 Y75.125 F12000.000
G1 E2.00000 F1680.000
G1 X75.292 Y75.292 E2.00589 F600.000
G1 X75.375 Y75.250 E2.00822
G1 X94.625 Y75.250 E2.48909
G1 X94.708 Y75.292 E2.49141
G1 X94.875 Y75.125 E2.49730
G1 X94.708 Y75.292 F12000.000
G1 X94.750 Y75.375 E2.49963 F600.000
G1 X94.750 Y94.625 E2.98050
G1 X94.708 Y94.708 E2.98283
G1 X94.625 Y94.750 E2.98516
G1 X75.375 Y94.750 E3.46603
G1 X75.292 Y94.708 E3.46835
G1 X75.250 Y94.625 E3.47068
G1 X75.250 Y75.375 E3.95155
G1 X75.292 Y75.292 E3.95388
G1 X75.292 Y94.708 F12000.000
G1 X75.125 Y94.875 E3.95977 F600.000
G1 X94.708 Y94.708 F12000.000
G1 X94.875 Y94.875 E3.96566 F600.000
G1 F1680.000 E1.96566
G92 E0
G1 Z4.650 F12000.000
G1 X75.125 Y75.125 F12000.000
G1 E2.00000 F1680.000
G1 X75.292 Y75.292 E2.00589 F600.000
G1 X75.375 Y75.250 E2.00822
G1 X94.625 Y75.250 E2.48909
G1 X94.708 Y75.292 E2.49141
G1 X94.875 Y75.125 E2.49730
G1 X94.708 Y75.292 F12000.000
G1 X94.750 Y75.375 E2.49963 F600.000
G1 X94.750 Y94.625 E2.98050
G1 X94.708 Y94.708 E2.98283
G1 X94.625 Y94.750 E2.98516
G1 X75.375 Y94.750 E3.46603
G1 X75.292 Y94.708 E3.46835
G1 X75.250 Y94.625 E3.47068
G1 X75.250 Y75.375 E3.95155
G1 X75.292 Y75.292 E3.95388
G1 X75.292 Y94.708 F12000.000
G1 X75.125 Y94.875 E3.95977 F600.000
G1 X94.708 Y94.708 F12000.000
G1 X94.875 Y94.875 E3.96566 F600.000
G1 F1680.000 E1.96566
G92 E0
G1 Z4.950 F12000.000
G1 X75.125 Y75.125 F12000.000
G1 E2.00000 F1680.000
G1 X75.292 Y75.292 E2.00589 F600.000
G1 X75.375 Y75.250 E2.00822
G1 X94.625 Y75.250 E2.48909
G1 X94.708 Y75.292 E2.49141
G1 X94.875 Y75.125 E2.49730
G1 X94.708 Y75.292 F12000.000
G1 X94.750 Y75.375 E2.49963 F600.000
G1 X94.750 Y94.625 E2.98050
G1 X94.708 Y94.708 E2.98283
G1 X94.625 Y94.750 E2.98516
G1 X75.375 Y94.750 E3.46603
G1 X75.292 Y94.708 E3.46835
G1 X75.250 Y94.625 E3.47068
G1 X75.250 Y75.375 E3.95155
G1 X75.292 Y75.292 E3.95388
G1 X75.292 Y94.708 F12000.000
G1 X75.125 Y94.875 E3.95977 F600.000
G1 X94.708 Y94.708 F12000.000
G1 X94.875 Y94.875 E3.96566 F600.000
G1 F1680.000 E1.96566
G92 E0
G1 Z5.250 F12000.000
G1 X75.125 Y75.125 F12000.000
G1 E2.00000 F1680.000
G1 X75.292 Y75.292 E2.00589 F600.000
G1 X75.375 Y75.250 E2.00822
G1 X94.625 Y75.250 E2.48909
G1 X94.708 Y75.292 E2.49141
G1 X94.875 Y75.125 E2.49730
G1 X94.708 Y75.292 F12000.000
G1 X94.750 Y75.375 E2.49963 F600.000
G1 X94.750 Y94.625 E2.98050
G1 X94.708 Y94.708 E2.98283
G1 X94.625 Y94.750 E2.98516
G1 X75.375 Y94.750 E3.46603
G1 X75.292 Y94.708 E3.46835
G1 X75.250 Y94.625 E3.47068
G1 X75.250 Y75.375 E3.95155
G1 X75.292 Y75.292 E3.95388
G1 X75.292 Y94.708 F12000.000
G1 X75.125 Y94.875 E3.95977 F600.000
G1 X94.708 Y94.708 F12000.000
G1 X94.875 Y94.875 E3.96566 F600.000
G1 F1680.000 E1.96566
G92 E0
G1 Z5.550 F12000.000
G1 X75.125 Y75.125 F12000.000
G1 E2.00000 F1680.000
G1 X75.292 Y75.292 E2.00589 F600.000
G1 X75.375 Y75.250 E2.00822
G1 X94.625 Y75.250 E2.48909
G1 X94.708 Y75.292 E2.49141
G1 X94.875 Y75.125 E2.49730
G1 X94.708 Y75.292 F12000.000
G1 X94.750 Y75.375 E2.49963 F600.000
G1 X94.750 Y94.625 E2.98050
G1 X94.708 Y94.708 E2.98283
G1 X94.625 Y94.750 E2.98516
G1 X75.375 Y94.750 E3.46603
G1 X75.292 Y94.708 E3.46835
G1 X75.250 Y94.625 E3.47068
G1 X75.250 Y75.375 E3.95155
G1 X75.292 Y75.292 E3.95388
G1 X75.292 Y94.708 F12000.000
G1 X75.125 Y94.875 E3.95977 F600.000
G1 X94.708 Y94.708 F12000.000
G1 X94.875 Y94.875 E3.96566 F600.000
G1 F1680.000 E1.96566
G92 E0
G1 Z5.850 F12000.000
G1 X75.125 Y75.125 F12000.000
G1 E2.00000 F1680.000
G1 X75.292 Y75.292 E2.00589 F600.000
G1 X75.375 Y75.250 E2.00822
G1 X94.625 Y75.250 E2.48909
G1 X94.708 Y75.292 E2.49141
G1 X94.875 Y75.125 E2.49730
G1 X94.708 Y75.292 F12000.000
G1 X94.750 Y75.375 E2.49963 F600.000
G1 X94.750 Y94.625 E2.98050
G1 X94.708 Y94.708 E2.98283
G1 X94.625 Y94.750 E2.98516
G1 X75.375 Y94.750 E3.46603
G1 X75.292 Y94.708 E3.46835
G1 X75.250 Y94.625 E3.47068
G1 X75.250 Y75.375 E3.95155
G1 X75.292 Y75.292 E3.95388
G1 X75.292 Y94.708 F12000.000
G1 X75.125 Y94.875 E3.95977 F600.000
G1 X94.708 Y94.708 F12000.000
G1 X94.875 Y94.875 E3.96566 F600.000
G1 F1680.000 E1.96566
G92 E0
G1 Z6.150 F12000.000
G1 X75.125 Y75.125 F12000.000
G1 E2.00000 F1680.000
G1 X75.292 Y75.292 E2.00589 F600.000
G1 X75.375 Y75.250 E2.00822
G1 X94.625 Y75.250 E2.48909
G1 X94.708 Y75.292 E2.49141
G1 X94.875 Y75.125 E2.49730
G1 X94.708 Y75.292 F12000.000
G1 X94.750 Y75.375 E2.49963 F600.000
G1 X94.750 Y94.625 E2.98050
G1 X94.708 Y94.708 E2.98283
G1 X94.625 Y94.750 E2.98516
G1 X75.375 Y94.750 E3.46603
G1 X75.292 Y94.708 E3.46835
G1 X75.250 Y94.625 E3.47068
G1 X75.250 Y75.375 E3.95155
G1 X75.292 Y75.292 E3.95388
G1 X75.292 Y94.708 F12000.000
G1 X75.125 Y94.875 E3.95977 F600.000
G1 X94.708 Y94.708 F12000.000
G1 X94.875 Y94.875 E3.96566 F600.000
G1 F1680.000 E1.96566
G92 E0
G1 Z6.450 F12000.000
