; generated by Slic3r 1.0.0RC1 on 2014-11-29 at 17:49:30

; layer_height = 0.4
; perimeters = 3
; top_solid_layers = 3
; bottom_solid_layers = 3
; fill_density = 0.4
; perimeter_speed = 30
; infill_speed = 60
; travel_speed = 130
; nozzle_diameter = 0.5
; filament_diameter = 3
; extrusion_multiplier = 1
; perimeters extrusion width = 0.50mm
; infill extrusion width = 0.53mm
; solid infill extrusion width = 0.53mm
; top infill extrusion width = 0.53mm
; first layer extrusion width = 0.70mm

G21 ; set units to millimeters
M107
M104 S200 ; set temperature
G28 ; home all axes
G1 Z5 F5000 ; lift nozzle

M109 S200 ; wait for temperature to be reached
G90 ; use absolute coordinates
G92 E0
M82 ; use absolute distances for extrusion
G1 F1800.000 E-1.00000
G92 E0
G1 Z0.350 F7800.000
G1 X85.290 Y85.290 F7800.000
G1 E1.00000 F1800.000
G1 X86.300 Y84.460 E1.04253 F540.000
G1 X87.450 Y83.850 E1.08489
G1 X88.700 Y83.470 E1.12739
G1 X90.000 Y83.340 E1.16990
G1 X110.000 Y83.340 E1.82060
G1 X111.300 Y83.470 E1.86311
G1 X112.550 Y83.850 E1.90562
G1 X113.700 Y84.460 E1.94797
G1 X114.710 Y85.290 E1.99050
G1 X115.540 Y86.300 E2.03304
G1 X116.150 Y87.450 E2.07539
G1 X116.530 Y88.700 E2.11790
G1 X116.660 Y90.000 E2.16040
G1 X116.660 Y110.000 E2.81111
G1 X116.530 Y111.300 E2.85361
G1 X116.150 Y112.550 E2.89612
G1 X115.540 Y113.700 E2.93847
G1 X114.710 Y114.710 E2.98101
G1 X113.700 Y115.540 E3.02354
G1 X112.550 Y116.150 E3.06589
G1 X111.300 Y116.530 E3.10840
G1 X110.000 Y116.660 E3.15091
G1 X90.000 Y116.660 E3.80161
G1 X88.700 Y116.530 E3.84412
G1 X87.450 Y116.150 E3.88662
G1 X86.300 Y115.540 E3.92898
G1 X85.290 Y114.710 E3.97151
G1 X84.460 Y113.700 E4.01404
G1 X83.850 Y112.550 E4.05640
G1 X83.470 Y111.300 E4.09890
G1 X83.340 Y110.000 E4.14141
G1 X83.340 Y90.000 E4.79211
G1 X83.470 Y88.700 E4.83462
G1 X83.850 Y87.450 E4.87713
G1 X84.460 Y86.300 E4.91948
G1 X85.227 Y85.366 E4.95881
G1 F1800.000 E3.95881
G92 E0
G1 X90.164 Y90.144 F7800.000
G1 E1.00000 F1800.000
G1 X90.293 Y90.291 E1.00638 F378.000
G1 X90.493 Y90.223 E1.01324
G1 X90.637 Y90.268 E1.01814
G1 X90.821 Y90.225 E1.02431
G1 X90.937 Y90.275 E1.02842
G1 X91.150 Y90.225 E1.03551
G1 X91.266 Y90.275 E1.03962
G1 X91.478 Y90.225 E1.04671
G1 X91.595 Y90.275 E1.05082
G1 X91.807 Y90.225 E1.05791
G1 X91.923 Y90.275 E1.06202
G1 X92.136 Y90.225 E1.06911
G1 X92.252 Y90.275 E1.07322
G1 X92.464 Y90.225 E1.08031
G1 X92.580 Y90.275 E1.08442
G1 X92.793 Y90.225 E1.09151
G1 X92.909 Y90.275 E1.09562
G1 X93.121 Y90.225 E1.10271
G1 X93.237 Y90.275 E1.10682
G1 X93.450 Y90.225 E1.11391
G1 X93.566 Y90.275 E1.11802
G1 X93.778 Y90.225 E1.12511
G1 X93.894 Y90.275 E1.12922
G1 X94.107 Y90.225 E1.13631
G1 X94.223 Y90.275 E1.14042
G1 X94.435 Y90.225 E1.14751
G1 X94.551 Y90.275 E1.15162
G1 X94.764 Y90.225 E1.15871
G1 X94.880 Y90.275 E1.16282
G1 X95.092 Y90.225 E1.16991
G1 X95.209 Y90.275 E1.17402
G1 X95.421 Y90.225 E1.18111
G1 X95.537 Y90.275 E1.18522
G1 X95.749 Y90.225 E1.19231
G1 X95.866 Y90.275 E1.19642
G1 X96.078 Y90.225 E1.20351
G1 X96.194 Y90.275 E1.20762
G1 X96.407 Y90.225 E1.21471
G1 X96.523 Y90.275 E1.21882
G1 X96.735 Y90.225 E1.22591
G1 X96.851 Y90.275 E1.23002
G1 X97.064 Y90.225 E1.23711
G1 X97.180 Y90.275 E1.24122
G1 X97.392 Y90.225 E1.24831
G1 X97.508 Y90.275 E1.25242
G1 X97.721 Y90.225 E1.25951
G1 X97.837 Y90.275 E1.26362
G1 X98.049 Y90.225 E1.27071
G1 X98.165 Y90.275 E1.27482
G1 X98.378 Y90.225 E1.28191
G1 X98.494 Y90.275 E1.28602
G1 X98.706 Y90.225 E1.29311
G1 X98.822 Y90.275 E1.29722
G1 X99.035 Y90.225 E1.30431
G1 X99.151 Y90.275 E1.30842
G1 X99.363 Y90.225 E1.31551
G1 X99.480 Y90.275 E1.31962
G1 X99.692 Y90.225 E1.32671
G1 X99.808 Y90.275 E1.33082
G1 X100.020 Y90.225 E1.33791
G1 X100.137 Y90.275 E1.34202
G1 X100.349 Y90.225 E1.34911
G1 X100.465 Y90.275 E1.35322
G1 X100.678 Y90.225 E1.36031
G1 X100.794 Y90.275 E1.36442
G1 X101.006 Y90.225 E1.37151
G1 X101.122 Y90.275 E1.37562
G1 X101.335 Y90.225 E1.38271
G1 X101.451 Y90.275 E1.38682
G1 X101.663 Y90.225 E1.39391
G1 X101.779 Y90.275 E1.39802
G1 X101.992 Y90.225 E1.40511
G1 X102.108 Y90.275 E1.40922
G1 X102.320 Y90.225 E1.41631
G1 X102.436 Y90.275 E1.42042
G1 X102.649 Y90.225 E1.42751
G1 X102.765 Y90.275 E1.43162
G1 X102.977 Y90.225 E1.43871
G1 X103.093 Y90.275 E1.44282
G1 X103.306 Y90.225 E1.44991
G1 X103.422 Y90.275 E1.45402
G1 X103.634 Y90.225 E1.46111
G1 X103.751 Y90.275 E1.46522
G1 X103.963 Y90.225 E1.47231
G1 X104.079 Y90.275 E1.47642
G1 X104.291 Y90.225 E1.48351
G1 X104.408 Y90.275 E1.48762
G1 X104.620 Y90.225 E1.49471
G1 X104.736 Y90.275 E1.49882
G1 X104.949 Y90.225 E1.50591
G1 X105.065 Y90.275 E1.51002
G1 X105.277 Y90.225 E1.51711
G1 X105.393 Y90.275 E1.52122
G1 X105.606 Y90.225 E1.52831
G1 X105.722 Y90.275 E1.53242
G1 X105.934 Y90.225 E1.53951
G1 X106.050 Y90.275 E1.54362
G1 X106.263 Y90.225 E1.55071
G1 X106.379 Y90.275 E1.55482
G1 X106.591 Y90.225 E1.56191
G1 X106.707 Y90.275 E1.56602
G1 X106.920 Y90.225 E1.57311
G1 X107.036 Y90.275 E1.57722
G1 X107.248 Y90.225 E1.58431
G1 X107.364 Y90.275 E1.58842
G1 X107.577 Y90.225 E1.59551
G1 X107.693 Y90.275 E1.59962
G1 X107.905 Y90.225 E1.60671
G1 X108.022 Y90.275 E1.61082
G1 X108.234 Y90.225 E1.61791
G1 X108.350 Y90.275 E1.62202
G1 X108.562 Y90.225 E1.62911
G1 X108.679 Y90.275 E1.63322
G1 X108.891 Y90.225 E1.64031
G1 X109.007 Y90.275 E1.64442
G1 X109.220 Y90.225 E1.65151
G1 X109.336 Y90.275 E1.65562
G1 X109.548 Y90.225 E1.66271
G1 X109.709 Y90.293 E1.66838
G1 X109.856 Y90.164 E1.67477
G1 X109.709 Y90.293 F7800.000
G1 X109.777 Y90.493 E1.68162 F378.000
G1 X109.732 Y90.637 E1.68652
G1 X109.775 Y90.821 E1.69270
G1 X109.725 Y90.937 E1.69680
G1 X109.775 Y91.150 E1.70389
G1 X109.725 Y91.266 E1.70800
G1 X109.775 Y91.478 E1.71509
G1 X109.725 Y91.595 E1.71920
G1 X109.775 Y91.807 E1.72629
G1 X109.725 Y91.923 E1.73040
G1 X109.775 Y92.136 E1.73749
G1 X109.725 Y92.252 E1.74160
G1 X109.775 Y92.464 E1.74869
G1 X109.725 Y92.580 E1.75280
G1 X109.775 Y92.793 E1.75989
G1 X109.725 Y92.909 E1.76400
G1 X109.775 Y93.121 E1.77109
G1 X109.725 Y93.237 E1.77520
G1 X109.775 Y93.450 E1.78229
G1 X109.725 Y93.566 E1.78640
G1 X109.775 Y93.778 E1.79349
G1 X109.725 Y93.894 E1.79760
G1 X109.775 Y94.107 E1.80469
G1 X109.725 Y94.223 E1.80880
G1 X109.775 Y94.435 E1.81589
G1 X109.725 Y94.551 E1.82000
G1 X109.775 Y94.764 E1.82709
G1 X109.725 Y94.880 E1.83120
G1 X109.775 Y95.092 E1.83829
G1 X109.725 Y95.209 E1.84240
G1 X109.775 Y95.421 E1.84949
G1 X109.725 Y95.537 E1.85360
G1 X109.775 Y95.749 E1.86069
G1 X109.725 Y95.866 E1.86480
G1 X109.775 Y96.078 E1.87189
G1 X109.725 Y96.194 E1.87600
G1 X109.775 Y96.407 E1.88309
G1 X109.725 Y96.523 E1.88720
G1 X109.775 Y96.735 E1.89429
G1 X109.725 Y96.851 E1.89840
G1 X109.775 Y97.064 E1.90549
G1 X109.725 Y97.180 E1.90960
G1 X109.775 Y97.392 E1.91669
G1 X109.725 Y97.508 E1.92080
G1 X109.775 Y97.721 E1.92789
G1 X109.725 Y97.837 E1.93200
G1 X109.775 Y98.049 E1.93909
G1 X109.725 Y98.165 E1.94320
G1 X109.775 Y98.378 E1.95029
G1 X109.725 Y98.494 E1.95440
G1 X109.775 Y98.706 E1.96149
G1 X109.725 Y98.822 E1.96560
G1 X109.775 Y99.035 E1.97269
G1 X109.725 Y99.151 E1.97680
G1 X109.775 Y99.363 E1.98389
G1 X109.725 Y99.480 E1.98800
G1 X109.775 Y99.692 E1.99509
G1 X109.725 Y99.808 E1.99920
G1 X109.775 Y100.020 E2.00629
G1 X109.725 Y100.137 E2.01040
G1 X109.775 Y100.349 E2.01749
G1 X109.725 Y100.465 E2.02160
G1 X109.775 Y100.678 E2.02869
G1 X109.725 Y100.794 E2.03280
G1 X109.775 Y101.006 E2.03989
G1 X109.725 Y101.122 E2.04400
G1 X109.775 Y101.335 E2.05109
G1 X109.725 Y101.451 E2.05520
G1 X109.775 Y101.663 E2.06229
G1 X109.725 Y101.779 E2.06640
G1 X109.775 Y101.992 E2.07349
G1 X109.725 Y102.108 E2.07760
G1 X109.775 Y102.320 E2.08469
G1 X109.725 Y102.436 E2.08880
G1 X109.775 Y102.649 E2.09589
G1 X109.725 Y102.765 E2.10000
G1 X109.775 Y102.977 E2.10709
G1 X109.725 Y103.093 E2.11120
G1 X109.775 Y103.306 E2.11829
G1 X109.725 Y103.422 E2.12240
G1 X109.775 Y103.634 E2.12949
G1 X109.725 Y103.751 E2.13360
G1 X109.775 Y103.963 E2.14069
G1 X109.725 Y104.079 E2.14480
G1 X109.775 Y104.291 E2.15189
G1 X109.725 Y104.408 E2.15600
G1 X109.775 Y104.620 E2.16309
G1 X109.725 Y104.736 E2.16720
G1 X109.775 Y104.949 E2.17429
G1 X109.725 Y105.065 E2.17840
G1 X109.775 Y105.277 E2.18549
G1 X109.725 Y105.393 E2.18960
G1 X109.775 Y105.606 E2.19669
G1 X109.725 Y105.722 E2.20080
G1 X109.775 Y105.934 E2.20789
G1 X109.725 Y106.050 E2.21200
G1 X109.775 Y106.263 E2.21909
G1 X109.725 Y106.379 E2.22320
G1 X109.775 Y106.591 E2.23029
G1 X109.725 Y106.707 E2.23440
G1 X109.775 Y106.920 E2.24149
G1 X109.725 Y107.036 E2.24560
G1 X109.775 Y107.248 E2.25269
G1 X109.725 Y107.364 E2.25680
G1 X109.775 Y107.577 E2.26389
G1 X109.725 Y107.693 E2.26800
G1 X109.775 Y107.905 E2.27509
G1 X109.725 Y108.022 E2.27920
G1 X109.775 Y108.234 E2.28629
G1 X109.725 Y108.350 E2.29040
G1 X109.775 Y108.562 E2.29749
G1 X109.725 Y108.679 E2.30160
G1 X109.775 Y108.891 E2.30869
G1 X109.725 Y109.007 E2.31280
G1 X109.775 Y109.220 E2.31989
G1 X109.725 Y109.336 E2.32400
G1 X109.775 Y109.548 E2.33109
G1 X109.707 Y109.709 E2.33676
G1 X109.507 Y109.777 E2.34362
G1 X109.363 Y109.732 E2.34853
G1 X109.179 Y109.775 E2.35470
G1 X109.062 Y109.725 E2.35880
G1 X108.850 Y109.775 E2.36590
G1 X108.734 Y109.725 E2.37000
G1 X108.522 Y109.775 E2.37710
G1 X108.405 Y109.725 E2.38120
G1 X108.193 Y109.775 E2.38830
G1 X108.077 Y109.725 E2.39240
G1 X107.864 Y109.775 E2.39950
G1 X107.748 Y109.725 E2.40360
G1 X107.536 Y109.775 E2.41070
G1 X107.420 Y109.725 E2.41480
G1 X107.207 Y109.775 E2.42190
G1 X107.091 Y109.725 E2.42600
G1 X106.879 Y109.775 E2.43310
G1 X106.763 Y109.725 E2.43720
G1 X106.550 Y109.775 E2.44430
G1 X106.434 Y109.725 E2.44840
G1 X106.222 Y109.775 E2.45550
G1 X106.106 Y109.725 E2.45960
G1 X105.893 Y109.775 E2.46670
G1 X105.777 Y109.725 E2.47080
G1 X105.565 Y109.775 E2.47790
G1 X105.449 Y109.725 E2.48200
G1 X105.236 Y109.775 E2.48910
G1 X105.120 Y109.725 E2.49320
G1 X104.908 Y109.775 E2.50030
G1 X104.791 Y109.725 E2.50440
G1 X104.579 Y109.775 E2.51150
G1 X104.463 Y109.725 E2.51560
G1 X104.251 Y109.775 E2.52270
G1 X104.134 Y109.725 E2.52680
G1 X103.922 Y109.775 E2.53390
G1 X103.806 Y109.725 E2.53800
G1 X103.593 Y109.775 E2.54510
G1 X103.477 Y109.725 E2.54920
G1 X103.265 Y109.775 E2.55630
G1 X103.149 Y109.725 E2.56040
G1 X102.936 Y109.775 E2.56749
G1 X102.820 Y109.725 E2.57160
G1 X102.608 Y109.775 E2.57869
G1 X102.492 Y109.725 E2.58280
G1 X102.279 Y109.775 E2.58989
G1 X102.163 Y109.725 E2.59400
G1 X101.951 Y109.775 E2.60109
G1 X101.835 Y109.725 E2.60520
G1 X101.622 Y109.775 E2.61229
G1 X101.506 Y109.725 E2.61640
G1 X101.294 Y109.775 E2.62349
G1 X101.178 Y109.725 E2.62760
G1 X100.965 Y109.775 E2.63469
G1 X100.849 Y109.725 E2.63880
G1 X100.637 Y109.775 E2.64589
G1 X100.520 Y109.725 E2.65000
G1 X100.308 Y109.775 E2.65709
G1 X100.192 Y109.725 E2.66120
G1 X99.980 Y109.775 E2.66829
G1 X99.863 Y109.725 E2.67240
G1 X99.651 Y109.775 E2.67949
G1 X99.535 Y109.725 E2.68360
G1 X99.322 Y109.775 E2.69069
G1 X99.206 Y109.725 E2.69480
G1 X98.994 Y109.775 E2.70189
G1 X98.878 Y109.725 E2.70600
G1 X98.665 Y109.775 E2.71309
G1 X98.549 Y109.725 E2.71720
G1 X98.337 Y109.775 E2.72429
G1 X98.221 Y109.725 E2.72840
G1 X98.008 Y109.775 E2.73549
G1 X97.892 Y109.725 E2.73960
G1 X97.680 Y109.775 E2.74669
G1 X97.564 Y109.725 E2.75080
G1 X97.351 Y109.775 E2.75789
G1 X97.235 Y109.725 E2.76200
G1 X97.023 Y109.775 E2.76909
G1 X96.907 Y109.725 E2.77320
G1 X96.694 Y109.775 E2.78029
G1 X96.578 Y109.725 E2.78440
G1 X96.366 Y109.775 E2.79149
G1 X96.249 Y109.725 E2.79560
G1 X96.037 Y109.775 E2.80269
G1 X95.921 Y109.725 E2.80680
G1 X95.709 Y109.775 E2.81389
G1 X95.592 Y109.725 E2.81800
G1 X95.380 Y109.775 E2.82509
G1 X95.264 Y109.725 E2.82920
G1 X95.051 Y109.775 E2.83629
G1 X94.935 Y109.725 E2.84040
G1 X94.723 Y109.775 E2.84749
G1 X94.607 Y109.725 E2.85160
G1 X94.394 Y109.775 E2.85869
G1 X94.278 Y109.725 E2.86280
G1 X94.066 Y109.775 E2.86989
G1 X93.950 Y109.725 E2.87400
G1 X93.737 Y109.775 E2.88109
G1 X93.621 Y109.725 E2.88520
G1 X93.409 Y109.775 E2.89229
G1 X93.293 Y109.725 E2.89640
G1 X93.080 Y109.775 E2.90349
G1 X92.964 Y109.725 E2.90760
G1 X92.752 Y109.775 E2.91469
G1 X92.636 Y109.725 E2.91880
G1 X92.423 Y109.775 E2.92589
G1 X92.307 Y109.725 E2.93000
G1 X92.095 Y109.775 E2.93709
G1 X91.978 Y109.725 E2.94120
G1 X91.766 Y109.775 E2.94829
G1 X91.650 Y109.725 E2.95240
G1 X91.437 Y109.775 E2.95949
G1 X91.321 Y109.725 E2.96360
G1 X91.109 Y109.775 E2.97069
G1 X90.993 Y109.725 E2.97480
G1 X90.780 Y109.775 E2.98189
G1 X90.664 Y109.725 E2.98600
G1 X90.452 Y109.775 E2.99309
G1 X90.291 Y109.707 E2.99876
G1 X90.223 Y109.507 E3.00562
G1 X90.268 Y109.363 E3.01052
G1 X90.225 Y109.179 E3.01669
G1 X90.275 Y109.062 E3.02080
G1 X90.225 Y108.850 E3.02789
G1 X90.275 Y108.734 E3.03200
G1 X90.225 Y108.522 E3.03909
G1 X90.275 Y108.405 E3.04320
G1 X90.225 Y108.193 E3.05029
G1 X90.275 Y108.077 E3.05440
G1 X90.225 Y107.864 E3.06149
G1 X90.275 Y107.748 E3.06560
G1 X90.225 Y107.536 E3.07269
G1 X90.275 Y107.420 E3.07680
G1 X90.225 Y107.207 E3.08389
G1 X90.275 Y107.091 E3.08800
G1 X90.225 Y106.879 E3.09509
G1 X90.275 Y106.763 E3.09920
G1 X90.225 Y106.550 E3.10629
G1 X90.275 Y106.434 E3.11040
G1 X90.225 Y106.222 E3.11749
G1 X90.275 Y106.106 E3.12160
G1 X90.225 Y105.893 E3.12869
G1 X90.275 Y105.777 E3.13280
G1 X90.225 Y105.565 E3.13989
G1 X90.275 Y105.449 E3.14400
G1 X90.225 Y105.236 E3.15109
G1 X90.275 Y105.120 E3.15520
G1 X90.225 Y104.908 E3.16229
G1 X90.275 Y104.791 E3.16640
G1 X90.225 Y104.579 E3.17349
G1 X90.275 Y104.463 E3.17760
G1 X90.225 Y104.251 E3.18469
G1 X90.275 Y104.134 E3.18880
G1 X90.225 Y103.922 E3.19589
G1 X90.275 Y103.806 E3.20000
G1 X90.225 Y103.593 E3.20709
G1 X90.275 Y103.477 E3.21120
G1 X90.225 Y103.265 E3.21829
G1 X90.275 Y103.149 E3.22240
G1 X90.225 Y102.936 E3.22949
G1 X90.275 Y102.820 E3.23360
G1 X90.225 Y102.608 E3.24069
G1 X90.275 Y102.492 E3.24480
G1 X90.225 Y102.279 E3.25189
G1 X90.275 Y102.163 E3.25600
G1 X90.225 Y101.951 E3.26309
G1 X90.275 Y101.835 E3.26720
G1 X90.225 Y101.622 E3.27429
G1 X90.275 Y101.506 E3.27840
G1 X90.225 Y101.294 E3.28549
G1 X90.275 Y101.178 E3.28960
G1 X90.225 Y100.965 E3.29669
G1 X90.275 Y100.849 E3.30080
G1 X90.225 Y100.637 E3.30789
G1 X90.275 Y100.520 E3.31200
G1 X90.225 Y100.308 E3.31909
G1 X90.275 Y100.192 E3.32320
G1 X90.225 Y99.980 E3.33029
G1 X90.275 Y99.863 E3.33440
G1 X90.225 Y99.651 E3.34149
G1 X90.275 Y99.535 E3.34560
G1 X90.225 Y99.322 E3.35269
G1 X90.275 Y99.206 E3.35680
G1 X90.225 Y98.994 E3.36389
G1 X90.275 Y98.878 E3.36800
G1 X90.225 Y98.665 E3.37509
G1 X90.275 Y98.549 E3.37920
G1 X90.225 Y98.337 E3.38629
G1 X90.275 Y98.221 E3.39040
G1 X90.225 Y98.008 E3.39749
G1 X90.275 Y97.892 E3.40160
G1 X90.225 Y97.680 E3.40869
G1 X90.275 Y97.564 E3.41280
G1 X90.225 Y97.351 E3.41989
G1 X90.275 Y97.235 E3.42400
G1 X90.225 Y97.023 E3.43109
G1 X90.275 Y96.907 E3.43520
G1 X90.225 Y96.694 E3.44229
G1 X90.275 Y96.578 E3.44640
G1 X90.225 Y96.366 E3.45349
G1 X90.275 Y96.249 E3.45760
G1 X90.225 Y96.037 E3.46469
G1 X90.275 Y95.921 E3.46880
G1 X90.225 Y95.709 E3.47589
G1 X90.275 Y95.592 E3.48000
G1 X90.225 Y95.380 E3.48709
G1 X90.275 Y95.264 E3.49120
G1 X90.225 Y95.051 E3.49829
G1 X90.275 Y94.935 E3.50240
G1 X90.225 Y94.723 E3.50949
G1 X90.275 Y94.607 E3.51360
G1 X90.225 Y94.394 E3.52069
G1 X90.275 Y94.278 E3.52480
G1 X90.225 Y94.066 E3.53189
G1 X90.275 Y93.950 E3.53600
G1 X90.225 Y93.737 E3.54309
G1 X90.275 Y93.621 E3.54720
G1 X90.225 Y93.409 E3.55429
G1 X90.275 Y93.293 E3.55840
G1 X90.225 Y93.080 E3.56549
G1 X90.275 Y92.964 E3.56960
G1 X90.225 Y92.752 E3.57669
G1 X90.275 Y92.636 E3.58080
G1 X90.225 Y92.423 E3.58789
G1 X90.275 Y92.307 E3.59200
G1 X90.225 Y92.095 E3.59909
