; generated by Slic3r 0.9.9 on 2013-04-23 at 02:22:46

; layer_height = 0.4
; perimeters = 3
; top_solid_layers = 3
; bottom_solid_layers = 3
; fill_density = 0.4
; perimeter_speed = 30
; infill_speed = 60
; travel_speed = 130
; nozzle_diameter = 0.5
; filament_diameter = 3
; extrusion_multiplier = 1
; perimeters extrusion width = 0.53mm
; infill extrusion width = 0.53mm
; solid infill extrusion width = 0.53mm
; top infill extrusion width = 0.53mm
; first layer extrusion width = 0.70mm

G21 ; set units to millimeters
M107
M104 S200 ; set temperature
G28 ; home all axes
G1 Z5 F5000 ; lift nozzle

M109 S200 ; wait for temperature to be reached
G90 ; use absolute coordinates
G92 E0
M82 ; use absolute distances for extrusion
G1 F1800.000 E-1.00000
G92 E0
G1 Z0.350 F7800.000
G1 X81.850 Y80.470
G1 F1800.000 E1.00000
G1 X82.260 Y80.090 F540.000 E1.01819
G1 X82.690 Y79.750 E1.03602
G1 X86.070 Y77.290 E1.17203
G1 X86.540 Y76.980 E1.19035
G1 X87.280 Y76.590 E1.21757
G1 X91.100 Y74.890 E1.35360
G1 X91.890 Y74.590 E1.38110
G1 X92.440 Y74.460 E1.39948
G1 X96.800 Y73.540 E1.54446
G1 X97.070 Y73.500 E1.55334
G1 X97.900 Y73.450 E1.58040
G1 X102.090 Y73.450 E1.71672
G1 X102.920 Y73.500 E1.74377
G1 X103.190 Y73.540 E1.75265
G1 X107.830 Y74.520 E1.90695
G1 X108.370 Y74.680 E1.92527
G1 X108.890 Y74.890 E1.94352
G1 X112.700 Y76.590 E2.07925
G1 X113.440 Y76.980 E2.10647
G1 X113.900 Y77.280 E2.12434
G1 X117.290 Y79.740 E2.26061
G1 X117.730 Y80.090 E2.27890
G1 X118.140 Y80.470 E2.29709
G1 X121.130 Y83.790 E2.44246
G1 X121.650 Y84.440 E2.46954
G1 X121.950 Y84.910 E2.48768
G1 X124.040 Y88.530 E2.62368
G1 X124.410 Y89.280 E2.65089
G1 X124.600 Y89.810 E2.66921
G1 X125.890 Y93.790 E2.80533
G1 X126.100 Y94.600 E2.83255
G1 X126.150 Y94.880 E2.84181
G1 X126.610 Y99.320 E2.98704
G1 X126.650 Y99.860 E3.00465
G1 X126.650 Y100.140 E3.01376
G1 X126.610 Y100.690 E3.03170
G1 X126.180 Y104.840 E3.16745
G1 X126.100 Y105.390 E3.18553
G1 X125.890 Y106.200 E3.21276
G1 X124.600 Y110.180 E3.34888
G1 X124.410 Y110.710 E3.36720
G1 X124.040 Y111.460 E3.39441
G1 X121.950 Y115.080 E3.53040
G1 X121.650 Y115.550 E3.54854
G1 X121.130 Y116.200 E3.57563
G1 X118.140 Y119.520 E3.72099
G1 X117.940 Y119.710 E3.72997
G1 X117.290 Y120.250 E3.75746
G1 X113.900 Y122.710 E3.89374
G1 X113.440 Y123.010 E3.91160
G1 X112.700 Y123.400 E3.93882
G1 X108.890 Y125.100 E4.07456
G1 X108.370 Y125.310 E4.09280
G1 X107.840 Y125.470 E4.11082
G1 X107.570 Y125.530 E4.11981
G1 X103.480 Y126.400 E4.25586
G1 X102.920 Y126.490 E4.27431
G1 X102.090 Y126.550 E4.30139
G1 X97.900 Y126.550 E4.43771
G1 X97.340 Y126.520 E4.45596
G1 X96.510 Y126.400 E4.48324
G1 X92.420 Y125.530 E4.61929
G1 X92.150 Y125.470 E4.62829
G1 X91.620 Y125.310 E4.64630
G1 X91.100 Y125.100 E4.66454
G1 X87.280 Y123.400 E4.80058
G1 X86.540 Y123.010 E4.82780
G1 X86.070 Y122.700 E4.84611
G1 X82.690 Y120.240 E4.98213
G1 X82.260 Y119.900 E4.99996
G1 X81.850 Y119.520 E5.01815
G1 X78.860 Y116.200 E5.16351
G1 X78.340 Y115.550 E5.19060
G1 X78.040 Y115.080 E5.20874
G1 X75.950 Y111.460 E5.34473
G1 X75.580 Y110.710 E5.37194
G1 X75.390 Y110.180 E5.39026
G1 X74.100 Y106.200 E5.52638
G1 X73.890 Y105.390 E5.55361
G1 X73.810 Y104.840 E5.57169
G1 X73.380 Y100.690 E5.70744
G1 X73.340 Y100.140 E5.72538
G1 X73.340 Y99.860 E5.73449
G1 X73.380 Y99.320 E5.75210
G1 X73.840 Y94.880 E5.89733
G1 X73.890 Y94.600 E5.90659
G1 X74.100 Y93.790 E5.93381
G1 X75.390 Y89.810 E6.06993
G1 X75.580 Y89.280 E6.08825
G1 X75.950 Y88.530 E6.11546
G1 X78.040 Y84.910 E6.25146
G1 X78.340 Y84.440 E6.26960
G1 X78.860 Y83.790 E6.29668
G1 X81.784 Y80.543 E6.43884
G1 F1800.000 E5.43884
G92 E0
G1 X93.833 Y88.946 F7800.000
G1 F1800.000 E1.00000
G1 X95.280 Y86.780 F540.000 E1.08473
G1 X97.446 Y85.333 E1.16947
G1 X100.000 Y84.825 E1.25421
G1 X102.554 Y85.333 E1.33894
G1 X104.720 Y86.780 E1.42368
G1 X106.167 Y88.946 E1.50841
G1 X106.675 Y91.500 E1.59314
G1 X106.222 Y93.778 E1.66872
G1 X108.500 Y93.325 E1.74430
G1 X111.054 Y93.833 E1.82903
G1 X113.220 Y95.280 E1.91377
G1 X114.667 Y97.446 E1.99850
G1 X115.175 Y100.000 E2.08324
G1 X114.667 Y102.554 E2.16797
G1 X113.220 Y104.720 E2.25271
G1 X111.054 Y106.167 E2.33744
G1 X108.500 Y106.675 E2.42218
G1 X106.222 Y106.222 E2.49776
G1 X106.675 Y108.500 E2.57333
G1 X106.167 Y111.054 E2.65807
G1 X104.720 Y113.220 E2.74280
G1 X102.554 Y114.667 E2.82754
G1 X100.000 Y115.175 E2.91227
G1 X97.446 Y114.667 E2.99701
G1 X95.280 Y113.220 E3.08174
G1 X93.833 Y111.054 E3.16648
G1 X93.325 Y108.500 E3.25121
G1 X93.778 Y106.222 E3.32679
G1 X91.500 Y106.675 E3.40237
G1 X88.946 Y106.167 E3.48710
G1 X86.780 Y104.720 E3.57183
G1 X85.333 Y102.554 E3.65657
G1 X84.825 Y100.000 E3.74131
G1 X85.333 Y97.446 E3.82604
G1 X86.780 Y95.280 E3.91078
G1 X88.946 Y93.833 E3.99551
G1 X91.500 Y93.325 E4.08025
G1 X93.778 Y93.778 E4.15582
G1 X93.325 Y91.500 E4.23140
G1 X93.814 Y89.042 E4.31293
G1 X94.452 Y89.202 F7800.000
G1 X95.754 Y87.254 F540.000 E4.38916
G1 X97.702 Y85.952 E4.46539
G1 X100.000 Y85.495 E4.54162
G1 X102.298 Y85.952 E4.61785
G1 X104.246 Y87.254 E4.69408
G1 X105.548 Y89.202 E4.77031
G1 X106.005 Y91.500 E4.84654
G1 X105.548 Y93.798 E4.92277
G1 X104.699 Y95.069 E4.97249
G1 X104.931 Y95.301 E4.98319
G1 X106.202 Y94.452 E5.03291
G1 X108.500 Y93.995 E5.10914
G1 X110.798 Y94.452 E5.18537
G1 X112.746 Y95.754 E5.26160
G1 X114.048 Y97.702 E5.33783
G1 X114.505 Y100.000 E5.41406
G1 X114.048 Y102.298 E5.49030
G1 X112.746 Y104.246 E5.56653
G1 X110.798 Y105.548 E5.64276
G1 X108.500 Y106.005 E5.71899
G1 X106.202 Y105.548 E5.79522
G1 X104.931 Y104.699 E5.84494
G1 X104.699 Y104.931 E5.85564
G1 X105.548 Y106.202 E5.90536
G1 X106.005 Y108.500 E5.98159
G1 X105.548 Y110.798 E6.05782
G1 X104.246 Y112.746 E6.13405
G1 X102.298 Y114.048 E6.21028
G1 X100.000 Y114.505 E6.28651
G1 X97.702 Y114.048 E6.36274
G1 X95.754 Y112.746 E6.43897
G1 X94.452 Y110.798 E6.51520
G1 X93.995 Y108.500 E6.59143
G1 X94.452 Y106.202 E6.66766
G1 X95.301 Y104.931 E6.71739
G1 X95.069 Y104.699 E6.72808
G1 X93.798 Y105.548 E6.77781
G1 X91.500 Y106.005 E6.85404
G1 X89.202 Y105.548 E6.93027
G1 X87.254 Y104.246 E7.00650
G1 X85.952 Y102.298 E7.08273
G1 X85.495 Y100.000 E7.15896
G1 X85.952 Y97.702 E7.23519
G1 X87.254 Y95.754 E7.31142
G1 X89.202 Y94.452 E7.38765
G1 X91.500 Y93.995 E7.46388
G1 X93.798 Y94.452 E7.54011
G1 X95.069 Y95.301 E7.58983
G1 X95.301 Y95.069 E7.60053
G1 X94.452 Y93.798 E7.65025
G1 X93.995 Y91.500 E7.72649
G1 X94.433 Y89.299 E7.79951
G1 X93.411 Y95.045 F7800.000
G1 X93.542 Y95.071 F540.000 E7.80386
G1 X95.272 Y96.228 E7.87158
G1 X96.429 Y97.958 E7.93931
G1 X96.835 Y100.000 E8.00703
G1 X96.429 Y102.042 E8.07476
G1 X95.272 Y103.772 E8.14248
G1 X93.542 Y104.929 E8.21021
G1 X91.500 Y105.335 E8.27793
G1 X89.458 Y104.929 E8.34566
G1 X87.728 Y103.772 E8.41338
G1 X86.571 Y102.042 E8.48111
G1 X86.165 Y100.000 E8.54884
G1 X86.571 Y97.958 E8.61656
G1 X87.728 Y96.228 E8.68429
G1 X89.458 Y95.071 E8.75201
G1 X91.500 Y94.665 E8.81974
G1 X93.314 Y95.026 E8.87991
G1 X93.499 Y94.945 F7800.000
G1 X95.071 Y93.542
G1 X94.665 Y91.500 F540.000 E8.94763
G1 X95.071 Y89.458 E9.01536
G1 X96.228 Y87.728 E9.08308
G1 X97.958 Y86.571 E9.15081
G1 X100.000 Y86.165 E9.21853
G1 X102.042 Y86.571 E9.28626
G1 X103.772 Y87.728 E9.35399
G1 X104.929 Y89.458 E9.42171
G1 X105.335 Y91.500 E9.48944
G1 X104.929 Y93.542 E9.55716
G1 X103.772 Y95.272 E9.62489
G1 X102.042 Y96.429 E9.69261
G1 X100.000 Y96.835 E9.76034
G1 X97.958 Y96.429 E9.82806
G1 X96.228 Y95.272 E9.89579
G1 X95.126 Y93.624 E9.96031
G1 X94.427 Y93.413 F7800.000
G1 F1800.000 E8.96031
G92 E0
G1 X103.571 Y97.958 F7800.000
G1 F1800.000 E1.00000
G1 X104.728 Y96.228 F540.000 E1.06773
G1 X106.458 Y95.071 E1.13545
G1 X108.500 Y94.665 E1.20318
G1 X110.542 Y95.071 E1.27090
G1 X112.272 Y96.228 E1.33863
G1 X113.429 Y97.958 E1.40635
G1 X113.835 Y100.000 E1.47408
G1 X113.429 Y102.042 E1.54180
G1 X112.272 Y103.772 E1.60953
G1 X110.542 Y104.929 E1.67725
G1 X108.500 Y105.335 E1.74498
G1 X106.458 Y104.929 E1.81270
G1 X104.728 Y103.772 E1.88043
G1 X103.571 Y102.042 E1.94816
G1 X103.165 Y100.000 E2.01588
G1 X103.552 Y98.055 E2.08040
G1 X103.206 Y97.412 F7800.000
G1 X102.042 Y103.571
G1 X103.772 Y104.728 F540.000 E2.14813
G1 X104.929 Y106.458 E2.21585
G1 X105.335 Y108.500 E2.28358
G1 X104.929 Y110.542 E2.35130
G1 X103.772 Y112.272 E2.41903
G1 X102.042 Y113.429 E2.48675
G1 X100.000 Y113.835 E2.55448
G1 X97.958 Y113.429 E2.62220
G1 X96.228 Y112.272 E2.68993
G1 X95.071 Y110.542 E2.75765
G1 X94.665 Y108.500 E2.82538
G1 X95.071 Y106.458 E2.89310
G1 X96.228 Y104.728 E2.96083
G1 X97.958 Y103.571 E3.02856
G1 X100.000 Y103.165 E3.09628
G1 X101.945 Y103.552 E3.16080
G1 X102.588 Y103.206 F7800.000
G1 X112.277 Y113.635
G1 X109.174 Y115.890 F540.000 E3.28560
G1 X105.670 Y117.450 E3.41040
G1 X101.918 Y118.248 E3.53520
G1 X98.082 Y118.248 E3.66000
G1 X94.330 Y117.450 E3.78480
G1 X90.826 Y115.890 E3.90960
G1 X87.723 Y113.635 E4.03439
G1 X85.156 Y110.785 E4.15919
G1 X83.238 Y107.463 E4.28399
G1 X82.053 Y103.815 E4.40879
G1 X81.652 Y100.000 E4.53359
G1 X82.053 Y96.185 E4.65839
G1 X83.238 Y92.537 E4.78319
G1 X85.156 Y89.215 E4.90799
G1 X87.723 Y86.365 E5.03279
G1 X90.826 Y84.110 E5.15759
G1 X94.330 Y82.550 E5.28239
G1 X98.082 Y81.752 E5.40719
G1 X101.918 Y81.752 E5.53199
G1 X105.670 Y82.550 E5.65679
G1 X109.174 Y84.110 E5.78159
G1 X112.277 Y86.365 E5.90639
G1 X114.844 Y89.215 E6.03119
G1 X116.762 Y92.537 E6.15599
G1 X117.947 Y96.185 E6.28079
G1 X118.348 Y100.000 E6.40558
G1 X117.947 Y103.815 E6.53038
G1 X116.762 Y107.463 E6.65518
G1 X114.844 Y110.785 E6.77998
G1 X112.343 Y113.562 E6.90158
G1 X102.278 Y102.278 F7800.000
G1 X100.000 Y101.825 F540.000 E6.97715
G1 X97.722 Y102.278 E7.05273
G1 X98.175 Y100.000 E7.12831
G1 X97.722 Y97.722 E7.20388
G1 X100.000 Y98.175 E7.27946
G1 X102.278 Y97.722 E7.35504
G1 X101.825 Y100.000 E7.43062
G1 X102.259 Y102.182 E7.50299
G1 X112.685 Y114.152 F7800.000
G1 X109.504 Y116.462 F540.000 E7.63089
G1 X105.874 Y118.079 E7.76018
G1 X101.987 Y118.905 E7.88947
G1 X98.013 Y118.905 E8.01877
G1 X94.126 Y118.079 E8.14806
G1 X90.496 Y116.462 E8.27735
G1 X87.281 Y114.126 E8.40665
G1 X84.621 Y111.173 E8.53594
G1 X82.634 Y107.732 E8.66523
G1 X81.406 Y103.952 E8.79453
G1 X80.991 Y100.000 E8.92382
G1 X81.402 Y96.090 E9.05172
G1 X82.634 Y92.268 E9.18238
G1 X84.621 Y88.827 E9.31167
G1 X87.281 Y85.874 E9.44097
G1 X90.496 Y83.538 E9.57026
G1 X94.126 Y81.921 E9.69955
G1 X98.013 Y81.095 E9.82884
G1 X101.987 Y81.095 E9.95814
G1 X105.874 Y81.921 E10.08743
G1 X109.504 Y83.538 E10.21672
G1 X112.719 Y85.874 E10.34602
G1 X115.379 Y88.827 E10.47531
G1 X117.366 Y92.268 E10.60460
G1 X118.594 Y96.048 E10.73390
G1 X119.009 Y100.000 E10.86319
G1 X118.594 Y103.952 E10.99248
G1 X117.366 Y107.732 E11.12178
G1 X115.379 Y111.173 E11.25107
G1 X112.757 Y114.085 E11.37855
G1 X103.569 Y103.801 F7800.000
G1 X102.298 Y102.952 F540.000 E11.42827
G1 X100.000 Y102.495 E11.50450
G1 X97.702 Y102.952 E11.58073
G1 X96.431 Y103.801 E11.63046
G1 X96.199 Y103.569 E11.64115
G1 X97.048 Y102.298 E11.69088
G1 X97.505 Y100.000 E11.76711
G1 X97.048 Y97.702 E11.84334
G1 X96.199 Y96.431 E11.89306
G1 X96.431 Y96.199 E11.90376
G1 X97.702 Y97.048 E11.95348
G1 X100.000 Y97.505 E12.02971
G1 X102.298 Y97.048 E12.10594
G1 X103.569 Y96.199 E12.15567
G1 X103.801 Y96.431 E12.16637
G1 X102.952 Y97.702 E12.21609
G1 X102.495 Y100.000 E12.29232
G1 X102.952 Y102.298 E12.36855
G1 X103.801 Y103.569 E12.41827
G1 X103.638 Y103.732 E12.42577
G1 X113.071 Y114.683 F7800.000
G1 X109.835 Y117.034 F378.000 E12.55591
G1 X106.078 Y118.707 E12.68970
G1 X102.056 Y119.562 E12.82349
G1 X97.944 Y119.562 E12.95728
G1 X93.922 Y118.707 E13.09106
G1 X90.165 Y117.034 E13.22485
G1 X86.838 Y114.617 E13.35864
G1 X84.087 Y111.562 E13.49242
G1 X82.031 Y108.000 E13.62621
G1 X80.760 Y104.090 E13.76000
G1 X80.330 Y100.000 E13.89379
G1 X80.760 Y95.910 E14.02757
G1 X82.031 Y92.000 E14.16136
G1 X84.087 Y88.438 E14.29515
G1 X86.838 Y85.383 E14.42894
G1 X90.165 Y82.966 E14.56272
G1 X93.922 Y81.293 E14.69651
G1 X97.944 Y80.438 E14.83030
G1 X102.056 Y80.438 E14.96408
G1 X106.078 Y81.293 E15.09787
G1 X109.835 Y82.966 E15.23166
G1 X113.162 Y85.383 E15.36545
G1 X115.913 Y88.438 E15.49923
G1 X117.969 Y92.000 E15.63302
G1 X119.240 Y95.910 E15.76681
G1 X119.670 Y100.000 E15.90059
G1 X119.240 Y104.090 E16.03438
G1 X117.969 Y108.000 E16.16817
G1 X115.913 Y111.562 E16.30196
G1 X113.151 Y114.625 E16.43617
G1 X112.454 Y114.457 F7800.000
G1 X97.381 Y115.139
G1 X100.013 Y117.771 F1080.000 E16.55798
G1 X100.947 Y117.771 E16.58856
G1 X98.547 Y115.372 E16.69963
G1 X99.714 Y115.604 E16.73856
G1 X101.879 Y117.769 E16.83878
G1 X102.650 Y117.605 E16.86457
G1 X100.589 Y115.543 E16.95999
G1 X101.368 Y115.388 E16.98600
G1 X103.421 Y117.441 E17.08101
G1 X104.192 Y117.277 E17.10680
G1 X102.148 Y115.233 E17.20141
G1 X102.875 Y115.026 E17.22615
G1 X104.963 Y117.114 E17.32278
G1 X105.700 Y116.916 E17.34775
G1 X103.435 Y114.651 E17.45255
G1 X103.995 Y114.277 E17.47461
G1 X106.346 Y116.628 E17.58341
G1 X106.993 Y116.340 E17.60658
G1 X104.556 Y113.902 E17.71938
G1 X105.098 Y113.510 E17.74129
G1 X107.640 Y116.052 E17.85891
G1 X108.286 Y115.764 E17.88207
G1 X105.473 Y112.950 E18.01229
G1 X105.847 Y112.390 E18.03434
G1 X108.933 Y115.476 E18.17717
G1 X109.475 Y115.083 E18.19907
G1 X106.222 Y111.830 E18.34963
G1 X106.596 Y111.269 E18.37168
G1 X110.016 Y114.690 E18.52997
G1 X110.558 Y114.296 E18.55187
G1 X106.762 Y110.501 E18.72751
G1 X106.917 Y109.722 E18.75353
G1 X111.099 Y113.903 E18.94704
G1 X111.640 Y113.510 E18.96894
G1 X107.073 Y108.942 E19.18034
G1 X107.060 Y107.995 E19.21134
G1 X112.141 Y113.075 E19.44648
G1 X112.584 Y112.584 E19.46814
G1 X106.828 Y106.828 E19.73452
G1 X107.995 Y107.060 E19.77345
G1 X113.026 Y112.092 E20.00632
G1 X113.469 Y111.600 E20.02798
G1 X108.942 Y107.073 E20.23750
G1 X109.722 Y106.917 E20.26352
G1 X113.912 Y111.108 E20.45746
G1 X114.355 Y110.616 E20.47912
G1 X110.501 Y106.762 E20.65747
G1 X111.269 Y106.596 E20.68320
G1 X114.720 Y110.047 E20.84290
G1 X115.062 Y109.454 E20.86529
G1 X111.830 Y106.222 E21.01490
G1 X112.390 Y105.847 E21.03696
G1 X115.404 Y108.862 E21.17647
G1 X115.747 Y108.269 E21.19886
G1 X112.950 Y105.473 E21.32827
G1 X113.511 Y105.098 E21.35033
G1 X116.089 Y107.677 E21.46965
G1 X116.396 Y107.049 E21.49251
G1 X113.902 Y104.556 E21.60790
G1 X114.277 Y103.995 E21.62996
G1 X116.625 Y106.343 E21.73863
G1 X116.854 Y105.638 E21.76290
G1 X114.651 Y103.435 E21.86486
G1 X115.026 Y102.875 E21.88691
G1 X117.083 Y104.933 E21.98215
G1 X117.313 Y104.227 E22.00642
G1 X115.233 Y102.148 E22.10266
G1 X115.388 Y101.368 E22.12867
G1 X117.503 Y103.483 E22.22655
G1 X117.592 Y102.637 E22.25438
G1 X115.543 Y100.589 E22.34920
G1 X115.604 Y99.714 E22.37789
G1 X117.681 Y101.792 E22.47404
G1 X117.770 Y100.946 E22.50187
G1 X115.371 Y98.547 E22.61287
G1 X115.139 Y97.380 E22.65180
G1 X117.859 Y100.100 E22.77766
G1 X117.773 Y99.079 E22.81119
G1 X100.922 Y82.229 E23.59104
G1 X101.857 Y82.229 E23.62162
G1 X117.663 Y98.035 E24.35313
G1 X117.553 Y96.990 E24.38750
G1 X103.041 Y82.478 E25.05913
G1 X102.619 Y84.861 F7800.000
G1 X99.987 Y82.229 F1080.000 E25.18094
G1 X99.053 Y82.229 E25.21153
G1 X101.453 Y84.628 E25.32260
G1 X100.286 Y84.396 E25.36153
G1 X98.121 Y82.231 E25.46175
G1 X97.350 Y82.395 E25.48754
G1 X99.411 Y84.457 E25.58295
G1 X98.632 Y84.612 E25.60897
G1 X96.579 Y82.559 E25.70398
G1 X95.808 Y82.723 E25.72977
G1 X97.852 Y84.767 E25.82437
G1 X97.125 Y84.974 E25.84912
G1 X95.037 Y82.886 E25.94575
G1 X94.300 Y83.084 E25.97072
G1 X96.565 Y85.349 E26.07552
G1 X96.005 Y85.723 E26.09757
G1 X93.654 Y83.372 E26.20638
G1 X93.007 Y83.660 E26.22954
G1 X95.444 Y86.098 E26.34235
