; generated by Slic3r 0.9.9 on 2013-04-23 at 09:32:48

; layer_height = 0.4
; perimeters = 3
; top_solid_layers = 3
; bottom_solid_layers = 3
; fill_density = 0.2
; perimeter_speed = 30
; infill_speed = 60
; travel_speed = 130
; nozzle_diameter = 0.5
; filament_diameter = 2.8
; extrusion_multiplier = 0.9
; perimeters extrusion width = 0.53mm
; infill extrusion width = 0.53mm
; solid infill extrusion width = 0.53mm
; top infill extrusion width = 0.53mm
; first layer extrusion width = 0.70mm

G21 ; set units to millimeters
M107
M104 S200 ; set temperature
G28 ; home all axes
G1 Z5 F100 ; lift nozzle
M109 S200 ; wait for temperature to be reached
G90 ; use absolute coordinates
G92 E0
M82 ; use absolute distances for extrusion
G1 F1200.000 E-2.00000
G92 E0
G1 Z0.350 F7800.000
G1 X75.430 Y74.640
G1 F1200.000 E2.00000
G1 X77.120 Y73.140 F540.000 E2.07596
G1 X77.420 Y72.900 E2.08887
G1 X79.220 Y71.510 E2.16532
G1 X80.730 Y70.490 E2.22657
G1 X82.610 Y69.360 E2.30030
G1 X83.000 Y69.150 E2.31519
G1 X85.010 Y68.140 E2.39081
G1 X87.050 Y67.270 E2.46535
G1 X89.190 Y66.510 E2.54169
G1 X91.320 Y65.910 E2.61607
G1 X93.110 Y65.510 E2.67773
G1 X95.740 Y65.090 E2.76725
G1 X97.550 Y64.920 E2.82836
G1 X99.770 Y64.840 E2.90303
G1 X100.210 Y64.840 E2.91783
G1 X102.440 Y64.920 E2.99283
G1 X104.250 Y65.090 E3.05394
G1 X106.880 Y65.510 E3.14347
G1 X108.540 Y65.880 E3.20064
G1 X111.230 Y66.650 E3.29469
G1 X112.940 Y67.270 E3.35583
G1 X114.980 Y68.140 E3.43038
G1 X117.380 Y69.360 E3.52088
G1 X119.260 Y70.490 E3.59461
G1 X120.770 Y71.510 E3.65586
G1 X122.870 Y73.140 E3.74522
G1 X124.240 Y74.340 E3.80644
G1 X125.850 Y75.930 E3.88250
G1 X127.350 Y77.620 E3.95846
G1 X127.590 Y77.920 E3.97137
G1 X128.980 Y79.720 E4.04782
G1 X130.000 Y81.230 E4.10907
G1 X131.130 Y83.110 E4.18281
G1 X131.340 Y83.500 E4.19769
G1 X132.350 Y85.510 E4.27331
G1 X133.220 Y87.550 E4.34786
G1 X133.840 Y89.260 E4.40900
G1 X133.980 Y89.700 E4.42452
G1 X134.580 Y91.820 E4.49858
G1 X134.980 Y93.600 E4.55991
G1 X135.400 Y96.260 E4.65043
G1 X135.560 Y98.040 E4.71050
G1 X135.640 Y100.270 E4.78551
G1 X135.640 Y100.700 E4.79996
G1 X135.560 Y102.950 E4.87564
G1 X135.400 Y104.730 E4.93572
G1 X134.980 Y107.390 E5.02624
G1 X134.580 Y109.170 E5.08757
G1 X133.840 Y111.730 E5.17714
G1 X133.220 Y113.440 E5.23828
G1 X132.350 Y115.480 E5.31283
G1 X131.130 Y117.880 E5.40333
G1 X130.000 Y119.760 E5.47706
G1 X128.960 Y121.300 E5.53953
G1 X127.350 Y123.370 E5.62768
G1 X126.150 Y124.740 E5.68890
G1 X124.560 Y126.350 E5.76496
G1 X122.870 Y127.850 E5.84091
G1 X122.570 Y128.090 E5.85383
G1 X120.770 Y129.480 E5.93028
G1 X119.260 Y130.500 E5.99153
G1 X117.380 Y131.630 E6.06526
G1 X116.960 Y131.860 E6.08136
G1 X115.330 Y132.680 E6.14269
G1 X112.910 Y133.730 E6.23136
G1 X111.230 Y134.340 E6.29144
G1 X110.790 Y134.480 E6.30696
G1 X108.670 Y135.080 E6.38102
G1 X106.890 Y135.480 E6.44235
G1 X104.240 Y135.900 E6.53254
G1 X102.390 Y136.070 E6.59499
G1 X99.790 Y136.140 E6.68242
G1 X97.540 Y136.060 E6.75810
G1 X95.760 Y135.900 E6.81817
G1 X93.100 Y135.480 E6.90869
G1 X91.320 Y135.080 E6.97002
G1 X88.760 Y134.340 E7.05959
G1 X87.050 Y133.720 E7.12073
G1 X85.010 Y132.850 E7.19528
G1 X82.610 Y131.630 E7.28578
G1 X80.730 Y130.500 E7.35951
G1 X79.220 Y129.480 E7.42077
G1 X77.120 Y127.850 E7.51012
G1 X75.750 Y126.650 E7.57134
G1 X74.140 Y125.060 E7.64741
G1 X72.640 Y123.370 E7.72336
G1 X72.400 Y123.070 E7.73628
G1 X71.010 Y121.270 E7.81272
G1 X69.990 Y119.760 E7.87397
G1 X68.860 Y117.880 E7.94771
G1 X68.650 Y117.490 E7.96260
G1 X67.640 Y115.480 E8.03821
G1 X66.770 Y113.440 E8.11276
G1 X66.150 Y111.730 E8.17390
G1 X66.010 Y111.290 E8.18942
G1 X65.400 Y109.130 E8.26487
G1 X65.010 Y107.380 E8.32514
G1 X64.590 Y104.750 E8.41466
G1 X64.420 Y102.940 E8.47577
G1 X64.350 Y100.310 E8.56421
G1 X64.420 Y98.050 E8.64021
G1 X64.590 Y96.240 E8.70132
G1 X65.010 Y93.610 E8.79085
G1 X65.400 Y91.860 E8.85111
G1 X66.010 Y89.700 E8.92656
G1 X66.150 Y89.260 E8.94208
G1 X66.920 Y87.180 E9.01664
G1 X67.820 Y85.130 E9.09189
G1 X68.860 Y83.110 E9.16827
G1 X69.990 Y81.230 E9.24200
G1 X71.010 Y79.720 E9.30325
G1 X72.640 Y77.620 E9.39261
G1 X73.840 Y76.250 E9.45383
G1 X75.360 Y74.710 E9.52658
G1 F1200.000 E7.52658
G92 E0
G1 X81.761 Y81.078 F7800.000
G1 F1200.000 E2.00000
G1 X83.017 Y79.971 F540.000 E2.05626
G1 X84.339 Y78.945 E2.11253
G1 X85.724 Y78.004 E2.16879
G1 X87.164 Y77.152 E2.22505
G1 X88.656 Y76.392 E2.28132
G1 X90.192 Y75.728 E2.33758
G1 X91.767 Y75.161 E2.39384
G1 X93.374 Y74.694 E2.45010
G1 X95.007 Y74.328 E2.50637
G1 X96.661 Y74.067 E2.56263
G1 X98.327 Y73.909 E2.61889
G1 X100.000 Y73.856 E2.67516
G1 X101.673 Y73.909 E2.73142
G1 X103.339 Y74.067 E2.78768
G1 X104.992 Y74.328 E2.84394
G1 X106.626 Y74.694 E2.90021
G1 X108.233 Y75.161 E2.95647
G1 X109.734 Y75.701 E3.01008
G1 X111.344 Y76.392 E3.06899
G1 X112.836 Y77.152 E3.12525
G1 X114.276 Y78.004 E3.18152
G1 X115.661 Y78.945 E3.23778
G1 X116.983 Y79.971 E3.29405
G1 X118.179 Y81.025 E3.34765
G1 X119.422 Y82.261 E3.40657
G1 X120.529 Y83.517 E3.46283
G1 X121.555 Y84.839 E3.51909
G1 X122.496 Y86.224 E3.57535
G1 X123.348 Y87.664 E3.63162
G1 X124.108 Y89.156 E3.68788
G1 X124.772 Y90.692 E3.74414
G1 X125.339 Y92.267 E3.80040
G1 X125.806 Y93.874 E3.85667
G1 X126.172 Y95.507 E3.91293
G1 X126.433 Y97.161 E3.96919
G1 X126.591 Y98.827 E4.02546
G1 X126.644 Y100.500 E4.08172
G1 X126.591 Y102.173 E4.13798
G1 X126.433 Y103.839 E4.19425
G1 X126.172 Y105.492 E4.25051
G1 X125.806 Y107.126 E4.30677
G1 X125.339 Y108.733 E4.36304
G1 X124.772 Y110.308 E4.41930
G1 X124.108 Y111.844 E4.47556
G1 X123.348 Y113.336 E4.53182
G1 X122.496 Y114.776 E4.58809
G1 X121.555 Y116.161 E4.64435
G1 X120.529 Y117.483 E4.70061
G1 X119.422 Y118.739 E4.75688
G1 X118.239 Y119.922 E4.81314
G1 X116.983 Y121.029 E4.86940
G1 X115.661 Y122.055 E4.92567
G1 X114.276 Y122.996 E4.98193
G1 X112.836 Y123.848 E5.03819
G1 X111.344 Y124.608 E5.09445
G1 X109.734 Y125.299 E5.15337
G1 X108.233 Y125.839 E5.20697
G1 X106.626 Y126.306 E5.26324
G1 X104.992 Y126.672 E5.31950
G1 X103.339 Y126.933 E5.37576
G1 X101.594 Y127.093 E5.43468
G1 X100.000 Y127.144 E5.48829
G1 X98.327 Y127.091 E5.54455
G1 X96.661 Y126.933 E5.60081
G1 X95.007 Y126.672 E5.65707
G1 X93.374 Y126.306 E5.71334
G1 X91.767 Y125.839 E5.76960
G1 X90.192 Y125.272 E5.82586
G1 X88.656 Y124.608 E5.88212
G1 X87.164 Y123.848 E5.93839
G1 X85.724 Y122.996 E5.99465
G1 X84.339 Y122.055 E6.05091
G1 X83.017 Y121.029 E6.10718
G1 X81.761 Y119.922 E6.16344
G1 X80.578 Y118.739 E6.21970
G1 X79.422 Y117.421 E6.27862
G1 X78.445 Y116.161 E6.33222
G1 X77.504 Y114.776 E6.38849
G1 X76.652 Y113.336 E6.44475
G1 X75.892 Y111.844 E6.50101
G1 X75.228 Y110.308 E6.55728
G1 X74.661 Y108.733 E6.61354
G1 X74.194 Y107.126 E6.66980
G1 X73.828 Y105.492 E6.72607
G1 X73.567 Y103.839 E6.78233
G1 X73.409 Y102.173 E6.83859
G1 X73.356 Y100.500 E6.89485
G1 X73.409 Y98.827 E6.95112
G1 X73.567 Y97.161 E7.00738
G1 X73.828 Y95.507 E7.06364
G1 X74.194 Y93.874 E7.11991
G1 X74.661 Y92.267 E7.17617
G1 X75.228 Y90.692 E7.23243
G1 X75.892 Y89.156 E7.28869
G1 X76.652 Y87.664 E7.34496
G1 X77.504 Y86.224 E7.40122
G1 X78.445 Y84.839 E7.45748
G1 X79.471 Y83.517 E7.51375
G1 X80.578 Y82.261 E7.57001
G1 X81.692 Y81.147 E7.62296
G1 X82.211 Y81.557 F7800.000
G1 X83.436 Y80.477 F540.000 E7.67783
G1 X84.726 Y79.477 E7.73271
G1 X86.076 Y78.559 E7.78758
G1 X87.481 Y77.728 E7.84246
G1 X88.936 Y76.987 E7.89733
G1 X90.434 Y76.339 E7.95221
G1 X91.970 Y75.786 E8.00708
G1 X93.537 Y75.330 E8.06196
G1 X95.131 Y74.974 E8.11683
G1 X96.685 Y74.728 E8.16974
G1 X98.368 Y74.565 E8.22658
G1 X100.000 Y74.514 E8.28145
G1 X101.632 Y74.565 E8.33633
G1 X103.257 Y74.719 E8.39120
G1 X104.869 Y74.974 E8.44608
G1 X106.463 Y75.330 E8.50095
G1 X108.030 Y75.786 E8.55583
G1 X109.511 Y76.319 E8.60874
G1 X111.064 Y76.987 E8.66557
G1 X112.519 Y77.728 E8.72044
G1 X113.924 Y78.559 E8.77532
G1 X115.274 Y79.477 E8.83019
G1 X116.564 Y80.477 E8.88507
G1 X117.745 Y81.518 E8.93798
G1 X118.943 Y82.711 E8.99482
G1 X120.023 Y83.936 E9.04969
G1 X121.023 Y85.226 E9.10457
G1 X121.941 Y86.576 E9.15944
G1 X122.772 Y87.981 E9.21432
G1 X123.513 Y89.436 E9.26919
G1 X124.161 Y90.934 E9.32406
G1 X124.714 Y92.470 E9.37894
G1 X125.170 Y94.038 E9.43381
G1 X125.526 Y95.631 E9.48869
G1 X125.781 Y97.243 E9.54356
G1 X125.935 Y98.868 E9.59844
G1 X125.986 Y100.500 E9.65331
G1 X125.935 Y102.132 E9.70819
G1 X125.781 Y103.757 E9.76306
G1 X125.526 Y105.369 E9.81794
G1 X125.170 Y106.962 E9.87281
G1 X124.714 Y108.530 E9.92769
G1 X124.161 Y110.066 E9.98256
G1 X123.513 Y111.564 E10.03744
G1 X122.772 Y113.019 E10.09231
G1 X121.941 Y114.424 E10.14718
G1 X121.023 Y115.774 E10.20206
G1 X120.023 Y117.064 E10.25694
G1 X118.943 Y118.289 E10.31181
G1 X117.789 Y119.443 E10.36668
G1 X116.564 Y120.523 E10.42156
G1 X115.274 Y121.523 E10.47643
G1 X113.924 Y122.441 E10.53131
G1 X112.519 Y123.272 E10.58618
G1 X111.064 Y124.013 E10.64106
G1 X109.511 Y124.681 E10.69789
G1 X108.030 Y125.214 E10.75080
G1 X106.463 Y125.670 E10.80568
G1 X104.869 Y126.026 E10.86055
G1 X103.257 Y126.281 E10.91543
G1 X101.573 Y126.437 E10.97226
G1 X100.000 Y126.486 E11.02517
G1 X98.368 Y126.435 E11.08005
G1 X96.743 Y126.281 E11.13492
G1 X95.131 Y126.026 E11.18980
G1 X93.538 Y125.670 E11.24467
G1 X91.970 Y125.214 E11.29955
G1 X90.434 Y124.661 E11.35442
G1 X88.936 Y124.013 E11.40930
G1 X87.481 Y123.272 E11.46417
G1 X86.076 Y122.441 E11.51905
G1 X84.726 Y121.523 E11.57392
G1 X83.436 Y120.523 E11.62880
G1 X82.211 Y119.443 E11.68367
G1 X81.057 Y118.289 E11.73854
G1 X79.942 Y117.018 E11.79538
G1 X78.977 Y115.774 E11.84829
G1 X78.059 Y114.424 E11.90316
G1 X77.228 Y113.019 E11.95804
G1 X76.487 Y111.564 E12.01291
G1 X75.839 Y110.066 E12.06779
G1 X75.286 Y108.530 E12.12266
G1 X74.830 Y106.963 E12.17754
G1 X74.474 Y105.369 E12.23241
G1 X74.219 Y103.757 E12.28729
G1 X74.065 Y102.132 E12.34216
G1 X74.014 Y100.500 E12.39704
G1 X74.065 Y98.868 E12.45191
G1 X74.219 Y97.243 E12.50679
G1 X74.474 Y95.631 E12.56166
G1 X74.830 Y94.038 E12.61654
G1 X75.286 Y92.470 E12.67141
G1 X75.839 Y90.934 E12.72629
G1 X76.487 Y89.436 E12.78116
G1 X77.228 Y87.981 E12.83603
G1 X78.059 Y86.576 E12.89091
G1 X78.977 Y85.226 E12.94578
G1 X79.977 Y83.936 E13.00066
G1 X81.057 Y82.711 E13.05554
G1 X82.142 Y81.627 E13.10709
G1 X82.661 Y82.036 F7800.000
G1 X83.855 Y80.984 F378.000 E13.16058
G1 X85.112 Y80.009 E13.21407
G1 X86.428 Y79.114 E13.26755
G1 X87.798 Y78.304 E13.32104
G1 X89.216 Y77.582 E13.37453
G1 X90.676 Y76.950 E13.42801
G1 X92.173 Y76.411 E13.48150
G1 X93.701 Y75.967 E13.53499
G1 X95.254 Y75.620 E13.58847
G1 X96.788 Y75.377 E13.64069
G1 X98.410 Y75.221 E13.69545
G1 X100.000 Y75.171 E13.74893
G1 X101.590 Y75.221 E13.80242
G1 X103.175 Y75.371 E13.85590
G1 X104.746 Y75.620 E13.90939
G1 X106.299 Y75.967 E13.96288
G1 X107.827 Y76.411 E14.01636
G1 X109.289 Y76.937 E14.06858
G1 X110.784 Y77.582 E14.12333
G1 X112.202 Y78.304 E14.17682
G1 X113.572 Y79.114 E14.23031
G1 X114.888 Y80.009 E14.28379
G1 X116.145 Y80.984 E14.33728
G1 X117.310 Y82.011 E14.38950
G1 X118.464 Y83.161 E14.44425
G1 X119.516 Y84.355 E14.49774
G1 X120.491 Y85.612 E14.55122
G1 X121.386 Y86.928 E14.60471
G1 X122.196 Y88.298 E14.65820
G1 X122.918 Y89.716 E14.71168
G1 X123.550 Y91.176 E14.76517
G1 X124.089 Y92.673 E14.81866
G1 X124.533 Y94.201 E14.87214
G1 X124.880 Y95.754 E14.92563
G1 X125.123 Y97.288 E14.97784
G1 X125.279 Y98.910 E15.03260
G1 X125.329 Y100.500 E15.08609
G1 X125.279 Y102.090 E15.13957
G1 X125.129 Y103.675 E15.19306
G1 X124.880 Y105.246 E15.24655
G1 X124.533 Y106.799 E15.30003
G1 X124.089 Y108.327 E15.35352
G1 X123.550 Y109.824 E15.40701
G1 X122.918 Y111.284 E15.46049
G1 X122.196 Y112.702 E15.51398
G1 X121.386 Y114.072 E15.56746
G1 X120.491 Y115.388 E15.62095
G1 X119.516 Y116.645 E15.67444
G1 X118.464 Y117.839 E15.72792
G1 X117.339 Y118.964 E15.78141
G1 X116.145 Y120.016 E15.83490
G1 X114.888 Y120.991 E15.88838
G1 X113.572 Y121.886 E15.94187
G1 X112.202 Y122.696 E15.99536
G1 X110.784 Y123.418 E16.04884
G1 X109.289 Y124.063 E16.10360
G1 X107.827 Y124.589 E16.15581
G1 X106.299 Y125.033 E16.20930
G1 X104.746 Y125.380 E16.26279
G1 X103.175 Y125.629 E16.31627
G1 X101.553 Y125.780 E16.37103
G1 X100.000 Y125.829 E16.42324
G1 X98.410 Y125.779 E16.47673
G1 X96.825 Y125.629 E16.53022
G1 X95.254 Y125.380 E16.58370
G1 X93.701 Y125.033 E16.63719
G1 X92.173 Y124.589 E16.69068
G1 X90.676 Y124.050 E16.74416
G1 X89.216 Y123.418 E16.79765
G1 X87.798 Y122.696 E16.85113
G1 X86.428 Y121.886 E16.90462
G1 X85.112 Y120.991 E16.95811
G1 X83.855 Y120.016 E17.01160
G1 X82.661 Y118.964 E17.06508
G1 X81.536 Y117.839 E17.11857
G1 X80.461 Y116.615 E17.17332
G1 X79.509 Y115.388 E17.22554
G1 X78.614 Y114.072 E17.27902
G1 X77.804 Y112.702 E17.33251
G1 X77.082 Y111.284 E17.38600
G1 X76.450 Y109.824 E17.43948
G1 X75.911 Y108.327 E17.49297
G1 X75.467 Y106.799 E17.54646
G1 X75.120 Y105.246 E17.59994
G1 X74.871 Y103.675 E17.65343
G1 X74.721 Y102.090 E17.70692
G1 X74.671 Y100.500 E17.76040
G1 X74.721 Y98.910 E17.81389
G1 X74.871 Y97.325 E17.86738
G1 X75.120 Y95.754 E17.92086
G1 X75.467 Y94.201 E17.97435
G1 X75.911 Y92.673 E18.02784
G1 X76.450 Y91.176 E18.08132
G1 X77.082 Y89.716 E18.13481
G1 X77.804 Y88.298 E18.18829
G1 X78.614 Y86.928 E18.24178
G1 X79.509 Y85.612 E18.29527
G1 X80.484 Y84.355 E18.34875
G1 X81.536 Y83.161 E18.40224
G1 X82.592 Y82.106 E18.45241
G1 X82.518 Y81.395 F7800.000
G1 X81.273 Y80.558
G1 X82.562 Y79.421 F540.000 E18.51018
G1 X83.920 Y78.368 E18.56795
G1 X85.342 Y77.402 E18.62572
G1 X86.821 Y76.527 E18.68349
G1 X88.352 Y75.747 E18.74126
G1 X89.929 Y75.065 E18.79902
G1 X91.546 Y74.482 E18.85679
G1 X93.197 Y74.003 E18.91456
G1 X94.874 Y73.628 E18.97233
G1 X96.571 Y73.359 E19.03010
G1 X98.282 Y73.197 E19.08787
G1 X100.000 Y73.144 E19.14564
G1 X101.718 Y73.197 E19.20340
G1 X103.429 Y73.359 E19.26117
G1 X105.126 Y73.628 E19.31894
G1 X106.803 Y74.003 E19.37671
G1 X108.454 Y74.482 E19.43448
G1 X110.024 Y75.048 E19.49057
G1 X111.648 Y75.747 E19.55001
G1 X113.179 Y76.527 E19.60779
G1 X114.658 Y77.402 E19.66555
G1 X116.080 Y78.368 E19.72332
G1 X117.438 Y79.421 E19.78109
G1 X118.727 Y80.558 E19.83886
G1 X119.942 Y81.773 E19.89662
G1 X121.079 Y83.062 E19.95439
G1 X122.132 Y84.420 E20.01216
G1 X123.098 Y85.842 E20.06993
G1 X123.973 Y87.321 E20.12770
G1 X124.753 Y88.852 E20.18547
G1 X125.435 Y90.429 E20.24323
G1 X126.018 Y92.046 E20.30101
G1 X126.497 Y93.697 E20.35877
G1 X126.872 Y95.374 E20.41654
G1 X127.141 Y97.071 E20.47431
G1 X127.303 Y98.782 E20.53208
G1 X127.356 Y100.500 E20.58985
G1 X127.303 Y102.218 E20.64762
G1 X127.141 Y103.929 E20.70538
G1 X126.872 Y105.626 E20.76315
G1 X126.497 Y107.303 E20.82092
G1 X126.018 Y108.954 E20.87869
G1 X125.435 Y110.571 E20.93646
G1 X124.753 Y112.148 E20.99423
G1 X123.973 Y113.679 E21.05200
G1 X123.098 Y115.158 E21.10976
G1 X122.132 Y116.580 E21.16753
G1 X121.079 Y117.938 E21.22530
G1 X119.942 Y119.227 E21.28307
G1 X118.727 Y120.442 E21.34084
G1 X117.438 Y121.579 E21.39861
G1 X116.080 Y122.632 E21.45637
G1 X114.658 Y123.598 E21.51414
G1 X113.179 Y124.473 E21.57191
G1 X111.648 Y125.253 E21.62968
G1 X110.071 Y125.935 E21.68745
G1 X108.454 Y126.518 E21.74522
G1 X106.803 Y126.997 E21.80299
G1 X105.126 Y127.372 E21.86075
G1 X103.429 Y127.641 E21.91852
G1 X101.718 Y127.803 E21.97629
G1 X100.000 Y127.856 E22.03406
G1 X98.282 Y127.803 E22.09183
G1 X96.571 Y127.641 E22.14960
G1 X94.874 Y127.372 E22.20737
G1 X93.197 Y126.997 E22.26513
G1 X91.546 Y126.518 E22.32290
G1 X89.929 Y125.935 E22.38067
G1 X88.352 Y125.253 E22.43844
G1 X86.821 Y124.473 E22.49621
G1 X85.342 Y123.598 E22.55398
G1 X83.920 Y122.632 E22.61175
G1 X82.562 Y121.579 E22.66951
G1 X81.273 Y120.442 E22.72728
G1 X80.058 Y119.227 E22.78505
G1 X78.921 Y117.938 E22.84282
G1 X77.868 Y116.580 E22.90059
G1 X76.902 Y115.158 E22.95836
G1 X76.027 Y113.679 E23.01612
G1 X75.247 Y112.148 E23.07389
G1 X74.565 Y110.571 E23.13166
G1 X73.982 Y108.954 E23.18943
G1 X73.503 Y107.303 E23.24720
G1 X73.128 Y105.626 E23.30497
G1 X72.859 Y103.929 E23.36274
G1 X72.697 Y102.218 E23.42051
G1 X72.644 Y100.500 E23.47827
G1 X72.697 Y98.782 E23.53604
G1 X72.859 Y97.071 E23.59381
G1 X73.128 Y95.374 E23.65158
G1 X73.503 Y93.697 E23.70935
G1 X73.982 Y92.046 E23.76712
