; generated by Slic3r 0.9.10b on 2014-01-26 at 22:00:52

; layer_height = 0.3
; perimeters = 1
; top_solid_layers = 2
; bottom_solid_layers = 2
; fill_density = 0.5
; perimeter_speed = 30
; infill_speed = 30
; travel_speed = 200
; nozzle_diameter = 0.5
; filament_diameter = 2.9
; extrusion_multiplier = 0.95
; perimeters extrusion width = 0.50mm
; infill extrusion width = 0.50mm
; solid infill extrusion width = 0.50mm
; top infill extrusion width = 0.50mm

G21 ; set units to millimeters
M107
M104 S240 ; set temperature
G28 ; home all axes
G1 Z15 F120 ; lift nozzle
M109 S240 ; wait for temperature to be reached
G90 ; use absolute coordinates
G92 E0
M82 ; use absolute distances for extrusion
G1 F1680.000 E-2.00000
G92 E0
G1 Z0.450 F12000.000
G1 X34.005 Y33.415
G1 F1680.000 E2.00000
G1 X35.415 Y32.225 F900.000 E2.05971
G1 X36.055 Y31.775 E2.08503
G1 X36.755 Y31.325 E2.11196
G1 X37.265 Y31.025 E2.13110
G1 X37.995 Y30.645 E2.15774
G1 X38.545 Y30.395 E2.17729
G1 X39.555 Y29.985 E2.21256
G1 X40.495 Y29.675 E2.24459
G1 X41.295 Y29.465 E2.27136
G1 X41.835 Y29.345 E2.28926
G1 X42.645 Y29.205 E2.31586
G1 X44.015 Y29.065 E2.36042
G1 X44.615 Y29.035 E2.37987
G1 X45.235 Y29.035 E2.39993
G1 X46.055 Y29.065 E2.42648
G1 X46.665 Y29.125 E2.44632
G1 X47.495 Y29.235 E2.47341
G1 X48.075 Y29.335 E2.49246
G1 X49.165 Y29.585 E2.52865
G1 X49.565 Y29.695 E2.54207
G1 X50.135 Y29.885 E2.56152
G1 X51.295 Y30.335 E2.60178
G1 X52.525 Y30.915 E2.64579
G1 X53.215 Y31.315 E2.67160
G1 X53.905 Y31.755 E2.69808
G1 X54.385 Y32.095 E2.71712
G1 X55.475 Y32.955 E2.76205
G1 X56.085 Y33.515 E2.78884
G1 X56.475 Y33.905 E2.80669
G1 X57.035 Y34.515 E2.83349
G1 X57.395 Y34.955 E2.85189
G1 X57.895 Y35.605 E2.87842
G1 X58.355 Y36.265 E2.90446
G1 X58.605 Y36.655 E2.91945
G1 X59.015 Y37.365 E2.94598
G1 X59.285 Y37.895 E2.96523
G1 X59.815 Y39.085 E3.00739
G1 X60.105 Y39.855 E3.03401
G1 X60.295 Y40.425 E3.05346
G1 X60.475 Y41.105 E3.07622
G1 X60.655 Y41.895 E3.10244
G1 X60.755 Y42.495 E3.12212
G1 X60.925 Y43.935 E3.16905
G1 X60.955 Y44.755 E3.19560
G1 X60.955 Y45.405 E3.21664
G1 X60.925 Y46.025 E3.23672
G1 X60.845 Y46.855 E3.26371
G1 X60.785 Y47.345 E3.27968
G1 X60.645 Y48.155 E3.30628
G1 X60.525 Y48.695 E3.32418
G1 X60.315 Y49.495 E3.35095
G1 X60.105 Y50.135 E3.37275
G1 X59.645 Y51.325 E3.41403
G1 X59.305 Y52.065 E3.44039
G1 X58.915 Y52.815 E3.46774
G1 X58.215 Y53.935 E3.51048
G1 X57.895 Y54.385 E3.52835
G1 X57.035 Y55.475 E3.57328
G1 X56.475 Y56.085 E3.60008
G1 X56.085 Y56.475 E3.61793
G1 X55.475 Y57.035 E3.64473
G1 X55.035 Y57.395 E3.66312
G1 X54.385 Y57.895 E3.68966
G1 X53.725 Y58.355 E3.71569
G1 X53.335 Y58.605 E3.73069
G1 X52.625 Y59.015 E3.75722
G1 X52.095 Y59.285 E3.77647
G1 X50.905 Y59.815 E3.81862
G1 X50.135 Y60.105 E3.84525
G1 X49.495 Y60.315 E3.86705
G1 X48.695 Y60.525 E3.89381
G1 X48.155 Y60.645 E3.91171
G1 X47.345 Y60.785 E3.93831
G1 X45.995 Y60.925 E3.98224
G1 X45.385 Y60.955 E4.00200
G1 X44.595 Y60.955 E4.02757
G1 X43.715 Y60.905 E4.05609
G1 X42.495 Y60.755 E4.09587
G1 X41.945 Y60.665 E4.11390
G1 X41.135 Y60.485 E4.14075
G1 X40.585 Y60.335 E4.15920
G1 X39.795 Y60.085 E4.18602
G1 X39.305 Y59.905 E4.20291
G1 X38.155 Y59.425 E4.24324
G1 X37.375 Y59.025 E4.27160
G1 X36.665 Y58.615 E4.29813
G1 X36.165 Y58.295 E4.31735
G1 X35.485 Y57.815 E4.34428
G1 X35.055 Y57.475 E4.36202
G1 X34.005 Y56.575 E4.40677
G1 X33.415 Y55.985 E4.43377
G1 X32.225 Y54.575 E4.49348
G1 X31.985 Y54.245 E4.50669
G1 X31.325 Y53.225 E4.54600
G1 X31.055 Y52.765 E4.56326
G1 X30.665 Y52.025 E4.59033
G1 X30.395 Y51.445 E4.61104
G1 X29.985 Y50.435 E4.64631
G1 X29.685 Y49.515 E4.67763
G1 X29.475 Y48.725 E4.70408
G1 X29.345 Y48.145 E4.72331
G1 X29.205 Y47.325 E4.75023
G1 X29.065 Y46.025 E4.79255
G1 X29.035 Y45.405 E4.81263
G1 X29.035 Y44.585 E4.83917
G1 X29.065 Y43.965 E4.85926
G1 X29.205 Y42.645 E4.90221
G1 X29.345 Y41.835 E4.92881
G1 X29.475 Y41.255 E4.94805
G1 X29.685 Y40.475 E4.97419
G1 X29.955 Y39.655 E5.00213
G1 X30.565 Y38.155 E5.05453
G1 X30.965 Y37.375 E5.08289
G1 X31.375 Y36.665 E5.10943
G1 X31.695 Y36.165 E5.12864
G1 X32.175 Y35.485 E5.15557
G1 X32.515 Y35.055 E5.17331
G1 X33.415 Y34.005 E5.21806
G1 X33.952 Y33.468 E5.24264
G1 F1680.000 E3.24264
G92 E0
G1 X41.252 Y38.862 F12000.000
G1 F1680.000 E2.00000
G1 X48.750 Y38.862 F720.000 E2.24264
G1 X48.750 Y42.360 E2.35584
G1 X46.107 Y42.360 E2.44138
G1 X46.083 Y42.447 E2.44429
G1 X46.480 Y42.682 E2.45925
G1 X46.778 Y42.902 E2.47120
G1 X47.040 Y43.156 E2.48302
G1 X47.268 Y43.445 E2.49494
G1 X47.532 Y43.926 E2.51270
G1 X47.652 Y44.273 E2.52459
G1 X47.726 Y44.634 E2.53649
G1 X47.750 Y45.000 E2.54838
G1 X47.726 Y45.367 E2.56026
G1 X47.652 Y45.726 E2.57215
G1 X47.532 Y46.074 E2.58404
G1 X47.366 Y46.401 E2.59592
G1 X47.159 Y46.703 E2.60778
G1 X46.912 Y46.977 E2.61969
G1 X46.619 Y47.223 E2.63207
G1 X46.083 Y47.553 E2.65246
G1 X46.107 Y47.640 E2.65537
G1 X48.750 Y47.640 E2.74091
G1 X48.750 Y51.138 E2.85411
G1 X41.252 Y51.138 E3.09675
G1 X41.252 Y47.640 E3.20995
G1 X43.893 Y47.640 E3.29543
G1 X43.917 Y47.553 E3.29834
G1 X43.520 Y47.318 E3.31329
G1 X43.222 Y47.098 E3.32525
G1 X42.957 Y46.841 E3.33721
G1 X42.732 Y46.555 E3.34899
G1 X42.468 Y46.073 E3.36676
G1 X42.348 Y45.727 E3.37863
G1 X42.274 Y45.367 E3.39053
G1 X42.250 Y45.000 E3.40242
G1 X42.274 Y44.633 E3.41431
G1 X42.348 Y44.273 E3.42620
G1 X42.468 Y43.926 E3.43809
G1 X42.634 Y43.599 E3.44997
G1 X42.841 Y43.296 E3.46184
G1 X43.088 Y43.023 E3.47373
G1 X43.381 Y42.777 E3.48612
G1 X43.917 Y42.447 E3.50650
G1 X43.893 Y42.360 E3.50942
G1 X41.252 Y42.360 E3.59489
G1 X41.252 Y38.937 E3.70566
G1 X40.049 Y37.228 F12000.000
G1 X40.745 Y36.826 F720.000 E3.73168
G1 X41.474 Y36.487 E3.75769
G1 X41.848 Y36.341 E3.77070
G1 X42.615 Y36.099 E3.79672
G1 X43.402 Y35.925 E3.82282
G1 X44.205 Y35.819 E3.84901
G1 X44.610 Y35.793 E3.86216
G1 X45.389 Y35.793 E3.88737
G1 X46.203 Y35.864 E3.91381
G1 X46.993 Y36.003 E3.93977
G1 X47.771 Y36.212 E3.96582
G1 X48.526 Y36.487 E3.99183
G1 X49.255 Y36.826 E4.01785
G1 X49.946 Y37.225 E4.04365
G1 X50.285 Y37.452 E4.05687
G1 X50.923 Y37.941 E4.08289
G1 X51.516 Y38.484 E4.10890
G1 X52.059 Y39.077 E4.13492
G1 X52.311 Y39.390 E4.14793
G1 X52.772 Y40.049 E4.17394
G1 X53.174 Y40.745 E4.19996
G1 X53.513 Y41.474 E4.22597
G1 X53.788 Y42.229 E4.25199
G1 X53.995 Y42.999 E4.27779
G1 X54.075 Y43.400 E4.29101
G1 X54.180 Y44.197 E4.31703
G1 X54.215 Y44.994 E4.34283
G1 X54.206 Y45.402 E4.35605
G1 X54.136 Y46.203 E4.38207
G1 X53.996 Y46.994 E4.40808
G1 X53.788 Y47.771 E4.43409
G1 X53.513 Y48.526 E4.46011
G1 X53.174 Y49.255 E4.48612
G1 X52.980 Y49.607 E4.49914
G1 X52.548 Y50.285 E4.52515
G1 X52.059 Y50.923 E4.55116
G1 X51.516 Y51.516 E4.57718
G1 X51.225 Y51.794 E4.59019
G1 X50.615 Y52.307 E4.61600
G1 X49.951 Y52.772 E4.64222
G1 X49.255 Y53.174 E4.66823
G1 X48.532 Y53.511 E4.69404
G1 X48.152 Y53.659 E4.70726
G1 X47.385 Y53.901 E4.73327
G1 X46.598 Y54.075 E4.75937
G1 X45.795 Y54.181 E4.78557
G1 X45.389 Y54.207 E4.79872
G1 X44.611 Y54.207 E4.82392
G1 X43.796 Y54.136 E4.85037
G1 X43.007 Y53.997 E4.87631
G1 X42.229 Y53.788 E4.90237
G1 X41.474 Y53.513 E4.92839
G1 X40.751 Y53.177 E4.95419
G1 X40.393 Y52.980 E4.96741
G1 X39.715 Y52.548 E4.99343
G1 X39.077 Y52.059 E5.01944
G1 X38.775 Y51.794 E5.03245
G1 X38.211 Y51.230 E5.05826
G1 X37.689 Y50.610 E5.08448
G1 X37.228 Y49.951 E5.11050
G1 X36.826 Y49.255 E5.13651
G1 X36.487 Y48.526 E5.16253
G1 X36.214 Y47.777 E5.18833
G1 X36.099 Y47.385 E5.20155
G1 X35.925 Y46.600 E5.22756
G1 X35.820 Y45.803 E5.25358
G1 X35.785 Y45.006 E5.27939
G1 X35.794 Y44.598 E5.29261
G1 X35.864 Y43.797 E5.31862
G1 X36.004 Y43.006 E5.34463
G1 X36.212 Y42.229 E5.37065
G1 X36.487 Y41.474 E5.39666
G1 X36.648 Y41.106 E5.40967
G1 X37.017 Y40.398 E5.43548
G1 X37.452 Y39.715 E5.46170
G1 X37.941 Y39.077 E5.48772
G1 X38.484 Y38.484 E5.51373
G1 X39.077 Y37.941 E5.53975
G1 X39.390 Y37.689 E5.55276
G1 X39.986 Y37.270 E5.57635
G1 F1680.000 E3.57635
G92 E0
G1 X44.638 Y47.643 F12000.000
G1 F1680.000 E2.00000
G1 X45.297 Y47.624 F900.000 E2.02134
G1 X45.892 Y47.440 E2.04149
G1 X44.638 Y47.643 F12000.000
G1 X44.470 Y47.639 F900.000 E2.04693
G1 X44.470 Y47.639 F12000.000
G1 X44.343 Y47.660 F900.000 E2.05110
G1 F1680.000 E0.05110
G92 E0
G1 X44.171 Y42.581 F12000.000
G1 F1680.000 E2.00000
G1 X44.094 Y42.560 F900.000 E2.00257
G1 X44.171 Y42.581 F12000.000
G1 X44.482 Y42.414 F900.000 E2.01401
G1 X44.482 Y42.414 F12000.000
G1 X44.627 Y42.305 F900.000 E2.01989
G1 X45.654 Y42.336 E2.05313
G1 F1680.000 E0.05313
G92 E0
G1 X42.608 Y42.965 F12000.000
G1 F1680.000 E2.00000
G1 X42.365 Y42.722 F1200.000 E2.01122
G1 X42.330 Y43.401 E2.03341
G1 X41.652 Y42.722 E2.06476
G1 X40.938 Y42.722 F12000.000
G1 X42.100 Y43.884 F1200.000 E2.11845
G1 X41.941 Y44.440 E2.13732
G1 X37.621 Y40.120 E2.33695
G1 X37.350 Y40.562 E2.35391
G1 X41.891 Y45.103 E2.56371
G1 X42.046 Y45.972 E2.59256
G1 X37.094 Y41.021 E2.82134
G1 X36.872 Y41.512 E2.83897
G1 X42.637 Y47.278 E3.10535
G1 X41.923 Y47.278 E3.12867
G1 X36.666 Y42.021 E3.37157
G1 X36.495 Y42.563 E3.39017
G1 X41.210 Y47.278 E3.60799
G1 X40.890 Y47.672 E3.62457
G1 X36.354 Y43.136 E3.83411
G1 X36.240 Y43.736 E3.85405
G1 X40.890 Y48.385 E4.06888
G1 X40.890 Y49.099 E4.09220
G1 X36.176 Y44.386 E4.30999
G1 X36.156 Y45.080 E4.33267
G1 X40.890 Y49.813 E4.55138
G1 X40.890 Y50.527 E4.57471
G1 X36.195 Y45.833 E4.79161
G1 X36.313 Y46.665 E4.81906
G1 X40.890 Y51.241 E5.03051
G1 X41.149 Y51.500 F12000.000
G1 X43.339 Y53.691 F1200.000 E5.13171
G1 X44.168 Y53.805 E5.15903
G1 X41.863 Y51.500 E5.26552
G1 X42.577 Y51.500 E5.28884
G1 X44.920 Y53.844 E5.39713
G1 X45.614 Y53.824 E5.41980
G1 X43.291 Y51.500 E5.52716
G1 X44.005 Y51.500 E5.55048
G1 X46.262 Y53.758 E5.65479
G1 X46.869 Y53.651 E5.67492
G1 X44.718 Y51.500 E5.77428
G1 X45.432 Y51.500 E5.79760
G1 X47.435 Y53.503 E5.89015
G1 X47.975 Y53.329 E5.90867
G1 X46.146 Y51.500 E5.99315
G1 X46.860 Y51.500 E6.01647
G1 X48.490 Y53.131 E6.09180
G1 X48.977 Y52.904 E6.10935
G1 X47.574 Y51.500 E6.17418
G1 X48.288 Y51.500 E6.19750
G1 X49.438 Y52.650 E6.25062
G1 X49.883 Y52.382 E6.26762
G1 X49.002 Y51.500 E6.30833
G1 X49.112 Y50.897 E6.32837
G1 X50.298 Y52.082 E6.38313
G1 X50.701 Y51.772 E6.39976
G1 X49.112 Y50.183 E6.47315
G1 X49.112 Y49.469 E6.49648
G1 X51.073 Y51.430 E6.58708
G1 X51.430 Y51.073 E6.60357
G1 X49.112 Y48.755 E6.71066
G1 X49.112 Y48.042 E6.73399
G1 X51.772 Y50.701 E6.85685
G1 X52.085 Y50.300 E6.87347
G1 X49.112 Y47.328 E7.01082
G1 X49.062 Y47.278 F12000.000
G1 X47.901 Y46.116 F1200.000 E7.06450
G1 X48.059 Y45.560 E7.08338
G1 X52.379 Y49.880 E7.28300
G1 X52.650 Y49.438 E7.29997
G1 X48.106 Y44.893 E7.50993
G1 X47.954 Y44.028 E7.53864
G1 X52.904 Y48.977 E7.76733
G1 X53.131 Y48.490 E7.78488
G1 X47.363 Y42.722 E8.05139
G1 X48.077 Y42.722 E8.07471
G1 X53.329 Y47.975 E8.31739
G1 X53.503 Y47.435 E8.33591
G1 X48.790 Y42.722 E8.55366
G1 X49.112 Y42.330 E8.57023
G1 X53.651 Y46.869 E8.77993
G1 X53.758 Y46.262 E8.80006
G1 X49.112 Y41.617 E9.01470
G1 X49.112 Y40.903 E9.03803
G1 X53.825 Y45.616 E9.25579
G1 X53.849 Y44.925 E9.27835
G1 X49.112 Y40.189 E9.49721
G1 X49.112 Y39.475 E9.52053
G1 X53.811 Y44.174 E9.73765
G1 X53.694 Y43.343 E9.76508
G1 X49.112 Y38.761 E9.97677
G1 X48.851 Y38.500 F12000.000
G1 X46.665 Y36.313 F1200.000 E10.07780
G1 X45.832 Y36.195 E10.10526
G1 X48.137 Y38.500 E10.21174
G1 X47.423 Y38.500 E10.23507
G1 X45.073 Y36.149 E10.34367
G1 X44.386 Y36.177 E10.36611
G1 X46.709 Y38.500 E10.47344
G1 X45.995 Y38.500 E10.49676
G1 X43.738 Y36.242 E10.60106
G1 X43.131 Y36.349 E10.62120
G1 X45.282 Y38.500 E10.72056
G1 X44.568 Y38.500 E10.74388
G1 X42.565 Y36.497 E10.83643
G1 X42.020 Y36.665 E10.85507
G1 X43.854 Y38.500 E10.93982
G1 X43.140 Y38.500 E10.96314
G1 X41.512 Y36.872 E11.03834
G1 X41.025 Y37.099 E11.05590
G1 X42.426 Y38.500 E11.12063
G1 X41.712 Y38.500 E11.14395
G1 X40.557 Y37.344 E11.19734
G1 X40.120 Y37.621 E11.21425
G1 X40.998 Y38.500 E11.25485
G1 X40.890 Y39.105 E11.27494
G1 X39.700 Y37.915 E11.32992
G1 X39.305 Y38.234 E11.34650
G1 X40.890 Y39.819 E11.41973
G1 X40.890 Y40.533 E11.44305
G1 X38.925 Y38.568 E11.53383
G1 X38.568 Y38.925 E11.55033
G1 X40.890 Y41.247 E11.65760
G1 X40.890 Y41.960 E11.68092
G1 X38.234 Y39.305 E11.80363
G1 X37.915 Y39.700 E11.82021
G1 X40.890 Y42.674 E11.95765
G1 F1680.000 E9.95765
G92 E0
G1 X47.635 Y47.278 F12000.000
G1 F1680.000 E2.00000
G1 X47.392 Y47.035 F1200.000 E2.01122
G1 X47.670 Y46.599 E2.02811
G1 X48.348 Y47.278 E2.05946
G1 X53.457 Y42.392 F12000.000
G1 X47.608 Y36.543 F1200.000 E2.32969
G1 X48.787 Y37.008 E2.37108
G1 X52.992 Y41.213 E2.56539
G1 X51.544 Y39.051 F12000.000
G1 X50.949 Y38.456 F1200.000 E2.59291
G1 F1680.000 E0.59291
G92 E0
G1 X42.382 Y53.448 F12000.000
G1 F1680.000 E2.00000
G1 X36.543 Y47.608 F1200.000 E2.26981
G1 X36.992 Y48.771 E2.31052
G1 X41.213 Y52.992 E2.50557
G1 X39.107 Y51.600 F12000.000
G1 X38.400 Y50.893 F1200.000 E2.53825
M106 S255
G1 F1680.000 E0.53825
G92 E0
G1 Z0.750 F12000.000
G1 X41.252 Y51.138
G1 F1680.000 E2.00000
G1 X41.252 Y47.640 F633.734 E2.07547
G1 X43.896 Y47.640 E2.13251
G1 X43.920 Y47.549 E2.13456
G1 X43.525 Y47.321 E2.14441
G1 X43.222 Y47.098 E2.15250
G1 X42.956 Y46.840 E2.16052
G1 X42.732 Y46.555 E2.16833
G1 X42.468 Y46.074 E2.18017
G1 X42.348 Y45.727 E2.18810
G1 X42.274 Y45.367 E2.19602
G1 X42.250 Y45.000 E2.20395
G1 X42.274 Y44.633 E2.21188
G1 X42.348 Y44.273 E2.21980
G1 X42.468 Y43.926 E2.22773
G1 X42.634 Y43.598 E2.23565
G1 X42.841 Y43.297 E2.24354
G1 X43.090 Y43.021 E2.25157
G1 X43.389 Y42.772 E2.25996
G1 X43.917 Y42.447 E2.27334
G1 X43.893 Y42.360 E2.27528
G1 X41.252 Y42.360 E2.33226
G1 X41.252 Y38.862 E2.40772
G1 X48.750 Y38.862 E2.56948
G1 X48.750 Y42.360 E2.64495
G1 X46.104 Y42.360 E2.70204
G1 X46.080 Y42.451 E2.70408
G1 X46.475 Y42.679 E2.71393
G1 X46.778 Y42.902 E2.72203
G1 X47.044 Y43.160 E2.73004
G1 X47.268 Y43.445 E2.73786
G1 X47.532 Y43.926 E2.74970
G1 X47.652 Y44.273 E2.75763
G1 X47.726 Y44.633 E2.76555
G1 X47.750 Y45.000 E2.77348
G1 X47.726 Y45.367 E2.78140
G1 X47.652 Y45.727 E2.78933
G1 X47.532 Y46.074 E2.79726
G1 X47.366 Y46.402 E2.80518
G1 X47.159 Y46.703 E2.81307
G1 X46.910 Y46.979 E2.82110
G1 X46.611 Y47.228 E2.82949
G1 X46.083 Y47.553 E2.84286
G1 X46.107 Y47.640 E2.84481
G1 X48.750 Y47.640 E2.90183
G1 X48.750 Y51.138 E2.97729
G1 X41.327 Y51.138 E3.13744
G1 X40.393 Y52.980 F12000.000
G1 X39.715 Y52.548 F633.734 E3.15478
G1 X39.077 Y52.059 E3.17212
G1 X38.775 Y51.794 E3.18080
G1 X38.224 Y51.244 E3.19758
G1 X37.689 Y50.610 E3.21548
G1 X37.228 Y49.951 E3.23283
G1 X37.020 Y49.607 E3.24150
G1 X36.660 Y48.918 E3.25828
G1 X36.341 Y48.152 E3.27618
G1 X36.099 Y47.385 E3.29353
G1 X35.925 Y46.600 E3.31087
G1 X35.864 Y46.203 E3.31954
G1 X35.803 Y45.545 E3.33380
G1 X35.785 Y45.000 E3.34556
G1 X35.794 Y44.598 E3.35423
G1 X35.864 Y43.797 E3.37158
G1 X36.004 Y43.006 E3.38892
G1 X36.099 Y42.615 E3.39759
G1 X36.341 Y41.848 E3.41494
G1 X36.648 Y41.106 E3.43228
G1 X37.020 Y40.393 E3.44962
G1 X37.452 Y39.715 E3.46697
G1 X37.689 Y39.390 E3.47564
G1 X38.189 Y38.794 E3.49242
G1 X38.775 Y38.206 E3.51033
G1 X39.390 Y37.689 E3.52767
G1 X39.715 Y37.452 E3.53634
G1 X40.393 Y37.020 E3.55369
G1 X41.106 Y36.648 E3.57103
G1 X41.848 Y36.341 E3.58837
G1 X42.615 Y36.099 E3.60572
G1 X43.402 Y35.925 E3.62311
G1 X44.240 Y35.817 E3.64134
G1 X44.642 Y35.792 E3.65002
G1 X45.373 Y35.793 E3.66580
G1 X46.205 Y35.864 E3.68381
G1 X46.623 Y35.929 E3.69294
G1 X47.385 Y36.099 E3.70978
G1 X48.152 Y36.341 E3.72712
G1 X48.894 Y36.648 E3.74446
G1 X49.607 Y37.020 E3.76181
G1 X50.285 Y37.452 E3.77915
G1 X50.610 Y37.689 E3.78782
G1 X51.206 Y38.189 E3.80460
G1 X51.794 Y38.775 E3.82251
G1 X52.311 Y39.390 E3.83985
G1 X52.772 Y40.049 E3.85719
