; generated by Slic3r 0.9.10b on 2013-11-08 at 16:35:49

; layer_height = 0.3
; perimeters = 1
; top_solid_layers = 2
; bottom_solid_layers = 2
; fill_density = 0.5
; perimeter_speed = 30
; infill_speed = 30
; travel_speed = 200
; nozzle_diameter = 0.5
; filament_diameter = 2.98
; extrusion_multiplier = 0.9
; perimeters extrusion width = 0.50mm
; infill extrusion width = 0.50mm
; solid infill extrusion width = 0.50mm
; top infill extrusion width = 0.50mm

G21 ; set units to millimeters
M107
M104 S190 ; set temperature
G28 ; home all axes
G1 Z15 F120 ; lift nozzle
M109 S190 ; wait for temperature to be reached
G90 ; use absolute coordinates
G92 E0
M82 ; use absolute distances for extrusion
G1 F1680.000 E-2.00000
G92 E0
G1 Z0.450 F12000.000
G1 X58.980 Y58.980
G1 F1680.000 E2.00000
G1 X59.970 Y58.180 F900.000 E2.03696
G1 X61.090 Y57.570 E2.07398
G1 X62.310 Y57.200 E2.11100
G1 X63.580 Y57.080 E2.14803
G1 X106.420 Y57.080 E3.39184
G1 X107.690 Y57.200 E3.42888
G1 X108.910 Y57.570 E3.46589
G1 X110.030 Y58.180 E3.50292
G1 X111.020 Y58.980 E3.53987
G1 X111.820 Y59.970 E3.57683
G1 X112.430 Y61.090 E3.61386
G1 X112.800 Y62.310 E3.65087
G1 X112.920 Y63.580 E3.68791
G1 X112.920 Y75.810 E4.04299
G1 X112.800 Y77.080 E4.08003
G1 X112.430 Y78.300 E4.11704
G1 X111.820 Y79.420 E4.15407
G1 X111.020 Y80.410 E4.19102
G1 X80.410 Y111.020 E5.44787
G1 X79.420 Y111.820 E5.48482
G1 X78.300 Y112.430 E5.52185
G1 X77.080 Y112.800 E5.55886
G1 X75.810 Y112.920 E5.59590
G1 X63.580 Y112.920 E5.95098
G1 X62.310 Y112.800 E5.98802
G1 X61.090 Y112.430 E6.02503
G1 X59.970 Y111.820 E6.06206
G1 X58.980 Y111.020 E6.09902
G1 X58.180 Y110.030 E6.13597
G1 X57.570 Y108.910 E6.17300
G1 X57.200 Y107.690 E6.21001
G1 X57.080 Y106.420 E6.24705
G1 X57.080 Y63.580 E7.49086
G1 X57.200 Y62.310 E7.52789
G1 X57.570 Y61.090 E7.56491
G1 X58.180 Y59.970 E7.60194
G1 X58.933 Y59.038 E7.63671
G1 F1680.000 E5.63671
G92 E0
G1 X63.830 Y63.830 F12000.000
G1 F1680.000 E2.00000
G1 X106.170 Y63.830 F720.000 E3.22929
G1 X106.170 Y75.714 E3.57432
G1 X105.701 Y76.167 E3.59325
G1 X105.133 Y76.659 E3.61507
G1 X104.540 Y77.121 E3.63688
G1 X103.923 Y77.549 E3.65870
G1 X103.284 Y77.945 E3.68052
G1 X102.625 Y78.305 E3.70233
G1 X101.947 Y78.630 E3.72415
G1 X101.253 Y78.917 E3.74597
G1 X100.545 Y79.168 E3.76778
G1 X99.824 Y79.380 E3.78960
G1 X99.092 Y79.553 E3.81142
G1 X98.350 Y79.687 E3.83333
G1 X88.267 Y81.233 E4.12950
G1 X87.720 Y81.335 E4.14565
G1 X87.177 Y81.475 E4.16193
G1 X86.645 Y81.651 E4.17820
G1 X86.125 Y81.861 E4.19447
G1 X85.621 Y82.106 E4.21075
G1 X85.134 Y82.384 E4.22702
G1 X84.667 Y82.694 E4.24330
G1 X84.221 Y83.034 E4.25957
G1 X83.800 Y83.403 E4.27585
G1 X83.403 Y83.800 E4.29212
G1 X83.034 Y84.221 E4.30840
G1 X82.694 Y84.667 E4.32467
G1 X82.384 Y85.134 E4.34095
G1 X82.106 Y85.621 E4.35722
G1 X81.861 Y86.125 E4.37350
G1 X81.651 Y86.645 E4.38977
G1 X81.475 Y87.177 E4.40605
G1 X81.335 Y87.720 E4.42232
G1 X81.233 Y88.267 E4.43847
G1 X79.687 Y98.350 E4.73464
G1 X79.553 Y99.092 E4.75656
G1 X79.380 Y99.824 E4.77837
G1 X79.168 Y100.545 E4.80019
G1 X78.917 Y101.253 E4.82200
G1 X78.630 Y101.947 E4.84382
G1 X78.305 Y102.625 E4.86564
G1 X77.945 Y103.284 E4.88745
G1 X77.549 Y103.923 E4.90927
G1 X77.121 Y104.540 E4.93109
G1 X76.659 Y105.133 E4.95290
G1 X76.167 Y105.701 E4.97472
G1 X75.714 Y106.170 E4.99365
G1 X63.830 Y106.170 E5.33868
G1 X63.830 Y63.905 E6.56579
G1 X64.355 Y105.808 F12000.000
G1 X64.192 Y105.645 F1200.000 E6.57248
G1 X64.192 Y104.937 E6.59309
G1 X65.063 Y105.808 E6.62893
G1 X65.772 Y105.808 E6.64955
G1 X64.192 Y104.228 E6.71454
G1 X64.192 Y103.519 E6.73516
G1 X66.481 Y105.808 E6.82931
G1 X67.189 Y105.808 E6.84993
G1 X64.192 Y102.811 E6.97323
G1 X64.192 Y102.102 E6.99385
G1 X67.898 Y105.808 E7.14631
G1 X68.606 Y105.808 E7.16693
G1 X64.192 Y101.394 E7.34855
G1 X64.192 Y100.685 E7.36916
G1 X69.315 Y105.808 E7.57994
G1 X70.024 Y105.808 E7.60056
G1 X64.192 Y99.976 E7.84049
G1 X64.192 Y99.268 E7.86110
G1 X70.732 Y105.808 E8.13019
G1 X71.441 Y105.808 E8.15081
G1 X64.192 Y98.559 E8.44905
G1 X64.192 Y97.851 E8.46967
G1 X72.149 Y105.808 E8.79707
G1 X72.858 Y105.808 E8.81768
G1 X64.192 Y97.142 E9.17424
G1 X64.192 Y96.433 E9.19486
G1 X73.567 Y105.808 E9.58057
G1 X74.275 Y105.808 E9.60118
G1 X64.192 Y95.725 E10.01605
G1 X64.192 Y95.016 E10.03667
G1 X74.984 Y105.808 E10.48069
G1 X75.625 Y105.740 E10.49945
G1 X64.192 Y94.308 E10.96987
G1 X64.192 Y93.599 E10.99048
G1 X75.969 Y105.376 E11.47506
G1 X76.298 Y104.996 E11.48967
G1 X64.192 Y92.890 E11.98779
G1 X64.192 Y92.182 E12.00840
G1 X76.613 Y104.603 E12.51947
G1 X76.917 Y104.198 E12.53419
G1 X64.192 Y91.473 E13.05777
G1 X64.192 Y90.765 E13.07838
G1 X77.208 Y103.780 E13.61391
G1 X77.481 Y103.345 E13.62887
G1 X64.192 Y90.056 E14.17565
G1 X64.192 Y89.348 E14.19626
G1 X77.743 Y102.898 E14.75381
G1 X77.992 Y102.439 E14.76901
G1 X64.192 Y88.639 E15.33683
G1 X64.192 Y87.930 E15.35744
G1 X78.222 Y101.960 E15.93470
G1 X78.437 Y101.466 E15.95037
G1 X64.192 Y87.222 E16.53647
G1 X64.192 Y86.513 E16.55709
G1 X78.637 Y100.958 E17.15145
G1 X78.822 Y100.434 E17.16760
G1 X64.192 Y85.805 E17.76957
G1 X64.192 Y85.096 E17.79019
G1 X78.983 Y99.887 E18.39878
G1 X79.126 Y99.321 E18.41576
G1 X64.192 Y84.387 E19.03024
G1 X64.192 Y83.679 E19.05085
G1 X79.249 Y98.736 E19.67038
G1 X79.354 Y98.132 E19.68821
G1 X64.192 Y82.970 E20.31205
G1 X64.192 Y82.262 E20.33267
G1 X79.448 Y97.517 E20.96039
G1 X79.542 Y96.903 E20.97847
G1 X64.192 Y81.553 E21.61007
G1 X64.192 Y80.844 E21.63068
G1 X79.636 Y96.288 E22.26615
G1 X79.731 Y95.674 E22.28424
G1 X64.192 Y80.136 E22.92358
G1 X64.192 Y79.427 E22.94420
G1 X79.825 Y95.060 E23.58741
G1 X79.919 Y94.445 E23.60550
G1 X64.192 Y78.719 E24.25259
G1 X64.192 Y78.010 E24.27321
G1 X80.013 Y93.831 E24.92418
G1 X80.107 Y93.216 E24.94226
G1 X64.192 Y77.301 E25.59710
G1 X64.192 Y76.593 E25.61772
G1 X80.202 Y92.602 E26.27644
G1 X80.296 Y91.988 E26.29452
G1 X64.192 Y75.884 E26.95712
G1 X64.192 Y75.176 E26.97773
G1 X80.390 Y91.373 E27.64420
G1 X80.484 Y90.759 E27.66229
G1 X64.192 Y74.467 E28.33263
G1 X64.192 Y73.758 E28.35325
G1 X80.578 Y90.144 E29.02747
G1 X80.672 Y89.530 E29.04555
G1 X64.192 Y73.050 E29.72364
G1 X64.192 Y72.341 E29.74426
G1 X80.767 Y88.915 E30.42623
G1 X80.861 Y88.301 E30.44431
G1 X64.192 Y71.633 E31.13016
G1 X64.192 Y70.924 E31.15077
G1 X80.970 Y87.702 E31.84111
G1 X81.113 Y87.136 E31.85807
G1 X64.192 Y70.215 E32.55431
G1 X64.192 Y69.507 E32.57493
G1 X81.284 Y86.599 E33.27820
G1 X81.485 Y86.090 E33.29409
G1 X64.192 Y68.798 E34.00560
G1 X64.192 Y68.090 E34.02622
G1 X81.711 Y85.609 E34.74706
G1 X81.959 Y85.148 E34.76228
G1 X64.192 Y67.381 E35.49332
G1 X64.192 Y66.672 E35.51394
G1 X82.230 Y84.710 E36.25613
G1 X82.523 Y84.294 E36.27093
G1 X64.192 Y65.964 E37.02516
G1 X64.192 Y65.255 E37.04577
G1 X82.835 Y83.898 E37.81287
G1 X83.168 Y83.522 E37.82747
G1 X64.192 Y64.547 E38.60825
G1 X64.547 Y64.192 E38.62283
G1 X83.522 Y83.168 E39.40360
G1 X83.898 Y82.835 E39.41821
G1 X65.255 Y64.192 E40.18530
G1 X65.964 Y64.192 E40.20592
G1 X84.294 Y82.523 E40.96014
G1 X84.710 Y82.230 E40.97494
G1 X66.672 Y64.192 E41.71714
G1 X67.381 Y64.192 E41.73775
G1 X85.148 Y81.959 E42.46879
G1 X85.607 Y81.710 E42.48400
G1 X68.090 Y64.192 E43.20479
G1 X68.798 Y64.192 E43.22541
G1 X86.090 Y81.485 E43.93691
G1 X86.599 Y81.284 E43.95281
G1 X69.507 Y64.192 E44.65608
G1 X70.215 Y64.192 E44.67670
G1 X87.135 Y81.112 E45.37286
G1 X87.702 Y80.970 E45.38986
G1 X70.924 Y64.192 E46.08020
G1 X71.633 Y64.192 E46.10082
G1 X88.301 Y80.861 E46.78666
G1 X88.915 Y80.767 E46.80475
G1 X72.341 Y64.192 E47.48671
G1 X73.050 Y64.192 E47.50733
G1 X89.530 Y80.672 E48.18542
G1 X90.144 Y80.578 E48.20351
G1 X73.758 Y64.192 E48.87773
G1 X74.467 Y64.192 E48.89834
G1 X90.759 Y80.484 E49.56869
G1 X91.373 Y80.390 E49.58677
G1 X75.176 Y64.192 E50.25324
G1 X75.884 Y64.192 E50.27386
G1 X91.988 Y80.296 E50.93645
G1 X92.602 Y80.202 E50.95454
G1 X76.593 Y64.192 E51.61325
G1 X77.301 Y64.192 E51.63387
G1 X93.216 Y80.107 E52.28871
G1 X93.831 Y80.013 E52.30680
G1 X78.010 Y64.192 E52.95777
G1 X78.719 Y64.192 E52.97838
G1 X94.445 Y79.919 E53.62548
G1 X95.060 Y79.825 E53.64356
G1 X79.427 Y64.192 E54.28678
G1 X80.136 Y64.192 E54.30740
G1 X95.674 Y79.731 E54.94674
G1 X96.288 Y79.636 E54.96482
G1 X80.844 Y64.192 E55.60029
G1 X81.553 Y64.192 E55.62091
G1 X96.903 Y79.542 E56.25250
G1 X97.517 Y79.448 E56.27059
G1 X82.262 Y64.192 E56.89830
G1 X82.970 Y64.192 E56.91892
G1 X98.132 Y79.354 E57.54276
G1 X98.736 Y79.249 E57.56059
G1 X83.679 Y64.192 E58.18012
G1 X84.387 Y64.192 E58.20074
G1 X99.321 Y79.126 E58.81521
G1 X99.887 Y78.983 E58.83219
G1 X85.096 Y64.192 E59.44078
G1 X85.805 Y64.192 E59.46139
G1 X100.434 Y78.822 E60.06333
G1 X100.965 Y78.645 E60.07963
G1 X86.513 Y64.192 E60.67428
G1 X87.222 Y64.192 E60.69490
G1 X101.466 Y78.437 E61.28100
G1 X101.960 Y78.222 E61.29667
G1 X87.930 Y64.192 E61.87393
G1 X88.639 Y64.192 E61.89454
G1 X102.439 Y77.992 E62.46236
G1 X102.898 Y77.743 E62.47756
G1 X89.348 Y64.192 E63.03511
G1 X90.056 Y64.192 E63.05573
G1 X103.345 Y77.481 E63.60251
G1 X103.780 Y77.208 E63.61746
G1 X90.765 Y64.192 E64.15299
G1 X91.473 Y64.192 E64.17361
G1 X104.198 Y76.917 E64.69718
G1 X104.603 Y76.613 E64.71190
G1 X92.182 Y64.192 E65.22297
G1 X92.890 Y64.192 E65.24358
G1 X104.996 Y76.298 E65.74170
G1 X105.376 Y75.969 E65.75632
G1 X93.599 Y64.192 E66.24089
G1 X94.308 Y64.192 E66.26150
G1 X105.740 Y75.625 E66.73192
G1 X105.808 Y74.984 E66.75068
G1 X95.016 Y64.192 E67.19470
G1 X95.725 Y64.192 E67.21532
G1 X105.808 Y74.275 E67.63019
G1 X105.808 Y73.567 E67.65080
G1 X96.433 Y64.192 E68.03652
G1 X97.142 Y64.192 E68.05713
G1 X105.808 Y72.858 E68.41369
G1 X105.808 Y72.149 E68.43430
G1 X97.851 Y64.192 E68.76170
G1 X98.559 Y64.192 E68.78232
G1 X105.808 Y71.441 E69.08056
G1 X105.808 Y70.732 E69.10118
G1 X99.268 Y64.192 E69.37027
G1 X99.976 Y64.192 E69.39088
G1 X105.808 Y70.024 E69.63081
G1 X105.808 Y69.315 E69.65143
G1 X100.685 Y64.192 E69.86221
G1 X101.394 Y64.192 E69.88282
G1 X105.808 Y68.606 E70.06444
G1 X105.808 Y67.898 E70.08506
G1 X102.102 Y64.192 E70.23752
G1 X102.811 Y64.192 E70.25814
G1 X105.808 Y67.189 E70.38144
G1 X105.808 Y66.481 E70.40206
G1 X103.519 Y64.192 E70.49621
G1 X104.228 Y64.192 E70.51683
G1 X105.808 Y65.772 E70.58182
G1 X105.808 Y65.063 E70.60244
G1 X104.937 Y64.192 E70.63828
G1 X105.645 Y64.192 E70.65889
G1 X105.808 Y64.355 E70.66558
M104 S188 ; set temperature
G1 F1680.000 E68.66558
G92 E0
G1 Z0.750 F12000.000
G1 X106.170 Y63.830
G1 F1680.000 E2.00000
G1 X106.170 Y75.714 F1440.000 E2.23002
G1 X105.701 Y76.167 E2.24264
G1 X105.133 Y76.659 E2.25719
G1 X104.540 Y77.121 E2.27173
G1 X103.923 Y77.549 E2.28628
G1 X103.284 Y77.945 E2.30082
G1 X102.625 Y78.305 E2.31536
G1 X101.947 Y78.630 E2.32991
G1 X101.253 Y78.917 E2.34445
G1 X100.545 Y79.168 E2.35900
G1 X99.824 Y79.380 E2.37354
G1 X99.092 Y79.553 E2.38809
G1 X98.350 Y79.687 E2.40269
G1 X88.267 Y81.233 E2.60014
G1 X87.720 Y81.335 E2.61091
G1 X87.177 Y81.475 E2.62176
G1 X86.645 Y81.651 E2.63261
G1 X86.125 Y81.861 E2.64346
G1 X85.621 Y82.106 E2.65431
G1 X85.134 Y82.384 E2.66516
G1 X84.667 Y82.694 E2.67601
G1 X84.221 Y83.034 E2.68686
G1 X83.800 Y83.403 E2.69771
G1 X83.403 Y83.800 E2.70856
G1 X83.034 Y84.221 E2.71941
G1 X82.694 Y84.667 E2.73026
G1 X82.384 Y85.134 E2.74111
G1 X82.106 Y85.621 E2.75196
G1 X81.861 Y86.125 E2.76281
G1 X81.651 Y86.645 E2.77366
G1 X81.475 Y87.177 E2.78451
G1 X81.335 Y87.720 E2.79536
G1 X81.233 Y88.267 E2.80612
G1 X79.687 Y98.350 E3.00357
G1 X79.553 Y99.092 E3.01818
G1 X79.380 Y99.824 E3.03272
G1 X79.168 Y100.545 E3.04727
G1 X78.917 Y101.253 E3.06181
G1 X78.630 Y101.947 E3.07636
G1 X78.305 Y102.625 E3.09090
G1 X77.945 Y103.284 E3.10544
G1 X77.549 Y103.923 E3.11999
G1 X77.121 Y104.540 E3.13453
G1 X76.659 Y105.133 E3.14908
G1 X76.167 Y105.701 E3.16362
G1 X75.714 Y106.170 E3.17624
G1 X63.830 Y106.170 E3.40626
G1 X63.830 Y63.830 E4.22579
G1 X106.095 Y63.830 E5.04386
G1 X105.808 Y75.206 F12000.000
G1 X103.864 Y77.149 F2400.000 E5.09718
G1 X102.200 Y78.105 E5.13439
G1 X105.808 Y74.497 E5.23335
G1 X105.808 Y73.788 E5.24710
G1 X100.959 Y78.637 E5.38010
G1 X99.911 Y78.976 E5.40146
G1 X105.808 Y73.080 E5.56321
G1 X105.808 Y72.371 E5.57695
G1 X98.973 Y79.206 E5.76444
G1 X98.114 Y79.357 E5.78136
G1 X105.808 Y71.663 E5.99242
G1 X105.808 Y70.954 E6.00616
G1 X97.277 Y79.485 E6.24017
G1 X96.440 Y79.613 E6.25659
G1 X105.808 Y70.245 E6.51356
G1 X105.808 Y69.537 E6.52731
G1 X95.603 Y79.742 E6.80723
G1 X94.766 Y79.870 E6.82365
G1 X105.808 Y68.828 E7.12653
G1 X105.808 Y68.120 E7.14027
G1 X93.929 Y79.998 E7.46611
G1 X93.092 Y80.126 E7.48253
G1 X105.808 Y67.411 E7.83132
G1 X105.808 Y66.702 E7.84507
G1 X92.255 Y80.255 E8.21682
G1 X91.419 Y80.383 E8.23324
G1 X105.808 Y65.994 E8.62794
G1 X105.808 Y65.285 E8.64169
G1 X90.582 Y80.511 E9.05935
G1 X89.745 Y80.639 E9.07577
G1 X105.808 Y64.577 E9.51639
G1 X105.483 Y64.192 E9.52614
G1 X88.908 Y80.768 E9.98082
G1 X88.065 Y80.902 E9.99736
G1 X104.775 Y64.192 E10.45572
G1 X104.066 Y64.192 E10.46946
G1 X87.151 Y81.108 E10.93346
G1 X86.048 Y81.502 E10.95617
G1 X103.358 Y64.192 E11.43098
G1 X102.649 Y64.192 E11.44472
G1 X84.398 Y82.444 E11.94537
G1 X82.444 Y84.398 F12000.000
G1 X64.192 Y102.649 F2400.000 E12.44602
G1 X64.192 Y101.940 E12.45977
G1 X101.940 Y64.192 E13.49523
G1 X101.232 Y64.192 E13.50897
G1 X64.192 Y101.232 E14.52499
G1 X64.192 Y100.523 E14.53874
G1 X100.523 Y64.192 E15.53532
G1 X99.815 Y64.192 E15.54907
G1 X64.192 Y99.815 E16.52622
G1 X64.192 Y99.106 E16.53996
G1 X99.106 Y64.192 E17.49767
G1 X98.397 Y64.192 E17.51142
G1 X64.192 Y98.397 E18.44969
G1 X64.192 Y97.689 E18.46343
G1 X97.689 Y64.192 E19.38227
G1 X96.980 Y64.192 E19.39601
G1 X64.192 Y96.980 E20.29541
G1 X64.192 Y96.272 E20.30916
G1 X96.272 Y64.192 E21.18912
G1 X95.563 Y64.192 E21.20286
G1 X64.192 Y95.563 E22.06339
G1 X64.192 Y94.854 E22.07713
G1 X94.854 Y64.192 E22.91822
G1 X94.146 Y64.192 E22.93196
G1 X64.192 Y94.146 E23.75361
G1 X64.192 Y93.437 E23.76736
G1 X93.437 Y64.192 E24.56957
G1 X92.729 Y64.192 E24.58331
G1 X64.192 Y92.729 E25.36609
G1 X64.192 Y92.020 E25.37983
G1 X92.020 Y64.192 E26.14317
G1 X91.311 Y64.192 E26.15691
G1 X64.192 Y91.311 E26.90081
G1 X64.192 Y90.603 E26.91455
G1 X90.603 Y64.192 E27.63902
G1 X89.894 Y64.192 E27.65276
G1 X64.192 Y89.894 E28.35779
G1 X64.192 Y89.186 E28.37153
G1 X89.186 Y64.192 E29.05712
G1 X88.477 Y64.192 E29.07086
G1 X64.192 Y88.477 E29.73701
G1 X64.192 Y87.768 E29.75076
G1 X87.768 Y64.192 E30.39747
G1 X87.060 Y64.192 E30.41121
G1 X64.192 Y87.060 E31.03849
G1 X64.192 Y86.351 E31.05223
G1 X86.351 Y64.192 E31.66007
G1 X85.643 Y64.192 E31.67381
G1 X64.192 Y85.643 E32.26221
G1 X64.192 Y84.934 E32.27596
G1 X84.934 Y64.192 E32.84492
G1 X84.225 Y64.192 E32.85867
G1 X64.192 Y84.225 E33.40819
G1 X64.192 Y83.517 E33.42194
G1 X83.517 Y64.192 E33.95202
G1 X82.808 Y64.192 E33.96577
G1 X64.192 Y82.808 E34.47642
G1 X64.192 Y82.100 E34.49016
G1 X82.100 Y64.192 E34.98138
G1 X81.391 Y64.192 E34.99512
G1 X64.192 Y81.391 E35.46690
G1 X64.192 Y80.683 E35.48064
G1 X80.683 Y64.192 E35.93298
G1 X79.974 Y64.192 E35.94672
G1 X64.192 Y79.974 E36.37963
G1 X64.192 Y79.265 E36.39337
G1 X79.265 Y64.192 E36.80683
G1 X78.557 Y64.192 E36.82058
G1 X64.192 Y78.557 E37.21460
G1 X64.192 Y77.848 E37.22835
G1 X77.848 Y64.192 E37.60294
G1 X77.140 Y64.192 E37.61668
G1 X64.192 Y77.140 E37.97183
G1 X64.192 Y76.431 E37.98558
G1 X76.431 Y64.192 E38.32129
G1 X75.722 Y64.192 E38.33504
G1 X64.192 Y75.722 E38.65131
G1 X64.192 Y75.014 E38.66506
G1 X75.014 Y64.192 E38.96190
G1 X74.305 Y64.192 E38.97564
G1 X64.192 Y74.305 E39.25304
G1 X64.192 Y73.597 E39.26679
G1 X73.597 Y64.192 E39.52475
