; generated by Slic3r 0.9.10b on 2013-11-08 at 21:44:25

; layer_height = 0.3
; perimeters = 1
; top_solid_layers = 2
; bottom_solid_layers = 2
; fill_density = 0.5
; perimeter_speed = 30
; infill_speed = 30
; travel_speed = 200
; nozzle_diameter = 0.5
; filament_diameter = 2.98
; extrusion_multiplier = 0.9
; perimeters extrusion width = 0.50mm
; infill extrusion width = 0.50mm
; solid infill extrusion width = 0.50mm
; top infill extrusion width = 0.50mm

G21 ; set units to millimeters
M107
M104 S190 ; set temperature
G28 ; home all axes
G1 Z15 F120 ; lift nozzle
M109 S190 ; wait for temperature to be reached
G90 ; use absolute coordinates
G92 E0
M82 ; use absolute distances for extrusion
G1 F1680.000 E-2.00000
G92 E0
G1 Z0.450 F12000.000
G1 X59.980 Y58.980
G1 F1680.000 E2.00000
G1 X60.970 Y58.180 F900.000 E2.03696
G1 X62.090 Y57.570 E2.07398
G1 X63.310 Y57.200 E2.11100
G1 X64.580 Y57.080 E2.14803
G1 X107.420 Y57.080 E3.39184
G1 X108.690 Y57.200 E3.42888
G1 X109.910 Y57.570 E3.46589
G1 X111.030 Y58.180 E3.50292
G1 X112.020 Y58.980 E3.53987
G1 X112.820 Y59.970 E3.57683
G1 X113.430 Y61.090 E3.61386
G1 X113.800 Y62.310 E3.65087
G1 X113.920 Y63.580 E3.68791
G1 X113.920 Y106.420 E4.93171
G1 X113.800 Y107.690 E4.96875
G1 X113.430 Y108.910 E5.00576
G1 X112.820 Y110.030 E5.04279
G1 X112.020 Y111.020 E5.07975
G1 X111.030 Y111.820 E5.11670
G1 X109.910 Y112.430 E5.15373
G1 X108.690 Y112.800 E5.19074
G1 X107.420 Y112.920 E5.22778
G1 X95.170 Y112.920 E5.58344
G1 X93.900 Y112.800 E5.62048
G1 X92.680 Y112.420 E5.65758
G1 X91.560 Y111.820 E5.69447
G1 X90.570 Y111.010 E5.73161
G1 X59.980 Y80.400 E6.98804
G1 X59.170 Y79.420 E7.02495
G1 X58.570 Y78.300 E7.06184
G1 X58.200 Y77.080 E7.09886
G1 X58.080 Y75.810 E7.13590
G1 X58.080 Y63.580 E7.49098
G1 X58.200 Y62.310 E7.52802
G1 X58.570 Y61.090 E7.56503
G1 X59.180 Y59.970 E7.60206
G1 X59.933 Y59.038 E7.63683
G1 F1680.000 E5.63683
G92 E0
G1 X64.830 Y63.830 F12000.000
G1 F1680.000 E2.00000
G1 X107.170 Y63.830 F720.000 E3.22929
G1 X107.170 Y106.170 E4.45858
G1 X95.286 Y106.170 E4.80361
G1 X94.833 Y105.701 E4.82254
G1 X94.341 Y105.133 E4.84436
G1 X93.879 Y104.540 E4.86617
G1 X93.451 Y103.923 E4.88799
G1 X93.055 Y103.284 E4.90980
G1 X92.695 Y102.625 E4.93162
G1 X92.370 Y101.947 E4.95344
G1 X92.083 Y101.253 E4.97525
G1 X91.832 Y100.545 E4.99707
G1 X91.620 Y99.824 E5.01889
G1 X91.447 Y99.092 E5.04070
G1 X91.313 Y98.350 E5.06262
G1 X89.767 Y88.267 E5.35878
G1 X89.665 Y87.720 E5.37494
G1 X89.525 Y87.177 E5.39121
G1 X89.358 Y86.672 E5.40667
G1 X89.139 Y86.125 E5.42376
G1 X88.894 Y85.621 E5.44004
G1 X88.616 Y85.134 E5.45631
G1 X88.306 Y84.667 E5.47258
G1 X87.966 Y84.221 E5.48886
G1 X87.597 Y83.800 E5.50513
G1 X87.200 Y83.403 E5.52141
G1 X86.779 Y83.034 E5.53768
G1 X86.333 Y82.694 E5.55396
G1 X85.866 Y82.384 E5.57023
G1 X85.404 Y82.120 E5.58569
G1 X84.875 Y81.861 E5.60278
G1 X84.355 Y81.651 E5.61906
G1 X83.823 Y81.475 E5.63533
G1 X83.280 Y81.335 E5.65160
G1 X82.733 Y81.233 E5.66776
G1 X72.650 Y79.687 E5.96393
G1 X71.908 Y79.553 E5.98584
G1 X71.176 Y79.380 E6.00766
G1 X70.455 Y79.168 E6.02947
G1 X69.747 Y78.917 E6.05129
G1 X69.053 Y78.630 E6.07311
G1 X68.375 Y78.305 E6.09492
G1 X67.716 Y77.945 E6.11674
G1 X67.077 Y77.549 E6.13855
G1 X66.460 Y77.121 E6.16037
G1 X65.867 Y76.659 E6.18219
G1 X65.299 Y76.167 E6.20400
G1 X64.830 Y75.714 E6.22293
G1 X64.830 Y63.905 E6.56579
G1 X67.234 Y77.218 F12000.000
G1 X65.192 Y75.176 F1200.000 E6.64981
G1 X65.192 Y74.467 E6.67043
G1 X68.862 Y78.136 E6.82140
G1 X70.087 Y78.653 E6.86011
G1 X65.192 Y73.758 E7.06153
G1 X65.192 Y73.050 E7.08214
G1 X71.131 Y78.989 E7.32651
G1 X72.064 Y79.213 E7.35442
G1 X65.192 Y72.341 E7.63716
G1 X65.192 Y71.633 E7.65778
G1 X72.922 Y79.362 E7.97582
G1 X73.759 Y79.490 E8.00045
G1 X65.192 Y70.924 E8.35293
G1 X65.192 Y70.215 E8.37355
G1 X74.596 Y79.619 E8.76046
G1 X75.433 Y79.747 E8.78509
G1 X65.192 Y69.507 E9.20643
G1 X65.192 Y68.798 E9.22705
G1 X76.269 Y79.875 E9.68283
G1 X77.106 Y80.004 E9.70746
G1 X65.192 Y68.090 E10.19767
G1 X65.192 Y67.381 E10.21829
G1 X77.943 Y80.132 E10.74294
G1 X78.780 Y80.260 E10.76757
G1 X65.192 Y66.672 E11.32665
G1 X65.192 Y65.964 E11.34727
G1 X79.617 Y80.388 E11.94078
G1 X80.454 Y80.517 E11.96542
G1 X65.192 Y65.255 E12.59337
G1 X65.192 Y64.547 E12.61398
G1 X81.291 Y80.645 E13.27637
G1 X82.127 Y80.773 E13.30100
G1 X65.547 Y64.192 E13.98324
G1 X66.255 Y64.192 E14.00385
G1 X82.972 Y80.909 E14.69167
G1 X83.889 Y81.118 E14.71906
G1 X66.964 Y64.192 E15.41549
G1 X67.672 Y64.192 E15.43610
G1 X85.002 Y81.522 E16.14916
G1 X86.729 Y82.541 F12000.000
G1 X68.381 Y64.192 F1200.000 E16.90412
G1 X69.090 Y64.192 E16.92474
G1 X106.808 Y101.910 E18.47669
G1 X106.808 Y101.202 E18.49731
G1 X69.798 Y64.192 E20.02011
G1 X70.507 Y64.192 E20.04072
G1 X106.808 Y100.493 E21.53437
G1 X106.808 Y99.785 E21.55498
G1 X71.215 Y64.192 E23.01947
G1 X71.924 Y64.192 E23.04009
G1 X106.808 Y99.076 E24.47542
G1 X106.808 Y98.367 E24.49604
G1 X72.633 Y64.192 E25.90221
G1 X73.341 Y64.192 E25.92283
G1 X106.808 Y97.659 E27.29985
G1 X106.808 Y96.950 E27.32046
G1 X74.050 Y64.192 E28.66832
G1 X74.758 Y64.192 E28.68894
G1 X106.808 Y96.242 E30.00765
G1 X106.808 Y95.533 E30.02826
G1 X75.467 Y64.192 E31.31781
G1 X76.176 Y64.192 E31.33843
G1 X106.808 Y94.824 E32.59883
G1 X106.808 Y94.116 E32.61944
G1 X76.884 Y64.192 E33.85068
G1 X77.593 Y64.192 E33.87130
G1 X106.808 Y93.407 E35.07338
G1 X106.808 Y92.699 E35.09400
G1 X78.301 Y64.192 E36.26692
G1 X79.010 Y64.192 E36.28754
G1 X106.808 Y91.990 E37.43131
G1 X106.808 Y91.281 E37.45192
G1 X79.719 Y64.192 E38.56654
G1 X80.427 Y64.192 E38.58715
G1 X106.808 Y90.573 E39.67261
G1 X106.808 Y89.864 E39.69323
G1 X81.136 Y64.192 E40.74953
G1 X81.844 Y64.192 E40.77015
G1 X106.808 Y89.156 E41.79729
G1 X106.808 Y88.447 E41.81791
G1 X82.553 Y64.192 E42.81590
G1 X83.262 Y64.192 E42.83652
G1 X106.808 Y87.738 E43.80535
G1 X106.808 Y87.030 E43.82597
G1 X83.970 Y64.192 E44.76564
G1 X84.679 Y64.192 E44.78626
G1 X106.808 Y86.321 E45.69678
G1 X106.808 Y85.613 E45.71740
G1 X85.387 Y64.192 E46.59876
G1 X86.096 Y64.192 E46.61938
G1 X106.808 Y84.904 E47.47159
G1 X106.808 Y84.195 E47.49220
G1 X86.805 Y64.192 E48.31526
G1 X87.513 Y64.192 E48.33587
G1 X106.808 Y83.487 E49.12977
G1 X106.808 Y82.778 E49.15039
G1 X88.222 Y64.192 E49.91513
G1 X88.930 Y64.192 E49.93574
G1 X106.808 Y82.070 E50.67133
G1 X106.808 Y81.361 E50.69195
G1 X89.639 Y64.192 E51.39837
G1 X90.348 Y64.192 E51.41899
G1 X106.808 Y80.652 E52.09626
G1 X106.808 Y79.944 E52.11688
G1 X91.056 Y64.192 E52.76500
G1 X91.765 Y64.192 E52.78561
G1 X106.808 Y79.235 E53.40457
G1 X106.808 Y78.527 E53.42519
G1 X92.473 Y64.192 E54.01499
G1 X93.182 Y64.192 E54.03561
G1 X106.808 Y77.818 E54.59626
G1 X106.808 Y77.110 E54.61688
G1 X93.890 Y64.192 E55.14837
G1 X94.599 Y64.192 E55.16898
G1 X106.808 Y76.401 E55.67132
G1 X106.808 Y75.692 E55.69194
G1 X95.308 Y64.192 E56.16512
G1 X96.016 Y64.192 E56.18573
G1 X106.808 Y74.984 E56.62976
G1 X106.808 Y74.275 E56.65037
G1 X96.725 Y64.192 E57.06524
G1 X97.433 Y64.192 E57.08586
G1 X106.808 Y73.567 E57.47157
G1 X106.808 Y72.858 E57.49219
G1 X98.142 Y64.192 E57.84874
G1 X98.851 Y64.192 E57.86936
G1 X106.808 Y72.149 E58.19676
G1 X106.808 Y71.441 E58.21737
G1 X99.559 Y64.192 E58.51562
G1 X100.268 Y64.192 E58.53623
G1 X106.808 Y70.732 E58.80532
G1 X106.808 Y70.024 E58.82594
G1 X100.976 Y64.192 E59.06587
G1 X101.685 Y64.192 E59.08648
G1 X106.808 Y69.315 E59.29726
G1 X106.808 Y68.606 E59.31788
G1 X102.394 Y64.192 E59.49950
G1 X103.102 Y64.192 E59.52011
G1 X106.808 Y67.898 E59.67257
G1 X106.808 Y67.189 E59.69319
G1 X103.811 Y64.192 E59.81650
G1 X104.519 Y64.192 E59.83711
G1 X106.808 Y66.481 E59.93127
G1 X106.808 Y65.772 E59.95188
G1 X105.228 Y64.192 E60.01688
G1 X105.937 Y64.192 E60.03749
G1 X106.808 Y65.063 E60.07333
G1 X106.808 Y64.355 E60.09395
G1 X106.645 Y64.192 E60.10063
G1 X88.459 Y84.271 F12000.000
G1 X106.808 Y102.619 F1200.000 E60.85559
G1 X106.808 Y103.328 E60.87621
G1 X89.478 Y85.998 E61.58926
G1 X89.882 Y87.111 E61.62371
G1 X106.808 Y104.036 E62.32013
G1 X106.808 Y104.745 E62.34075
G1 X90.091 Y88.028 E63.02856
G1 X90.227 Y88.872 E63.05344
G1 X106.808 Y105.453 E63.73568
G1 X106.453 Y105.808 E63.75025
G1 X90.355 Y89.709 E64.41264
G1 X90.483 Y90.546 E64.43727
G1 X105.745 Y105.808 E65.06522
G1 X105.036 Y105.808 E65.08584
G1 X90.612 Y91.383 E65.67935
G1 X90.740 Y92.220 E65.70398
G1 X104.328 Y105.808 E66.26307
G1 X103.619 Y105.808 E66.28368
G1 X90.868 Y93.057 E66.80833
G1 X90.996 Y93.894 E66.83296
G1 X102.910 Y105.808 E67.32318
G1 X102.202 Y105.808 E67.34379
G1 X91.125 Y94.731 E67.79957
G1 X91.253 Y95.567 E67.82420
G1 X101.493 Y105.808 E68.24555
G1 X100.785 Y105.808 E68.26616
G1 X91.381 Y96.404 E68.65308
G1 X91.510 Y97.241 E68.67771
G1 X100.076 Y105.808 E69.03018
G1 X99.367 Y105.808 E69.05080
G1 X91.638 Y98.078 E69.36884
G1 X91.787 Y98.936 E69.39418
G1 X98.659 Y105.808 E69.67692
G1 X97.950 Y105.808 E69.69754
G1 X92.011 Y99.869 E69.94191
G1 X92.347 Y100.913 E69.97381
G1 X97.242 Y105.808 E70.17522
G1 X96.533 Y105.808 E70.19584
G1 X92.864 Y102.138 E70.34681
G1 X93.782 Y103.766 E70.40117
G1 X95.824 Y105.808 E70.48520
M104 S188 ; set temperature
G1 F1680.000 E68.48520
G92 E0
G1 Z0.750 F12000.000
G1 X95.286 Y106.170
G1 F1680.000 E2.00000
G1 X94.833 Y105.701 F1440.000 E2.01262
G1 X94.341 Y105.133 E2.02716
G1 X93.879 Y104.540 E2.04171
G1 X93.451 Y103.923 E2.05625
G1 X93.055 Y103.284 E2.07080
G1 X92.695 Y102.625 E2.08534
G1 X92.370 Y101.947 E2.09989
G1 X92.083 Y101.253 E2.11443
G1 X91.832 Y100.545 E2.12897
G1 X91.620 Y99.824 E2.14352
G1 X91.447 Y99.092 E2.15806
G1 X91.313 Y98.350 E2.17267
G1 X89.767 Y88.267 E2.37012
G1 X89.665 Y87.720 E2.38089
G1 X89.525 Y87.177 E2.39174
G1 X89.349 Y86.645 E2.40259
G1 X89.139 Y86.125 E2.41344
G1 X88.894 Y85.621 E2.42429
G1 X88.616 Y85.134 E2.43514
G1 X88.306 Y84.667 E2.44598
G1 X87.966 Y84.221 E2.45683
G1 X87.597 Y83.800 E2.46768
G1 X87.244 Y83.447 E2.47734
G1 X86.779 Y83.034 E2.48938
G1 X86.333 Y82.694 E2.50023
G1 X85.866 Y82.384 E2.51108
G1 X85.379 Y82.106 E2.52193
G1 X84.875 Y81.861 E2.53278
G1 X84.355 Y81.651 E2.54363
G1 X83.823 Y81.475 E2.55448
G1 X83.280 Y81.335 E2.56533
G1 X82.733 Y81.233 E2.57610
G1 X72.650 Y79.687 E2.77354
G1 X71.908 Y79.553 E2.78815
G1 X71.176 Y79.380 E2.80270
G1 X70.455 Y79.168 E2.81724
G1 X69.747 Y78.917 E2.83179
G1 X69.053 Y78.630 E2.84633
G1 X68.375 Y78.305 E2.86088
G1 X67.716 Y77.945 E2.87542
G1 X67.077 Y77.549 E2.88996
G1 X66.460 Y77.121 E2.90451
G1 X65.867 Y76.659 E2.91905
G1 X65.299 Y76.167 E2.93360
G1 X64.830 Y75.714 E2.94622
G1 X64.830 Y63.830 E3.17624
G1 X107.170 Y63.830 E3.99576
G1 X107.170 Y106.170 E4.81529
G1 X95.361 Y106.170 E5.04386
G1 X106.808 Y105.675 F12000.000
G1 X106.675 Y105.808 F2400.000 E5.04749
G1 X105.967 Y105.808 E5.06124
G1 X106.808 Y104.967 E5.08430
G1 X106.808 Y104.258 E5.09805
G1 X105.258 Y105.808 E5.14056
G1 X104.549 Y105.808 E5.15430
G1 X106.808 Y103.549 E5.21624
G1 X106.808 Y102.841 E5.22999
G1 X103.841 Y105.808 E5.31137
G1 X103.132 Y105.808 E5.32511
G1 X106.808 Y102.132 E5.42593
G1 X106.808 Y101.424 E5.43968
G1 X102.424 Y105.808 E5.55993
G1 X101.715 Y105.808 E5.57368
G1 X106.808 Y100.715 E5.71337
G1 X106.808 Y100.006 E5.72711
G1 X101.006 Y105.808 E5.88624
G1 X100.298 Y105.808 E5.89999
G1 X106.808 Y99.298 E6.07856
G1 X106.808 Y98.589 E6.09230
G1 X99.589 Y105.808 E6.29031
G1 X98.881 Y105.808 E6.30405
G1 X106.808 Y97.881 E6.52149
G1 X106.808 Y97.172 E6.53524
G1 X98.172 Y105.808 E6.77212
G1 X97.463 Y105.808 E6.78586
G1 X106.808 Y96.463 E7.04218
G1 X106.808 Y95.755 E7.05592
G1 X96.755 Y105.808 E7.33168
G1 X96.046 Y105.808 E7.34542
G1 X106.808 Y95.046 E7.64062
G1 X106.808 Y94.338 E7.65436
G1 X95.390 Y105.756 E7.96756
G1 X95.045 Y105.392 E7.97729
G1 X106.808 Y93.629 E8.29995
G1 X106.808 Y92.921 E8.31370
G1 X94.716 Y105.013 E8.64539
G1 X94.400 Y104.619 E8.65517
G1 X106.808 Y92.212 E8.99552
G1 X106.808 Y91.503 E9.00926
G1 X94.095 Y104.216 E9.35797
G1 X93.805 Y103.798 E9.36785
G1 X106.808 Y90.795 E9.72453
G1 X106.808 Y90.086 E9.73828
G1 X93.530 Y103.363 E10.10248
G1 X93.268 Y102.917 E10.11252
G1 X106.808 Y89.378 E10.48393
G1 X106.808 Y88.669 E10.49767
G1 X93.017 Y102.459 E10.87595
G1 X92.788 Y101.980 E10.88625
G1 X106.808 Y87.960 E11.27083
G1 X106.808 Y87.252 E11.28457
G1 X92.572 Y101.487 E11.67507
G1 X92.370 Y100.980 E11.68565
G1 X106.808 Y86.543 E12.08167
G1 X106.808 Y85.835 E12.09542
G1 X92.186 Y100.457 E12.49651
G1 X92.023 Y99.910 E12.50757
G1 X106.808 Y85.126 E12.91311
G1 X106.808 Y84.417 E12.92686
G1 X91.879 Y99.346 E13.33635
G1 X91.755 Y98.761 E13.34794
G1 X106.808 Y83.709 E13.76084
G1 X106.808 Y83.000 E13.77458
G1 X91.650 Y98.158 E14.19037
G1 X91.556 Y97.543 E14.20242
G1 X106.808 Y82.292 E14.62079
G1 X106.808 Y81.583 E14.63454
G1 X91.462 Y96.929 E15.05549
G1 X91.368 Y96.315 E15.06755
G1 X106.808 Y80.874 E15.49108
G1 X106.808 Y80.166 E15.50483
G1 X91.273 Y95.700 E15.93095
G1 X91.179 Y95.086 E15.94300
G1 X106.808 Y79.457 E16.37171
G1 X106.808 Y78.749 E16.38545
G1 X91.085 Y94.471 E16.81674
G1 X90.991 Y93.857 E16.82879
G1 X106.808 Y78.040 E17.26266
G1 X106.808 Y77.331 E17.27641
G1 X90.897 Y93.242 E17.71286
G1 X90.802 Y92.628 E17.72492
G1 X106.808 Y76.623 E18.16395
G1 X106.808 Y75.914 E18.17770
G1 X90.708 Y92.014 E18.61932
G1 X90.614 Y91.399 E18.63137
G1 X106.808 Y75.206 E19.07558
G1 X106.808 Y74.497 E19.08932
G1 X90.520 Y90.785 E19.53611
G1 X90.426 Y90.170 E19.54816
G1 X106.808 Y73.788 E19.99753
G1 X106.808 Y73.080 E20.01128
G1 X90.332 Y89.556 E20.46323
G1 X90.237 Y88.941 E20.47529
G1 X106.808 Y72.371 E20.92982
G1 X106.808 Y71.663 E20.94357
G1 X90.143 Y88.327 E21.40069
G1 X90.035 Y87.727 E21.41252
G1 X106.808 Y70.954 E21.87261
G1 X106.808 Y70.245 E21.88636
G1 X89.894 Y87.159 E22.35030
G1 X89.723 Y86.621 E22.36124
G1 X106.808 Y69.537 E22.82988
G1 X106.808 Y68.828 E22.84362
G1 X89.524 Y86.112 E23.31773
G1 X89.300 Y85.628 E23.32808
G1 X106.808 Y68.120 E23.80833
G1 X106.808 Y67.411 E23.82208
G1 X89.052 Y85.167 E24.30914
G1 X88.780 Y84.730 E24.31912
G1 X106.808 Y66.702 E24.81363
G1 X106.808 Y65.994 E24.82738
G1 X88.490 Y84.311 E25.32984
G1 X88.179 Y83.914 E25.33963
G1 X106.808 Y65.285 E25.85064
G1 X106.808 Y64.577 E25.86438
G1 X87.847 Y83.537 E26.38449
G1 X87.493 Y83.183 E26.39421
G1 X106.483 Y64.192 E26.91514
G1 X105.775 Y64.192 E26.92888
G1 X87.118 Y82.849 E27.44066
G1 X86.723 Y82.536 E27.45044
G1 X105.066 Y64.192 E27.95361
G1 X104.358 Y64.192 E27.96736
G1 X86.308 Y82.242 E28.46248
G1 X85.869 Y81.972 E28.47247
G1 X103.649 Y64.192 E28.96018
G1 X102.940 Y64.192 E28.97393
G1 X85.413 Y81.720 E29.45472
G1 X84.931 Y81.493 E29.46505
G1 X102.232 Y64.192 E29.93963
G1 X101.523 Y64.192 E29.95337
G1 X84.424 Y81.292 E30.42243
G1 X83.889 Y81.118 E30.43333
G1 X100.815 Y64.192 E30.89761
G1 X100.106 Y64.192 E30.91136
G1 X83.324 Y80.975 E31.37171
G1 X82.725 Y80.865 E31.38352
G1 X99.397 Y64.192 E31.84086
G1 X98.689 Y64.192 E31.85460
G1 X82.111 Y80.771 E32.30936
G1 X81.496 Y80.676 E32.32141
G1 X97.980 Y64.192 E32.77358
G1 X97.272 Y64.192 E32.78733
G1 X80.882 Y80.582 E33.23692
G1 X80.267 Y80.488 E33.24897
G1 X96.563 Y64.192 E33.69598
G1 X95.854 Y64.192 E33.70972
G1 X79.653 Y80.394 E34.15414
G1 X79.038 Y80.300 E34.16620
G1 X95.146 Y64.192 E34.60804
G1 X94.437 Y64.192 E34.62178
G1 X78.424 Y80.206 E35.06104
G1 X77.810 Y80.111 E35.07310
G1 X93.729 Y64.192 E35.50977
G1 X93.020 Y64.192 E35.52351
G1 X77.195 Y80.017 E35.95760
G1 X76.581 Y79.923 E35.96966
G1 X92.311 Y64.192 E36.40116
G1 X91.603 Y64.192 E36.41491
G1 X75.966 Y79.829 E36.84383
G1 X75.352 Y79.735 E36.85588
G1 X90.894 Y64.192 E37.28222
G1 X90.186 Y64.192 E37.29597
G1 X74.738 Y79.640 E37.71972
G1 X74.123 Y79.546 E37.73178
G1 X89.477 Y64.192 E38.15295
G1 X88.768 Y64.192 E38.16669
G1 X73.509 Y79.452 E38.58528
G1 X72.894 Y79.358 E38.59734
G1 X88.060 Y64.192 E39.01334
G1 X87.351 Y64.192 E39.02709
G1 X72.290 Y79.254 E39.44023
G1 X71.703 Y79.132 E39.45186
G1 X86.643 Y64.192 E39.86167
G1 X85.934 Y64.192 E39.87541
G1 X71.136 Y78.990 E40.28133
G1 X70.589 Y78.829 E40.29240
G1 X85.225 Y64.192 E40.69390
G1 X84.517 Y64.192 E40.70765
G1 X70.064 Y78.645 E41.10410
G1 X69.555 Y78.446 E41.11470
G1 X83.808 Y64.192 E41.50568
G1 X83.100 Y64.192 E41.51943
