; generated by Slic3r 0.9.10b on 2013-11-08 at 15:12:39

; layer_height = 0.3
; perimeters = 3
; top_solid_layers = 2
; bottom_solid_layers = 2
; fill_density = 0.5
; perimeter_speed = 30
; infill_speed = 30
; travel_speed = 200
; nozzle_diameter = 0.5
; filament_diameter = 2.98
; extrusion_multiplier = 0.9
; perimeters extrusion width = 0.50mm
; infill extrusion width = 0.50mm
; solid infill extrusion width = 0.50mm
; top infill extrusion width = 0.50mm

G21 ; set units to millimeters
M107
M104 S190 ; set temperature
G28 ; home all axes
G1 Z15 F120 ; lift nozzle
M109 S190 ; wait for temperature to be reached
G90 ; use absolute coordinates
G92 E0
M82 ; use absolute distances for extrusion
G1 F1680.000 E-2.00000
G92 E0
G1 Z0.450 F12000.000
G1 X59.400 Y59.400
G1 F1680.000 E2.00000
G1 X60.390 Y58.600 F900.000 E2.03696
G1 X61.510 Y57.990 E2.07398
G1 X62.730 Y57.620 E2.11100
G1 X64.000 Y57.500 E2.14803
G1 X106.000 Y57.500 E3.36745
G1 X107.270 Y57.620 E3.40449
G1 X108.490 Y57.990 E3.44150
G1 X109.610 Y58.600 E3.47853
G1 X110.600 Y59.400 E3.51548
G1 X111.400 Y60.390 E3.55244
G1 X112.010 Y61.510 E3.58947
G1 X112.380 Y62.730 E3.62648
G1 X112.500 Y64.000 E3.66352
G1 X112.500 Y75.990 E4.01163
G1 X112.380 Y77.260 E4.04867
G1 X112.010 Y78.480 E4.08568
G1 X111.400 Y79.600 E4.12271
G1 X110.600 Y80.590 E4.15967
G1 X80.590 Y110.600 E5.39187
G1 X79.600 Y111.400 E5.42883
G1 X78.480 Y112.010 E5.46586
G1 X77.260 Y112.380 E5.50287
G1 X75.990 Y112.500 E5.53991
G1 X64.000 Y112.500 E5.88802
G1 X62.730 Y112.380 E5.92506
G1 X61.510 Y112.010 E5.96207
G1 X60.390 Y111.400 E5.99910
G1 X59.400 Y110.600 E6.03606
G1 X58.600 Y109.610 E6.07301
G1 X57.990 Y108.490 E6.11004
G1 X57.620 Y107.270 E6.14705
G1 X57.500 Y106.000 E6.18409
G1 X57.500 Y64.000 E7.40351
G1 X57.620 Y62.730 E7.44054
G1 X57.990 Y61.510 E7.47756
G1 X58.600 Y60.390 E7.51459
G1 X59.353 Y59.458 E7.54936
G1 F1680.000 E5.54936
G92 E0
G1 X65.250 Y65.250 F12000.000
G1 F1680.000 E2.00000
G1 X104.750 Y65.250 F900.000 E3.14683
G1 X104.750 Y75.470 E3.44354
G1 X104.101 Y76.046 E3.46876
G1 X103.561 Y76.465 E3.48858
G1 X103.001 Y76.855 E3.50841
G1 X102.420 Y77.214 E3.52823
G1 X101.821 Y77.542 E3.54806
G1 X101.205 Y77.837 E3.56789
G1 X100.574 Y78.098 E3.58771
G1 X99.930 Y78.326 E3.60754
G1 X99.275 Y78.518 E3.62736
G1 X98.611 Y78.676 E3.64719
G1 X97.922 Y78.800 E3.66750
G1 X88.034 Y80.316 E3.95795
G1 X87.448 Y80.426 E3.97525
G1 X86.851 Y80.579 E3.99315
G1 X86.266 Y80.773 E4.01105
G1 X85.694 Y81.004 E4.02895
G1 X85.140 Y81.274 E4.04685
G1 X84.604 Y81.579 E4.06476
G1 X84.090 Y81.920 E4.08266
G1 X83.600 Y82.294 E4.10056
G1 X83.136 Y82.700 E4.11846
G1 X82.700 Y83.136 E4.13636
G1 X82.294 Y83.600 E4.15426
G1 X81.920 Y84.090 E4.17216
G1 X81.579 Y84.604 E4.19007
G1 X81.274 Y85.140 E4.20797
G1 X81.004 Y85.694 E4.22587
G1 X80.773 Y86.266 E4.24377
G1 X80.579 Y86.851 E4.26167
G1 X80.426 Y87.448 E4.27957
G1 X80.316 Y88.034 E4.29687
G1 X78.800 Y97.922 E4.58732
G1 X78.676 Y98.611 E4.60763
G1 X78.518 Y99.275 E4.62746
G1 X78.326 Y99.930 E4.64729
G1 X78.098 Y100.574 E4.66711
G1 X77.837 Y101.205 E4.68694
G1 X77.542 Y101.821 E4.70676
G1 X77.214 Y102.420 E4.72659
G1 X76.855 Y103.001 E4.74641
G1 X76.465 Y103.561 E4.76624
G1 X76.046 Y104.101 E4.78606
G1 X75.470 Y104.750 E4.81128
G1 X65.250 Y104.750 E5.10799
G1 X65.250 Y65.325 E6.25264
G1 X64.750 Y105.250 F12000.000
G1 X64.750 Y64.750 F900.000 E7.42851
G1 X105.250 Y64.750 E8.60438
G1 X105.250 Y75.682 E8.92176
G1 X104.954 Y75.968 E8.93371
G1 X104.418 Y76.433 E8.95431
G1 X103.858 Y76.868 E8.97491
G1 X103.275 Y77.273 E8.99552
G1 X102.672 Y77.646 E9.01612
G1 X102.049 Y77.987 E9.03672
G1 X101.409 Y78.293 E9.05733
G1 X100.753 Y78.565 E9.07793
G1 X100.084 Y78.802 E9.09853
G1 X99.403 Y79.002 E9.11914
G1 X98.713 Y79.165 E9.13974
G1 X98.005 Y79.293 E9.16064
G1 X88.118 Y80.809 E9.45104
G1 X87.557 Y80.914 E9.46761
G1 X86.992 Y81.059 E9.48455
G1 X86.438 Y81.242 E9.50148
G1 X85.898 Y81.461 E9.51841
G1 X85.373 Y81.716 E9.53535
G1 X84.867 Y82.005 E9.55228
G1 X84.380 Y82.328 E9.56921
G1 X83.917 Y82.682 E9.58615
G1 X83.478 Y83.066 E9.60308
G1 X83.066 Y83.478 E9.62001
G1 X82.711 Y83.883 E9.63564
G1 X82.328 Y84.381 E9.65388
G1 X82.005 Y84.867 E9.67081
G1 X81.716 Y85.373 E9.68774
G1 X81.461 Y85.898 E9.70468
G1 X81.242 Y86.438 E9.72161
G1 X81.059 Y86.992 E9.73854
G1 X80.914 Y87.557 E9.75548
G1 X80.809 Y88.118 E9.77204
G1 X79.293 Y98.005 E10.06245
G1 X79.165 Y98.713 E10.08335
G1 X79.002 Y99.404 E10.10395
G1 X78.802 Y100.084 E10.12456
G1 X78.565 Y100.753 E10.14516
G1 X78.293 Y101.409 E10.16576
G1 X77.987 Y102.049 E10.18636
G1 X77.646 Y102.672 E10.20697
G1 X77.273 Y103.275 E10.22757
G1 X76.868 Y103.858 E10.24817
G1 X76.433 Y104.418 E10.26878
G1 X75.968 Y104.954 E10.28938
G1 X75.682 Y105.250 E10.30133
G1 X64.825 Y105.250 E10.61654
G1 X64.250 Y105.750 F12000.000
G1 X64.250 Y64.250 F720.000 E11.82144
G1 X105.750 Y64.250 E13.02634
G1 X105.750 Y75.894 E13.36440
G1 X105.292 Y76.336 E13.38290
G1 X104.736 Y76.819 E13.40428
G1 X104.154 Y77.271 E13.42566
G1 X103.549 Y77.691 E13.44704
G1 X102.923 Y78.079 E13.46842
G1 X102.277 Y78.432 E13.48980
G1 X101.613 Y78.750 E13.51118
G1 X100.933 Y79.032 E13.53256
G1 X100.238 Y79.277 E13.55394
G1 X99.532 Y79.485 E13.57533
G1 X98.815 Y79.655 E13.59671
G1 X98.087 Y79.786 E13.61818
G1 X88.202 Y81.302 E13.90855
G1 X87.665 Y81.402 E13.92439
G1 X87.133 Y81.539 E13.94035
G1 X86.611 Y81.712 E13.95632
G1 X86.101 Y81.919 E13.97228
G1 X85.607 Y82.159 E13.98825
G1 X85.129 Y82.431 E14.00421
G1 X84.671 Y82.735 E14.02018
G1 X84.234 Y83.069 E14.03615
G1 X83.820 Y83.431 E14.05211
G1 X83.431 Y83.820 E14.06808
G1 X83.088 Y84.212 E14.08322
G1 X82.735 Y84.671 E14.10000
G1 X82.431 Y85.129 E14.11597
G1 X82.159 Y85.607 E14.13193
G1 X81.919 Y86.101 E14.14790
G1 X81.712 Y86.611 E14.16386
G1 X81.539 Y87.133 E14.17983
G1 X81.402 Y87.665 E14.19579
G1 X81.302 Y88.202 E14.21164
G1 X79.786 Y98.087 E14.50200
G1 X79.655 Y98.815 E14.52348
G1 X79.485 Y99.532 E14.54486
G1 X79.277 Y100.238 E14.56624
G1 X79.032 Y100.933 E14.58762
G1 X78.750 Y101.613 E14.60900
G1 X78.441 Y102.258 E14.62976
G1 X78.079 Y102.923 E14.65176
G1 X77.691 Y103.549 E14.67314
G1 X77.271 Y104.154 E14.69452
G1 X76.819 Y104.736 E14.71591
G1 X76.336 Y105.292 E14.73729
G1 X75.894 Y105.750 E14.75578
G1 X64.325 Y105.750 E15.09167
G1 X64.500 Y105.317 F12000.000
G1 X66.204 Y104.388
G1 X65.612 Y103.796 F1200.000 E15.11596
G1 X65.612 Y103.089 E15.13649
G1 X66.911 Y104.388 E15.18981
G1 X67.618 Y104.388 E15.21033
G1 X65.612 Y102.382 E15.29269
G1 X65.612 Y101.675 E15.31322
G1 X68.325 Y104.388 E15.42461
G1 X69.032 Y104.388 E15.44514
G1 X65.612 Y100.968 E15.58556
G1 X65.612 Y100.261 E15.60609
G1 X69.739 Y104.388 E15.77554
G1 X70.446 Y104.388 E15.79607
G1 X65.612 Y99.554 E15.99456
G1 X65.612 Y98.846 E16.01509
G1 X71.154 Y104.388 E16.24261
G1 X71.861 Y104.388 E16.26314
G1 X65.612 Y98.139 E16.51970
G1 X65.612 Y97.432 E16.54023
G1 X72.568 Y104.388 E16.82581
G1 X73.275 Y104.388 E16.84634
G1 X65.612 Y96.725 E17.16097
G1 X65.612 Y96.018 E17.18150
G1 X73.982 Y104.388 E17.52515
G1 X74.689 Y104.388 E17.54568
G1 X65.612 Y95.311 E17.91837
G1 X65.612 Y94.604 E17.93890
G1 X75.354 Y104.345 E18.33889
G1 X75.682 Y103.967 E18.35345
G1 X65.612 Y93.897 E18.76692
G1 X65.612 Y93.190 E18.78745
G1 X75.997 Y103.574 E19.21383
G1 X76.298 Y103.168 E19.22850
G1 X65.612 Y92.482 E19.66724
G1 X65.612 Y91.775 E19.68777
G1 X76.585 Y102.748 E20.13831
G1 X76.855 Y102.311 E20.15322
G1 X65.612 Y91.068 E20.61486
G1 X65.612 Y90.361 E20.63539
G1 X77.109 Y101.857 E21.10742
G1 X77.347 Y101.389 E21.12269
G1 X65.612 Y89.654 E21.60451
G1 X65.612 Y88.947 E21.62504
G1 X77.569 Y100.904 E22.11599
G1 X77.775 Y100.402 E22.13172
G1 X65.612 Y88.240 E22.63111
G1 X65.612 Y87.533 E22.65164
G1 X77.959 Y99.880 E23.15860
G1 X78.123 Y99.336 E23.17508
G1 X65.612 Y86.826 E23.68875
G1 X65.612 Y86.118 E23.70928
G1 X78.265 Y98.771 E24.22881
G1 X78.385 Y98.184 E24.24622
G1 X65.612 Y85.411 E24.77064
G1 X65.612 Y84.704 E24.79117
G1 X78.486 Y97.578 E25.31977
G1 X78.580 Y96.965 E25.33778
G1 X65.612 Y83.997 E25.87024
G1 X65.612 Y83.290 E25.89077
G1 X78.674 Y96.352 E26.42708
G1 X78.768 Y95.739 E26.44509
G1 X65.612 Y82.583 E26.98527
G1 X65.612 Y81.876 E27.00580
G1 X78.862 Y95.126 E27.54983
G1 X78.956 Y94.512 E27.56784
G1 X65.612 Y81.169 E28.11573
G1 X65.612 Y80.462 E28.13626
G1 X79.050 Y93.899 E28.68801
G1 X79.144 Y93.286 E28.70602
G1 X65.612 Y79.755 E29.26163
G1 X65.612 Y79.047 E29.28216
G1 X79.238 Y92.673 E29.84163
G1 X79.332 Y92.060 E29.85964
G1 X65.612 Y78.340 E30.42297
G1 X65.612 Y77.633 E30.44350
G1 X79.426 Y91.447 E31.01068
G1 X79.520 Y90.834 E31.02869
G1 X65.612 Y76.926 E31.59974
G1 X65.612 Y76.219 E31.62027
G1 X79.614 Y90.221 E32.19517
G1 X79.708 Y89.607 E32.21318
G1 X65.612 Y75.512 E32.79194
G1 X65.612 Y74.805 E32.81247
G1 X79.802 Y88.994 E33.39509
G1 X79.896 Y88.381 E33.41310
G1 X65.612 Y74.098 E33.99958
G1 X65.612 Y73.391 E34.02011
G1 X79.996 Y87.774 E34.61070
G1 X80.118 Y87.189 E34.62804
G1 X65.612 Y72.683 E35.22365
G1 X65.612 Y71.976 E35.24418
G1 X80.270 Y86.634 E35.84600
G1 X80.447 Y86.104 E35.86222
G1 X65.612 Y71.269 E36.47133
G1 X65.612 Y70.562 E36.49186
G1 X80.651 Y85.601 E37.10935
G1 X80.879 Y85.122 E37.12476
G1 X65.612 Y69.855 E37.75162
G1 X65.612 Y69.148 E37.77215
G1 X81.128 Y84.664 E38.40923
G1 X81.396 Y84.225 E38.42416
G1 X65.612 Y68.441 E39.07225
G1 X65.612 Y67.734 E39.09278
G1 X81.683 Y83.804 E39.75263
G1 X81.989 Y83.403 E39.76727
G1 X65.612 Y67.027 E40.43969
G1 X65.612 Y66.319 E40.46022
G1 X82.317 Y83.024 E41.14611
G1 X82.662 Y82.662 E41.16063
G1 X65.612 Y65.612 E41.86068
G1 X66.319 Y65.612 E41.88121
G1 X83.024 Y82.317 E42.56710
G1 X83.403 Y81.989 E42.58166
G1 X67.027 Y65.612 E43.25407
G1 X67.734 Y65.612 E43.27460
G1 X83.804 Y81.683 E43.93445
G1 X84.225 Y81.396 E43.94923
G1 X68.441 Y65.612 E44.59731
G1 X69.148 Y65.612 E44.61784
G1 X84.664 Y81.128 E45.25492
G1 X85.122 Y80.879 E45.27006
G1 X69.855 Y65.612 E45.89693
G1 X70.562 Y65.612 E45.91746
G1 X85.601 Y80.651 E46.53495
G1 X86.104 Y80.447 E46.55071
G1 X71.269 Y65.612 E47.15982
G1 X71.976 Y65.612 E47.18035
G1 X86.634 Y80.270 E47.78218
G1 X87.189 Y80.118 E47.79890
G1 X72.683 Y65.612 E48.39450
G1 X73.391 Y65.612 E48.41503
G1 X87.774 Y79.996 E49.00561
G1 X88.381 Y79.896 E49.02348
G1 X74.098 Y65.612 E49.60996
G1 X74.805 Y65.612 E49.63049
G1 X88.994 Y79.802 E50.21311
G1 X89.607 Y79.708 E50.23112
G1 X75.512 Y65.612 E50.80988
G1 X76.219 Y65.612 E50.83041
G1 X90.221 Y79.614 E51.40532
G1 X90.834 Y79.520 E51.42333
G1 X76.926 Y65.612 E51.99437
G1 X77.633 Y65.612 E52.01490
G1 X91.447 Y79.426 E52.58209
G1 X92.060 Y79.332 E52.60010
G1 X78.340 Y65.612 E53.16342
G1 X79.047 Y65.612 E53.18395
G1 X92.673 Y79.238 E53.74342
G1 X93.286 Y79.144 E53.76143
G1 X79.755 Y65.612 E54.31704
G1 X80.462 Y65.612 E54.33757
G1 X93.899 Y79.050 E54.88932
G1 X94.512 Y78.956 E54.90733
G1 X81.169 Y65.612 E55.45522
G1 X81.876 Y65.612 E55.47575
G1 X95.126 Y78.862 E56.01979
G1 X95.739 Y78.768 E56.03780
G1 X82.583 Y65.612 E56.57797
G1 X83.290 Y65.612 E56.59850
G1 X96.352 Y78.674 E57.13482
G1 X96.965 Y78.580 E57.15283
G1 X83.997 Y65.612 E57.68528
G1 X84.704 Y65.612 E57.70581
G1 X97.578 Y78.486 E58.23441
G1 X98.184 Y78.385 E58.25224
G1 X85.411 Y65.612 E58.77666
G1 X86.118 Y65.612 E58.79719
G1 X98.771 Y78.265 E59.31671
G1 X99.336 Y78.123 E59.33362
G1 X86.826 Y65.612 E59.84729
G1 X87.533 Y65.612 E59.86782
G1 X99.880 Y77.959 E60.37479
G1 X100.402 Y77.775 E60.39088
G1 X88.240 Y65.612 E60.89026
G1 X88.947 Y65.612 E60.91079
G1 X100.904 Y77.569 E61.40174
G1 X101.389 Y77.347 E61.41722
G1 X89.654 Y65.612 E61.89904
G1 X90.361 Y65.612 E61.91957
G1 X101.857 Y77.109 E62.39160
G1 X102.311 Y76.855 E62.40669
G1 X91.068 Y65.612 E62.86833
G1 X91.775 Y65.612 E62.88886
G1 X102.748 Y76.585 E63.33940
G1 X103.168 Y76.298 E63.35416
G1 X92.482 Y65.612 E63.79290
G1 X93.190 Y65.612 E63.81343
G1 X103.574 Y75.997 E64.23980
G1 X103.967 Y75.682 E64.25441
G1 X93.897 Y65.612 E64.66788
G1 X94.604 Y65.612 E64.68841
G1 X104.345 Y75.354 E65.08840
G1 X104.388 Y74.689 E65.10774
G1 X95.311 Y65.612 E65.48043
G1 X96.018 Y65.612 E65.50096
G1 X104.388 Y73.982 E65.84462
G1 X104.388 Y73.275 E65.86515
G1 X96.725 Y65.612 E66.17977
G1 X97.432 Y65.612 E66.20030
G1 X104.388 Y72.568 E66.48589
G1 X104.388 Y71.861 E66.50642
G1 X98.139 Y65.612 E66.76298
G1 X98.846 Y65.612 E66.78351
G1 X104.388 Y71.154 E67.01103
G1 X104.388 Y70.446 E67.03156
G1 X99.554 Y65.612 E67.23005
G1 X100.261 Y65.612 E67.25058
G1 X104.388 Y69.739 E67.42003
G1 X104.388 Y69.032 E67.44056
G1 X100.968 Y65.612 E67.58098
G1 X101.675 Y65.612 E67.60151
G1 X104.388 Y68.325 E67.71290
G1 X104.388 Y67.618 E67.73343
G1 X102.382 Y65.612 E67.81578
G1 X103.089 Y65.612 E67.83631
G1 X104.388 Y66.911 E67.88963
G1 X104.388 Y66.204 E67.91016
G1 X103.796 Y65.612 E67.93445
M104 S185 ; set temperature
G1 F1680.000 E65.93445
G92 E0
G1 Z0.750 F12000.000
G1 X104.750 Y65.250
G1 F1680.000 E2.00000
G1 X104.750 Y75.470 F1800.000 E2.19781
G1 X104.101 Y76.046 E2.21462
G1 X103.561 Y76.465 E2.22783
G1 X103.001 Y76.855 E2.24105
G1 X102.420 Y77.214 E2.25427
G1 X101.821 Y77.542 E2.26748
G1 X101.205 Y77.837 E2.28070
G1 X100.574 Y78.098 E2.29392
G1 X99.930 Y78.326 E2.30714
G1 X99.275 Y78.518 E2.32035
G1 X98.611 Y78.676 E2.33357
G1 X97.922 Y78.800 E2.34711
G1 X88.034 Y80.316 E2.54075
G1 X87.448 Y80.426 E2.55228
G1 X86.851 Y80.579 E2.56421
G1 X86.266 Y80.773 E2.57615
G1 X85.694 Y81.004 E2.58808
G1 X85.140 Y81.274 E2.60002
G1 X84.604 Y81.579 E2.61195
G1 X84.090 Y81.920 E2.62388
G1 X83.600 Y82.294 E2.63582
G1 X83.136 Y82.700 E2.64775
G1 X82.700 Y83.136 E2.65969
G1 X82.357 Y83.529 E2.66978
G1 X81.920 Y84.090 E2.68355
G1 X81.579 Y84.604 E2.69549
G1 X81.274 Y85.140 E2.70742
G1 X81.004 Y85.694 E2.71935
G1 X80.773 Y86.266 E2.73129
G1 X80.579 Y86.851 E2.74322
G1 X80.426 Y87.448 E2.75516
G1 X80.316 Y88.034 E2.76669
G1 X78.800 Y97.922 E2.96032
G1 X78.676 Y98.611 E2.97387
G1 X78.518 Y99.275 E2.98708
G1 X78.326 Y99.930 E3.00030
G1 X78.098 Y100.574 E3.01352
G1 X77.837 Y101.205 E3.02673
G1 X77.542 Y101.821 E3.03995
G1 X77.214 Y102.420 E3.05317
G1 X76.855 Y103.001 E3.06638
G1 X76.465 Y103.561 E3.07960
G1 X76.046 Y104.101 E3.09282
G1 X75.470 Y104.750 E3.10963
G1 X65.250 Y104.750 E3.30744
G1 X65.250 Y65.250 E4.07199
G1 X104.675 Y65.250 E4.83509
G1 F1680.000 E2.83509
G92 E0
G1 X64.750 Y105.250 F12000.000
G1 F1680.000 E2.00000
G1 X64.750 Y64.750 F1800.000 E2.78391
G1 X105.250 Y64.750 E3.56782
G1 X105.250 Y75.682 E3.77941
G1 X104.954 Y75.968 E3.78738
G1 X104.418 Y76.433 E3.80111
G1 X103.858 Y76.868 E3.81485
G1 X103.275 Y77.273 E3.82858
G1 X102.672 Y77.646 E3.84232
G1 X102.049 Y77.987 E3.85605
G1 X101.409 Y78.293 E3.86979
G1 X100.753 Y78.565 E3.88352
G1 X100.084 Y78.802 E3.89726
G1 X99.403 Y79.002 E3.91100
G1 X98.713 Y79.165 E3.92473
G1 X98.005 Y79.293 E3.93866
G1 X88.118 Y80.809 E4.13227
G1 X87.557 Y80.914 E4.14331
G1 X86.992 Y81.059 E4.15460
G1 X86.438 Y81.242 E4.16589
G1 X85.898 Y81.461 E4.17718
G1 X85.373 Y81.716 E4.18847
G1 X84.935 Y81.967 E4.19824
G1 X84.381 Y82.328 E4.21104
G1 X83.917 Y82.682 E4.22233
G1 X83.478 Y83.066 E4.23362
G1 X83.121 Y83.423 E4.24339
G1 X82.682 Y83.917 E4.25620
G1 X82.328 Y84.381 E4.26748
G1 X82.005 Y84.867 E4.27877
G1 X81.716 Y85.373 E4.29006
G1 X81.461 Y85.898 E4.30135
G1 X81.242 Y86.438 E4.31264
G1 X81.059 Y86.992 E4.32393
G1 X80.914 Y87.557 E4.33522
G1 X80.809 Y88.118 E4.34626
G1 X79.293 Y98.005 E4.53987
G1 X79.165 Y98.713 E4.55380
G1 X79.002 Y99.403 E4.56753
G1 X78.802 Y100.084 E4.58127
G1 X78.565 Y100.753 E4.59501
G1 X78.293 Y101.409 E4.60874
G1 X77.987 Y102.049 E4.62248
G1 X77.646 Y102.672 E4.63621
G1 X77.273 Y103.275 E4.64995
G1 X76.868 Y103.858 E4.66368
G1 X76.433 Y104.418 E4.67742
G1 X75.968 Y104.954 E4.69115
G1 X75.682 Y105.250 E4.69912
G1 X64.825 Y105.250 E4.90926
G1 X64.250 Y105.750 F12000.000
G1 X64.250 Y64.250 F1440.000 E5.71252
G1 X105.750 Y64.250 E6.51579
G1 X105.750 Y75.894 E6.74117
G1 X105.292 Y76.336 E6.75350
G1 X104.736 Y76.819 E6.76775
G1 X104.154 Y77.271 E6.78201
G1 X103.549 Y77.691 E6.79626
G1 X102.923 Y78.079 E6.81051
G1 X102.277 Y78.432 E6.82477
G1 X101.613 Y78.750 E6.83902
G1 X100.933 Y79.032 E6.85328
G1 X100.238 Y79.277 E6.86753
G1 X99.532 Y79.485 E6.88178
