; generated by Slic3r 0.9.10b on 2013-11-08 at 16:48:30

; layer_height = 0.3
; perimeters = 1
; top_solid_layers = 2
; bottom_solid_layers = 2
; fill_density = 0.2
; perimeter_speed = 30
; infill_speed = 30
; travel_speed = 200
; nozzle_diameter = 0.5
; filament_diameter = 2.98
; extrusion_multiplier = 0.9
; perimeters extrusion width = 0.50mm
; infill extrusion width = 0.50mm
; solid infill extrusion width = 0.50mm
; top infill extrusion width = 0.50mm

G21 ; set units to millimeters
M107
M104 S190 ; set temperature
G28 ; home all axes
G1 Z15 F120 ; lift nozzle
M109 S190 ; wait for temperature to be reached
G90 ; use absolute coordinates
G92 E0
M82 ; use absolute distances for extrusion
G1 F1680.000 E-2.00000
G92 E0
G1 Z0.450 F12000.000
G1 X22.010 Y53.990
G1 F1680.000 E2.00000
G1 X23.230 Y53.620 F900.000 E2.03701
G1 X24.500 Y53.500 E2.07405
G1 X145.500 Y53.500 E5.58713
G1 X146.770 Y53.620 E5.62417
G1 X147.990 Y53.990 E5.66118
G1 X149.110 Y54.600 E5.69821
G1 X150.100 Y55.400 E5.73517
G1 X150.900 Y56.390 E5.77212
G1 X151.510 Y57.510 E5.80915
G1 X151.880 Y58.730 E5.84616
G1 X152.000 Y60.000 E5.88320
G1 X152.000 Y110.000 E7.33489
G1 X151.880 Y111.270 E7.37192
G1 X151.510 Y112.490 E7.40894
G1 X150.900 Y113.610 E7.44596
G1 X150.100 Y114.600 E7.48292
G1 X149.110 Y115.400 E7.51987
G1 X147.990 Y116.010 E7.55690
G1 X146.770 Y116.380 E7.59392
G1 X145.500 Y116.500 E7.63095
G1 X31.500 Y116.500 E10.94080
G1 X30.200 Y116.370 E10.97873
G1 X28.960 Y115.980 E11.01647
G1 X27.820 Y115.360 E11.05415
G1 X26.820 Y114.510 E11.09225
G1 X26.020 Y113.490 E11.12989
G1 X25.430 Y112.330 E11.16767
G1 X25.090 Y111.070 E11.20556
G1 X18.090 Y69.070 E12.44180
G1 X18.000 Y68.000 E12.47298
G1 X18.000 Y60.000 E12.70525
G1 X18.120 Y58.730 E12.74228
G1 X18.490 Y57.510 E12.77930
G1 X19.100 Y56.390 E12.81633
G1 X19.900 Y55.400 E12.85328
G1 X20.890 Y54.600 E12.89024
G1 X21.944 Y54.026 E12.92509
G1 F1680.000 E10.92509
G92 E0
G1 X46.250 Y64.450 F12000.000
G1 F1680.000 E2.00000
G1 X59.211 Y64.450 F720.000 E2.37631
G1 X59.500 Y64.161 E2.38817
G1 X64.096 Y68.757 E2.57689
G1 X59.604 Y73.250 E2.76136
G1 X46.250 Y73.250 E3.14906
G1 X46.250 Y64.525 E3.40238
G1 X76.250 Y64.450 F12000.000
G1 X89.211 Y64.450 F720.000 E3.77869
G1 X89.500 Y64.161 E3.79055
G1 X94.096 Y68.757 E3.97927
G1 X89.604 Y73.250 E4.16374
G1 X76.250 Y73.250 E4.55144
G1 X76.250 Y64.525 E4.80476
G1 F1680.000 E2.80476
G92 E0
G1 X31.750 Y67.750 F12000.000
G1 F1680.000 E2.00000
G1 X24.750 Y67.750 F720.000 E2.20324
G1 X24.750 Y60.250 E2.42099
G1 X145.250 Y60.250 E5.91955
G1 X145.250 Y109.750 E7.35672
G1 X31.750 Y109.750 E10.65205
G1 X31.750 Y67.825 E11.86929
G1 X31.888 Y67.388 F12000.000
G1 X25.112 Y60.612 F1200.000 E12.14748
G1 X25.112 Y61.319 E12.16801
G1 X31.181 Y67.388 E12.41716
G1 X30.473 Y67.388 E12.43769
G1 X25.112 Y62.027 E12.65782
G1 X25.112 Y62.734 E12.67835
G1 X29.766 Y67.388 E12.86944
G1 X29.059 Y67.388 E12.88997
G1 X25.112 Y63.441 E13.05202
G1 X25.112 Y64.148 E13.07255
G1 X28.352 Y67.388 E13.20557
G1 X27.645 Y67.388 E13.22610
G1 X25.112 Y64.855 E13.33009
G1 X25.112 Y65.562 E13.35062
G1 X26.938 Y67.388 E13.42558
G1 X26.231 Y67.388 E13.44611
G1 X25.112 Y66.269 E13.49203
G1 X25.112 Y66.976 E13.51256
G1 X25.524 Y67.388 E13.52944
G1 F1680.000 E11.52944
G92 E0
G1 X45.888 Y73.609 F12000.000
G1 F1680.000 E2.00000
G1 X32.891 Y60.612 F1200.000 E2.53366
G1 X33.598 Y60.612 E2.55419
G1 X45.888 Y72.902 E3.05881
G1 X45.888 Y72.195 E3.07934
G1 X34.305 Y60.612 E3.55493
G1 X35.012 Y60.612 E3.57546
G1 X45.888 Y71.488 E4.02202
G1 X45.888 Y70.781 E4.04255
G1 X35.719 Y60.612 E4.46007
G1 X36.426 Y60.612 E4.48060
G1 X45.888 Y70.074 E4.86909
G1 X45.888 Y69.367 E4.88962
G1 X37.133 Y60.612 E5.24908
G1 X37.840 Y60.612 E5.26961
G1 X45.888 Y68.660 E5.60003
G1 X45.888 Y67.953 E5.62056
G1 X38.547 Y60.612 E5.92195
G1 X39.255 Y60.612 E5.94248
G1 X45.888 Y67.245 E6.21483
G1 X45.888 Y66.538 E6.23536
G1 X39.962 Y60.612 E6.47868
G1 X40.669 Y60.612 E6.49921
G1 X45.888 Y65.831 E6.71350
G1 X45.888 Y65.124 E6.73403
G1 X41.376 Y60.612 E6.91928
G1 X42.083 Y60.612 E6.93981
G1 X45.888 Y64.417 E7.09603
G1 X46.265 Y64.088 E7.11058
G1 X42.790 Y60.612 E7.25327
G1 X43.497 Y60.612 E7.27380
G1 X46.972 Y64.088 E7.41650
G1 X47.680 Y64.088 E7.43703
G1 X44.204 Y60.612 E7.57972
G1 X44.911 Y60.612 E7.60025
G1 X48.387 Y64.088 E7.74294
G1 X49.094 Y64.088 E7.76347
G1 X45.618 Y60.612 E7.90616
G1 X46.326 Y60.612 E7.92669
G1 X49.801 Y64.088 E8.06939
G1 X50.508 Y64.088 E8.08992
G1 X47.033 Y60.612 E8.23261
G1 X47.740 Y60.612 E8.25314
G1 X51.215 Y64.088 E8.39583
G1 X51.922 Y64.088 E8.41636
G1 X48.447 Y60.612 E8.55906
G1 X49.154 Y60.612 E8.57959
G1 X52.629 Y64.088 E8.72228
G1 X53.336 Y64.088 E8.74281
G1 X49.861 Y60.612 E8.88550
G1 X50.568 Y60.612 E8.90603
G1 X54.043 Y64.088 E9.04872
G1 X54.751 Y64.088 E9.06925
G1 X51.275 Y60.612 E9.21195
G1 X51.982 Y60.612 E9.23248
G1 X55.458 Y64.088 E9.37517
G1 X56.165 Y64.088 E9.39570
G1 X52.690 Y60.612 E9.53839
G1 X53.397 Y60.612 E9.55892
G1 X56.872 Y64.088 E9.70162
G1 X57.579 Y64.088 E9.72215
G1 X54.104 Y60.612 E9.86484
G1 X54.811 Y60.612 E9.88537
G1 X58.286 Y64.088 E10.02806
G1 X58.993 Y64.088 E10.04859
G1 X55.518 Y60.612 E10.19128
G1 X56.225 Y60.612 E10.21181
G1 X59.381 Y63.768 E10.34138
G1 X59.054 Y60.612 F12000.000
G1 X107.829 Y109.388 F1200.000 E12.34409
G1 X108.536 Y109.388 E12.36462
G1 X59.761 Y60.612 E14.36732
G1 X60.468 Y60.612 E14.38785
G1 X109.243 Y109.388 E16.39056
G1 X109.950 Y109.388 E16.41109
G1 X61.175 Y60.612 E18.41379
G1 X61.882 Y60.612 E18.43432
G1 X110.657 Y109.388 E20.43703
G1 X111.364 Y109.388 E20.45756
G1 X62.589 Y60.612 E22.46026
G1 X63.296 Y60.612 E22.48079
G1 X75.888 Y73.204 E22.99780
G1 X76.296 Y73.612 F12000.000
G1 X112.071 Y109.388 F1200.000 E24.46673
G1 X112.778 Y109.388 E24.48726
G1 X77.003 Y73.612 E25.95618
G1 X77.710 Y73.612 E25.97671
G1 X113.486 Y109.388 E27.44564
G1 X114.193 Y109.388 E27.46617
G1 X78.417 Y73.612 E28.93510
G1 X79.125 Y73.612 E28.95563
G1 X114.900 Y109.388 E30.42455
G1 X115.607 Y109.388 E30.44508
G1 X79.832 Y73.612 E31.91401
G1 X80.539 Y73.612 E31.93454
G1 X116.314 Y109.388 E33.40347
G1 X117.021 Y109.388 E33.42400
G1 X81.246 Y73.612 E34.89292
G1 X81.953 Y73.612 E34.91345
G1 X117.728 Y109.388 E36.38238
G1 X118.435 Y109.388 E36.40291
G1 X82.660 Y73.612 E37.87184
G1 X83.367 Y73.612 E37.89237
G1 X119.142 Y109.388 E39.36129
G1 X119.850 Y109.388 E39.38182
G1 X84.074 Y73.612 E40.85075
G1 X84.781 Y73.612 E40.87128
G1 X120.557 Y109.388 E42.34021
G1 X121.264 Y109.388 E42.36074
G1 X85.489 Y73.612 E43.82966
G1 X86.196 Y73.612 E43.85019
G1 X121.971 Y109.388 E45.31912
G1 X122.678 Y109.388 E45.33965
G1 X86.903 Y73.612 E46.80858
G1 X87.610 Y73.612 E46.82911
G1 X123.385 Y109.388 E48.29803
G1 X124.092 Y109.388 E48.31856
G1 X88.317 Y73.612 E49.78749
G1 X89.024 Y73.612 E49.80802
G1 X124.799 Y109.388 E51.27695
G1 X125.506 Y109.388 E51.29748
G1 X89.731 Y73.612 E52.76641
G1 X90.096 Y73.270 E52.78093
G1 X126.214 Y109.388 E54.26391
G1 X126.921 Y109.388 E54.28444
G1 X90.450 Y72.917 E55.78194
G1 X90.803 Y72.563 E55.79646
G1 X127.628 Y109.388 E57.30847
G1 X128.335 Y109.388 E57.32900
G1 X91.157 Y72.209 E58.85554
G1 X91.510 Y71.856 E58.87005
G1 X129.042 Y109.388 E60.41110
G1 X129.749 Y109.388 E60.43163
G1 X91.864 Y71.502 E61.98720
G1 X92.217 Y71.149 E62.00172
G1 X130.456 Y109.388 E63.57180
G1 X131.163 Y109.388 E63.59233
G1 X92.571 Y70.795 E65.17693
G1 X92.924 Y70.442 E65.19145
G1 X131.870 Y109.388 E66.79056
G1 X132.577 Y109.388 E66.81109
G1 X93.278 Y70.088 E68.42473
G1 X93.632 Y69.735 E68.43924
G1 X133.285 Y109.388 E70.06739
G1 X133.992 Y109.388 E70.08792
G1 X93.985 Y69.381 E71.73059
G1 X94.339 Y69.027 E71.74511
G1 X134.699 Y109.388 E73.40229
G1 X135.406 Y109.388 E73.42282
G1 X86.631 Y60.612 E75.42553
G1 X87.338 Y60.612 E75.44606
G1 X136.113 Y109.388 E77.44876
G1 X136.820 Y109.388 E77.46929
G1 X88.045 Y60.612 E79.47200
G1 X88.752 Y60.612 E79.49253
G1 X137.527 Y109.388 E81.49523
G1 X138.234 Y109.388 E81.51576
G1 X89.459 Y60.612 E83.51847
G1 X90.166 Y60.612 E83.53900
G1 X138.941 Y109.388 E85.54170
G1 X139.649 Y109.388 E85.56223
G1 X90.873 Y60.612 E87.56494
G1 X91.580 Y60.612 E87.58547
G1 X140.356 Y109.388 E89.58817
G1 X141.063 Y109.388 E89.60870
G1 X92.288 Y60.612 E91.61141
G1 X92.995 Y60.612 E91.63194
G1 X141.770 Y109.388 E93.63464
G1 X142.477 Y109.388 E93.65517
G1 X93.702 Y60.612 E95.65788
G1 X94.409 Y60.612 E95.67841
G1 X143.184 Y109.388 E97.68111
G1 X143.891 Y109.388 E97.70164
G1 X95.116 Y60.612 E99.70435
G1 X95.823 Y60.612 E99.72488
G1 X144.598 Y109.388 E101.72758
G1 X144.888 Y108.970 E101.74234
G1 X96.530 Y60.612 E103.72789
G1 X97.237 Y60.612 E103.74842
G1 X144.888 Y108.263 E105.70494
G1 X144.888 Y107.556 E105.72547
G1 X97.944 Y60.612 E107.65295
G1 X98.651 Y60.612 E107.67348
G1 X144.888 Y106.849 E109.57193
G1 X144.888 Y106.141 E109.59246
G1 X99.359 Y60.612 E111.46187
G1 X100.066 Y60.612 E111.48240
G1 X144.888 Y105.434 E113.32279
G1 X144.888 Y104.727 E113.34332
G1 X100.773 Y60.612 E115.15467
G1 X101.480 Y60.612 E115.17520
G1 X144.888 Y104.020 E116.95751
G1 X144.888 Y103.313 E116.97804
G1 X102.187 Y60.612 E118.73132
G1 X102.894 Y60.612 E118.75185
G1 X144.888 Y102.606 E120.47610
G1 X144.888 Y101.899 E120.49663
G1 X103.601 Y60.612 E122.19184
G1 X104.308 Y60.612 E122.21237
G1 X144.888 Y101.192 E123.87855
G1 X144.888 Y100.485 E123.89908
G1 X105.015 Y60.612 E125.53623
G1 X105.723 Y60.612 E125.55676
G1 X144.888 Y99.777 E127.16487
G1 X144.888 Y99.070 E127.18540
G1 X106.430 Y60.612 E128.76448
G1 X107.137 Y60.612 E128.78501
G1 X144.888 Y98.363 E130.33506
G1 X144.888 Y97.656 E130.35559
G1 X107.844 Y60.612 E131.87660
G1 X108.551 Y60.612 E131.89713
G1 X144.888 Y96.949 E133.38910
G1 X144.888 Y96.242 E133.40963
G1 X109.258 Y60.612 E134.87258
G1 X109.965 Y60.612 E134.89311
G1 X144.888 Y95.535 E136.32702
G1 X144.888 Y94.828 E136.34755
G1 X110.672 Y60.612 E137.75243
G1 X111.379 Y60.612 E137.77296
G1 X144.888 Y94.121 E139.14880
G1 X144.888 Y93.413 E139.16933
G1 X112.087 Y60.612 E140.51614
G1 X112.794 Y60.612 E140.53667
G1 X144.888 Y92.706 E141.85444
G1 X144.888 Y91.999 E141.87497
G1 X113.501 Y60.612 E143.16371
G1 X114.208 Y60.612 E143.18424
G1 X144.888 Y91.292 E144.44395
G1 X144.888 Y90.585 E144.46448
G1 X114.915 Y60.612 E145.69516
G1 X115.622 Y60.612 E145.71569
G1 X144.888 Y89.878 E146.91733
G1 X144.888 Y89.171 E146.93786
G1 X116.329 Y60.612 E148.11046
G1 X117.036 Y60.612 E148.13099
G1 X144.888 Y88.464 E149.27457
G1 X144.888 Y87.757 E149.29510
G1 X117.743 Y60.612 E150.40964
G1 X118.450 Y60.612 E150.43017
G1 X144.888 Y87.050 E151.51567
G1 X144.888 Y86.342 E151.53620
G1 X119.158 Y60.612 E152.59267
G1 X119.865 Y60.612 E152.61320
G1 X144.888 Y85.635 E153.64064
G1 X144.888 Y84.928 E153.66117
G1 X120.572 Y60.612 E154.65958
G1 X121.279 Y60.612 E154.68011
G1 X144.888 Y84.221 E155.64948
G1 X144.888 Y83.514 E155.67001
G1 X121.986 Y60.612 E156.61035
G1 X122.693 Y60.612 E156.63088
G1 X144.888 Y82.807 E157.54218
G1 X144.888 Y82.100 E157.56271
G1 X123.400 Y60.612 E158.44498
G1 X124.107 Y60.612 E158.46551
G1 X144.888 Y81.393 E159.31874
G1 X144.888 Y80.686 E159.33927
G1 X124.814 Y60.612 E160.16348
G1 X125.522 Y60.612 E160.18401
G1 X144.888 Y79.978 E160.97918
G1 X144.888 Y79.271 E160.99971
G1 X126.229 Y60.612 E161.76584
G1 X126.936 Y60.612 E161.78637
G1 X144.888 Y78.564 E162.52347
G1 X144.888 Y77.857 E162.54400
G1 X127.643 Y60.612 E163.25207
G1 X128.350 Y60.612 E163.27260
G1 X144.888 Y77.150 E163.95163
G1 X144.888 Y76.443 E163.97216
G1 X129.057 Y60.612 E164.62216
G1 X129.764 Y60.612 E164.64269
G1 X144.888 Y75.736 E165.26366
G1 X144.888 Y75.029 E165.28419
G1 X130.471 Y60.612 E165.87612
G1 X131.178 Y60.612 E165.89665
G1 X144.888 Y74.322 E166.45955
G1 X144.888 Y73.614 E166.48008
G1 X131.886 Y60.612 E167.01395
G1 X132.593 Y60.612 E167.03448
G1 X144.888 Y72.907 E167.53931
G1 X144.888 Y72.200 E167.55984
G1 X133.300 Y60.612 E168.03563
G1 X134.007 Y60.612 E168.05616
G1 X144.888 Y71.493 E168.50293
G1 X144.888 Y70.786 E168.52346
G1 X134.714 Y60.612 E168.94119
G1 X135.421 Y60.612 E168.96172
G1 X144.888 Y70.079 E169.35042
G1 X144.888 Y69.372 E169.37095
G1 X136.128 Y60.612 E169.73061
G1 X136.835 Y60.612 E169.75114
G1 X144.888 Y68.665 E170.08177
G1 X144.888 Y67.958 E170.10230
G1 X137.542 Y60.612 E170.40389
G1 X138.249 Y60.612 E170.42442
G1 X144.888 Y67.251 E170.69698
G1 X144.888 Y66.543 E170.71751
G1 X138.957 Y60.612 E170.96104
G1 X139.664 Y60.612 E170.98157
G1 X144.888 Y65.836 E171.19607
G1 X144.888 Y65.129 E171.21660
G1 X140.371 Y60.612 E171.40206
G1 X141.078 Y60.612 E171.42259
G1 X144.888 Y64.422 E171.57901
G1 X144.888 Y63.715 E171.59954
G1 X141.785 Y60.612 E171.72694
G1 X142.492 Y60.612 E171.74747
G1 X144.888 Y63.008 E171.84583
G1 X144.888 Y62.301 E171.86636
G1 X143.199 Y60.612 E171.93568
G1 X143.906 Y60.612 E171.95621
G1 X144.888 Y61.594 E171.99650
G1 X144.888 Y60.887 E172.01703
G1 X144.613 Y60.612 E172.02829
G1 X89.230 Y63.919 F12000.000
G1 X85.924 Y60.612 F1200.000 E172.16405
G1 X85.216 Y60.612 E172.18458
G1 X88.692 Y64.088 E172.32727
G1 X87.985 Y64.088 E172.34780
G1 X84.509 Y60.612 E172.49050
G1 X83.802 Y60.612 E172.51103
G1 X87.277 Y64.088 E172.65372
G1 X86.570 Y64.088 E172.67425
G1 X83.095 Y60.612 E172.81694
G1 X82.388 Y60.612 E172.83747
G1 X85.863 Y64.088 E172.98017
G1 X85.156 Y64.088 E173.00070
G1 X81.681 Y60.612 E173.14339
G1 X80.974 Y60.612 E173.16392
G1 X84.449 Y64.088 E173.30661
G1 X83.742 Y64.088 E173.32714
G1 X80.267 Y60.612 E173.46983
G1 X79.560 Y60.612 E173.49036
G1 X83.035 Y64.088 E173.63306
G1 X82.328 Y64.088 E173.65359
G1 X78.852 Y60.612 E173.79628
G1 X78.145 Y60.612 E173.81681
G1 X81.621 Y64.088 E173.95950
G1 X80.914 Y64.088 E173.98003
G1 X77.438 Y60.612 E174.12273
G1 X76.731 Y60.612 E174.14326
G1 X80.206 Y64.088 E174.28595
G1 X79.499 Y64.088 E174.30648
G1 X76.024 Y60.612 E174.44917
G1 X75.317 Y60.612 E174.46970
G1 X78.792 Y64.088 E174.61239
G1 X78.085 Y64.088 E174.63292
G1 X74.610 Y60.612 E174.77562
G1 X73.903 Y60.612 E174.79615
G1 X77.378 Y64.088 E174.93884
G1 X76.671 Y64.088 E174.95937
G1 X73.196 Y60.612 E175.10206
G1 X72.489 Y60.612 E175.12259
G1 X75.964 Y64.088 E175.26529
G1 X75.888 Y64.719 E175.28374
G1 X71.781 Y60.612 E175.45234
G1 X71.074 Y60.612 E175.47287
G1 X75.888 Y65.426 E175.67050
G1 X75.888 Y66.133 E175.69103
G1 X70.367 Y60.612 E175.91770
G1 X69.660 Y60.612 E175.93823
G1 X75.888 Y66.840 E176.19393
G1 X75.888 Y67.547 E176.21446
G1 X68.953 Y60.612 E176.49919
G1 X68.246 Y60.612 E176.51972
G1 X75.888 Y68.254 E176.83349
G1 X75.888 Y68.961 E176.85402
G1 X67.539 Y60.612 E177.19682
G1 X66.832 Y60.612 E177.21735
G1 X75.888 Y69.668 E177.58919
G1 X75.888 Y70.375 E177.60972
G1 X66.125 Y60.612 E178.01059
G1 X65.417 Y60.612 E178.03112
G1 X75.888 Y71.083 E178.46102
G1 X75.888 Y71.790 E178.48155
G1 X64.710 Y60.612 E178.94049
G1 X64.003 Y60.612 E178.96102
G1 X75.888 Y72.497 E179.44899
G1 X64.489 Y68.877 F12000.000
G1 X105.000 Y109.388 F1200.000 E181.11236
G1 X105.707 Y109.388 E181.13289
G1 X56.932 Y60.612 E183.13560
G1 X57.639 Y60.612 E183.15613
G1 X106.415 Y109.388 E185.15883
G1 X107.122 Y109.388 E185.17936
G1 X58.346 Y60.612 E187.18207
G1 X64.136 Y69.230 F12000.000
G1 X104.293 Y109.388 F1200.000 E188.83093
G1 X103.586 Y109.388 E188.85146
G1 X63.782 Y69.584 E190.48580
G1 X63.429 Y69.937 E190.50031
G1 X102.879 Y109.388 E192.12014
G1 X102.172 Y109.388 E192.14067
G1 X63.075 Y70.291 E193.74597
G1 X62.722 Y70.644 E193.76049
G1 X101.465 Y109.388 E195.35128
G1 X100.758 Y109.388 E195.37181
G1 X62.368 Y70.998 E196.94809
G1 X62.014 Y71.352 E196.96260
G1 X100.051 Y109.388 E198.52436
G1 X99.343 Y109.388 E198.54489
G1 X61.661 Y71.705 E200.09213
G1 X61.307 Y72.059 E200.10665
