; generated by Slic3r 1.2.1 on 2014-12-13 at 17:00:08

; external perimeters extrusion width = 0.50mm
; perimeters extrusion width = 0.50mm
; infill extrusion width = 0.50mm
; solid infill extrusion width = 0.50mm
; top infill extrusion width = 0.50mm

M104 S190 ; set temperature
G28 ; home all axes
G1 Z15 F120 ; lift nozzle
M109 S190 ; wait for temperature to be reached
G21 ; set units to millimeters
G90 ; use absolute coordinates
M82 ; use absolute distances for extrusion
G92 E0
M106 S102
G1 E-2.00000 F1680.000
G92 E0
G1 Z0.200 F12000.000
G1 X65.660 Y61.662 F12000.000
G1 E2.00000 F1680.000
G1 X66.604 Y60.715 E2.03763 F1200.000
G1 X67.851 Y59.598 E2.08475
G1 X68.173 Y59.331 E2.09654
G1 X69.504 Y58.316 E2.14365
G1 X70.543 Y57.610 E2.17903
G1 X71.978 Y56.746 E2.22618
G1 X73.463 Y55.974 E2.27330
G1 X74.995 Y55.297 E2.32044
G1 X75.383 Y55.143 E2.33221
G1 X76.963 Y54.589 E2.37933
G1 X78.575 Y54.134 E2.42649
G1 X79.801 Y53.860 E2.46186
G1 X81.452 Y53.585 E2.50898
G1 X81.867 Y53.533 E2.52076
G1 X83.535 Y53.388 E2.56788
G1 X85.209 Y53.349 E2.61503
G1 X86.465 Y53.388 E2.65040 F1200.000
G1 X88.133 Y53.533 E2.69752
G1 X88.548 Y53.585 E2.70931
G1 X90.199 Y53.860 E2.75642
G1 X91.425 Y54.134 E2.79180
G1 X93.037 Y54.589 E2.83895
G1 X94.617 Y55.143 E2.88608
G1 X95.005 Y55.297 E2.89785
G1 X96.537 Y55.974 E2.94498
G1 X97.656 Y56.545 E2.98035
G1 X99.104 Y57.385 E3.02748
G1 X99.457 Y57.610 E3.03926
G1 X100.834 Y58.561 E3.08638
G1 X101.827 Y59.331 E3.12175
G1 X103.092 Y60.429 E3.16890
G1 X104.285 Y61.604 E3.21603
G1 X104.571 Y61.908 E3.22779
G1 X105.669 Y63.173 E3.27495
G1 X106.439 Y64.166 E3.31032
G1 X107.390 Y65.543 E3.35744
G1 X107.615 Y65.896 E3.36922
G1 X108.254 Y66.978 E3.40459
G1 X109.004 Y68.421 E3.45039
G1 X109.703 Y69.995 E3.49885
G1 X109.857 Y70.383 E3.51062
G1 X110.411 Y71.963 E3.55774
G1 X110.762 Y73.169 E3.59312
G1 X111.140 Y74.801 E3.64027
G1 X111.415 Y76.452 E3.68739
G1 X111.467 Y76.867 E3.69917
G1 X111.585 Y78.118 E3.73454
G1 X111.651 Y79.791 E3.78167
G1 X111.612 Y81.465 E3.82881
G1 X111.467 Y83.133 E3.87594
G1 X111.415 Y83.548 E3.88771
G1 X111.140 Y85.199 E3.93483
G1 X110.762 Y86.831 E3.98199
G1 X110.282 Y88.434 E4.02912
G1 X109.684 Y90.049 E4.07758
G1 X109.026 Y91.537 E4.12338
G1 X108.455 Y92.656 E4.15876
G1 X99.526 Y108.144 E4.66204
G1 X98.947 Y109.099 E4.69347
G1 X98.348 Y109.957 E4.72293
G1 X97.697 Y110.775 E4.75236
G1 X96.995 Y111.551 E4.78183
G1 X96.246 Y112.282 E4.81129
G1 X95.453 Y112.963 E4.84071
G1 X94.957 Y113.348 E4.85840
G1 X94.099 Y113.947 E4.88787
G1 X93.205 Y114.491 E4.91731
G1 X92.279 Y114.978 E4.94677
G1 X91.324 Y115.405 E4.97621
G1 X90.344 Y115.772 E5.00567
G1 X89.343 Y116.076 E5.03513
G1 X88.326 Y116.317 E5.06455
G1 X87.294 Y116.494 E5.09404
G1 X86.255 Y116.605 E5.12345
G1 X85.837 Y116.632 E5.13524
G1 X84.791 Y116.651 E5.16468
G1 X83.745 Y116.605 E5.19416
G1 X82.706 Y116.494 E5.22357
G1 X81.674 Y116.317 E5.25305
G1 X80.657 Y116.076 E5.28247
G1 X79.656 Y115.772 E5.31193
G1 X78.654 Y115.396 E5.34206
G1 X77.721 Y114.978 E5.37084
G1 X77.161 Y114.692 E5.38853
G1 X76.254 Y114.171 E5.41798
G1 X75.382 Y113.594 E5.44743
G1 X74.547 Y112.963 E5.47690
G1 X73.754 Y112.282 E5.50632
G1 X73.450 Y111.996 E5.51808
G1 X72.719 Y111.246 E5.54756
G1 X72.303 Y110.774 E5.56525
G1 X71.652 Y109.957 E5.59467
G1 X71.393 Y109.599 E5.60712
G1 X70.829 Y108.745 E5.63591
G1 X61.711 Y92.962 E6.14908
G1 X60.974 Y91.537 E6.19423
G1 X60.297 Y90.005 E6.24136
G1 X60.143 Y89.617 E6.25313
G1 X59.589 Y88.037 E6.30026
G1 X59.134 Y86.425 E6.34741
G1 X58.782 Y84.789 E6.39453
G1 X58.585 Y83.548 E6.42990
G1 X58.415 Y81.882 E6.47705
G1 X58.349 Y80.209 E6.52418
G1 X58.388 Y78.535 E6.57132
G1 X58.533 Y76.867 E6.61844
G1 X58.585 Y76.452 E6.63023
G1 X58.860 Y74.801 E6.67734
G1 X59.134 Y73.575 E6.71272
G1 X59.589 Y71.963 E6.75987
G1 X60.143 Y70.383 E6.80700
G1 X60.297 Y69.995 E6.81877
G1 X60.974 Y68.463 E6.86590
G1 X61.545 Y67.344 E6.90127
G1 X62.385 Y65.896 E6.94840
G1 X63.316 Y64.504 E6.99555
G1 X64.331 Y63.173 E7.04267
G1 X65.609 Y61.717 E7.09721
G1 E5.09721 F1680.000
G92 E0
G1 X84.356 Y105.646 F12000.000
G1 E2.00000 F1680.000
G1 X84.672 Y105.554 E2.00617 F720.000
G1 X84.890 Y105.526 E2.01029
G1 X85.099 Y105.526 E2.01420
G1 X85.328 Y105.554 E2.01853 F720.000
G1 X85.644 Y105.646 E2.02470
G1 X85.938 Y105.795 E2.03087
G1 X86.198 Y105.997 E2.03704
G1 X86.416 Y106.244 E2.04322
G1 X86.584 Y106.528 E2.04939
G1 X86.695 Y106.837 E2.05556
G1 X86.747 Y107.163 E2.06173
G1 X86.736 Y107.492 E2.06790
G1 X86.664 Y107.814 E2.07408
G1 X86.534 Y108.116 E2.08025
G1 X86.348 Y108.388 E2.08642
G1 X86.116 Y108.621 E2.09259
G1 X85.843 Y108.806 E2.09876
G1 X85.644 Y108.900 E2.10288
G1 X85.328 Y108.992 E2.10906
G1 X85.000 Y109.023 E2.11523
G1 X84.672 Y108.992 E2.12140
G1 X84.356 Y108.900 E2.12757
G1 X84.157 Y108.806 E2.13169
G1 X83.884 Y108.621 E2.13786
G1 X83.652 Y108.388 E2.14403
G1 X83.466 Y108.116 E2.15021
G1 X83.336 Y107.814 E2.15638
G1 X83.264 Y107.492 E2.16255
G1 X83.253 Y107.163 E2.16872
G1 X83.305 Y106.837 E2.17489
G1 X83.416 Y106.528 E2.18107
G1 X83.584 Y106.244 E2.18724
G1 X83.802 Y105.997 E2.19341
G1 X84.062 Y105.795 E2.19958
G1 X84.287 Y105.675 E2.20435
G1 X85.213 Y105.325 F12000.000
G1 X85.138 Y105.091 F12000.000
G1 X84.838 Y105.093 E2.20997 F900.000
G1 X84.456 Y105.156 E2.21721
G1 X84.069 Y105.295 E2.22492
G1 X83.829 Y105.427 E2.23006
G1 X83.504 Y105.679 E2.23777
G1 X83.316 Y105.879 E2.24291
G1 X83.154 Y106.102 E2.24806
G1 X82.968 Y106.468 E2.25577
G1 X82.877 Y106.754 E2.26138
G1 X82.818 Y107.135 E2.26862
G1 X82.818 Y107.410 E2.27376
G1 X82.853 Y107.682 E2.27891
G1 X82.921 Y107.948 E2.28405
G1 X83.084 Y108.326 E2.29176
G1 X83.316 Y108.666 E2.29947
G1 X83.597 Y108.960 E2.30708
G1 X83.482 Y109.185 E2.31183
G1 X82.684 Y109.021 E2.32709
G1 X82.122 Y108.858 E2.33806
G1 X81.571 Y108.660 E2.34902
G1 X81.034 Y108.428 E2.35998
G1 X80.513 Y108.162 E2.37095
G1 X80.009 Y107.864 E2.38191
G1 X79.525 Y107.535 E2.39287
G1 X79.063 Y107.177 E2.40384
G1 X78.624 Y106.790 E2.41480
G1 X78.210 Y106.376 E2.42576
G1 X77.823 Y105.937 E2.43673
G1 X77.465 Y105.475 E2.44769
G1 X77.136 Y104.991 E2.45865
G1 X76.829 Y104.472 E2.46995
G1 X68.077 Y89.308 E2.79801
G1 X67.524 Y88.224 E2.82082
G1 X67.042 Y87.110 E2.84355
G1 X66.631 Y85.968 E2.86629
G1 X66.293 Y84.803 E2.88902
G1 X66.028 Y83.619 E2.91175
G1 X65.838 Y82.421 E2.93449
G1 X65.724 Y81.213 E2.95722
G1 X65.686 Y80.000 E2.97996
G1 X65.724 Y78.787 E3.00269
G1 X65.838 Y77.579 E3.02543
G1 X66.028 Y76.381 E3.04816
G1 X66.293 Y75.197 E3.07090
G1 X66.631 Y74.032 E3.09363
G1 X67.042 Y72.890 E3.11637
G1 X67.524 Y71.776 E3.13910
G1 X68.075 Y70.695 E3.16184
G1 X68.693 Y69.651 E3.18457
G1 X69.375 Y68.647 E3.20730
G1 X70.118 Y67.689 E3.23004
G1 X70.921 Y66.779 E3.25277
G1 X71.779 Y65.921 E3.27551
G1 X72.689 Y65.118 E3.29824
G1 X73.647 Y64.375 E3.32098
G1 X74.651 Y63.693 E3.34371
G1 X75.695 Y63.075 E3.36645
G1 X76.776 Y62.524 E3.38918
G1 X77.890 Y62.042 E3.41192
G1 X79.032 Y61.631 E3.43465
G1 X80.197 Y61.293 E3.45738
G1 X81.381 Y61.028 E3.48012
G1 X82.579 Y60.838 E3.50285
G1 X83.787 Y60.724 E3.52559
G1 X84.974 Y60.687 E3.54784
G1 X86.213 Y60.724 E3.57106 F900.000
G1 X87.421 Y60.838 E3.59379
G1 X88.619 Y61.028 E3.61653
G1 X89.803 Y61.293 E3.63926
G1 X90.968 Y61.631 E3.66200
G1 X92.110 Y62.042 E3.68473
G1 X93.224 Y62.524 E3.70746
G1 X94.305 Y63.075 E3.73020
G1 X95.349 Y63.693 E3.75293
G1 X96.353 Y64.375 E3.77567
G1 X97.311 Y65.118 E3.79840
G1 X98.221 Y65.921 E3.82114
G1 X99.079 Y66.779 E3.84387
G1 X99.882 Y67.689 E3.86661
G1 X100.625 Y68.647 E3.88934
G1 X101.307 Y69.651 E3.91208
G1 X101.925 Y70.695 E3.93481
G1 X102.464 Y71.754 E3.95707
G1 X102.958 Y72.890 E3.98028
G1 X103.369 Y74.032 E4.00301
G1 X103.707 Y75.197 E4.02575
G1 X103.972 Y76.381 E4.04848
G1 X104.162 Y77.579 E4.07122
G1 X104.276 Y78.787 E4.09395
G1 X104.314 Y80.000 E4.11669
G1 X104.276 Y81.213 E4.13942
G1 X104.162 Y82.421 E4.16216
G1 X103.972 Y83.619 E4.18489
G1 X103.707 Y84.803 E4.20762
G1 X103.369 Y85.968 E4.23036
G1 X102.958 Y87.110 E4.25309
G1 X102.476 Y88.224 E4.27583
G1 X101.923 Y89.308 E4.29863
G1 X93.171 Y104.472 E4.62669
G1 X92.864 Y104.991 E4.63799
G1 X92.535 Y105.475 E4.64895
G1 X92.177 Y105.937 E4.65992
G1 X91.790 Y106.376 E4.67088
G1 X91.376 Y106.790 E4.68184
G1 X90.937 Y107.177 E4.69281
G1 X90.475 Y107.535 E4.70377
G1 X89.991 Y107.864 E4.71473
G1 X89.487 Y108.162 E4.72570
G1 X88.966 Y108.428 E4.73666
G1 X88.429 Y108.660 E4.74763
G1 X87.878 Y108.858 E4.75859
G1 X87.316 Y109.021 E4.76955
G1 X86.518 Y109.185 E4.78482
G1 X86.403 Y108.960 E4.78956
G1 X86.684 Y108.666 E4.79717
G1 X86.916 Y108.326 E4.80488
G1 X87.079 Y107.948 E4.81259
G1 X87.147 Y107.682 E4.81774
G1 X87.182 Y107.410 E4.82288
G1 X87.182 Y107.135 E4.82803
G1 X87.147 Y106.863 E4.83317
G1 X87.079 Y106.597 E4.83831
G1 X86.916 Y106.220 E4.84602
G1 X86.769 Y105.988 E4.85116
G1 X86.593 Y105.776 E4.85631
G1 X86.393 Y105.589 E4.86145
G1 X86.171 Y105.427 E4.86660
G1 X85.805 Y105.240 E4.87430
G1 X85.543 Y105.155 E4.87946
G1 X85.212 Y105.098 E4.88575
G1 E2.88575 F1680.000
G92 E0
G1 X85.358 Y109.739 F12000.000
G1 E2.00000 F1680.000
G1 X85.000 Y109.750 E2.00671 F720.000
G1 X84.388 Y109.731 E2.01818
G1 X83.778 Y109.673 E2.02966
G1 X83.173 Y109.577 E2.04114
G1 X82.575 Y109.444 E2.05261
G1 X81.987 Y109.273 E2.06409
G1 X81.411 Y109.065 E2.07557
G1 X80.849 Y108.822 E2.08704
G1 X80.303 Y108.544 E2.09852
G1 X79.776 Y108.232 E2.11000
G1 X79.269 Y107.888 E2.12147
G1 X78.785 Y107.512 E2.13295
G1 X78.326 Y107.107 E2.14443
G1 X77.893 Y106.674 E2.15590
G1 X77.488 Y106.215 E2.16738
G1 X77.112 Y105.731 E2.17886
G1 X76.768 Y105.224 E2.19033
G1 X67.694 Y89.516 E2.53025
G1 X67.130 Y88.409 E2.55352
G1 X66.637 Y87.270 E2.57677
G1 X66.217 Y86.103 E2.60002
G1 X65.871 Y84.912 E2.62326
G1 X65.600 Y83.701 E2.64651
G1 X65.406 Y82.475 E2.66976
G1 X65.289 Y81.240 E2.69301
G1 X65.250 Y80.000 E2.71625
G1 X65.289 Y78.760 E2.73950
G1 X65.406 Y77.525 E2.76275
G1 X65.600 Y76.299 E2.78600
G1 X65.871 Y75.088 E2.80924
G1 X66.217 Y73.897 E2.83249
G1 X66.637 Y72.730 E2.85574
G1 X67.130 Y71.591 E2.87899
G1 X67.693 Y70.485 E2.90223
G1 X68.325 Y69.418 E2.92548
G1 X69.022 Y68.391 E2.94873
G1 X69.782 Y67.411 E2.97198
G1 X70.603 Y66.480 E2.99522
G1 X71.480 Y65.603 E3.01847
G1 X72.411 Y64.782 E3.04172
G1 X73.391 Y64.022 E3.06497
G1 X74.418 Y63.325 E3.08822
G1 X75.485 Y62.693 E3.11146
G1 X76.591 Y62.130 E3.13471
G1 X77.730 Y61.637 E3.15796
G1 X78.897 Y61.217 E3.18121
G1 X80.088 Y60.871 E3.20445
G1 X81.299 Y60.600 E3.22770
G1 X82.525 Y60.406 E3.25095
G1 X83.760 Y60.289 E3.27420
G1 X85.000 Y60.250 E3.29744
G1 X86.201 Y60.288 E3.31996
G1 X87.475 Y60.406 E3.34394 F720.000
G1 X88.701 Y60.600 E3.36719
G1 X89.912 Y60.871 E3.39043
G1 X91.103 Y61.217 E3.41368
G1 X92.270 Y61.637 E3.43693
G1 X93.409 Y62.130 E3.46018
G1 X94.515 Y62.693 E3.48342
G1 X95.582 Y63.325 E3.50667
G1 X96.609 Y64.022 E3.52992
G1 X97.589 Y64.782 E3.55317
G1 X98.520 Y65.603 E3.57641
G1 X99.397 Y66.480 E3.59966
G1 X100.218 Y67.411 E3.62291
G1 X100.978 Y68.391 E3.64616
G1 X101.675 Y69.418 E3.66941
G1 X102.307 Y70.485 E3.69265
G1 X102.852 Y71.556 E3.71516
G1 X103.363 Y72.730 E3.73915
G1 X103.783 Y73.897 E3.76239
G1 X104.129 Y75.088 E3.78564
G1 X104.400 Y76.299 E3.80889
G1 X104.594 Y77.525 E3.83214
G1 X104.711 Y78.760 E3.85538
G1 X104.750 Y80.000 E3.87863
G1 X104.711 Y81.240 E3.90188
G1 X104.594 Y82.475 E3.92513
G1 X104.400 Y83.701 E3.94838
G1 X104.129 Y84.912 E3.97162
G1 X103.783 Y86.103 E3.99487
G1 X103.363 Y87.270 E4.01812
G1 X102.870 Y88.409 E4.04137
G1 X102.306 Y89.516 E4.06464
G1 X93.232 Y105.224 E4.40455
G1 X92.888 Y105.731 E4.41603
G1 X92.512 Y106.215 E4.42750
G1 X92.107 Y106.674 E4.43898
G1 X91.674 Y107.107 E4.45046
G1 X91.215 Y107.512 E4.46193
G1 X90.731 Y107.888 E4.47341
G1 X90.224 Y108.232 E4.48489
G1 X89.697 Y108.544 E4.49637
G1 X89.151 Y108.822 E4.50784
G1 X88.589 Y109.065 E4.51932
G1 X88.013 Y109.273 E4.53080
G1 X87.425 Y109.444 E4.54227
G1 X86.827 Y109.577 E4.55375
G1 X86.222 Y109.673 E4.56522
G1 X85.433 Y109.736 E4.58006
G1 E2.58006 F1680.000
G92 E0
G1 X86.618 Y60.564 F12000.000
G1 X87.087 Y108.600 F12000.000
G1 E2.00000 F1680.000
G1 X87.225 Y108.738 E2.00366 F1200.000
G1 X87.707 Y108.600 E2.01306
G1 X87.297 Y108.190 E2.02393
G1 X87.436 Y107.708 E2.03332
G1 X88.167 Y108.440 E2.05271
G1 X88.608 Y108.260 E2.06163
G1 X87.469 Y107.120 E2.09182
G1 X87.291 Y106.322 E2.10715
G1 X89.031 Y108.062 E2.15327
G1 E0.15327 F1680.000
G92 E0
G1 X82.908 Y108.765 F12000.000
G1 E2.00000 F1680.000
G1 X75.213 Y101.070 E2.20392 F1200.000
G1 X74.364 Y99.601 F12000.000
G1 X82.584 Y107.821 E2.42174 F1200.000
G1 X82.035 Y108.512 E2.43830
G1 X76.061 Y102.539 E2.59657
G1 X76.910 Y104.009 F12000.000
G1 X80.959 Y108.057 E2.70386 F1200.000
G1 X79.065 Y106.784 F12000.000
G1 X78.216 Y105.935 E2.72637 F1200.000
G1 X73.515 Y98.131 F12000.000
G1 X82.523 Y107.139 E2.96505 F1200.000
G1 X82.613 Y106.608 E2.97513
G1 X72.666 Y96.662 E3.23869
G1 X71.818 Y95.193 F12000.000
G1 X82.785 Y106.160 E3.52930 F1200.000
G1 X83.024 Y105.778 E3.53773
G1 X70.969 Y93.724 E3.85716
G1 X70.120 Y92.254 F12000.000
G1 X83.316 Y105.450 E4.20684 F1200.000
G1 X83.669 Y105.183 E4.21514
G1 X69.272 Y90.785 E4.59666
G1 X68.423 Y89.316 F12000.000
G1 X84.076 Y104.969 E5.01146 F1200.000
G1 X84.559 Y104.831 E5.02086
G1 X67.767 Y88.039 E5.46584
G1 X67.300 Y86.951 F12000.000
G1 X85.149 Y104.801 E5.93882 F1200.000
G1 X85.966 Y104.997 E5.95456
G1 X66.950 Y85.982 E6.45844
G1 X66.686 Y85.097 E6.47575
G1 X89.437 Y107.848 E7.07862
G1 X89.827 Y107.617 E7.08710
G1 X66.476 Y84.266 E7.70588
G1 X66.305 Y83.474 E7.72106
G1 X90.197 Y107.366 E8.35416
G1 X90.552 Y107.101 E8.36247
G1 X66.188 Y82.737 E9.00808
G1 X66.098 Y82.027 E9.02149
G1 X90.893 Y106.821 E9.67852
G1 X91.206 Y106.513 E9.68674
G1 X66.033 Y81.341 E10.35376
G1 X66.004 Y80.691 E10.36596
G1 X91.516 Y106.203 E11.04199
G1 X91.823 Y105.890 E11.05021
G1 X65.983 Y80.050 E11.73493
G1 X65.999 Y79.446 E11.74627
G1 X92.103 Y105.549 E12.43798
G1 X92.368 Y105.194 E12.44628
G1 X66.018 Y78.844 E13.14452
G1 X66.070 Y78.275 E13.15523
G1 X92.619 Y104.824 E13.85874
G1 X92.850 Y104.434 E13.86723
G1 X66.123 Y77.708 E14.57544
G1 X66.203 Y77.167 E14.58568
G1 X93.078 Y104.042 E15.29782
G1 X93.305 Y103.648 E15.30633
G1 X66.288 Y76.631 E16.02224
G1 X66.391 Y76.114 E16.03213
G1 X93.532 Y103.255 E16.75132
G1 X93.759 Y102.861 E16.75983
G1 X66.504 Y75.607 E17.48204
G1 X66.626 Y75.108 E17.49166
G1 X93.986 Y102.468 E18.21664
G1 X94.213 Y102.074 E18.22516
G1 X66.766 Y74.627 E18.95246
G1 X66.906 Y74.147 E18.96184
G1 X94.440 Y101.681 E19.69146
G1 X94.667 Y101.288 E19.69997
G1 X67.069 Y73.689 E20.43129
G1 X67.233 Y73.233 E20.44037
G1 X94.894 Y100.894 E21.17335
G1 X95.122 Y100.501 E21.18187
G1 X67.409 Y72.788 E21.91621
G1 X67.596 Y72.355 E21.92505
G1 X95.349 Y100.107 E22.66045
G1 X95.576 Y99.714 E22.66896
G1 X67.784 Y71.922 E23.40541
G1 X67.992 Y71.510 E23.41406
G1 X95.803 Y99.320 E24.15100
G1 X96.030 Y98.927 E24.15952
G1 X68.202 Y71.098 E24.89692
G1 X68.419 Y70.695 E24.90551
G1 X96.257 Y98.533 E25.64318
G1 X96.484 Y98.140 E25.65169
G1 X68.649 Y70.305 E26.38927
G1 X68.880 Y69.915 E26.39776
G1 X96.711 Y97.746 E27.13524
G1 X96.938 Y97.353 E27.14375
G1 X69.126 Y69.540 E27.88075
G1 X69.377 Y69.171 E27.88912
G1 X97.165 Y96.959 E28.62548
G1 X97.392 Y96.566 E28.63399
G1 X69.629 Y68.802 E29.36968
G1 X69.900 Y68.453 E29.37797
G1 X97.620 Y96.173 E30.11250
G1 X97.847 Y95.779 E30.12101
G1 X70.171 Y68.103 E30.85438
G1 X70.449 Y67.761 E30.86264
G1 X98.074 Y95.386 E31.59466
G1 X98.301 Y94.992 E31.60317
G1 X70.740 Y67.431 E32.33350
G1 X71.038 Y67.108 E32.34173
G1 X98.528 Y94.599 E33.07018
G1 X98.755 Y94.205 E33.07870
