; generated by Slic3r 1.2.1 on 2014-12-13 at 21:49:23

; external perimeters extrusion width = 0.50mm
; perimeters extrusion width = 0.50mm
; infill extrusion width = 0.50mm
; solid infill extrusion width = 0.50mm
; top infill extrusion width = 0.50mm

M104 S190 ; set temperature
G28 ; home all axes
G1 Z15 F120 ; lift nozzle
M109 S190 ; wait for temperature to be reached
G21 ; set units to millimeters
G90 ; use absolute coordinates
M82 ; use absolute distances for extrusion
G92 E0
M106 S102
G1 E-2.00000 F1680.000
G92 E0
G1 Z0.200 F12000.000
G1 X42.429 Y38.058 F12000.000
G1 E2.00000 F1680.000
G1 X43.570 Y36.898 E2.04581 F1200.000
G1 X43.908 Y36.579 E2.05889
G1 X45.173 Y35.481 E2.10604
G1 X46.166 Y34.711 E2.14142
G1 X47.543 Y33.759 E2.18853
G1 X47.896 Y33.535 E2.20032
G1 X49.344 Y32.694 E2.24744
G1 X50.842 Y31.946 E2.29458
G1 X51.995 Y31.447 E2.32995
G1 X52.383 Y31.293 E2.34172
G1 X53.963 Y30.739 E2.38884
G1 X55.575 Y30.284 E2.43600
G1 X56.801 Y30.010 E2.47137
G1 X58.452 Y29.735 E2.51849
G1 X60.118 Y29.564 E2.56564
G1 X62.000 Y29.495 E2.61865
G1 X108.209 Y29.499 E3.91952
G1 X109.465 Y29.538 E3.95490 F1200.000
G1 X111.133 Y29.682 E4.00202
G1 X112.789 Y29.932 E4.04917
G1 X114.425 Y30.284 E4.09629
G1 X114.831 Y30.388 E4.10807
G1 X116.434 Y30.868 E4.15520
G1 X117.617 Y31.293 E4.19057
G1 X119.158 Y31.946 E4.23771
G1 X120.656 Y32.694 E4.28484
G1 X122.104 Y33.535 E4.33197
G1 X122.457 Y33.760 E4.34375
G1 X123.834 Y34.711 E4.39087
G1 X124.827 Y35.481 E4.42624
G1 X126.092 Y36.579 E4.47339
G1 X127.285 Y37.753 E4.52052
G1 X128.402 Y39.000 E4.56765
G1 X129.439 Y40.316 E4.61480
G1 X130.390 Y41.693 E4.66192
G1 X130.615 Y42.046 E4.67371
G1 X131.455 Y43.494 E4.72083
G1 X132.026 Y44.613 E4.75621
G1 X132.703 Y46.144 E4.80334
G1 X133.282 Y47.715 E4.85047
G1 X133.762 Y49.319 E4.89760
G1 X134.140 Y50.951 E4.94476
G1 X134.415 Y52.602 E4.99187
G1 X134.467 Y53.017 E5.00365
G1 X134.612 Y54.685 E5.05078
G1 X134.651 Y56.359 E5.09792
G1 X134.585 Y58.032 E5.14505
G1 X134.415 Y59.698 E5.19219
G1 X134.218 Y60.939 E5.22757
G1 X133.866 Y62.575 E5.27468
G1 X133.762 Y62.980 E5.28647
G1 X133.282 Y64.584 E5.33360
G1 X132.798 Y65.923 E5.37366
G1 X110.376 Y123.623 E7.11637
G1 X109.604 Y125.387 E7.17058
G1 X108.832 Y126.872 E7.21771
G1 X107.968 Y128.307 E7.26486
G1 X107.017 Y129.684 E7.31198
G1 X106.247 Y130.677 E7.34735
G1 X105.149 Y131.942 E7.39450
G1 X103.974 Y133.135 E7.44163
G1 X102.727 Y134.252 E7.48876
G1 X101.412 Y135.289 E7.53591
G1 X100.035 Y136.240 E7.58303
G1 X98.600 Y137.104 E7.63018
G1 X97.157 Y137.855 E7.67598
G1 X96.737 Y138.054 E7.68907
G1 X95.195 Y138.707 E7.73621
G1 X93.615 Y139.261 E7.78333
G1 X92.409 Y139.612 E7.81871
G1 X90.777 Y139.990 E7.86586
G1 X89.126 Y140.265 E7.91298
G1 X87.460 Y140.436 E7.96013
G1 X85.787 Y140.501 E8.00726
G1 X85.369 Y140.501 E8.01903
G1 X83.696 Y140.436 E8.06616
G1 X82.445 Y140.317 E8.10153
G1 X82.030 Y140.265 E8.11331
G1 X80.379 Y139.990 E8.16042
G1 X78.747 Y139.612 E8.20758
G1 X77.541 Y139.261 E8.24296
G1 X75.961 Y138.707 E8.29008
G1 X74.420 Y138.054 E8.33721
G1 X74.041 Y137.876 E8.34898
G1 X72.556 Y137.104 E8.39611
G1 X71.121 Y136.240 E8.44326
G1 X70.082 Y135.534 E8.47864
G1 X68.751 Y134.519 E8.52575
G1 X67.486 Y133.421 E8.57290
G1 X66.326 Y132.280 E8.61871
G1 X66.007 Y131.942 E8.63179
G1 X64.909 Y130.677 E8.67894
G1 X63.894 Y129.347 E8.72606
G1 X63.188 Y128.307 E8.76144
G1 X62.324 Y126.872 E8.80858
G1 X61.560 Y125.402 E8.85524
G1 X61.374 Y125.009 E8.86748
G1 X60.823 Y123.730 E8.90669
G1 X37.244 Y66.029 E10.66144
G1 X36.589 Y64.187 E10.71650
G1 X36.134 Y62.575 E10.76366
G1 X35.860 Y61.349 E10.79903
G1 X35.585 Y59.698 E10.84614
G1 X35.533 Y59.282 E10.85793
G1 X35.388 Y57.615 E10.90505
G1 X35.349 Y55.941 E10.95220
G1 X35.415 Y54.268 E10.99932
G1 X35.585 Y52.602 E11.04647
G1 X35.860 Y50.951 E11.09359
G1 X36.238 Y49.319 E11.14074
G1 X36.718 Y47.715 E11.18787
G1 X37.297 Y46.144 E11.23500
G1 X37.974 Y44.613 E11.28214
G1 X38.545 Y43.494 E11.31751
G1 X39.385 Y42.046 E11.36464
G1 X40.316 Y40.653 E11.41179
G1 X41.331 Y39.323 E11.45890
G1 X42.380 Y38.114 E11.50395
G1 E9.50395 F1680.000
G92 E0
G1 X61.285 Y81.826 F12000.000
G1 E2.00000 F1680.000
G1 X61.672 Y81.703 E2.00761 F720.000
G1 X61.890 Y81.676 E2.01173
G1 X62.099 Y81.676 E2.01564
G1 X62.328 Y81.703 E2.01997 F720.000
G1 X62.644 Y81.795 E2.02614
G1 X62.938 Y81.945 E2.03231
G1 X63.198 Y82.147 E2.03848
G1 X63.416 Y82.394 E2.04466
G1 X63.584 Y82.677 E2.05083
G1 X63.695 Y82.987 E2.05700
G1 X63.747 Y83.313 E2.06317
G1 X63.736 Y83.642 E2.06934
G1 X63.664 Y83.963 E2.07552
G1 X63.534 Y84.266 E2.08169
G1 X63.348 Y84.538 E2.08786
G1 X63.116 Y84.771 E2.09403
G1 X62.843 Y84.956 E2.10020
G1 X62.644 Y85.050 E2.10432
G1 X62.328 Y85.142 E2.11049
G1 X62.000 Y85.173 E2.11667
G1 X61.672 Y85.142 E2.12284
G1 X61.356 Y85.050 E2.12901
G1 X61.157 Y84.956 E2.13313
G1 X60.884 Y84.771 E2.13930
G1 X60.652 Y84.538 E2.14547
G1 X60.466 Y84.266 E2.15165
G1 X60.336 Y83.963 E2.15782
G1 X60.281 Y83.750 E2.16194
G1 X60.250 Y83.422 E2.16811
G1 X60.281 Y83.095 E2.17428
G1 X60.373 Y82.778 E2.18045
G1 X60.522 Y82.485 E2.18662
G1 X60.724 Y82.224 E2.19280
G1 X60.971 Y82.007 E2.19897
G1 X61.217 Y81.858 E2.20435
G1 X62.211 Y81.474 F12000.000
G1 X42.904 Y58.985 F12000.000
G1 X42.838 Y58.570 E2.21221 F900.000
G1 X42.724 Y57.363 E2.23494
G1 X42.686 Y56.150 E2.25768
G1 X42.724 Y54.937 E2.28041
G1 X42.838 Y53.729 E2.30314
G1 X43.028 Y52.531 E2.32588
G1 X43.293 Y51.347 E2.34861
G1 X43.631 Y50.181 E2.37135
G1 X44.042 Y49.040 E2.39408
G1 X44.524 Y47.926 E2.41682
G1 X45.075 Y46.845 E2.43955
G1 X45.693 Y45.801 E2.46229
G1 X46.375 Y44.797 E2.48502
G1 X47.118 Y43.839 E2.50776
G1 X47.921 Y42.928 E2.53049
G1 X48.779 Y42.070 E2.55323
G1 X49.689 Y41.268 E2.57596
G1 X50.647 Y40.524 E2.59869
G1 X51.651 Y39.842 E2.62143
G1 X52.695 Y39.225 E2.64416
G1 X53.776 Y38.674 E2.66690
G1 X54.890 Y38.192 E2.68963
G1 X56.032 Y37.781 E2.71237
G1 X57.197 Y37.442 E2.73510
G1 X58.381 Y37.178 E2.75784
G1 X59.579 Y36.988 E2.78057
G1 X60.787 Y36.874 E2.80331
G1 X61.974 Y36.837 E2.82556
G1 X63.213 Y36.874 E2.84877 F900.000
G1 X64.421 Y36.988 E2.87151
G1 X65.619 Y37.178 E2.89424
G1 X66.803 Y37.442 E2.91698
G1 X67.968 Y37.781 E2.93971
G1 X69.110 Y38.192 E2.96245
G1 X70.224 Y38.674 E2.98518
G1 X71.305 Y39.225 E3.00792
G1 X72.349 Y39.842 E3.03065
G1 X73.353 Y40.524 E3.05339
G1 X74.311 Y41.268 E3.07612
G1 X75.221 Y42.070 E3.09885
G1 X76.079 Y42.928 E3.12159
G1 X76.882 Y43.839 E3.14432
G1 X77.625 Y44.797 E3.16706
G1 X78.307 Y45.801 E3.18979
G1 X78.925 Y46.845 E3.21253
G1 X79.464 Y47.903 E3.23478
G1 X79.958 Y49.040 E3.25800
G1 X80.369 Y50.181 E3.28073
G1 X80.707 Y51.347 E3.30347
G1 X80.972 Y52.531 E3.32620
G1 X81.162 Y53.729 E3.34893
G1 X81.276 Y54.937 E3.37167
G1 X81.313 Y56.124 E3.39393
G1 X81.276 Y57.363 E3.41714
G1 X81.162 Y58.570 E3.43987
G1 X80.972 Y59.769 E3.46261
G1 X80.707 Y60.953 E3.48534
G1 X80.369 Y62.118 E3.50808
G1 X79.958 Y63.260 E3.53081
G1 X79.476 Y64.373 E3.55355
G1 X78.923 Y65.458 E3.57635
G1 X70.171 Y80.621 E3.90441
G1 X69.864 Y81.141 E3.91571
G1 X69.535 Y81.624 E3.92667
G1 X69.177 Y82.087 E3.93763
G1 X68.790 Y82.526 E3.94860
G1 X68.376 Y82.939 E3.95956
G1 X67.937 Y83.326 E3.97052
G1 X67.475 Y83.685 E3.98149
G1 X66.991 Y84.014 E3.99245
G1 X66.487 Y84.312 E4.00342
G1 X65.966 Y84.577 E4.01438
G1 X65.429 Y84.810 E4.02534
G1 X64.878 Y85.008 E4.03631
G1 X64.316 Y85.171 E4.04727
G1 X63.518 Y85.335 E4.06254
G1 X63.403 Y85.109 E4.06728
G1 X63.684 Y84.816 E4.07489
G1 X63.846 Y84.594 E4.08003
G1 X63.978 Y84.353 E4.08518
G1 X64.117 Y83.966 E4.09289
G1 X64.169 Y83.696 E4.09803
G1 X64.186 Y83.422 E4.10318
G1 X64.169 Y83.148 E4.10832
G1 X64.117 Y82.879 E4.11346
G1 X64.032 Y82.618 E4.11861
G1 X63.916 Y82.369 E4.12375
G1 X63.769 Y82.138 E4.12889
G1 X63.593 Y81.926 E4.13404
G1 X63.393 Y81.738 E4.13918
G1 X63.171 Y81.577 E4.14433
G1 X62.805 Y81.390 E4.15203
G1 X62.543 Y81.305 E4.15719
G1 X62.138 Y81.241 E4.16488
G1 X61.838 Y81.243 E4.17050
G1 X61.456 Y81.305 E4.17774
G1 X61.069 Y81.445 E4.18545
G1 X60.829 Y81.577 E4.19059
G1 X60.504 Y81.829 E4.19830
G1 X60.232 Y82.138 E4.20601
G1 X60.084 Y82.369 E4.21115
G1 X59.968 Y82.618 E4.21630
G1 X59.853 Y83.013 E4.22401
G1 X59.818 Y83.285 E4.22915
G1 X59.831 Y83.696 E4.23686
G1 X59.921 Y84.098 E4.24457
G1 X60.084 Y84.476 E4.25228
G1 X60.316 Y84.816 E4.25999
G1 X60.597 Y85.109 E4.26760
G1 X60.482 Y85.335 E4.27234
G1 X59.684 Y85.171 E4.28761
G1 X59.122 Y85.008 E4.29857
G1 X58.571 Y84.810 E4.30954
G1 X58.034 Y84.577 E4.32050
G1 X57.513 Y84.312 E4.33146
G1 X57.009 Y84.014 E4.34243
G1 X56.525 Y83.685 E4.35339
G1 X56.063 Y83.326 E4.36435
G1 X55.624 Y82.939 E4.37532
G1 X55.210 Y82.526 E4.38628
G1 X54.823 Y82.087 E4.39725
G1 X54.465 Y81.624 E4.40821
G1 X54.136 Y81.141 E4.41917
G1 X45.077 Y65.458 E4.75853
G1 X44.524 Y64.373 E4.78133
G1 X44.042 Y63.260 E4.80407
G1 X43.631 Y62.118 E4.82680
G1 X43.293 Y60.953 E4.84954
G1 X43.028 Y59.769 E4.87227
G1 X42.916 Y59.059 E4.88574
G1 X42.485 Y59.127 F12000.000
G1 X42.406 Y58.625 E4.89526 F720.000
G1 X42.289 Y57.390 E4.91851
G1 X42.250 Y56.150 E4.94176
G1 X42.289 Y54.910 E4.96501
G1 X42.406 Y53.674 E4.98825
G1 X42.600 Y52.449 E5.01150
G1 X42.871 Y51.238 E5.03475
G1 X43.217 Y50.047 E5.05800
G1 X43.637 Y48.879 E5.08124
G1 X44.130 Y47.741 E5.10449
G1 X44.693 Y46.635 E5.12774
G1 X45.325 Y45.567 E5.15099
G1 X46.022 Y44.541 E5.17423
G1 X46.782 Y43.561 E5.19748
G1 X47.603 Y42.630 E5.22073
G1 X48.480 Y41.753 E5.24398
G1 X49.411 Y40.932 E5.26722
G1 X50.391 Y40.172 E5.29047
G1 X51.418 Y39.474 E5.31372
G1 X52.485 Y38.843 E5.33697
G1 X53.591 Y38.280 E5.36021
G1 X54.730 Y37.787 E5.38346
G1 X55.897 Y37.367 E5.40671
G1 X57.088 Y37.020 E5.42996
G1 X58.299 Y36.750 E5.45321
G1 X59.525 Y36.556 E5.47645
G1 X60.760 Y36.439 E5.49970
G1 X62.000 Y36.400 E5.52295
G1 X63.201 Y36.438 E5.54546
G1 X64.475 Y36.556 E5.56944 F720.000
G1 X65.701 Y36.750 E5.59269
G1 X66.912 Y37.020 E5.61594
G1 X68.103 Y37.367 E5.63919
G1 X69.270 Y37.787 E5.66243
G1 X70.409 Y38.280 E5.68568
G1 X71.515 Y38.843 E5.70893
G1 X72.582 Y39.474 E5.73217
G1 X73.609 Y40.172 E5.75542
G1 X74.589 Y40.932 E5.77867
G1 X75.520 Y41.753 E5.80192
G1 X76.397 Y42.630 E5.82517
G1 X77.218 Y43.561 E5.84841
G1 X77.978 Y44.541 E5.87166
G1 X78.675 Y45.567 E5.89491
G1 X79.307 Y46.635 E5.91816
G1 X79.870 Y47.741 E5.94140
G1 X80.363 Y48.879 E5.96465
G1 X80.783 Y50.047 E5.98790
G1 X81.129 Y51.238 E6.01115
G1 X81.400 Y52.449 E6.03439
G1 X81.594 Y53.674 E6.05764
G1 X81.711 Y54.910 E6.08089
G1 X81.750 Y56.150 E6.10414
G1 X81.711 Y57.390 E6.12739
G1 X81.594 Y58.625 E6.15063
G1 X81.400 Y59.851 E6.17388
G1 X81.129 Y61.061 E6.19713
G1 X80.783 Y62.253 E6.22038
G1 X80.363 Y63.420 E6.24362
G1 X79.870 Y64.559 E6.26687
G1 X79.306 Y65.666 E6.29014
G1 X70.547 Y80.841 E6.61846
G1 X70.232 Y81.374 E6.63006
G1 X69.888 Y81.881 E6.64154
G1 X69.512 Y82.365 E6.65301
G1 X69.107 Y82.824 E6.66449
G1 X68.674 Y83.257 E6.67596
G1 X68.215 Y83.662 E6.68744
G1 X67.731 Y84.038 E6.69892
G1 X67.224 Y84.382 E6.71040
G1 X66.697 Y84.694 E6.72187
G1 X66.151 Y84.972 E6.73335
G1 X65.589 Y85.215 E6.74483
G1 X65.013 Y85.422 E6.75630
G1 X64.425 Y85.593 E6.76778
G1 X63.827 Y85.727 E6.77926
G1 X63.222 Y85.823 E6.79073
G1 X62.597 Y85.881 E6.80250
G1 X62.000 Y85.900 E6.81368
G1 X61.388 Y85.880 E6.82516
G1 X60.778 Y85.823 E6.83664
G1 X60.173 Y85.727 E6.84811
G1 X59.575 Y85.593 E6.85959
G1 X58.987 Y85.422 E6.87107
G1 X58.411 Y85.215 E6.88254
G1 X57.849 Y84.972 E6.89402
G1 X57.303 Y84.694 E6.90550
G1 X56.776 Y84.382 E6.91697
G1 X56.269 Y84.038 E6.92845
G1 X55.785 Y83.662 E6.93993
G1 X55.326 Y83.257 E6.95140
G1 X54.893 Y82.824 E6.96288
G1 X54.488 Y82.365 E6.97436
G1 X54.112 Y81.881 E6.98583
G1 X53.768 Y81.374 E6.99731
G1 X44.694 Y65.666 E7.33722
G1 X44.130 Y64.559 E7.36050
G1 X43.637 Y63.420 E7.38374
G1 X43.217 Y62.253 E7.40699
G1 X42.871 Y61.061 E7.43024
G1 X42.600 Y59.851 E7.45349
G1 X42.497 Y59.201 E7.46581
G1 X63.540 Y36.805 F12000.000
G1 X44.300 Y63.101 F12000.000
G1 X62.149 Y80.951 E7.93879 F1200.000
G1 X62.966 Y81.147 E7.95453
G1 X43.950 Y62.131 E8.45841
G1 X43.686 Y61.246 E8.47572
G1 X66.437 Y83.998 E9.07859
G1 X66.827 Y83.767 E9.08708
G1 X43.476 Y60.416 E9.70585
G1 X43.305 Y59.624 E9.72103
G1 X67.197 Y83.516 E10.35413
G1 X67.552 Y83.251 E10.36244
G1 X43.188 Y58.887 E11.00805
G1 X43.098 Y58.176 E11.02147
G1 X67.893 Y82.971 E11.67849
G1 X68.206 Y82.663 E11.68671
G1 X43.033 Y57.491 E12.35373
G1 X43.004 Y56.841 E12.36593
G1 X68.516 Y82.353 E13.04196
G1 X68.823 Y82.040 E13.05019
G1 X42.983 Y56.200 E13.73491
G1 X42.999 Y55.595 E13.74624
G1 X69.103 Y81.699 E14.43795
G1 X69.368 Y81.344 E14.44625
G1 X43.018 Y54.994 E15.14449
G1 X43.070 Y54.425 E15.15520
G1 X69.619 Y80.974 E15.85872
G1 X69.850 Y80.584 E15.86720
G1 X43.123 Y53.858 E16.57541
G1 X43.203 Y53.317 E16.58565
G1 X70.078 Y80.191 E17.29779
G1 X70.305 Y79.798 E17.30630
G1 X43.288 Y52.781 E18.02221
G1 X43.391 Y52.264 E18.03210
G1 X70.532 Y79.405 E18.75129
G1 X70.759 Y79.011 E18.75980
G1 X43.504 Y51.756 E19.48201
G1 X43.626 Y51.258 E19.49163
G1 X70.986 Y78.618 E20.21661
G1 X71.213 Y78.224 E20.22513
G1 X43.766 Y50.777 E20.95243
G1 X43.906 Y50.296 E20.96181
G1 X71.440 Y77.831 E21.69143
G1 X71.667 Y77.437 E21.69994
G1 X44.069 Y49.839 E22.43126
G1 X44.233 Y49.383 E22.44034
G1 X71.894 Y77.044 E23.17332
G1 X72.122 Y76.650 E23.18184
G1 X44.409 Y48.938 E23.91618
G1 X44.596 Y48.505 E23.92502
G1 X72.349 Y76.257 E24.66042
G1 X72.576 Y75.863 E24.66893
G1 X44.784 Y48.071 E25.40538
G1 X44.992 Y47.659 E25.41403
G1 X72.803 Y75.470 E26.15097
G1 X73.030 Y75.077 E26.15949
G1 X45.202 Y47.248 E26.89690
G1 X45.419 Y46.845 E26.90548
G1 X73.257 Y74.683 E27.64315
G1 X73.484 Y74.290 E27.65166
G1 X45.649 Y46.455 E28.38924
G1 X45.880 Y46.065 E28.39773
G1 X73.711 Y73.896 E29.13521
G1 X73.938 Y73.503 E29.14372
G1 X46.126 Y45.690 E29.88072
G1 X46.377 Y45.321 E29.88909
G1 X74.165 Y73.109 E30.62545
G1 X74.392 Y72.716 E30.63396
G1 X46.629 Y44.952 E31.36966
G1 X46.900 Y44.603 E31.37794
G1 X74.620 Y72.322 E32.11247
G1 X74.847 Y71.929 E32.12099
G1 X47.171 Y44.253 E32.85435
G1 X47.449 Y43.911 E32.86262
G1 X75.074 Y71.535 E33.59463
G1 X75.301 Y71.142 E33.60314
G1 X47.740 Y43.581 E34.33347
G1 X48.038 Y43.258 E34.34170
G1 X75.528 Y70.749 E35.07015
G1 X75.755 Y70.355 E35.07867
G1 X48.348 Y42.948 E35.80492
G1 X48.658 Y42.638 E35.81314
G1 X75.982 Y69.962 E36.53718
G1 X76.209 Y69.568 E36.54570
G1 X48.968 Y42.327 E37.26754
G1 X49.283 Y42.021 E37.27576
G1 X76.436 Y69.175 E37.99528
G1 X76.663 Y68.781 E38.00379
G1 X49.612 Y41.730 E38.72060
G1 X49.946 Y41.443 E38.72885
G1 X76.891 Y68.388 E39.44284
G1 X77.118 Y67.994 E39.45136
G1 X50.295 Y41.172 E40.16211
G1 X50.645 Y40.901 E40.17040
G1 X77.345 Y67.601 E40.87791
G1 X77.572 Y67.207 E40.88642
G1 X51.004 Y40.640 E41.59042
G1 X51.374 Y40.389 E41.59879
G1 X77.799 Y66.814 E42.29903
G1 X78.026 Y66.421 E42.30754
G1 X51.743 Y40.138 E43.00400
G1 X52.129 Y39.903 E43.01246
G1 X78.253 Y66.027 E43.70471
G1 X78.480 Y65.634 E43.71322
G1 X52.519 Y39.673 E44.40114
G1 X52.913 Y39.446 E44.40966
G1 X78.704 Y65.237 E45.09308
G1 X78.913 Y64.826 E45.10172
G1 X53.324 Y39.236 E45.77980
G1 X53.735 Y39.027 E45.78844
G1 X79.123 Y64.415 E46.46118
G1 X79.319 Y63.990 E46.46994
G1 X54.159 Y38.831 E47.13663
G1 X54.593 Y38.643 E47.14548
G1 X79.507 Y63.557 E47.80566
G1 X79.693 Y63.123 E47.81452
G1 X55.027 Y38.457 E48.46812
G1 X55.483 Y38.293 E48.47721
G1 X79.857 Y62.666 E49.12307
G1 X80.021 Y62.210 E49.13216
G1 X55.940 Y38.129 E49.77028
G1 X56.411 Y37.979 E49.77954
G1 X80.171 Y61.739 E50.40915
G1 X80.311 Y61.258 E50.41853
G1 X56.891 Y37.839 E51.03910
G1 X57.378 Y37.705 E51.04856
G1 X80.445 Y60.772 E51.65979
G1 X80.558 Y60.265 E51.66953
G1 X57.885 Y37.592 E52.27033
G1 X58.392 Y37.478 E52.28007
G1 X80.671 Y59.758 E52.87043
G1 X80.759 Y59.224 E52.88056
G1 X58.925 Y37.391 E53.45910
G1 X59.461 Y37.306 E53.46927
G1 X80.844 Y58.689 E54.03587
G1 X80.906 Y58.131 E54.04639
G1 X60.019 Y37.244 E54.59986
G1 X60.586 Y37.190 E54.61053
G1 X80.960 Y57.564 E55.15041
G1 X80.992 Y56.976 E55.16145
G1 X61.174 Y37.158 E55.68659
G1 X61.776 Y37.139 E55.69787
G1 X81.011 Y56.374 E56.20757
G1 X81.005 Y55.748 E56.21930
G1 X62.402 Y37.144 E56.71227
G1 X63.043 Y37.164 E56.72428
