; generated by Slic3r 1.2.9 on 2016-05-01 at 12:59:14

; external perimeters extrusion width = 0.50mm
; perimeters extrusion width = 0.50mm
; infill extrusion width = 0.50mm
; solid infill extrusion width = 0.50mm
; top infill extrusion width = 0.50mm
; support material extrusion width = 0.50mm

M104 S190 ; set temperature
G28 ; home all axes
G1 Z15 F120 ; lift nozzle
M109 S190 ; wait for temperature to be reached
G21 ; set units to millimeters
G90 ; use absolute coordinates
M82 ; use absolute distances for extrusion
G92 E0
M106 S102
G1 E-2.00000 F1680.00000
G92 E0
G1 Z0.400 F12000.000
G1 X7.866 Y12.900 F12000.000
G1 E2.00000 F1680.00000
G1 X10.659 Y12.091 E2.08708 F1200.000
G1 X41.244 Y10.466 E3.00421
G1 X54.763 Y10.457 E3.40901
G1 X169.091 Y12.083 E6.83282 F1200.000
G1 X171.307 Y12.511 E6.90041
G1 X173.238 Y13.681 E6.96799
G1 X174.644 Y15.446 E7.03557
G1 X175.418 Y18.500 E7.12992
G1 X175.418 Y161.500 E11.41192
G1 X175.021 Y163.722 E11.47951
G1 X173.879 Y165.669 E11.54709
G1 X172.134 Y167.100 E11.61467
G1 X169.000 Y167.918 E11.71166
G1 X11.000 Y167.918 E16.44283
G1 X8.778 Y167.521 E16.51041
G1 X6.831 Y166.379 E16.57800
G1 X5.400 Y164.634 E16.64558
G1 X4.582 Y161.500 E16.74257
G1 X4.582 Y18.500 E21.02458
G1 X4.979 Y16.278 E21.09216
G1 X6.121 Y14.331 E21.15975
G1 X7.808 Y12.947 E21.22509
G1 E19.22509 F1680.00000
G92 E0
G1 X133.641 Y161.250 F12000.000
G1 E2.00000 F1680.00000
G1 X95.250 Y161.250 E3.08078 F1200.000
G1 X95.250 Y122.750 E4.16463
G1 X168.750 Y122.750 E6.23379
G1 X168.750 Y161.250 E7.31764
G1 X133.716 Y161.250 E8.30391 F1200.000
G1 X95.687 Y161.020 F12000.000
G1 X95.480 Y160.813 E8.31215 F2400.000
G1 X95.480 Y160.257 E8.32783
G1 X96.243 Y161.020 E8.35823
G1 X96.799 Y161.020 E8.37391
G1 X95.480 Y159.701 E8.42648
G1 X95.480 Y159.145 E8.44216
G1 X97.355 Y161.020 E8.51690
G1 X97.911 Y161.020 E8.53258
G1 X95.480 Y158.589 E8.62949
G1 X95.480 Y158.032 E8.64517
G1 X98.468 Y161.020 E8.76426
G1 X99.024 Y161.020 E8.77993
G1 X95.480 Y157.476 E8.92119
G1 X95.480 Y156.920 E8.93686
G1 X99.580 Y161.020 E9.10029
G1 X100.136 Y161.020 E9.11596
G1 X95.480 Y156.364 E9.30156
G1 X95.480 Y155.808 E9.31723
G1 X100.692 Y161.020 E9.52500
G1 X101.248 Y161.020 E9.54067
G1 X95.480 Y155.252 E9.77061
G1 X95.480 Y154.696 E9.78628
G1 X101.804 Y161.020 E10.03839
G1 X102.360 Y161.020 E10.05406
G1 X95.480 Y154.140 E10.32834
G1 X95.480 Y153.584 E10.34401
G1 X102.916 Y161.020 E10.64046
G1 X103.473 Y161.020 E10.65613
G1 X95.480 Y153.027 E10.97475
G1 X95.480 Y152.471 E10.99042
G1 X104.029 Y161.020 E11.33121
G1 X104.585 Y161.020 E11.34688
G1 X95.480 Y151.915 E11.70983
G1 X95.480 Y151.359 E11.72551
G1 X105.141 Y161.020 E12.11063
G1 X105.697 Y161.020 E12.12631
G1 X95.480 Y150.803 E12.53360
G1 X95.480 Y150.247 E12.54928
G1 X106.253 Y161.020 E12.97874
G1 X106.809 Y161.020 E12.99442
G1 X95.480 Y149.691 E13.44605
G1 X95.480 Y149.135 E13.46172
G1 X107.365 Y161.020 E13.93553
G1 X107.921 Y161.020 E13.95120
G1 X95.480 Y148.579 E14.44717
G1 X95.480 Y148.023 E14.46285
G1 X108.477 Y161.020 E14.98099
G1 X109.034 Y161.020 E14.99667
G1 X95.480 Y147.466 E15.53698
G1 X95.480 Y146.910 E15.55265
G1 X109.590 Y161.020 E16.11513
G1 X110.146 Y161.020 E16.13081
G1 X95.480 Y146.354 E16.71546
G1 X95.480 Y145.798 E16.73114
G1 X110.702 Y161.020 E17.33796
G1 X111.258 Y161.020 E17.35363
G1 X95.480 Y145.242 E17.98262
G1 X95.480 Y144.686 E17.99830
G1 X111.814 Y161.020 E18.64946
G1 X112.370 Y161.020 E18.66514
G1 X95.480 Y144.130 E19.33847
G1 X95.480 Y143.574 E19.35414
G1 X112.926 Y161.020 E20.04964
G1 X113.482 Y161.020 E20.06532
G1 X95.480 Y143.018 E20.78299
G1 X95.480 Y142.461 E20.79866
G1 X114.039 Y161.020 E21.53850
G1 X114.595 Y161.020 E21.55418
G1 X95.480 Y141.905 E22.31619
G1 X95.480 Y141.349 E22.33187
G1 X115.151 Y161.020 E23.11604
G1 X115.707 Y161.020 E23.13172
G1 X95.480 Y140.793 E23.93807
G1 X95.480 Y140.237 E23.95374
G1 X116.263 Y161.020 E24.78226
G1 X116.819 Y161.020 E24.79794
G1 X95.480 Y139.681 E25.64863
G1 X95.480 Y139.125 E25.66430
G1 X117.375 Y161.020 E26.53716
G1 X117.931 Y161.020 E26.55284
G1 X95.480 Y138.569 E27.44787
G1 X95.480 Y138.013 E27.46354
G1 X118.487 Y161.020 E28.38074
G1 X119.043 Y161.020 E28.39642
G1 X95.480 Y137.457 E29.33578
G1 X95.480 Y136.900 E29.35146
G1 X119.600 Y161.020 E30.31300
G1 X120.156 Y161.020 E30.32867
G1 X95.480 Y136.344 E31.31238
G1 X95.480 Y135.788 E31.32806
G1 X120.712 Y161.020 E32.33393
G1 X121.268 Y161.020 E32.34961
G1 X95.480 Y135.232 E33.37766
G1 X95.480 Y134.676 E33.39333
G1 X121.824 Y161.020 E34.44355
G1 X122.380 Y161.020 E34.45922
G1 X95.480 Y134.120 E35.53161
G1 X95.480 Y133.564 E35.54729
G1 X122.936 Y161.020 E36.64184
G1 X123.492 Y161.020 E36.65752
G1 X95.480 Y133.008 E37.77424
G1 X95.480 Y132.452 E37.78992
G1 X124.048 Y161.020 E38.92882
G1 X124.605 Y161.020 E38.94449
G1 X95.480 Y131.895 E40.10556
G1 X95.480 Y131.339 E40.12123
G1 X125.161 Y161.020 E41.30447
G1 X125.717 Y161.020 E41.32015
G1 X95.480 Y130.783 E42.52555
G1 X95.480 Y130.227 E42.54123
G1 X126.273 Y161.020 E43.76880
G1 X126.829 Y161.020 E43.78448
G1 X95.480 Y129.671 E45.03422
G1 X95.480 Y129.115 E45.04990
G1 X127.385 Y161.020 E46.32181
G1 X127.941 Y161.020 E46.33749
G1 X95.480 Y128.559 E47.63157
G1 X95.480 Y128.003 E47.64725
G1 X128.497 Y161.020 E48.96350
G1 X129.053 Y161.020 E48.97918
G1 X95.480 Y127.447 E50.31760
G1 X95.480 Y126.891 E50.33328
G1 X129.609 Y161.020 E51.69387
G1 X130.166 Y161.020 E51.70955
G1 X95.480 Y126.334 E53.09231
G1 X95.480 Y125.778 E53.10799
G1 X130.722 Y161.020 E54.51292
G1 X131.278 Y161.020 E54.52860
G1 X95.480 Y125.222 E55.95570
G1 X95.480 Y124.666 E55.97138
G1 X131.834 Y161.020 E57.42065
G1 X132.390 Y161.020 E57.43633
G1 X95.480 Y124.110 E58.90777
G1 X95.480 Y123.554 E58.92345
G1 X132.946 Y161.020 E60.41706
G1 X133.502 Y161.020 E60.43273
G1 X95.492 Y123.009 E61.94807
G1 X96.019 Y122.980 E61.96296
G1 X134.058 Y161.020 E63.47943
G1 X134.614 Y161.020 E63.49510
G1 X96.575 Y122.980 E65.01158
G1 X97.131 Y122.980 E65.02725
G1 X135.171 Y161.020 E66.54373
G1 X135.727 Y161.020 E66.55940
G1 X97.688 Y122.980 E68.07588
G1 X98.244 Y122.980 E68.09155
G1 X136.283 Y161.020 E69.60803
G1 X136.839 Y161.020 E69.62370
G1 X98.800 Y122.980 E71.14018
G1 X99.356 Y122.980 E71.15585
G1 X137.395 Y161.020 E72.67233
G1 X137.951 Y161.020 E72.68800
G1 X99.912 Y122.980 E74.20447
G1 X100.468 Y122.980 E74.22015
G1 X138.507 Y161.020 E75.73662
G1 X139.063 Y161.020 E75.75230
G1 X101.024 Y122.980 E77.26877
G1 X101.580 Y122.980 E77.28445
G1 X139.619 Y161.020 E78.80092
G1 X140.175 Y161.020 E78.81660
G1 X102.136 Y122.980 E80.33307
G1 X102.692 Y122.980 E80.34875
G1 X140.732 Y161.020 E81.86522
G1 X141.288 Y161.020 E81.88090
G1 X103.249 Y122.980 E83.39737
G1 X103.805 Y122.980 E83.41305
G1 X141.844 Y161.020 E84.92952
G1 X142.400 Y161.020 E84.94520
G1 X104.361 Y122.980 E86.46167
G1 X104.917 Y122.980 E86.47735
G1 X142.956 Y161.020 E87.99382
G1 X143.512 Y161.020 E88.00950
G1 X105.473 Y122.980 E89.52597
G1 X106.029 Y122.980 E89.54165
G1 X144.068 Y161.020 E91.05812
G1 X144.624 Y161.020 E91.07380
G1 X106.585 Y122.980 E92.59027
G1 X107.141 Y122.980 E92.60595
G1 X145.180 Y161.020 E94.12242
G1 X145.737 Y161.020 E94.13809
G1 X107.697 Y122.980 E95.65457
G1 X108.254 Y122.980 E95.67024
G1 X146.293 Y161.020 E97.18672
G1 X146.849 Y161.020 E97.20239
G1 X108.810 Y122.980 E98.71887
G1 X109.366 Y122.980 E98.73454
G1 X147.405 Y161.020 E100.25102
G1 X147.961 Y161.020 E100.26669
G1 X109.922 Y122.980 E101.78317
G1 X110.478 Y122.980 E101.79884
G1 X148.517 Y161.020 E103.31532
G1 X149.073 Y161.020 E103.33099
G1 X111.034 Y122.980 E104.84746
G1 X111.590 Y122.980 E104.86314
G1 X149.629 Y161.020 E106.37961
G1 X150.185 Y161.020 E106.39529
G1 X112.146 Y122.980 E107.91176
G1 X112.702 Y122.980 E107.92744
G1 X150.741 Y161.020 E109.44391
G1 X151.298 Y161.020 E109.45959
G1 X113.258 Y122.980 E110.97606
G1 X113.815 Y122.980 E110.99174
G1 X151.854 Y161.020 E112.50821
G1 X152.410 Y161.020 E112.52389
G1 X114.371 Y122.980 E114.04036
G1 X114.927 Y122.980 E114.05604
G1 X152.966 Y161.020 E115.57251
G1 X153.522 Y161.020 E115.58819
G1 X115.483 Y122.980 E117.10466
G1 X116.039 Y122.980 E117.12034
G1 X154.078 Y161.020 E118.63681
G1 X154.634 Y161.020 E118.65249
G1 X116.595 Y122.980 E120.16896
G1 X117.151 Y122.980 E120.18464
G1 X155.190 Y161.020 E121.70111
G1 X155.746 Y161.020 E121.71679
G1 X117.707 Y122.980 E123.23326
G1 X118.263 Y122.980 E123.24893
G1 X156.303 Y161.020 E124.76541
G1 X156.859 Y161.020 E124.78108
G1 X118.820 Y122.980 E126.29756
G1 X119.376 Y122.980 E126.31323
G1 X157.415 Y161.020 E127.82971
G1 X157.971 Y161.020 E127.84538
G1 X119.932 Y122.980 E129.36186
G1 X120.488 Y122.980 E129.37753
G1 X158.527 Y161.020 E130.89401
G1 X159.083 Y161.020 E130.90968
G1 X121.044 Y122.980 E132.42615
G1 X121.600 Y122.980 E132.44183
G1 X159.639 Y161.020 E133.95830
G1 X160.195 Y161.020 E133.97398
G1 X122.156 Y122.980 E135.49045
G1 X122.712 Y122.980 E135.50613
G1 X160.751 Y161.020 E137.02260
G1 X161.307 Y161.020 E137.03828
G1 X123.268 Y122.980 E138.55475
G1 X123.825 Y122.980 E138.57043
G1 X161.864 Y161.020 E140.08690
G1 X162.420 Y161.020 E140.10258
G1 X124.381 Y122.980 E141.61905
G1 X124.937 Y122.980 E141.63473
G1 X162.976 Y161.020 E143.15120
G1 X163.532 Y161.020 E143.16688
G1 X125.493 Y122.980 E144.68335
G1 X126.049 Y122.980 E144.69903
G1 X164.088 Y161.020 E146.21550
G1 X164.644 Y161.020 E146.23118
G1 X126.605 Y122.980 E147.74765
G1 X127.161 Y122.980 E147.76333
G1 X165.200 Y161.020 E149.27980
G1 X165.756 Y161.020 E149.29547
G1 X127.717 Y122.980 E150.81195
G1 X128.273 Y122.980 E150.82762
G1 X166.312 Y161.020 E152.34410
G1 X166.869 Y161.020 E152.35977
G1 X128.829 Y122.980 E153.87625
G1 X129.386 Y122.980 E153.89192
G1 X167.425 Y161.020 E155.40840
G1 X167.981 Y161.020 E155.42407
G1 X129.942 Y122.980 E156.94055
G1 X130.498 Y122.980 E156.95622
G1 X168.508 Y160.991 E158.47155
G1 X168.520 Y160.446 E158.48691
G1 X131.054 Y122.980 E159.98053
G1 X131.610 Y122.980 E159.99620
G1 X168.520 Y159.890 E161.46765
G1 X168.520 Y159.334 E161.48332
G1 X132.166 Y122.980 E162.93260
G1 X132.722 Y122.980 E162.94827
G1 X168.520 Y158.778 E164.37538
G1 X168.520 Y158.222 E164.39105
G1 X133.278 Y122.980 E165.79599
G1 X133.834 Y122.980 E165.81166
G1 X168.520 Y157.666 E167.19443
G1 X168.520 Y157.109 E167.21010
G1 X134.391 Y122.980 E168.57070
G1 X134.947 Y122.980 E168.58637
G1 X168.520 Y156.553 E169.92480
G1 X168.520 Y155.997 E169.94048
G1 X135.503 Y122.980 E171.25673
G1 X136.059 Y122.980 E171.27241
G1 X168.520 Y155.441 E172.56649
G1 X168.520 Y154.885 E172.58217
G1 X136.615 Y122.980 E173.85408
G1 X137.171 Y122.980 E173.86976
G1 X168.520 Y154.329 E175.11951
G1 X168.520 Y153.773 E175.13518
G1 X137.727 Y122.980 E176.36276
G1 X138.283 Y122.980 E176.37843
G1 X168.520 Y153.217 E177.58384
G1 X168.520 Y152.661 E177.59952
G1 X138.839 Y122.980 E178.78275
G1 X139.395 Y122.980 E178.79843
G1 X168.520 Y152.105 E179.95950
G1 X168.520 Y151.548 E179.97517
G1 X139.952 Y122.980 E181.11407
G1 X140.508 Y122.980 E181.12975
G1 X168.520 Y150.992 E182.24647
G1 X168.520 Y150.436 E182.26215
G1 X141.064 Y122.980 E183.35671
G1 X141.620 Y122.980 E183.37238
G1 X168.520 Y149.880 E184.44477
G1 X168.520 Y149.324 E184.46045
G1 X142.176 Y122.980 E185.51066
G1 X142.732 Y122.980 E185.52634
G1 X168.520 Y148.768 E186.55439
G1 X168.520 Y148.212 E186.57006
G1 X143.288 Y122.980 E187.57594
G1 X143.844 Y122.980 E187.59162
G1 X168.520 Y147.656 E188.57532
G1 X168.520 Y147.100 E188.59100
G1 X144.400 Y122.980 E189.55254
G1 X144.957 Y122.980 E189.56822
G1 X168.520 Y146.543 E190.50758
G1 X168.520 Y145.987 E190.52326
G1 X145.513 Y122.980 E191.44046
G1 X146.069 Y122.980 E191.45614
G1 X168.520 Y145.431 E192.35116
G1 X168.520 Y144.875 E192.36684
G1 X146.625 Y122.980 E193.23970
G1 X147.181 Y122.980 E193.25538
G1 X168.520 Y144.319 E194.10607
G1 X168.520 Y143.763 E194.12174
G1 X147.737 Y122.980 E194.95026
G1 X148.293 Y122.980 E194.96594
G1 X168.520 Y143.207 E195.77229
G1 X168.520 Y142.651 E195.78796
G1 X148.849 Y122.980 E196.57214
G1 X149.405 Y122.980 E196.58782
G1 X168.520 Y142.095 E197.34983
G1 X168.520 Y141.539 E197.36551
G1 X149.961 Y122.980 E198.10535
G1 X150.518 Y122.980 E198.12102
G1 X168.520 Y140.982 E198.83869
G1 X168.520 Y140.426 E198.85437
G1 X151.074 Y122.980 E199.54987
G1 X151.630 Y122.980 E199.56555
G1 X168.520 Y139.870 E200.23888
G1 X168.520 Y139.314 E200.25455
G1 X152.186 Y122.980 E200.90571
G1 X152.742 Y122.980 E200.92139
G1 X168.520 Y138.758 E201.55038
G1 X168.520 Y138.202 E201.56606
G1 X153.298 Y122.980 E202.17288
G1 X153.854 Y122.980 E202.18856
G1 X168.520 Y137.646 E202.77321
G1 X168.520 Y137.090 E202.78888
G1 X154.410 Y122.980 E203.35137
G1 X154.966 Y122.980 E203.36704
G1 X168.520 Y136.534 E203.90735
G1 X168.520 Y135.977 E203.92303
G1 X155.523 Y122.980 E204.44117
G1 X156.079 Y122.980 E204.45685
G1 X168.520 Y135.421 E204.95282
G1 X168.520 Y134.865 E204.96850
G1 X156.635 Y122.980 E205.44230
G1 X157.191 Y122.980 E205.45798
G1 X168.520 Y134.309 E205.90961
G1 X168.520 Y133.753 E205.92529
G1 X157.747 Y122.980 E206.35475
G1 X158.303 Y122.980 E206.37042
G1 X168.520 Y133.197 E206.77772
G1 X168.520 Y132.641 E206.79339
G1 X158.859 Y122.980 E207.17852
G1 X159.415 Y122.980 E207.19419
G1 X168.520 Y132.085 E207.55715
G1 X168.520 Y131.529 E207.57282
G1 X159.971 Y122.980 E207.91361
G1 X160.527 Y122.980 E207.92928
G1 X168.520 Y130.973 E208.24790
G1 X168.520 Y130.416 E208.26357
G1 X161.084 Y122.980 E208.56002
G1 X161.640 Y122.980 E208.57569
G1 X168.520 Y129.860 E208.84997
G1 X168.520 Y129.304 E208.86565
G1 X162.196 Y122.980 E209.11775
G1 X162.752 Y122.980 E209.13343
G1 X168.520 Y128.748 E209.36336
G1 X168.520 Y128.192 E209.37904
G1 X163.308 Y122.980 E209.58680
G1 X163.864 Y122.980 E209.60248
G1 X168.520 Y127.636 E209.78807
G1 X168.520 Y127.080 E209.80375
G1 X164.420 Y122.980 E209.96718
G1 X164.976 Y122.980 E209.98285
G1 X168.520 Y126.524 E210.12411
G1 X168.520 Y125.968 E210.13978
G1 X165.532 Y122.980 E210.25887
G1 X166.089 Y122.980 E210.27455
G1 X168.520 Y125.411 E210.37146
G1 X168.520 Y124.855 E210.38714
G1 X166.645 Y122.980 E210.46188
G1 X167.201 Y122.980 E210.47756
G1 X168.520 Y124.299 E210.53014
G1 X168.520 Y123.743 E210.54581
G1 X167.757 Y122.980 E210.57622
G1 X168.313 Y122.980 E210.59190
G1 X168.520 Y123.187 E210.60013
G1 E208.60013 F1680.00000
G92 E0
G1 X163.005 Y101.593 F12000.000
G1 E2.00000 F1680.00000
G1 X162.204 Y101.746 E2.02295 F1500.000
G1 X161.391 Y101.694 E2.04590
G1 X160.615 Y101.442 E2.06884
G1 X159.927 Y101.006 E2.09179
G1 X159.369 Y100.411 E2.11474
G1 X158.976 Y99.697 E2.13769
G1 X158.774 Y98.908 E2.16064
G1 X158.774 Y98.092 E2.18359
G1 X158.972 Y97.320 E2.20603
G1 X159.369 Y96.589 E2.22945
G1 X159.927 Y95.994 E2.25242
G1 X160.615 Y95.558 E2.27536
G1 X161.391 Y95.306 E2.29831
G1 X162.186 Y95.256 E2.32076 F1500.000
G1 X163.004 Y95.407 E2.34418
G1 X163.743 Y95.754 E2.36714
G1 X164.371 Y96.274 E2.39009
G1 X164.850 Y96.933 E2.41304
G1 X165.150 Y97.691 E2.43599
G1 X165.252 Y98.500 E2.45894
G1 X165.150 Y99.309 E2.48189
G1 X164.850 Y100.067 E2.50483
G1 X164.371 Y100.726 E2.52778
G1 X163.743 Y101.246 E2.55073
G1 X163.073 Y101.561 E2.57157
G1 E0.57157 F1680.00000
G92 E0
G1 X162.205 Y41.746 F12000.000
G1 E2.00000 F1680.00000
G1 X161.391 Y41.694 E2.02297 F1500.000
G1 X160.615 Y41.442 E2.04592
G1 X159.927 Y41.006 E2.06886
G1 X159.369 Y40.411 E2.09181
G1 X158.976 Y39.697 E2.11476
G1 X158.774 Y38.908 E2.13771
G1 X158.774 Y38.092 E2.16066
G1 X158.972 Y37.320 E2.18311
G1 X159.369 Y36.589 E2.20652
G1 X159.927 Y35.994 E2.22949
G1 X160.615 Y35.558 E2.25244
G1 X161.391 Y35.306 E2.27539
G1 X162.186 Y35.256 E2.29783 F1500.000
G1 X163.004 Y35.407 E2.32125
G1 X163.743 Y35.754 E2.34422
G1 X164.371 Y36.274 E2.36716
G1 X164.850 Y36.933 E2.39011
G1 X165.150 Y37.691 E2.41306
G1 X165.252 Y38.500 E2.43601
G1 X165.150 Y39.309 E2.45896
G1 X164.850 Y40.067 E2.48191
G1 X164.371 Y40.726 E2.50485
G1 X163.743 Y41.246 E2.52780
G1 X163.021 Y41.585 E2.55025
G1 X162.278 Y41.731 E2.57155
G1 X105.252 Y38.500 F12000.000
G1 X105.150 Y39.309 E2.59450 F1500.000
G1 X104.850 Y40.067 E2.61745
G1 X104.371 Y40.726 E2.64040
G1 X103.742 Y41.246 E2.66335
G1 X103.005 Y41.593 E2.68629
G1 X102.204 Y41.746 E2.70924
G1 X101.391 Y41.694 E2.73219
