; generated by Slic3r 1.2.9 on 2015-10-25 at 00:14:11

; external perimeters extrusion width = 0.50mm
; perimeters extrusion width = 0.50mm
; infill extrusion width = 0.50mm
; solid infill extrusion width = 0.50mm
; top infill extrusion width = 0.50mm

M104 S190 ; set temperature
G28 ; home all axes
G1 Z15 F120 ; lift nozzle
M109 S190 ; wait for temperature to be reached
G21 ; set units to millimeters
G90 ; use absolute coordinates
M82 ; use absolute distances for extrusion
G92 E0
M106 S102
G1 E-2.00000 F1680.00000
G92 E0
G1 Z0.200 F12000.000
G1 X37.297 Y47.372 F12000.000
G1 E2.00000 F1680.00000
G1 X40.497 Y46.552 E2.09301 F1200.000
G1 X52.497 Y46.552 E2.43084
G1 X52.965 Y46.568 E2.44402
G1 X130.965 Y52.068 E4.64532 F1200.000
G1 X133.196 Y52.623 E4.71003
G1 X135.104 Y53.904 E4.77474
G1 X136.463 Y55.758 E4.83945
G1 X137.152 Y58.706 E4.92467
G1 X137.152 Y80.706 E5.54401
G1 X136.155 Y116.977 E6.56550
G1 X135.695 Y119.230 E6.63021
G1 X134.497 Y121.191 E6.69492
G1 X132.703 Y122.628 E6.75963
G1 X129.503 Y123.448 E6.85264
G1 X51.503 Y123.448 E9.04849
G1 X48.730 Y122.843 E9.12838
G1 X36.730 Y117.343 E9.50000
G1 X34.837 Y116.039 E9.56471
G1 X33.501 Y114.169 E9.62942
G1 X32.848 Y111.294 E9.71241
G1 X32.851 Y89.111 E10.33691
G1 X33.845 Y53.023 E11.35324
G1 X34.305 Y50.770 E11.41795
G1 X35.503 Y48.809 E11.48266
G1 X37.238 Y47.419 E11.54525
G1 E9.54525 F1680.00000
G92 E0
G1 X49.277 Y53.892 F12000.000
G1 E2.00000 F1680.00000
G1 X51.812 Y53.892 E2.04750 F900.000
G1 X51.812 Y59.392 E2.15055
G1 X129.812 Y59.392 E3.61206 F900.000
G1 X129.812 Y80.021 E3.99859
G1 X53.183 Y80.021 E5.43440
G1 X53.183 Y74.521 E5.53746
G1 X41.183 Y74.521 E5.76230
G1 X41.183 Y70.542 E5.83685
G1 X53.183 Y70.542 E6.06170
G1 X53.183 Y63.371 E6.19607
G1 X41.183 Y63.371 E6.42092
G1 X41.183 Y53.892 E6.59852
G1 X49.202 Y53.892 E6.74877
G1 X49.202 Y53.456 F12000.000
G1 X52.247 Y53.456 E6.80584 F720.000
G1 X52.247 Y58.956 E6.90890
G1 X130.247 Y58.956 E8.37040 F720.000
G1 X130.247 Y80.456 E8.77325
G1 X52.747 Y80.456 E10.22539
G1 X52.747 Y74.956 E10.32845
G1 X40.747 Y74.956 E10.55329
G1 X40.747 Y70.106 E10.64417
G1 X52.747 Y70.106 E10.86902
G1 X52.747 Y63.806 E10.98706
G1 X40.747 Y63.806 E11.21191
G1 X40.747 Y53.456 E11.40584
G1 X49.127 Y53.456 E11.56285
G1 X49.452 Y53.889 F12000.000
G1 X51.554 Y54.577 F12000.000
G1 X51.126 Y54.150 E11.57418 F1200.000
G1 X50.510 Y54.150 E11.58572
G1 X51.554 Y55.193 E11.61338
G1 X51.554 Y55.809 E11.62492
G1 X49.894 Y54.150 E11.66891
G1 X49.278 Y54.150 E11.68045
G1 X51.554 Y56.425 E11.74077
G1 X51.554 Y57.042 E11.75231
G1 X48.662 Y54.150 E11.82896
G1 X48.046 Y54.150 E11.84050
G1 X51.554 Y57.658 E11.93347
G1 X51.554 Y58.274 E11.94502
G1 X47.430 Y54.150 E12.05431
G1 X46.814 Y54.150 E12.06586
G1 X51.554 Y58.890 E12.19149
G1 X52.696 Y63.113 F12000.000
G1 X43.733 Y54.150 E12.42902 F1200.000
G1 X43.117 Y54.150 E12.44056
G1 X52.080 Y63.113 E12.67810
G1 X51.464 Y63.113 E12.68964
G1 X42.501 Y54.150 E12.92718
G1 X41.885 Y54.150 E12.93872
G1 X50.848 Y63.113 E13.17626
G1 X50.231 Y63.113 E13.18780
G1 X41.441 Y54.322 E13.42077
G1 X41.441 Y54.938 E13.43231
G1 X49.615 Y63.113 E13.64895
G1 X48.999 Y63.113 E13.66049
G1 X41.441 Y55.554 E13.86080
G1 X41.441 Y56.170 E13.87235
G1 X48.383 Y63.113 E14.05633
G1 X47.767 Y63.113 E14.06788
G1 X41.441 Y56.786 E14.23553
G1 X41.441 Y57.403 E14.24707
G1 X47.151 Y63.113 E14.39840
G1 X46.535 Y63.113 E14.40994
G1 X41.441 Y58.019 E14.54494
G1 X41.441 Y58.635 E14.55649
G1 X45.919 Y63.113 E14.67515
G1 X45.302 Y63.113 E14.68670
G1 X41.441 Y59.251 E14.78904
G1 X41.441 Y59.867 E14.80058
G1 X44.686 Y63.113 E14.88660
G1 X44.070 Y63.113 E14.89814
G1 X41.441 Y60.483 E14.96783
G1 X41.441 Y61.099 E14.97937
G1 X43.454 Y63.113 E15.03273
G1 X42.838 Y63.113 E15.04427
G1 X41.441 Y61.715 E15.08130
G1 X41.441 Y62.332 E15.09285
G1 X42.222 Y63.113 E15.11355
G1 E13.11355 F1680.00000
G92 E0
G1 X41.441 Y74.038 F12000.000
G1 E2.00000 F1680.00000
G1 X41.666 Y74.263 E2.00596 F1200.000
G1 X42.282 Y74.263 E2.01750
G1 X41.441 Y73.422 E2.03978
G1 X41.441 Y72.806 E2.05133
G1 X42.898 Y74.263 E2.08994
G1 X43.514 Y74.263 E2.10149
G1 X41.441 Y72.190 E2.15643
G1 X41.441 Y71.573 E2.16797
G1 X44.130 Y74.263 E2.23924
G1 X44.746 Y74.263 E2.25079
G1 X41.441 Y70.957 E2.33838
G1 X41.899 Y70.800 E2.34747
G1 X45.362 Y74.263 E2.43924
G1 X45.978 Y74.263 E2.45079
G1 X42.515 Y70.800 E2.54256
G1 X43.131 Y70.800 E2.55411
G1 X46.594 Y74.263 E2.64589
G1 X47.211 Y74.263 E2.65743
G1 X43.748 Y70.800 E2.74921
G1 X44.364 Y70.800 E2.76075
G1 X47.827 Y74.263 E2.85253
G1 X48.443 Y74.263 E2.86407
G1 X44.980 Y70.800 E2.95585
G1 X45.596 Y70.800 E2.96740
G1 X49.059 Y74.263 E3.05917
G1 X49.675 Y74.263 E3.07072
G1 X46.212 Y70.800 E3.16250
G1 X46.828 Y70.800 E3.17404
G1 X50.291 Y74.263 E3.26582
G1 X50.907 Y74.263 E3.27736
G1 X47.444 Y70.800 E3.36914
G1 X48.060 Y70.800 E3.38068
G1 X51.523 Y74.263 E3.47246
G1 X52.140 Y74.263 E3.48401
G1 X48.677 Y70.800 E3.57578
G1 X49.293 Y70.800 E3.58733
G1 X52.756 Y74.263 E3.67911
G1 X53.943 Y79.763 F12000.000
G1 X53.441 Y79.261 E3.69241 F1200.000
G1 X53.441 Y78.644 E3.70396
G1 X54.559 Y79.763 E3.73359
G1 X55.175 Y79.763 E3.74514
G1 X53.441 Y78.028 E3.79110
G1 X53.441 Y77.412 E3.80264
G1 X55.791 Y79.763 E3.86493
G1 X56.407 Y79.763 E3.87648
G1 X53.441 Y76.796 E3.95510
G1 X53.441 Y76.180 E3.96664
G1 X57.023 Y79.763 E4.06159
G1 X57.640 Y79.763 E4.07314
G1 X53.441 Y75.564 E4.18441
G1 X53.441 Y74.948 E4.19596
G1 X58.256 Y79.763 E4.32356
G1 X58.872 Y79.763 E4.33510
G1 X49.909 Y70.800 E4.57264
G1 X50.525 Y70.800 E4.58418
G1 X59.488 Y79.763 E4.82172
G1 X60.104 Y79.763 E4.83326
G1 X51.141 Y70.800 E5.07080
G1 X51.757 Y70.800 E5.08234
G1 X60.720 Y79.763 E5.31987
G1 X61.336 Y79.763 E5.33142
G1 X52.373 Y70.800 E5.56895
G1 X52.989 Y70.800 E5.58050
G1 X61.952 Y79.763 E5.81803
G1 X62.569 Y79.763 E5.82958
G1 X53.441 Y70.635 E6.07148
G1 X53.441 Y70.019 E6.08302
G1 X63.185 Y79.763 E6.34125
G1 X63.801 Y79.763 E6.35280
G1 X53.441 Y69.403 E6.62735
G1 X53.441 Y68.786 E6.63890
G1 X64.417 Y79.763 E6.92978
G1 X65.033 Y79.763 E6.94133
G1 X53.441 Y68.170 E7.24854
G1 X53.441 Y67.554 E7.26008
G1 X65.649 Y79.763 E7.58362
G1 X66.265 Y79.763 E7.59517
G1 X53.441 Y66.938 E7.93504
G1 X53.441 Y66.322 E7.94658
G1 X66.881 Y79.763 E8.30278
G1 X67.498 Y79.763 E8.31432
G1 X53.441 Y65.706 E8.68685
G1 X53.441 Y65.090 E8.69839
G1 X68.114 Y79.763 E9.08725
G1 X68.730 Y79.763 E9.09879
G1 X53.441 Y64.474 E9.50397
G1 X53.441 Y63.857 E9.51552
G1 X69.346 Y79.763 E9.93703
G1 X69.962 Y79.763 E9.94857
G1 X44.349 Y54.150 E10.62735
G1 X44.965 Y54.150 E10.63890
G1 X70.578 Y79.763 E11.31768
G1 X71.194 Y79.763 E11.32922
G1 X45.581 Y54.150 E12.00800
G1 X46.197 Y54.150 E12.01955
G1 X71.810 Y79.763 E12.69833
G1 X72.427 Y79.763 E12.70988
G1 X52.314 Y59.650 E13.24290
G1 X52.930 Y59.650 E13.25444
G1 X73.043 Y79.763 E13.78747
G1 X73.659 Y79.763 E13.79901
G1 X53.546 Y59.650 E14.33204
G1 X54.162 Y59.650 E14.34358
G1 X74.275 Y79.763 E14.87660
G1 X74.891 Y79.763 E14.88815
G1 X54.778 Y59.650 E15.42117
G1 X55.394 Y59.650 E15.43272
G1 X75.507 Y79.763 E15.96574
G1 X76.123 Y79.763 E15.97729
G1 X56.010 Y59.650 E16.51031
G1 X56.626 Y59.650 E16.52186
G1 X76.739 Y79.763 E17.05488
G1 X77.356 Y79.763 E17.06642
G1 X57.243 Y59.650 E17.59945
G1 X57.859 Y59.650 E17.61099
G1 X77.972 Y79.763 E18.14402
G1 X78.588 Y79.763 E18.15556
G1 X58.475 Y59.650 E18.68859
G1 X59.091 Y59.650 E18.70013
G1 X79.204 Y79.763 E19.23315
G1 X79.820 Y79.763 E19.24470
G1 X59.707 Y59.650 E19.77772
G1 X60.323 Y59.650 E19.78927
G1 X80.436 Y79.763 E20.32229
G1 X81.052 Y79.763 E20.33384
G1 X60.939 Y59.650 E20.86686
G1 X61.555 Y59.650 E20.87841
G1 X81.668 Y79.763 E21.41143
G1 X82.285 Y79.763 E21.42297
G1 X62.172 Y59.650 E21.95600
G1 X62.788 Y59.650 E21.96754
G1 X82.901 Y79.763 E22.50057
G1 X83.517 Y79.763 E22.51211
G1 X63.404 Y59.650 E23.04513
G1 X64.020 Y59.650 E23.05668
G1 X84.133 Y79.763 E23.58970
G1 X84.749 Y79.763 E23.60125
G1 X64.636 Y59.650 E24.13427
G1 X65.252 Y59.650 E24.14582
G1 X85.365 Y79.763 E24.67884
G1 X85.981 Y79.763 E24.69039
G1 X65.868 Y59.650 E25.22341
G1 X66.484 Y59.650 E25.23496
G1 X86.597 Y79.763 E25.76798
G1 X87.214 Y79.763 E25.77952
G1 X67.100 Y59.650 E26.31255
G1 X67.717 Y59.650 E26.32409
G1 X87.830 Y79.763 E26.85712
G1 X88.446 Y79.763 E26.86866
G1 X68.333 Y59.650 E27.40168
G1 X68.949 Y59.650 E27.41323
G1 X89.062 Y79.763 E27.94625
G1 X89.678 Y79.763 E27.95780
G1 X69.565 Y59.650 E28.49082
G1 X70.181 Y59.650 E28.50237
G1 X90.294 Y79.763 E29.03539
G1 X90.910 Y79.763 E29.04694
G1 X70.797 Y59.650 E29.57996
G1 X71.413 Y59.650 E29.59150
G1 X91.526 Y79.763 E30.12453
G1 X92.143 Y79.763 E30.13607
G1 X72.029 Y59.650 E30.66910
G1 X72.646 Y59.650 E30.68064
G1 X92.759 Y79.763 E31.21366
G1 X93.375 Y79.763 E31.22521
G1 X73.262 Y59.650 E31.75823
G1 X73.878 Y59.650 E31.76978
G1 X93.991 Y79.763 E32.30280
G1 X94.607 Y79.763 E32.31435
G1 X74.494 Y59.650 E32.84737
G1 X75.110 Y59.650 E32.85892
G1 X95.223 Y79.763 E33.39194
G1 X95.839 Y79.763 E33.40349
G1 X75.726 Y59.650 E33.93651
G1 X76.342 Y59.650 E33.94805
G1 X96.455 Y79.763 E34.48108
G1 X97.072 Y79.763 E34.49262
G1 X76.958 Y59.650 E35.02565
G1 X77.575 Y59.650 E35.03719
G1 X97.688 Y79.763 E35.57021
G1 X98.304 Y79.763 E35.58176
G1 X78.191 Y59.650 E36.11478
G1 X78.807 Y59.650 E36.12633
G1 X98.920 Y79.763 E36.65935
G1 X99.536 Y79.763 E36.67090
G1 X79.423 Y59.650 E37.20392
G1 X80.039 Y59.650 E37.21547
G1 X100.152 Y79.763 E37.74849
G1 X100.768 Y79.763 E37.76003
G1 X80.655 Y59.650 E38.29306
G1 X81.271 Y59.650 E38.30460
G1 X101.384 Y79.763 E38.83763
G1 X102.001 Y79.763 E38.84917
G1 X81.887 Y59.650 E39.38220
G1 X82.504 Y59.650 E39.39374
G1 X102.617 Y79.763 E39.92676
G1 X103.233 Y79.763 E39.93831
G1 X83.120 Y59.650 E40.47133
G1 X83.736 Y59.650 E40.48288
G1 X103.849 Y79.763 E41.01590
G1 X104.465 Y79.763 E41.02745
G1 X84.352 Y59.650 E41.56047
G1 X84.968 Y59.650 E41.57202
G1 X105.081 Y79.763 E42.10504
G1 X105.697 Y79.763 E42.11658
G1 X85.584 Y59.650 E42.64961
G1 X86.200 Y59.650 E42.66115
G1 X106.313 Y79.763 E43.19418
G1 X106.930 Y79.763 E43.20572
G1 X86.816 Y59.650 E43.73874
G1 X87.433 Y59.650 E43.75029
G1 X107.546 Y79.763 E44.28331
G1 X108.162 Y79.763 E44.29486
G1 X88.049 Y59.650 E44.82788
G1 X88.665 Y59.650 E44.83943
G1 X108.778 Y79.763 E45.37245
G1 X109.394 Y79.763 E45.38400
G1 X89.281 Y59.650 E45.91702
G1 X89.897 Y59.650 E45.92857
G1 X110.010 Y79.763 E46.46159
G1 X110.626 Y79.763 E46.47313
G1 X90.513 Y59.650 E47.00616
G1 X91.129 Y59.650 E47.01770
G1 X111.242 Y79.763 E47.55073
G1 X111.859 Y79.763 E47.56227
G1 X91.745 Y59.650 E48.09529
G1 X92.362 Y59.650 E48.10684
G1 X112.475 Y79.763 E48.63986
G1 X113.091 Y79.763 E48.65141
G1 X92.978 Y59.650 E49.18443
G1 X93.594 Y59.650 E49.19598
G1 X113.707 Y79.763 E49.72900
G1 X114.323 Y79.763 E49.74055
G1 X94.210 Y59.650 E50.27357
G1 X94.826 Y59.650 E50.28511
G1 X114.939 Y79.763 E50.81814
G1 X115.555 Y79.763 E50.82968
G1 X95.442 Y59.650 E51.36271
G1 X96.058 Y59.650 E51.37425
G1 X116.171 Y79.763 E51.90727
G1 X116.788 Y79.763 E51.91882
G1 X96.674 Y59.650 E52.45184
G1 X97.291 Y59.650 E52.46339
G1 X117.404 Y79.763 E52.99641
G1 X118.020 Y79.763 E53.00796
G1 X97.907 Y59.650 E53.54098
G1 X98.523 Y59.650 E53.55253
G1 X118.636 Y79.763 E54.08555
G1 X119.252 Y79.763 E54.09710
G1 X99.139 Y59.650 E54.63012
G1 X99.755 Y59.650 E54.64166
G1 X119.868 Y79.763 E55.17469
G1 X120.484 Y79.763 E55.18623
G1 X100.371 Y59.650 E55.71926
G1 X100.987 Y59.650 E55.73080
G1 X121.100 Y79.763 E56.26382
G1 X121.717 Y79.763 E56.27537
G1 X101.603 Y59.650 E56.80839
G1 X102.220 Y59.650 E56.81994
G1 X122.333 Y79.763 E57.35296
G1 X122.949 Y79.763 E57.36451
G1 X102.836 Y59.650 E57.89753
G1 X103.452 Y59.650 E57.90908
G1 X123.565 Y79.763 E58.44210
G1 X124.181 Y79.763 E58.45364
G1 X104.068 Y59.650 E58.98667
G1 X104.684 Y59.650 E58.99821
G1 X124.797 Y79.763 E59.53124
G1 X125.413 Y79.763 E59.54278
G1 X105.300 Y59.650 E60.07580
G1 X105.916 Y59.650 E60.08735
G1 X126.029 Y79.763 E60.62037
G1 X126.646 Y79.763 E60.63192
G1 X106.532 Y59.650 E61.16494
G1 X107.149 Y59.650 E61.17649
G1 X127.262 Y79.763 E61.70951
G1 X127.878 Y79.763 E61.72106
G1 X107.765 Y59.650 E62.25408
G1 X108.381 Y59.650 E62.26562
G1 X128.494 Y79.763 E62.79865
G1 X129.110 Y79.763 E62.81019
G1 X108.997 Y59.650 E63.34322
G1 X109.613 Y59.650 E63.35476
G1 X129.554 Y79.590 E63.88322
G1 X129.554 Y78.974 E63.89477
G1 X110.229 Y59.650 E64.40689
G1 X110.845 Y59.650 E64.41844
G1 X129.554 Y78.358 E64.91424
G1 X129.554 Y77.742 E64.92579
G1 X111.461 Y59.650 E65.40526
G1 X112.078 Y59.650 E65.41680
G1 X129.554 Y77.126 E65.87995
G1 X129.554 Y76.510 E65.89150
G1 X112.694 Y59.650 E66.33831
G1 X113.310 Y59.650 E66.34986
G1 X129.554 Y75.894 E66.78035
G1 X129.554 Y75.277 E66.79189
G1 X113.926 Y59.650 E67.20605
G1 X114.542 Y59.650 E67.21760
G1 X129.554 Y74.661 E67.61543
G1 X129.554 Y74.045 E67.62698
G1 X115.158 Y59.650 E68.00848
G1 X115.774 Y59.650 E68.02003
G1 X129.554 Y73.429 E68.38520
G1 X129.554 Y72.813 E68.39675
G1 X116.390 Y59.650 E68.74560
G1 X117.007 Y59.650 E68.75714
G1 X129.554 Y72.197 E69.08966
G1 X129.554 Y71.581 E69.10121
G1 X117.623 Y59.650 E69.41740
G1 X118.239 Y59.650 E69.42894
G1 X129.554 Y70.965 E69.72881
G1 X129.554 Y70.349 E69.74035
G1 X118.855 Y59.650 E70.02389
G1 X119.471 Y59.650 E70.03544
G1 X129.554 Y69.732 E70.30264
G1 X129.554 Y69.116 E70.31419
G1 X120.087 Y59.650 E70.56507
G1 X120.703 Y59.650 E70.57661
G1 X129.554 Y68.500 E70.81117
G1 X129.554 Y67.884 E70.82271
G1 X121.319 Y59.650 E71.04093
G1 X121.936 Y59.650 E71.05248
G1 X129.554 Y67.268 E71.25437
G1 X129.554 Y66.652 E71.26592
G1 X122.552 Y59.650 E71.45149
G1 X123.168 Y59.650 E71.46303
G1 X129.554 Y66.036 E71.63227
G1 X129.554 Y65.420 E71.64382
G1 X123.784 Y59.650 E71.79673
G1 X124.400 Y59.650 E71.80827
G1 X129.554 Y64.803 E71.94486
G1 X129.554 Y64.187 E71.95640
G1 X125.016 Y59.650 E72.07666
G1 X125.632 Y59.650 E72.08820
G1 X129.554 Y63.571 E72.19213
G1 X129.554 Y62.955 E72.20368
G1 X126.248 Y59.650 E72.29127
G1 X126.865 Y59.650 E72.30282
G1 X129.554 Y62.339 E72.37409
G1 X129.554 Y61.723 E72.38564
G1 X127.481 Y59.650 E72.44058
G1 X128.097 Y59.650 E72.45212
G1 X129.554 Y61.107 E72.49074
G1 X129.554 Y60.491 E72.50228
G1 X128.713 Y59.650 E72.52457
G1 X129.329 Y59.650 E72.53612
G1 X129.554 Y59.874 E72.54207
G1 E70.54207 F1680.00000
G92 E0
G1 Z0.200 F12000.000
G1 X52.188 Y116.108 F12000.000
G1 E2.00000 F1680.00000
G1 X52.188 Y110.608 E2.10305 F900.000
G1 X40.188 Y110.608 E2.32790
G1 X40.188 Y106.629 E2.40245
G1 X52.188 Y106.629 E2.62730
G1 X52.188 Y99.458 E2.76167
G1 X40.188 Y99.458 E2.98652
G1 X40.188 Y89.979 E3.16412
G1 X50.817 Y89.979 E3.36328
G1 X50.817 Y95.479 E3.46633
G1 X128.817 Y95.479 E4.92784 F900.000
G1 X128.817 Y116.108 E5.31437
G1 X52.263 Y116.108 E6.74877
G1 X52.263 Y116.544 F12000.000
G1 X51.753 Y116.544 E6.75834 F720.000
G1 X51.753 Y111.044 E6.86140
G1 X39.753 Y111.044 E7.08624
G1 X39.753 Y106.194 E7.17712
G1 X51.753 Y106.194 E7.40197
G1 X51.753 Y99.894 E7.52001
G1 X39.753 Y99.894 E7.74486
G1 X39.753 Y89.544 E7.93879
G1 X51.253 Y89.544 E8.15427
G1 X51.253 Y95.044 E8.25732
G1 X129.253 Y95.044 E9.71883 F720.000
G1 X129.253 Y116.544 E10.12168
G1 X52.338 Y116.544 E11.56285
G1 X52.013 Y116.111 F12000.000
G1 X52.948 Y115.850 F12000.000
G1 X52.446 Y115.348 E11.57615 F1200.000
G1 X52.446 Y114.732 E11.58770
G1 X53.564 Y115.850 E11.61733
G1 X54.180 Y115.850 E11.62888
G1 X52.446 Y114.116 E11.67484
G1 X52.446 Y113.500 E11.68639
G1 X54.797 Y115.850 E11.74868
G1 X55.413 Y115.850 E11.76022
G1 X52.446 Y112.884 E11.83884
G1 X52.446 Y112.268 E11.85038
G1 X56.029 Y115.850 E11.94533
G1 X56.645 Y115.850 E11.95688
G1 X52.446 Y111.652 E12.06815
G1 X52.446 Y111.035 E12.07970
G1 X57.261 Y115.850 E12.20730
G1 X57.877 Y115.850 E12.21885
G1 X48.914 Y106.887 E12.45638
G1 X49.530 Y106.887 E12.46792
G1 X58.493 Y115.850 E12.70546
G1 X59.109 Y115.850 E12.71700
G1 X50.146 Y106.887 E12.95454
G1 X50.762 Y106.887 E12.96608
G1 X59.726 Y115.850 E13.20362
G1 X60.342 Y115.850 E13.21516
G1 X51.379 Y106.887 E13.45270
G1 X51.995 Y106.887 E13.46424
G1 X60.958 Y115.850 E13.70177
G1 X61.574 Y115.850 E13.71332
G1 X52.446 Y106.723 E13.95522
G1 X52.446 Y106.106 E13.96676
G1 X62.190 Y115.850 E14.22499
G1 X62.806 Y115.850 E14.23654
