; generated by Slic3r 1.2.9 on 2015-10-12 at 14:52:11

; external perimeters extrusion width = 0.50mm
; perimeters extrusion width = 0.50mm
; infill extrusion width = 0.50mm
; solid infill extrusion width = 0.50mm
; top infill extrusion width = 0.50mm
; support material extrusion width = 0.50mm

M104 S190 ; set temperature
G28 ; home all axes
G1 Z15 F120 ; lift nozzle
M109 S190 ; wait for temperature to be reached
G21 ; set units to millimeters
G90 ; use absolute coordinates
M82 ; use absolute distances for extrusion
G92 E0
M106 S102
G1 E-2.00000 F1680.00000
G92 E0
G1 Z0.350 F12000.000
G1 X64.305 Y47.340 F12000.000
G1 E2.00000 F1680.00000
G1 X65.831 Y45.446 E2.06847 F1200.000
G1 X72.751 Y39.613 E2.32325
G1 X75.323 Y38.295 E2.40462
G1 X83.427 Y36.253 E2.63989
G1 X86.572 Y36.253 E2.72843
G1 X94.708 Y38.302 E2.96463
G1 X97.294 Y39.630 E3.04647 F1200.000
G1 X104.193 Y45.469 E3.30092
G1 X105.644 Y47.225 E3.36503
G1 X110.338 Y56.116 E3.64808
G1 X111.001 Y58.103 E3.70705
G1 X112.621 Y68.427 E4.00124
G1 X112.621 Y70.423 E4.05742
G1 X111.004 Y80.731 E4.35117
G1 X110.829 Y81.519 E4.37388
G1 X96.674 Y130.544 E5.81043
G1 X95.675 Y132.572 E5.87406
G1 X94.037 Y134.130 E5.93769
G1 X91.962 Y135.025 E6.00133
G1 X90.490 Y135.195 E6.04303
G1 X79.510 Y135.195 E6.35215
G1 X77.284 Y134.798 E6.41578
G1 X75.334 Y133.657 E6.47941
G1 X73.898 Y131.911 E6.54305
G1 X73.326 Y130.545 E6.58472
G1 X59.163 Y81.520 E8.02133
G1 X58.991 Y80.750 E8.04353
G1 X57.370 Y70.423 E8.33783
G1 X57.370 Y68.427 E8.39402
G1 X58.988 Y58.121 E8.68770
G1 X59.589 Y56.241 E8.74327
G1 X64.270 Y47.406 E9.02473
G1 E7.02473 F1680.00000
G92 E0
G1 X80.475 Y94.962 F12000.000
G1 E2.00000 F1680.00000
G1 X85.000 Y96.101 E2.12145 F900.000
G1 X88.462 Y95.229 E2.21438
G1 X89.523 Y94.961 E2.24285 F900.000
G1 X87.763 Y97.913 E2.33230
G1 X87.770 Y97.945 E2.33314
G1 X86.941 Y99.911 E2.38867
G1 X86.357 Y103.139 E2.47407
G1 X86.318 Y103.197 E2.47588
G1 X86.273 Y103.433 E2.48214
G1 X83.724 Y103.433 E2.54848
G1 X83.034 Y99.924 E2.64156
G1 X82.251 Y97.993 E2.69580
G1 X82.259 Y97.951 E2.69691
G1 X80.514 Y95.026 E2.78557
G1 X80.468 Y94.462 F12000.000
G1 E0.78557 F1680.00000
G92 E0
G1 X81.496 Y123.093 F12000.000
G1 E2.00000 F1680.00000
G1 X81.496 Y121.399 E2.04410 F900.000
G1 X81.553 Y121.074 E2.05268
G1 X81.627 Y120.940 E2.05668
G1 X83.422 Y120.076 E2.10852
G1 X81.629 Y119.198 E2.16048
G1 X81.552 Y119.061 E2.16456
G1 X81.506 Y118.799 E2.17150
G1 X81.553 Y118.533 E2.17851
G1 X81.629 Y118.395 E2.18261
G1 X83.422 Y117.532 E2.23441
G1 X81.629 Y116.654 E2.28637
G1 X81.552 Y116.517 E2.29045
G1 X81.506 Y116.255 E2.29739
G1 X81.553 Y115.989 E2.30440
G1 X81.629 Y115.851 E2.30850
G1 X83.428 Y114.985 E2.36049
G1 X81.628 Y114.113 E2.41256
G1 X81.552 Y113.978 E2.41658
G1 X81.506 Y113.711 E2.42362
G1 X81.552 Y113.447 E2.43062
G1 X81.628 Y113.311 E2.43467
G1 X83.422 Y112.437 E2.48659
G1 X81.628 Y111.569 E2.53847
G1 X81.552 Y111.434 E2.54249
G1 X81.506 Y111.168 E2.54952
G1 X81.552 Y110.907 E2.55642
G1 X81.628 Y110.770 E2.56048
G1 X83.422 Y109.892 E2.61246
G1 X81.627 Y109.028 E2.66431
G1 X81.552 Y108.894 E2.66830
G1 X81.496 Y108.573 E2.67679
G1 X81.496 Y108.372 E2.68202
G1 X83.483 Y107.245 E2.74146
G1 X84.686 Y107.004 E2.77342
G1 X84.128 Y105.266 E2.82095
G1 X83.774 Y103.836 E2.85928
G1 X86.225 Y103.836 E2.92307
G1 X85.870 Y105.266 E2.96140
G1 X85.312 Y107.004 E3.00894 F900.000
G1 X86.516 Y107.245 E3.04089
G1 X88.503 Y108.372 E3.10037
G1 X88.503 Y108.573 E3.10560
G1 X88.448 Y108.892 E3.11405
G1 X88.372 Y109.028 E3.11809
G1 X86.578 Y109.892 E3.16992
G1 X88.371 Y110.770 E3.22187
G1 X88.448 Y110.908 E3.22598
G1 X88.494 Y111.168 E3.23284
G1 X88.448 Y111.433 E3.23984
G1 X88.371 Y111.568 E3.24389
G1 X86.578 Y112.437 E3.29576
G1 X88.371 Y113.311 E3.34768
G1 X88.448 Y113.448 E3.35176
G1 X88.494 Y113.711 E3.35872
G1 X88.448 Y113.977 E3.36573
G1 X88.371 Y114.112 E3.36978
G1 X86.571 Y114.985 E3.42184
G1 X88.370 Y115.852 E3.47382
G1 X88.448 Y115.990 E3.47795
G1 X88.494 Y116.255 E3.48493
G1 X88.448 Y116.516 E3.49184
G1 X88.371 Y116.654 E3.49594
G1 X86.578 Y117.532 E3.54790
G1 X88.370 Y118.396 E3.59969
G1 X88.448 Y118.534 E3.60382
G1 X88.494 Y118.799 E3.61081
G1 X88.448 Y119.060 E3.61771
G1 X88.371 Y119.198 E3.62182
G1 X86.578 Y120.076 E3.67377
G1 X88.372 Y120.940 E3.72560
G1 X88.448 Y121.075 E3.72963
G1 X88.503 Y121.399 E3.73818
G1 X88.503 Y123.478 E3.79230
G1 X89.837 Y123.478 E3.82701
G1 X89.837 Y128.106 E3.94745
G1 X80.163 Y128.106 E4.19924
G1 X80.163 Y123.478 E4.31968
G1 X81.496 Y123.478 E4.35439
G1 X81.496 Y123.168 E4.36246
G1 E2.36246 F1680.00000
G92 E0
G1 X84.988 Y92.347 F12000.000
G1 E2.00000 F1680.00000
G1 X77.962 Y90.572 E2.18863 F900.000
G1 X72.059 Y85.576 E2.38992
G1 X68.139 Y78.152 E2.60845
G1 X66.769 Y69.423 E2.83844
G1 X68.138 Y60.715 E3.06788
G1 X72.059 Y53.276 E3.28677
G1 X77.971 Y48.272 E3.48838
G1 X84.665 Y46.586 E3.66803
G1 X84.994 Y46.503 E3.67689 F900.000
G1 X92.025 Y48.270 E3.86557
G1 X97.937 Y53.272 E4.06715
G1 X101.857 Y60.696 E4.28567
G1 X103.230 Y69.405 E4.51515
G1 X101.855 Y78.163 E4.74590
G1 X97.944 Y85.571 E4.96393
G1 X92.019 Y90.582 E5.16592
G1 X85.061 Y92.329 E5.35265
G1 X84.989 Y91.931 F12000.000
G1 X78.151 Y90.204 E5.53620 F720.000
G1 X72.380 Y85.319 E5.73303
G1 X68.527 Y78.023 E5.94777
G1 X67.177 Y69.423 E6.17436
G1 X68.526 Y60.844 E6.40041
G1 X72.379 Y53.534 E6.61551
G1 X78.161 Y48.641 E6.81265
G1 X84.763 Y46.977 E6.98987
G1 X84.994 Y46.919 E6.99608 F720.000
G1 X91.835 Y48.639 E7.17969
G1 X97.617 Y53.530 E7.37680
G1 X101.469 Y60.825 E7.59154
G1 X102.821 Y69.405 E7.81763
G1 X101.467 Y78.034 E8.04497
G1 X97.624 Y85.313 E8.25922
G1 X91.830 Y90.213 E8.45674
G1 X85.061 Y91.913 E8.63838
G1 X84.704 Y92.342 F12000.000
G1 X71.292 Y88.740 F12000.000
G1 X70.480 Y88.053 E8.66606 F900.000
G1 X65.975 Y79.524 E8.91712
G1 X64.390 Y69.425 E9.18321
G1 X65.975 Y59.329 E9.44924
G1 X70.509 Y50.775 E9.70122
G1 X77.202 Y45.133 E9.92907
G1 X85.000 Y43.168 E10.13839
G1 X86.136 Y43.454 E10.16890
G1 X92.829 Y45.140 E10.34855 F900.000
G1 X99.516 Y50.799 E10.57656
G1 X104.017 Y59.328 E10.82757
G1 X105.601 Y69.425 E11.09360
G1 X104.017 Y79.524 E11.35968
G1 X99.488 Y88.078 E11.61161
G1 X92.660 Y93.854 E11.84441
G1 X90.262 Y96.997 E11.94730
G1 X89.803 Y97.466 E11.96438
G1 X89.550 Y97.893 E11.97730
G1 X88.461 Y98.905 E12.01599
G1 X87.794 Y98.927 E12.03337
G1 X88.191 Y97.984 E12.05999
G1 X90.368 Y94.331 E12.17067
G1 X85.000 Y95.684 E12.31475
G1 X79.630 Y94.333 E12.45888
G1 X81.819 Y98.001 E12.57006
G1 X82.194 Y98.926 E12.59605
G1 X81.538 Y98.905 E12.61313
G1 X80.448 Y97.893 E12.65184
G1 X80.195 Y97.466 E12.66476
G1 X79.736 Y96.996 E12.68187
G1 X77.308 Y93.833 E12.78566
G1 X71.349 Y88.788 E12.98887
G1 X71.089 Y89.096 F12000.000
G1 X70.160 Y88.310 E13.02054 F720.000
G1 X65.587 Y79.653 E13.27538
G1 X63.981 Y69.425 E13.54487
G1 X65.587 Y59.199 E13.81429
G1 X70.189 Y50.517 E14.07007
G1 X77.013 Y44.765 E14.30238
G1 X85.000 Y42.752 E14.51677
G1 X86.235 Y43.063 E14.54992
G1 X93.019 Y44.772 E14.73201 F720.000
G1 X99.836 Y50.542 E14.96449
G1 X104.405 Y59.199 E15.21928
G1 X106.010 Y69.425 E15.48871
G1 X104.405 Y79.653 E15.75819
G1 X99.808 Y88.335 E16.01391
G1 X92.954 Y94.134 E16.24759
G1 X90.568 Y97.261 E16.34998
G1 X90.125 Y97.713 E16.36644
G1 X89.867 Y98.149 E16.37962
G1 X88.625 Y99.303 E16.42375
G1 X87.676 Y99.334 E16.44847
G1 X87.339 Y100.134 E16.47106
G1 X86.764 Y103.340 E16.55584
G1 X86.258 Y105.376 E16.61044
G1 X85.834 Y106.697 E16.64657
G1 X86.658 Y106.862 E16.66844
G1 X88.907 Y108.137 E16.73572
G1 X88.907 Y108.607 E16.74798
G1 X88.833 Y109.030 E16.75914
G1 X88.661 Y109.336 E16.76828
G1 X87.501 Y109.895 E16.80180
G1 X88.661 Y110.463 E16.83542
G1 X88.833 Y110.770 E16.84459
G1 X88.903 Y111.167 E16.85508
G1 X88.833 Y111.570 E16.86571
G1 X88.661 Y111.876 E16.87486
G1 X87.501 Y112.438 E16.90841
G1 X88.661 Y113.004 E16.94199
G1 X88.833 Y113.310 E16.95115
G1 X88.903 Y113.711 E16.96174
G1 X88.833 Y114.114 E16.97239
G1 X88.661 Y114.420 E16.98153
G1 X87.498 Y114.984 E17.01516
G1 X88.660 Y115.544 E17.04874
G1 X88.833 Y115.854 E17.05797
G1 X88.903 Y116.255 E17.06857
G1 X88.833 Y116.654 E17.07911
G1 X88.661 Y116.961 E17.08828
G1 X87.501 Y117.529 E17.12189
G1 X88.660 Y118.088 E17.15540
G1 X88.833 Y118.398 E17.16463
G1 X88.903 Y118.799 E17.17523
G1 X88.833 Y119.198 E17.18577
G1 X88.661 Y119.505 E17.19494
G1 X87.501 Y120.073 E17.22855
G1 X88.661 Y120.632 E17.26207
G1 X88.833 Y120.938 E17.27121
G1 X88.907 Y121.364 E17.28247
G1 X88.907 Y123.075 E17.32700
G1 X90.240 Y123.075 E17.36170
G1 X90.240 Y128.509 E17.50314
G1 X79.760 Y128.509 E17.77594
G1 X79.760 Y123.075 E17.91738
G1 X81.093 Y123.075 E17.95209
G1 X81.093 Y121.364 E17.99661
G1 X81.167 Y120.938 E18.00789
G1 X81.337 Y120.632 E18.01700
G1 X82.498 Y120.073 E18.05053
G1 X81.338 Y119.505 E18.08416
G1 X81.167 Y119.198 E18.09330
G1 X81.097 Y118.799 E18.10385
G1 X81.167 Y118.397 E18.11446
G1 X81.338 Y118.088 E18.12367
G1 X82.498 Y117.529 E18.15719
G1 X81.338 Y116.961 E18.19082
G1 X81.167 Y116.654 E18.19996
G1 X81.097 Y116.255 E18.21051
G1 X81.167 Y115.853 E18.22112
G1 X81.338 Y115.544 E18.23033
G1 X82.501 Y114.984 E18.26392
G1 X81.338 Y114.420 E18.29756
G1 X81.167 Y114.114 E18.30668
G1 X81.097 Y113.711 E18.31733
G1 X81.167 Y113.310 E18.32793
G1 X81.338 Y113.003 E18.33707
G1 X82.498 Y112.438 E18.37066
G1 X81.338 Y111.876 E18.40423
G1 X81.167 Y111.570 E18.41335
G1 X81.097 Y111.167 E18.42400
G1 X81.167 Y110.770 E18.43450
G1 X81.337 Y110.464 E18.44363
G1 X82.498 Y109.895 E18.47727
G1 X81.337 Y109.336 E18.51083
G1 X81.167 Y109.030 E18.51992
G1 X81.093 Y108.607 E18.53110
G1 X81.093 Y108.137 E18.54336
G1 X83.340 Y106.862 E18.61060
G1 X84.164 Y106.697 E18.63247
G1 X83.740 Y105.376 E18.66859
G1 X83.236 Y103.340 E18.72319
G1 X82.653 Y100.140 E18.80785
G1 X82.327 Y99.334 E18.83048
G1 X81.374 Y99.303 E18.85528
G1 X80.130 Y98.149 E18.89944
G1 X79.873 Y97.713 E18.91261
G1 X79.430 Y97.261 E18.92908
G1 X77.014 Y94.113 E19.03238
G1 X71.146 Y89.145 E19.23251
G1 X71.178 Y88.604 F12000.000
G1 X71.009 Y88.090 F12000.000
G1 X70.619 Y87.700 E19.24692 F1200.000
G1 X69.978 Y86.486 F12000.000
G1 X74.746 Y91.254 E19.42317 F1200.000
G1 X77.629 Y90.700 F12000.000
G1 X81.451 Y94.522 E19.56445 F1200.000
G1 X82.217 Y94.715 E19.58508
G1 X78.472 Y90.970 E19.72351
G1 X79.238 Y91.164 E19.74417
G1 X82.982 Y94.908 E19.88256
G1 X83.748 Y95.100 E19.90319
G1 X80.005 Y91.357 E20.04155
G1 X80.771 Y91.551 E20.06221
G1 X84.514 Y95.293 E20.20053
G1 X85.201 Y95.408 E20.21875
G1 X81.538 Y91.744 E20.35416
G1 X82.304 Y91.938 E20.37483
G1 X85.659 Y95.293 E20.49882
G1 X86.116 Y95.177 E20.51115
G1 X83.071 Y92.132 E20.62372
G1 X83.837 Y92.325 E20.64438
G1 X86.574 Y95.062 E20.74553
G1 X87.031 Y94.947 E20.75786
G1 X84.604 Y92.519 E20.84760
G1 X85.182 Y92.524 E20.86271
G1 X87.489 Y94.831 E20.94798
G1 X87.946 Y94.716 E20.96031
G1 X85.640 Y92.409 E21.04557
G1 X86.098 Y92.294 E21.05791
G1 X88.404 Y94.601 E21.14315
G1 X88.861 Y94.485 E21.15548
G1 X86.556 Y92.179 E21.24071
G1 X87.013 Y92.064 E21.25305
G1 X89.319 Y94.370 E21.33827
G1 X89.777 Y94.255 E21.35060
G1 X87.471 Y91.949 E21.43580
G1 X87.929 Y91.834 E21.44814
G1 X90.234 Y94.139 E21.53333
G1 X90.539 Y94.445 F12000.000
G1 X91.342 Y95.247 E21.56298 F1200.000
G1 X91.094 Y95.572 E21.57367
G1 X90.326 Y94.804 E21.60206
G1 X90.112 Y95.163 E21.61298
G1 X90.846 Y95.897 E21.64012
G1 X90.598 Y96.222 E21.65080
G1 X89.898 Y95.522 E21.67668
G1 X89.684 Y95.880 E21.68760
G1 X90.350 Y96.547 E21.71223
G1 X90.102 Y96.872 E21.72291
G1 X89.470 Y96.239 E21.74627
G1 X89.256 Y96.598 E21.75719
G1 X89.819 Y97.161 E21.77800
G1 X89.559 Y97.474 E21.78863
G1 X89.042 Y96.957 E21.80774
G1 X88.828 Y97.316 E21.81866
G1 X89.332 Y97.820 E21.83728
G1 X91.590 Y94.922 F12000.000
G1 X88.387 Y91.719 E21.95565 F1200.000
G1 X88.845 Y91.604 E21.96799
G1 X91.837 Y94.597 E22.07859
G1 X92.085 Y94.272 E22.08927
G1 X89.303 Y91.490 E22.19212
G1 X89.761 Y91.375 E22.20446
G1 X92.333 Y93.947 E22.29954
G1 X92.599 Y93.640 E22.31015
G1 X90.219 Y91.260 E22.39814
G1 X90.677 Y91.145 E22.41048
G1 X92.910 Y93.378 E22.49301
G1 X93.220 Y93.115 E22.50364
G1 X91.134 Y91.030 E22.58072
G1 X91.592 Y90.915 E22.59305
G1 X93.530 Y92.853 E22.66468
G1 X93.841 Y92.590 E22.67530
G1 X92.050 Y90.800 E22.74148
G1 X92.372 Y90.548 E22.75214
G1 X94.151 Y92.327 E22.81790
G1 X94.461 Y92.065 E22.82853
G1 X92.682 Y90.286 E22.89428
G1 X92.992 Y90.023 E22.90491
G1 X94.772 Y91.802 E22.97066
G1 X95.082 Y91.540 E22.98129
G1 X93.303 Y89.761 E23.04704
G1 X93.613 Y89.498 E23.05767
G1 X95.392 Y91.277 E23.12342
G1 X95.703 Y91.015 E23.13404
G1 X93.924 Y89.236 E23.19980
G1 X94.234 Y88.973 E23.21042
G1 X96.013 Y90.752 E23.27617
G1 X96.323 Y90.490 E23.28679
G1 X94.544 Y88.711 E23.35254
G1 X94.855 Y88.448 E23.36317
G1 X96.634 Y90.227 E23.42891
G1 X96.944 Y89.965 E23.43954
G1 X95.165 Y88.186 E23.50528
G1 X95.476 Y87.923 E23.51590
G1 X97.254 Y89.702 E23.58165
G1 X97.565 Y89.440 E23.59227
G1 X95.786 Y87.661 E23.65801
G1 X96.096 Y87.398 E23.66864
G1 X97.875 Y89.177 E23.73438
G1 X98.185 Y88.915 E23.74500
G1 X96.407 Y87.136 E23.81074
G1 X96.717 Y86.873 E23.82136
G1 X98.496 Y88.652 E23.88710
G1 X98.806 Y88.389 E23.89772
G1 X97.027 Y86.611 E23.96346
G1 X97.338 Y86.348 E23.97408
G1 X99.116 Y88.127 E24.03981
G1 X99.387 Y87.825 E24.05042
G1 X97.648 Y86.086 E24.11469
G1 X97.959 Y85.824 E24.12531
G1 X99.585 Y87.450 E24.18544
G1 X99.784 Y87.076 E24.19651
G1 X98.213 Y85.505 E24.25456
G1 X98.411 Y85.130 E24.26564
G1 X99.982 Y86.701 E24.32370
G1 X100.180 Y86.327 E24.33478
G1 X98.609 Y84.755 E24.39285
G1 X98.807 Y84.380 E24.40393
G1 X100.379 Y85.952 E24.46202
G1 X100.577 Y85.578 E24.47309
G1 X99.005 Y84.006 E24.53120
G1 X99.203 Y83.631 E24.54228
G1 X100.775 Y85.203 E24.60039
G1 X100.974 Y84.828 E24.61147
G1 X99.401 Y83.256 E24.66960
G1 X99.599 Y82.881 E24.68068
G1 X101.172 Y84.454 E24.73882
G1 X101.370 Y84.079 E24.74990
G1 X99.797 Y82.506 E24.80806
G1 X99.995 Y82.131 E24.81914
G1 X101.568 Y83.705 E24.87731
G1 X101.767 Y83.330 E24.88839
G1 X100.193 Y81.756 E24.94658
G1 X100.390 Y81.381 E24.95766
G1 X101.965 Y82.956 E25.01586
G1 X102.163 Y82.581 E25.02694
G1 X100.588 Y81.006 E25.08515
G1 X100.786 Y80.631 E25.09623
G1 X102.362 Y82.207 E25.15446
G1 X102.560 Y81.832 E25.16554
G1 X100.984 Y80.256 E25.22378
G1 X101.182 Y79.881 E25.23486
G1 X102.758 Y81.457 E25.29312
G1 X102.957 Y81.083 E25.30420
G1 X101.380 Y79.506 E25.36247
G1 X101.578 Y79.131 E25.37355
G1 X103.155 Y80.708 E25.43184
G1 X103.353 Y80.334 E25.44291
G1 X101.776 Y78.756 E25.50121
G1 X101.974 Y78.382 E25.51229
G1 X103.552 Y79.959 E25.57061
G1 X103.750 Y79.585 E25.58168
G1 X102.116 Y77.951 E25.64207
G1 X102.194 Y77.456 E25.65517
G1 X103.853 Y79.115 E25.71650
G1 X103.931 Y78.620 E25.72960
G1 X102.272 Y76.961 E25.79092
G1 X102.349 Y76.465 E25.80402
G1 X104.008 Y78.124 E25.86534
G1 X104.086 Y77.629 E25.87844
G1 X102.427 Y75.970 E25.93976
G1 X102.505 Y75.475 E25.95286
G1 X104.164 Y77.134 E26.01419
G1 X104.241 Y76.639 E26.02728
G1 X102.582 Y74.980 E26.08861
G1 X102.660 Y74.485 E26.10170
G1 X104.319 Y76.144 E26.16302
G1 X104.397 Y75.649 E26.17612
G1 X102.738 Y73.990 E26.23744
G1 X102.816 Y73.494 E26.25054
G1 X104.475 Y75.153 E26.31186
G1 X104.552 Y74.658 E26.32496
G1 X102.893 Y72.999 E26.38628
G1 X102.971 Y72.504 E26.39938
G1 X104.630 Y74.163 E26.46069
G1 X104.708 Y73.668 E26.47379
G1 X103.049 Y72.009 E26.53511
G1 X103.126 Y71.514 E26.54821
G1 X104.785 Y73.173 E26.60952
G1 X104.863 Y72.678 E26.62262
G1 X103.204 Y71.019 E26.68393
G1 X103.282 Y70.524 E26.69703
G1 X104.941 Y72.182 E26.75835
G1 X105.018 Y71.687 E26.77145
G1 X103.360 Y70.028 E26.83276
G1 X103.437 Y69.533 E26.84586
G1 X105.096 Y71.192 E26.90717
G1 X105.174 Y70.697 E26.92027
G1 X103.410 Y68.933 E26.98546
G1 X103.303 Y68.253 E27.00346
G1 X105.251 Y70.202 E27.07549
G1 X105.329 Y69.707 E27.08859
G1 X103.195 Y67.573 E27.16745
G1 X103.088 Y66.893 E27.18544
G1 X105.295 Y69.100 E27.26702
G1 X105.189 Y68.421 E27.28500
G1 X102.981 Y66.213 E27.36660
G1 X102.874 Y65.533 E27.38459
G1 X105.082 Y67.741 E27.46622
G1 X104.976 Y67.061 E27.48419
G1 X102.767 Y64.853 E27.56584
G1 X102.659 Y64.173 E27.58383
G1 X104.869 Y66.382 E27.66549
G1 X104.762 Y65.702 E27.68347
G1 X102.552 Y63.492 E27.76515
