; generated by Slic3r 1.2.9 on 2015-09-05 at 01:15:15

; external perimeters extrusion width = 0.50mm
; perimeters extrusion width = 0.50mm
; infill extrusion width = 0.50mm
; solid infill extrusion width = 0.50mm
; top infill extrusion width = 0.50mm

M104 S190 ; set temperature
G28 ; home all axes
G1 Z15 F120 ; lift nozzle
M109 S190 ; wait for temperature to be reached
G21 ; set units to millimeters
G90 ; use absolute coordinates
M82 ; use absolute distances for extrusion
G92 E0
M106 S102
G1 E-2.00000 F1680.00000
G92 E0
G1 Z0.350 F12000.000
G1 X57.477 Y59.824 F12000.000
G1 E2.00000 F1680.00000
G1 X59.222 Y58.388 E2.06363 F1200.000
G1 X62.374 Y57.564 E2.15535
G1 X104.500 Y57.564 E3.34127
G1 X106.725 Y57.961 E3.40490
G1 X108.676 Y59.102 E3.46853 F1200.000
G1 X109.705 Y60.214 E3.51119
G1 X117.705 Y71.214 E3.89410
G1 X118.693 Y73.247 E3.95773
G1 X118.936 Y75.000 E4.00754
G1 X118.936 Y83.000 E4.23276
G1 X118.539 Y85.225 E4.29639
G1 X117.217 Y87.380 E4.36756
G1 X104.217 Y101.380 E4.90540
G1 X102.561 Y102.662 E4.96435
G1 X85.915 Y111.662 E5.49708
G1 X82.854 Y112.436 E5.58597
G1 X65.746 Y112.436 E6.06758
G1 X63.521 Y112.039 E6.13121
G1 X61.570 Y110.898 E6.19485
G1 X59.719 Y108.258 E6.28561
G1 X56.347 Y99.258 E6.55618
G1 X55.938 Y97.000 E6.62078
G1 X55.938 Y64.000 E7.54979
G1 X56.335 Y61.775 E7.61342
G1 X57.439 Y59.889 E7.67494
G1 E5.67494 F1680.00000
G92 E0
G1 X82.178 Y66.347 F12000.000
G1 E2.00000 F1680.00000
G1 X86.518 Y66.347 E2.11297 F900.000
G1 X87.693 Y66.413 E2.14359
G1 X88.871 Y66.613 E2.17469
G1 X90.019 Y66.943 E2.20579
G1 X91.123 Y67.401 E2.23689
G1 X92.169 Y67.979 E2.26798
G1 X93.143 Y68.670 E2.29908
G1 X94.034 Y69.466 E2.33018
G1 X94.830 Y70.357 E2.36128
G1 X95.521 Y71.331 E2.39238
G1 X96.099 Y72.377 E2.42348
G1 X96.557 Y73.481 E2.45458
G1 X96.887 Y74.629 E2.48568
G1 X97.087 Y75.807 E2.51678
G1 X97.153 Y76.982 E2.54740
G1 X97.153 Y87.653 E2.82518
G1 X82.209 Y87.653 E3.21416
G1 X82.209 Y76.541 E3.50340
G1 X82.179 Y66.422 E3.76680
G1 X82.583 Y66.750 F12000.000
G1 X86.507 Y66.750 E3.86894 F720.000
G1 X87.648 Y66.814 E3.89868
G1 X88.781 Y67.007 E3.92860
G1 X89.885 Y67.325 E3.95852
G1 X90.947 Y67.765 E3.98844
G1 X91.954 Y68.321 E4.01836
G1 X92.891 Y68.986 E4.04828
G1 X93.748 Y69.752 E4.07820
G1 X94.514 Y70.609 E4.10812
G1 X95.179 Y71.546 E4.13804
G1 X95.735 Y72.553 E4.16796
G1 X96.175 Y73.615 E4.19788
G1 X96.493 Y74.719 E4.22780
G1 X96.686 Y75.852 E4.25772
G1 X96.750 Y76.993 E4.28745
G1 X96.750 Y87.250 E4.55443
G1 X82.613 Y87.250 E4.92241
G1 X82.613 Y76.540 E5.20117
G1 X82.583 Y66.825 E5.45405
G1 X82.582 Y66.250 F12000.000
G1 E3.45405 F1680.00000
G92 E0
G1 X66.387 Y75.952 F12000.000
G1 E2.00000 F1680.00000
G1 X66.384 Y66.347 E2.25001 F900.000
G1 X64.847 Y66.347 E2.29002
G1 X64.847 Y96.347 E3.07089
G1 X63.028 Y96.347 E3.11823
G1 X63.028 Y64.653 E3.94317
G1 X103.847 Y64.653 E5.00564
G1 X103.847 Y75.653 E5.29195
G1 X111.847 Y75.653 E5.50019 F900.000
G1 X111.847 Y82.347 E5.67440
G1 X98.847 Y82.347 E6.01278
G1 X98.847 Y96.347 E6.37719
G1 X82.210 Y96.347 E6.81022
G1 X82.201 Y105.347 E7.04448
G1 X80.989 Y105.347 E7.07604
G1 X80.988 Y65.347 E8.11720
G1 X67.615 Y65.347 E8.46529
G1 X67.611 Y105.347 E9.50645
G1 X66.399 Y105.347 E9.53800
G1 X66.387 Y76.027 E10.30116
G1 X65.984 Y76.027 F12000.000
G1 X65.980 Y66.750 E10.54263 F720.000
G1 X65.250 Y66.750 E10.56164
G1 X65.250 Y96.750 E11.34251
G1 X62.624 Y96.750 E11.41085
G1 X62.624 Y64.250 E12.25679
G1 X104.250 Y64.250 E13.34026
G1 X104.250 Y75.250 E13.62658
G1 X112.250 Y75.250 E13.83481 F720.000
G1 X112.250 Y82.750 E14.03003
G1 X99.250 Y82.750 E14.36841
G1 X99.250 Y96.750 E14.73281
G1 X82.613 Y96.750 E15.16586
G1 X82.604 Y105.750 E15.40012
G1 X80.585 Y105.750 E15.45267
G1 X80.584 Y65.750 E16.49383
G1 X68.018 Y65.750 E16.82092
G1 X68.015 Y105.750 E17.86208
G1 X65.996 Y105.750 E17.91462
G1 X65.984 Y76.102 E18.68634
G1 X66.417 Y75.777 F12000.000
G1 X67.176 Y65.102 F12000.000
G1 X66.964 Y64.891 E18.69419 F1200.000
G1 X66.388 Y64.891 E18.70933
G1 X67.377 Y65.880 E18.74610
G1 X67.377 Y66.456 E18.76125
G1 X65.812 Y64.891 E18.81944
G1 X65.236 Y64.891 E18.83459
G1 X67.377 Y67.032 E18.91420
G1 X67.377 Y67.608 E18.92934
G1 X66.621 Y66.852 E18.95745
G1 X66.621 Y67.429 E18.97260
G1 X67.377 Y68.184 E19.00070
G1 X67.377 Y68.761 E19.01585
G1 X66.622 Y68.005 E19.04393
G1 X66.622 Y68.582 E19.05909
G1 X67.377 Y69.337 E19.08716
G1 X67.377 Y69.913 E19.10231
G1 X66.622 Y69.158 E19.13037
G1 X66.622 Y69.735 E19.14553
G1 X67.377 Y70.489 E19.17358
G1 X67.377 Y71.065 E19.18873
G1 X66.623 Y70.311 E19.21677
G1 X66.623 Y70.887 E19.23193
G1 X67.377 Y71.641 E19.25996
G1 X67.377 Y72.218 E19.27511
G1 X66.623 Y71.464 E19.30313
G1 X66.623 Y72.040 E19.31828
G1 X67.377 Y72.794 E19.34630
G1 X67.377 Y73.370 E19.36144
G1 X66.623 Y72.617 E19.38945
G1 X66.624 Y73.193 E19.40460
G1 X67.377 Y73.946 E19.43259
G1 X67.377 Y74.522 E19.44774
G1 X66.624 Y73.770 E19.47572
G1 X66.624 Y74.346 E19.49087
G1 X67.377 Y75.099 E19.51885
G1 X67.377 Y75.675 E19.53399
G1 X66.624 Y74.923 E19.56195
G1 X66.625 Y75.499 E19.57711
G1 X67.376 Y76.251 E19.60506
G1 X67.376 Y76.827 E19.62021
G1 X66.625 Y76.076 E19.64815
G1 X66.625 Y76.652 E19.66330
G1 X67.376 Y77.403 E19.69123
G1 X67.376 Y77.979 E19.70638
G1 X66.625 Y77.228 E19.73430
G1 X66.626 Y77.805 E19.74945
G1 X67.376 Y78.556 E19.77736
G1 X67.376 Y79.132 E19.79251
G1 X66.626 Y78.381 E19.82041
G1 X66.626 Y78.958 E19.83556
G1 X67.376 Y79.708 E19.86345
G1 X67.376 Y80.284 E19.87859
G1 X66.626 Y79.534 E19.90647
G1 X66.627 Y80.111 E19.92163
G1 X67.376 Y80.860 E19.94949
G1 X67.376 Y81.436 E19.96464
G1 X66.627 Y80.687 E19.99250
G1 X66.627 Y81.264 E20.00765
G1 X67.376 Y82.013 E20.03550
G1 X67.376 Y82.589 E20.05065
G1 X66.627 Y81.840 E20.07848
G1 X66.627 Y82.416 E20.09364
G1 X67.376 Y83.165 E20.12146
G1 X67.376 Y83.741 E20.13661
G1 X66.628 Y82.993 E20.16443
G1 X66.628 Y83.569 E20.17958
G1 X67.376 Y84.317 E20.20739
G1 X67.376 Y84.893 E20.22253
G1 X66.628 Y84.146 E20.25033
G1 X66.628 Y84.722 E20.26548
G1 X67.376 Y85.470 E20.29327
G1 X67.376 Y86.046 E20.30841
G1 X66.629 Y85.299 E20.33619
G1 X66.629 Y85.875 E20.35134
G1 X67.376 Y86.622 E20.37911
G1 X67.376 Y87.198 E20.39425
G1 X66.629 Y86.452 E20.42201
G1 X66.629 Y87.028 E20.43716
G1 X67.376 Y87.774 E20.46490
G1 X67.376 Y88.351 E20.48005
G1 X66.630 Y87.605 E20.50778
G1 X66.630 Y88.181 E20.52294
G1 X67.375 Y88.927 E20.55066
G1 X67.375 Y89.503 E20.56581
G1 X66.630 Y88.757 E20.59352
G1 X66.630 Y89.334 E20.60867
G1 X67.375 Y90.079 E20.63638
G1 X67.375 Y90.655 E20.65152
G1 X66.630 Y89.910 E20.67921
G1 X66.631 Y90.487 E20.69437
G1 X67.375 Y91.231 E20.72205
G1 X67.375 Y91.808 E20.73720
G1 X66.631 Y91.063 E20.76487
G1 X66.631 Y91.640 E20.78002
G1 X67.375 Y92.384 E20.80768
G1 X67.375 Y92.960 E20.82283
G1 X66.631 Y92.216 E20.85048
G1 X66.632 Y92.793 E20.86563
G1 X67.375 Y93.536 E20.89327
G1 X67.375 Y94.112 E20.90842
G1 X66.632 Y93.369 E20.93605
G1 X66.632 Y93.946 E20.95120
G1 X67.375 Y94.688 E20.97882
G1 X67.375 Y95.265 E20.99397
G1 X66.632 Y94.522 E21.02158
G1 X66.633 Y95.098 E21.03673
G1 X67.375 Y95.841 E21.06433
G1 X67.375 Y96.417 E21.07948
G1 X66.633 Y95.675 E21.10706
G1 X66.633 Y96.251 E21.12222
G1 X67.375 Y96.993 E21.14980
G1 X67.375 Y97.569 E21.16494
G1 X66.633 Y96.828 E21.19251
G1 X66.634 Y97.404 E21.20766
G1 X67.375 Y98.145 E21.23522
G1 X67.375 Y98.722 E21.25037
G1 X66.634 Y97.981 E21.27791
G1 X66.634 Y98.557 E21.29307
G1 X67.375 Y99.298 E21.32060
G1 X67.375 Y99.874 E21.33575
G1 X66.634 Y99.134 E21.36328
G1 X66.634 Y99.710 E21.37843
G1 X67.375 Y100.450 E21.40595
G1 X67.375 Y101.026 E21.42109
G1 X66.635 Y100.286 E21.44860
G1 X66.635 Y100.863 E21.46375
G1 X67.374 Y101.603 E21.49125
G1 X67.374 Y102.179 E21.50639
G1 X66.635 Y101.439 E21.53388
G1 X66.635 Y102.016 E21.54903
G1 X67.374 Y102.755 E21.57651
G1 X67.374 Y103.331 E21.59165
G1 X66.636 Y102.592 E21.61912
G1 X66.636 Y103.169 E21.63427
G1 X67.374 Y103.907 E21.66172
G1 X67.374 Y104.483 E21.67687
G1 X66.636 Y103.745 E21.70431
G1 X66.636 Y104.322 E21.71947
G1 X67.374 Y105.060 E21.74690
G1 X66.848 Y105.109 E21.76080
G1 X66.637 Y104.898 E21.76865
G1 E19.76865 F1680.00000
G92 E0
G1 X64.186 Y96.109 F12000.000
G1 E2.00000 F1680.00000
G1 X63.265 Y95.188 E2.03424 F1200.000
G1 X63.265 Y95.765 E2.04939
G1 X63.610 Y96.109 E2.06220
G1 X64.609 Y95.956 F12000.000
G1 X63.265 Y94.612 E2.11217 F1200.000
G1 X63.265 Y94.036 E2.12732
G1 X64.609 Y95.380 E2.17729
G1 X64.609 Y94.804 E2.19243
G1 X63.265 Y93.460 E2.24240
G1 X63.265 Y92.883 E2.25755
G1 X64.609 Y94.228 E2.30752
G1 X64.609 Y93.651 E2.32267
G1 X63.265 Y92.307 E2.37264
G1 X63.265 Y91.731 E2.38778
G1 X64.609 Y93.075 E2.43775
G1 X64.609 Y92.499 E2.45290
G1 X63.265 Y91.155 E2.50287
G1 X63.265 Y90.579 E2.51802
G1 X64.609 Y91.923 E2.56799
G1 X64.609 Y91.346 E2.58314
G1 X63.265 Y90.002 E2.63310
G1 X63.265 Y89.426 E2.64825
G1 X64.609 Y90.770 E2.69822
G1 X64.609 Y90.194 E2.71337
G1 X63.265 Y88.850 E2.76334
G1 X63.265 Y88.274 E2.77849
G1 X64.609 Y89.618 E2.82846
G1 X64.609 Y89.042 E2.84360
G1 X63.265 Y87.697 E2.89357
G1 X63.265 Y87.121 E2.90872
G1 X64.609 Y88.465 E2.95869
G1 X64.609 Y87.889 E2.97384
G1 X63.265 Y86.545 E3.02381
G1 X63.265 Y85.969 E3.03895
G1 X64.609 Y87.313 E3.08892
G1 X64.609 Y86.737 E3.10407
G1 X63.265 Y85.393 E3.15404
G1 X63.265 Y84.816 E3.16919
G1 X64.609 Y86.160 E3.21916
G1 X64.609 Y85.584 E3.23430
G1 X63.265 Y84.240 E3.28427
G1 X63.265 Y83.664 E3.29942
G1 X64.609 Y85.008 E3.34939
G1 X64.609 Y84.432 E3.36454
G1 X63.265 Y83.088 E3.41451
G1 X63.265 Y82.512 E3.42966
G1 X64.609 Y83.856 E3.47962
G1 X64.609 Y83.279 E3.49477
G1 X63.265 Y81.935 E3.54474
G1 X63.265 Y81.359 E3.55989
G1 X64.609 Y82.703 E3.60986
G1 X64.609 Y82.127 E3.62501
G1 X63.265 Y80.783 E3.67498
G1 X63.265 Y80.207 E3.69012
G1 X64.609 Y81.551 E3.74009
G1 X64.609 Y80.975 E3.75524
G1 X63.265 Y79.630 E3.80521
G1 X63.265 Y79.054 E3.82036
G1 X64.609 Y80.398 E3.87033
G1 X64.609 Y79.822 E3.88547
G1 X63.265 Y78.478 E3.93544
G1 X63.265 Y77.902 E3.95059
G1 X64.609 Y79.246 E4.00056
G1 X64.609 Y78.670 E4.01571
G1 X63.265 Y77.326 E4.06568
G1 X63.265 Y76.749 E4.08082
G1 X64.609 Y78.093 E4.13079
G1 X64.609 Y77.517 E4.14594
G1 X63.265 Y76.173 E4.19591
G1 X63.265 Y75.597 E4.21106
G1 X64.609 Y76.941 E4.26103
G1 X64.609 Y76.365 E4.27618
G1 X63.265 Y75.021 E4.32614
G1 X63.265 Y74.444 E4.34129
G1 X64.609 Y75.789 E4.39126
G1 X64.609 Y75.212 E4.40641
G1 X63.265 Y73.868 E4.45638
G1 X63.265 Y73.292 E4.47153
G1 X64.609 Y74.636 E4.52150
G1 X64.609 Y74.060 E4.53664
G1 X63.265 Y72.716 E4.58661
G1 X63.265 Y72.140 E4.60176
G1 X64.609 Y73.484 E4.65173
G1 X64.609 Y72.907 E4.66688
G1 X63.265 Y71.563 E4.71685
G1 X63.265 Y70.987 E4.73199
G1 X64.609 Y72.331 E4.78196
G1 X64.609 Y71.755 E4.79711
G1 X63.265 Y70.411 E4.84708
G1 X63.265 Y69.835 E4.86223
G1 X64.609 Y71.179 E4.91220
G1 X64.609 Y70.603 E4.92734
G1 X63.265 Y69.259 E4.97731
G1 X63.265 Y68.682 E4.99246
G1 X64.609 Y70.026 E5.04243
G1 X64.609 Y69.450 E5.05758
G1 X63.265 Y68.106 E5.10755
G1 X63.265 Y67.530 E5.12269
G1 X64.609 Y68.874 E5.17266
G1 X64.609 Y68.298 E5.18781
G1 X63.265 Y66.954 E5.23778
G1 X63.265 Y66.377 E5.25293
G1 X64.609 Y67.721 E5.30290
G1 X64.609 Y67.145 E5.31805
G1 X63.265 Y65.801 E5.36801
G1 X63.265 Y65.225 E5.38316
G1 X64.609 Y66.569 E5.43313
G1 X64.726 Y66.109 E5.44560
G1 X63.507 Y64.891 E5.49090
G1 X64.083 Y64.891 E5.50605
G1 X65.302 Y66.109 E5.55135
G1 X65.878 Y66.109 E5.56650
G1 X64.660 Y64.891 E5.61180
G1 X67.413 Y65.000 F12000.000
G1 X81.189 Y65.000 E5.97039 F600.000
G1 X82.163 Y66.109 F12000.000
G1 X81.427 Y65.373 E5.99773 F1200.000
G1 X81.520 Y64.891 E6.01064
G1 X82.739 Y66.109 E6.05590
G1 X83.314 Y66.109 E6.07102
G1 X82.096 Y64.891 E6.11629
G1 X82.672 Y64.891 E6.13141
G1 X83.890 Y66.109 E6.17667
G1 X84.466 Y66.109 E6.19179
G1 X83.247 Y64.891 E6.23706
G1 X83.823 Y64.891 E6.25218
G1 X85.042 Y66.109 E6.29744
G1 X85.617 Y66.109 E6.31256
G1 X84.399 Y64.891 E6.35783
G1 X84.975 Y64.891 E6.37295
G1 X86.193 Y66.109 E6.41821
G1 X86.778 Y66.119 E6.43358
G1 X85.550 Y64.891 E6.47919
G1 X86.126 Y64.891 E6.49431
G1 X87.388 Y66.153 E6.54119
G1 X88.023 Y66.212 E6.55795
G1 X86.702 Y64.891 E6.60703
G1 X87.277 Y64.891 E6.62215
G1 X88.717 Y66.330 E6.67562
G1 X89.474 Y66.511 E6.69606
G1 X87.853 Y64.891 E6.75626
G1 X88.429 Y64.891 E6.77138
G1 X90.298 Y66.760 E6.84080
G1 X91.281 Y67.167 F12000.000
G1 X89.005 Y64.891 E6.92534 F1200.000
G1 X89.580 Y64.891 E6.94046
G1 X92.612 Y67.922 E7.05306
G1 X95.578 Y70.888 F12000.000
G1 X106.799 Y82.109 E7.46987 F1200.000
G1 X107.375 Y82.109 E7.48499
G1 X90.156 Y64.891 E8.12460
G1 X90.732 Y64.891 E8.13972
G1 X107.950 Y82.109 E8.77932
G1 X108.526 Y82.109 E8.79444
G1 X91.308 Y64.891 E9.43405
G1 X91.883 Y64.891 E9.44917
G1 X109.102 Y82.109 E10.08877
G1 X109.678 Y82.109 E10.10389
G1 X92.459 Y64.891 E10.74350
G1 X93.035 Y64.891 E10.75862
G1 X103.609 Y75.465 E11.15142
G1 X103.609 Y74.889 E11.16654
G1 X93.611 Y64.891 E11.53795
G1 X94.186 Y64.891 E11.55308
G1 X103.609 Y74.314 E11.90310
G1 X103.609 Y73.738 E11.91823
G1 X94.762 Y64.891 E12.24687
G1 X95.338 Y64.891 E12.26199
G1 X103.609 Y73.162 E12.56924
G1 X103.609 Y72.586 E12.58437
G1 X95.914 Y64.891 E12.87023
G1 X96.489 Y64.891 E12.88536
G1 X103.609 Y72.011 E13.14984
G1 X103.609 Y71.435 E13.16496
G1 X97.065 Y64.891 E13.40806
G1 X97.641 Y64.891 E13.42318
G1 X103.609 Y70.859 E13.64489
G1 X103.609 Y70.284 E13.66001
G1 X98.216 Y64.891 E13.86033
G1 X98.792 Y64.891 E13.87545
G1 X103.609 Y69.708 E14.05439
G1 X103.609 Y69.132 E14.06951
G1 X99.368 Y64.891 E14.22706
G1 X99.944 Y64.891 E14.24218
G1 X103.609 Y68.556 E14.37835
G1 X103.609 Y67.981 E14.39347
G1 X100.519 Y64.891 E14.50824
G1 X101.095 Y64.891 E14.52337
G1 X103.609 Y67.405 E14.61676
G1 X103.609 Y66.829 E14.63188
G1 X101.671 Y64.891 E14.70388
G1 X102.247 Y64.891 E14.71900
G1 X103.609 Y66.253 E14.76962
G1 X103.609 Y65.678 E14.78474
G1 X102.822 Y64.891 E14.81397
G1 X103.398 Y64.891 E14.82910
G1 X103.609 Y65.102 E14.83694
G1 X96.333 Y72.219 F12000.000
G1 X106.223 Y82.109 E15.20431 F1200.000
G1 X105.647 Y82.109 E15.21943
G1 X96.740 Y73.202 E15.55029
G1 X96.989 Y74.026 E15.57290
G1 X105.072 Y82.109 E15.87315
G1 X104.496 Y82.109 E15.88827
G1 X97.170 Y74.783 E16.16040
G1 X97.288 Y75.477 E16.17888
G1 X103.920 Y82.109 E16.42525
G1 X103.344 Y82.109 E16.44037
G1 X97.347 Y76.112 E16.66315
G1 X97.381 Y76.722 E16.67920
G1 X102.769 Y82.109 E16.87931
G1 X102.193 Y82.109 E16.89444
G1 X97.391 Y77.307 E17.07282
G1 X97.391 Y77.883 E17.08794
G1 X101.617 Y82.109 E17.24494
G1 X101.042 Y82.109 E17.26007
G1 X97.391 Y78.458 E17.39568
G1 X97.391 Y79.034 E17.41080
G1 X100.466 Y82.109 E17.52503
G1 X99.890 Y82.109 E17.54015
G1 X97.391 Y79.610 E17.63299
G1 X97.391 Y80.186 E17.64811
G1 X99.314 Y82.109 E17.71957
G1 X98.739 Y82.109 E17.73469
G1 X97.391 Y80.761 E17.78476
G1 X97.391 Y81.337 E17.79988
G1 X98.609 Y82.556 E17.84514
G1 X98.609 Y83.131 E17.86027
G1 X97.391 Y81.913 E17.90553
G1 X97.391 Y82.489 E17.92065
G1 X98.609 Y83.707 E17.96591
G1 X98.609 Y84.283 E17.98104
G1 X97.391 Y83.064 E18.02630
G1 X97.391 Y83.640 E18.04142
G1 X98.609 Y84.859 E18.08669
G1 X98.609 Y85.434 E18.10181
G1 X97.391 Y84.216 E18.14707
G1 X97.391 Y84.792 E18.16219
G1 X98.609 Y86.010 E18.20746
G1 X98.609 Y86.586 E18.22258
G1 X97.391 Y85.367 E18.26784
G1 X97.391 Y85.943 E18.28297
G1 X98.609 Y87.162 E18.32823
G1 X98.609 Y87.737 E18.34335
G1 X97.391 Y86.519 E18.38861
G1 X97.391 Y87.095 E18.40374
G1 X98.609 Y88.313 E18.44900
G1 X98.609 Y88.889 E18.46412
G1 X97.391 Y87.670 E18.50939
G1 X97.035 Y87.891 F12000.000
G1 X98.609 Y89.465 E18.56784 F1200.000
G1 X98.609 Y90.040 E18.58297
G1 X96.460 Y87.891 E18.66281
G1 X95.884 Y87.891 E18.67794
G1 X98.609 Y90.616 E18.77917
G1 X98.609 Y91.192 E18.79429
G1 X95.308 Y87.891 E18.91691
G1 X94.733 Y87.891 E18.93203
G1 X98.609 Y91.767 E19.07604
G1 X98.609 Y92.343 E19.09116
G1 X94.157 Y87.891 E19.25655
G1 X93.581 Y87.891 E19.27167
G1 X98.609 Y92.919 E19.45845
G1 X98.609 Y93.495 E19.47357
G1 X93.005 Y87.891 E19.68174
G1 X92.430 Y87.891 E19.69686
G1 X98.609 Y94.070 E19.92641
G1 X98.609 Y94.646 E19.94153
G1 X91.854 Y87.891 E20.19247
G1 X91.278 Y87.891 E20.20759
G1 X98.609 Y95.222 E20.47992
G1 X98.609 Y95.798 E20.49504
G1 X90.702 Y87.891 E20.78875
