; generated by Slic3r 1.2.9 on 2015-12-05 at 19:19:49

; external perimeters extrusion width = 0.50mm
; perimeters extrusion width = 0.50mm
; infill extrusion width = 0.50mm
; solid infill extrusion width = 0.50mm
; top infill extrusion width = 0.50mm

M104 S190 ; set temperature
G28 ; home all axes
G1 Z15 F120 ; lift nozzle
M109 S190 ; wait for temperature to be reached
G21 ; set units to millimeters
G90 ; use absolute coordinates
M82 ; use absolute distances for extrusion
G92 E0
M106 S102
G1 E-2.00000 F1680.00000
G92 E0
G1 Z0.200 F12000.000
G1 X25.007 Y27.000 F12000.000
G1 E2.00000 F1680.00000
G1 X26.774 Y25.530 E2.06471 F1200.000
G1 X30.082 Y24.649 E2.16109
G1 X72.471 Y24.659 E3.35440
G1 X128.056 Y27.642 E4.92150 F1200.000
G1 X128.855 Y27.733 E4.94414
G1 X132.270 Y28.335 E5.04176
G1 X133.199 Y28.569 E5.06872
G1 X134.154 Y28.900 E5.09718
G1 X134.741 Y29.131 E5.11493
G1 X135.603 Y29.548 E5.14188
G1 X138.606 Y31.282 E5.23950
G1 X139.398 Y31.819 E5.26646
G1 X140.183 Y32.458 E5.29494
G1 X140.655 Y32.874 E5.31266
G1 X141.322 Y33.562 E5.33962
G1 X143.551 Y36.218 E5.43724
G1 X144.112 Y36.994 E5.46420
G1 X144.738 Y38.052 E5.49881
G1 X144.933 Y38.416 E5.51044
G1 X145.324 Y39.289 E5.53736
G1 X146.510 Y42.547 E5.63498
G1 X146.772 Y43.468 E5.66194
G1 X146.894 Y44.071 E5.67925
G1 X147.057 Y45.084 E5.70814
G1 X147.126 Y46.040 E5.73510
G1 X147.126 Y49.507 E5.83272
G1 X142.853 Y140.539 E8.39826
G1 X142.351 Y142.782 E8.46297
G1 X141.115 Y144.720 E8.52768
G1 X139.293 Y146.122 E8.59239
G1 X136.206 Y146.881 E8.68187
G1 X79.406 Y146.881 E10.28090
G1 X78.889 Y146.861 E10.29547
G1 X31.946 Y143.190 E11.62105
G1 X31.046 Y143.037 E11.64674
G1 X30.292 Y142.845 E11.66865
G1 X29.330 Y142.508 E11.69734
G1 X28.501 Y142.128 E11.72303
G1 X27.823 Y141.747 E11.74491
G1 X26.981 Y141.173 E11.77361
G1 X26.278 Y140.590 E11.79931
G1 X25.723 Y140.049 E11.82113
G1 X25.057 Y139.274 E11.84990
G1 X24.529 Y138.530 E11.87559
G1 X24.017 Y137.644 E11.90440
G1 X23.636 Y136.814 E11.93008
G1 X23.299 Y135.849 E11.95888
G1 X23.079 Y134.963 E11.98458
G1 X22.926 Y133.952 E12.01336
G1 X22.887 Y133.428 E12.02816
G1 X22.874 Y132.916 E12.04257
G1 X22.874 Y92.856 E13.17033
G1 X23.428 Y31.244 E14.90490
G1 X23.845 Y28.983 E14.96961
G1 X24.969 Y27.065 E15.03221
G1 E13.03221 F1680.00000
G92 E0
G1 X93.945 Y108.461 F12000.000
G1 E2.00000 F1680.00000
G1 X94.430 Y108.153 E2.01076 F900.000
G1 X94.976 Y107.976 E2.02152
G1 X95.531 Y107.941 E2.03194 F900.000
G1 X96.110 Y108.046 E2.04298
G1 X96.633 Y108.292 E2.05380
G1 X97.075 Y108.658 E2.06456
G1 X97.413 Y109.123 E2.07532
G1 X97.624 Y109.657 E2.08608
G1 X97.696 Y110.227 E2.09684
G1 X97.624 Y110.796 E2.10760
G1 X97.413 Y111.330 E2.11836
G1 X97.075 Y111.795 E2.12912
G1 X96.633 Y112.161 E2.13988
G1 X96.121 Y112.402 E2.15047
G1 X95.596 Y112.516 E2.16054
G1 X94.976 Y112.477 E2.17219
G1 X94.430 Y112.300 E2.18295
G1 X93.942 Y111.990 E2.19377
G1 X93.543 Y111.557 E2.20480
G1 X93.275 Y111.070 E2.21522
G1 X93.132 Y110.514 E2.22598
G1 X93.132 Y109.939 E2.23674
G1 X93.275 Y109.383 E2.24751
G1 X93.552 Y108.880 E2.25827
G1 X93.893 Y108.516 E2.26762
G1 X94.211 Y108.814 F12000.000
G1 X94.617 Y108.551 E2.27668 F900.000
G1 X95.058 Y108.407 E2.28538
G1 X95.505 Y108.379 E2.29378 F900.000
G1 X95.976 Y108.465 E2.30275
G1 X96.397 Y108.663 E2.31147
G1 X96.755 Y108.959 E2.32017
G1 X97.028 Y109.334 E2.32886
G1 X97.199 Y109.766 E2.33756
G1 X97.257 Y110.227 E2.34626
G1 X97.199 Y110.687 E2.35496
G1 X97.028 Y111.119 E2.36366
G1 X96.755 Y111.494 E2.37236
G1 X96.397 Y111.790 E2.38105
G1 X95.980 Y111.986 E2.38969
G1 X95.563 Y112.077 E2.39770
G1 X95.058 Y112.046 E2.40718
G1 X94.617 Y111.902 E2.41587
G1 X94.224 Y111.653 E2.42459
G1 X93.899 Y111.301 E2.43357
G1 X93.683 Y110.908 E2.44196
G1 X93.568 Y110.459 E2.45066
G1 X93.568 Y109.994 E2.45936
G1 X93.683 Y109.545 E2.46806
G1 X93.907 Y109.138 E2.47675
G1 X94.160 Y108.869 E2.48367
G1 X94.147 Y108.335 F12000.000
G1 X102.221 Y96.167 F12000.000
G1 X101.945 Y95.992 E2.48980 F900.000
G1 X101.552 Y95.573 E2.50056
G1 X101.275 Y95.070 E2.51132
G1 X101.131 Y94.511 E2.52214
G1 X101.137 Y93.922 E2.53317
G1 X101.275 Y93.383 E2.54359
G1 X101.552 Y92.880 E2.55435
G1 X101.945 Y92.461 E2.56511
G1 X102.430 Y92.153 E2.57587
G1 X102.976 Y91.976 E2.58663
G1 X103.531 Y91.941 E2.59705 F900.000
G1 X104.110 Y92.046 E2.60809
G1 X104.633 Y92.292 E2.61891
G1 X105.075 Y92.658 E2.62967
G1 X105.413 Y93.123 E2.64043
G1 X105.624 Y93.657 E2.65119
G1 X105.696 Y94.227 E2.66195
G1 X105.624 Y94.796 E2.67271
G1 X105.413 Y95.330 E2.68347
G1 X105.075 Y95.795 E2.69423
G1 X104.633 Y96.161 E2.70499
G1 X104.113 Y96.405 E2.71575
G1 X103.549 Y96.513 E2.72652
G1 X102.976 Y96.477 E2.73728
G1 X102.430 Y96.300 E2.74804
G1 X102.284 Y96.207 E2.75127
G1 X102.517 Y95.839 F12000.000
G1 X102.225 Y95.653 E2.75777 F900.000
G1 X101.907 Y95.315 E2.76646
G1 X101.683 Y94.908 E2.77516
G1 X101.567 Y94.458 E2.78388
G1 X101.572 Y93.979 E2.79285
G1 X101.683 Y93.545 E2.80125
G1 X101.907 Y93.138 E2.80995
G1 X102.225 Y92.800 E2.81865
G1 X102.617 Y92.551 E2.82734
G1 X103.058 Y92.407 E2.83604
G1 X103.505 Y92.379 E2.84444 F900.000
G1 X103.976 Y92.465 E2.85341
G1 X104.397 Y92.663 E2.86213
G1 X104.755 Y92.959 E2.87083
G1 X105.028 Y93.334 E2.87953
G1 X105.199 Y93.766 E2.88823
G1 X105.257 Y94.227 E2.89692
G1 X105.199 Y94.687 E2.90562
G1 X105.028 Y95.119 E2.91432
G1 X104.755 Y95.494 E2.92302
G1 X104.397 Y95.790 E2.93172
G1 X103.977 Y95.988 E2.94042
G1 X103.521 Y96.075 E2.94911
G1 X103.058 Y96.046 E2.95781
G1 X102.581 Y95.879 E2.96728
G1 X102.222 Y96.020 F12000.000
G1 E0.96728 F1680.00000
G92 E0
G1 X109.934 Y94.511 F12000.000
G1 E2.00000 F1680.00000
G1 X109.939 Y93.922 E2.01103 F900.000
G1 X110.077 Y93.383 E2.02145
G1 X110.354 Y92.880 E2.03221
G1 X110.747 Y92.461 E2.04298
G1 X111.232 Y92.153 E2.05374
G1 X111.778 Y91.976 E2.06450
G1 X112.333 Y91.941 E2.07492 F900.000
G1 X112.913 Y92.046 E2.08595
G1 X113.435 Y92.292 E2.09677
G1 X113.880 Y92.660 E2.10759
G1 X114.222 Y93.140 E2.11862
G1 X114.427 Y93.657 E2.12904
G1 X114.499 Y94.227 E2.13981
G1 X114.427 Y94.796 E2.15057
G1 X114.215 Y95.330 E2.16133
G1 X113.878 Y95.795 E2.17209
G1 X113.435 Y96.161 E2.18285
G1 X112.915 Y96.405 E2.19361
G1 X112.351 Y96.513 E2.20437
G1 X111.778 Y96.477 E2.21513
G1 X111.232 Y96.300 E2.22589
G1 X110.747 Y95.992 E2.23665
G1 X110.354 Y95.573 E2.24741
G1 X110.077 Y95.070 E2.25817
G1 X109.952 Y94.583 E2.26759
G1 X110.374 Y94.475 F12000.000
G1 X110.374 Y93.979 E2.27688 F900.000
G1 X110.486 Y93.545 E2.28528
G1 X110.709 Y93.138 E2.29398
G1 X111.027 Y92.800 E2.30268
G1 X111.419 Y92.551 E2.31138
G1 X111.860 Y92.407 E2.32007
G1 X112.308 Y92.379 E2.32847 F900.000
G1 X112.779 Y92.465 E2.33744
G1 X113.200 Y92.663 E2.34616
G1 X113.558 Y92.959 E2.35488
G1 X113.836 Y93.349 E2.36385
G1 X114.001 Y93.766 E2.37225
G1 X114.059 Y94.227 E2.38095
G1 X114.001 Y94.687 E2.38964
G1 X113.830 Y95.119 E2.39834
G1 X113.558 Y95.494 E2.40704
G1 X113.200 Y95.790 E2.41574
G1 X112.780 Y95.988 E2.42444
G1 X112.324 Y96.075 E2.43314
G1 X111.860 Y96.046 E2.44183
G1 X111.419 Y95.902 E2.45053
G1 X111.027 Y95.653 E2.45923
G1 X110.709 Y95.315 E2.46793
G1 X110.486 Y94.908 E2.47663
G1 X110.393 Y94.548 E2.48361
G1 X109.925 Y94.264 F12000.000
G1 X119.086 Y108.246 F12000.000
G1 X119.232 Y108.153 E2.48684 F900.000
G1 X119.778 Y107.976 E2.49760
G1 X120.333 Y107.941 E2.50802 F900.000
G1 X120.913 Y108.046 E2.51905
G1 X121.435 Y108.292 E2.52987
G1 X121.880 Y108.660 E2.54069
G1 X122.222 Y109.140 E2.55173
G1 X122.427 Y109.657 E2.56215
G1 X122.498 Y110.226 E2.57291
G1 X122.427 Y110.796 E2.58367
G1 X122.215 Y111.330 E2.59443
G1 X121.878 Y111.795 E2.60519
G1 X121.435 Y112.161 E2.61595
G1 X120.915 Y112.405 E2.62671
G1 X120.351 Y112.513 E2.63747
G1 X119.778 Y112.477 E2.64823
G1 X119.249 Y112.305 E2.65865
G1 X118.749 Y111.994 E2.66969
G1 X118.354 Y111.573 E2.68051
G1 X118.077 Y111.070 E2.69127
G1 X117.934 Y110.514 E2.70203
G1 X117.934 Y109.939 E2.71279
G1 X118.077 Y109.383 E2.72355
G1 X118.354 Y108.880 E2.73431
G1 X118.747 Y108.461 E2.74507
G1 X119.023 Y108.286 E2.75119
G1 X119.256 Y108.654 F12000.000
G1 X119.419 Y108.551 E2.75480 F900.000
G1 X119.860 Y108.407 E2.76350
G1 X120.308 Y108.379 E2.77189 F900.000
G1 X120.779 Y108.465 E2.78087
G1 X121.200 Y108.663 E2.78958
G1 X121.558 Y108.959 E2.79830
G1 X121.836 Y109.349 E2.80728
G1 X122.001 Y109.766 E2.81567
G1 X122.059 Y110.226 E2.82437
G1 X122.001 Y110.687 E2.83307
G1 X121.830 Y111.119 E2.84177
G1 X121.557 Y111.494 E2.85047
G1 X121.200 Y111.790 E2.85916
G1 X120.780 Y111.988 E2.86786
G1 X120.324 Y112.075 E2.87656
G1 X119.860 Y112.046 E2.88526
G1 X119.434 Y111.907 E2.89365
G1 X119.028 Y111.654 E2.90263
G1 X118.709 Y111.315 E2.91135
G1 X118.485 Y110.908 E2.92004
G1 X118.370 Y110.459 E2.92874
G1 X118.370 Y109.994 E2.93744
G1 X118.485 Y109.545 E2.94614
G1 X118.709 Y109.138 E2.95484
G1 X119.027 Y108.800 E2.96354
G1 X119.193 Y108.694 E2.96722
G1 X119.248 Y108.462 F12000.000
G1 E0.96722 F1680.00000
G92 E0
G1 X128.492 Y131.277 F12000.000
G1 E2.00000 F1680.00000
G1 X128.492 Y124.541 E2.12621 F900.000
G1 X87.121 Y124.541 E2.90140
G1 X87.121 Y139.541 E3.18246
G1 X80.092 Y139.541 E3.31415
G1 X80.092 Y110.243 E3.86311
G1 X80.166 Y108.726 E3.89158
G1 X80.387 Y107.239 E3.91974
G1 X80.752 Y105.781 E3.94790
G1 X81.258 Y104.366 E3.97606
G1 X81.901 Y103.008 E4.00422
G1 X82.674 Y101.719 E4.03238
G1 X83.569 Y100.512 E4.06053
G1 X84.589 Y99.386 E4.08901
G1 X93.563 Y90.412 E4.32680
G1 X122.050 Y90.412 E4.86056
G1 X130.691 Y99.053 E5.08954
G1 X131.023 Y99.386 E5.09835 F900.000
G1 X132.044 Y100.512 E5.12682
G1 X132.939 Y101.719 E5.15498
G1 X133.712 Y103.008 E5.18314
G1 X134.354 Y104.366 E5.21130
G1 X134.860 Y105.781 E5.23946
G1 X135.226 Y107.239 E5.26761
G1 X135.446 Y108.726 E5.29577
G1 X135.521 Y110.243 E5.32425
G1 X135.521 Y139.541 E5.87320
G1 X128.492 Y139.541 E6.00490
G1 X128.492 Y131.352 E6.15834
G1 X128.056 Y131.352 F12000.000
G1 X128.056 Y124.977 E6.27780 F720.000
G1 X87.556 Y124.977 E7.03666
G1 X87.556 Y139.977 E7.31772
G1 X79.656 Y139.977 E7.46574
G1 X79.656 Y110.233 E8.02306
G1 X79.732 Y108.683 E8.05213
G1 X79.959 Y107.154 E8.08109
G1 X80.335 Y105.655 E8.11005
G1 X80.855 Y104.199 E8.13901
G1 X81.516 Y102.802 E8.16797
G1 X82.311 Y101.476 E8.19693
G1 X83.232 Y100.235 E8.22590
G1 X84.274 Y99.085 E8.25497
G1 X93.382 Y89.977 E8.49634
G1 X122.230 Y89.977 E9.03687
G1 X130.999 Y98.745 E9.26922
G1 X131.339 Y99.085 E9.27824 F720.000
G1 X132.381 Y100.235 E9.30731
G1 X133.302 Y101.476 E9.33627
G1 X134.096 Y102.802 E9.36523
G1 X134.757 Y104.199 E9.39419
G1 X135.278 Y105.655 E9.42315
G1 X135.653 Y107.154 E9.45211
G1 X135.880 Y108.683 E9.48107
G1 X135.956 Y110.233 E9.51015
G1 X135.956 Y139.977 E10.06747
G1 X128.056 Y139.977 E10.21549
G1 X128.056 Y131.427 E10.37569
G1 X128.489 Y131.102 F12000.000
G1 X128.750 Y138.521 F12000.000
G1 X129.512 Y139.283 E10.39601 F1200.000
G1 X130.132 Y139.283 E10.40768
G1 X128.750 Y137.901 E10.44450
G1 X128.750 Y137.282 E10.45617
G1 X130.751 Y139.283 E10.50950
G1 X131.371 Y139.283 E10.52117
G1 X128.750 Y136.662 E10.59100
G1 X128.750 Y136.043 E10.60268
G1 X131.990 Y139.283 E10.68902
G1 X132.610 Y139.283 E10.70069
G1 X128.750 Y135.423 E10.80353
G1 X128.750 Y134.804 E10.81520
G1 X133.229 Y139.283 E10.93456
G1 X133.849 Y139.283 E10.94623
G1 X128.750 Y134.184 E11.08208
G1 X128.750 Y133.565 E11.09375
G1 X134.468 Y139.283 E11.24612
G1 X135.087 Y139.283 E11.25779
G1 X128.750 Y132.945 E11.42666
G1 X128.750 Y132.326 E11.43833
G1 X135.263 Y138.839 E11.61187
G1 X135.263 Y138.219 E11.62354
G1 X128.750 Y131.706 E11.79708
G1 X128.750 Y131.087 E11.80875
G1 X135.263 Y137.600 E11.98229
G1 X135.263 Y136.981 E11.99396
G1 X128.750 Y130.467 E12.16750
G1 X128.750 Y129.848 E12.17918
G1 X135.263 Y136.361 E12.35272
G1 X135.263 Y135.742 E12.36439
G1 X128.750 Y129.229 E12.53793
G1 X128.750 Y128.609 E12.54960
G1 X135.263 Y135.122 E12.72314
G1 X135.263 Y134.503 E12.73481
G1 X128.750 Y127.990 E12.90835
G1 X128.750 Y127.370 E12.92002
G1 X135.263 Y133.883 E13.09356
G1 X135.263 Y133.264 E13.10524
G1 X128.750 Y126.751 E13.27878
G1 X128.750 Y126.131 E13.29045
G1 X135.263 Y132.644 E13.46399
G1 X135.263 Y132.025 E13.47566
G1 X128.750 Y125.512 E13.64920
G1 X128.750 Y124.892 E13.66087
G1 X135.263 Y131.405 E13.83441
G1 X135.263 Y129.547 F12000.000
G1 X102.269 Y96.553 E14.71353 F1200.000
G1 E12.71353 F1680.00000
G92 E0
G1 X105.787 Y93.257 F12000.000
G1 E2.00000 F1680.00000
G1 X120.225 Y107.695 E2.38471 F1200.000
G1 X119.674 Y107.764 E2.39517
G1 X105.944 Y94.034 E2.76101
G1 X105.897 Y94.606 E2.77184
G1 X119.207 Y107.916 E3.12647
G1 X118.822 Y108.150 E3.13497
G1 X105.757 Y95.086 E3.48307
G1 X105.558 Y95.506 E3.49183
G1 X118.478 Y108.426 E3.83609
G1 X118.178 Y108.746 E3.84434
G1 X105.298 Y95.865 E4.18755
G1 X104.976 Y96.163 E4.19581
G1 X117.954 Y109.141 E4.54161
G1 X117.780 Y109.586 E4.55062
G1 X104.614 Y96.421 E4.90141
G1 X104.193 Y96.619 E4.91018
G1 X117.677 Y110.102 E5.26944
G1 X117.701 Y110.746 E5.28159
G1 X103.688 Y96.733 E5.65497
G1 X103.083 Y96.748 E5.66637
G1 X135.263 Y128.927 E6.52379
G1 X135.263 Y128.308 E6.53546
G1 X119.691 Y112.736 E6.95038
G1 X120.337 Y112.762 E6.96256
G1 X135.263 Y127.689 E7.36027
G1 X135.263 Y127.069 E7.37194
G1 X120.857 Y112.663 E7.75579
G1 X121.292 Y112.479 E7.76470
G1 X135.263 Y126.450 E8.13694
G1 X135.263 Y125.830 E8.14861
G1 X121.678 Y112.245 E8.51057
G1 X122.017 Y111.965 E8.51886
G1 X135.263 Y125.211 E8.87179
G1 X135.263 Y124.591 E8.88346
G1 X122.284 Y111.612 E9.22929
G1 X122.508 Y111.217 E9.23786
G1 X135.263 Y123.972 E9.57771
G1 X135.263 Y123.352 E9.58939
G1 X122.679 Y110.768 E9.92468
G1 X122.748 Y110.218 E9.93513
G1 X135.263 Y122.733 E10.26857
G1 X135.263 Y122.113 E10.28024
G1 X122.683 Y109.534 E10.61543
G1 X120.916 Y107.767 F12000.000
G1 X103.819 Y90.670 E11.07096 F1200.000
G1 X103.200 Y90.670 E11.08263
G1 X104.352 Y91.822 E11.11332
G1 X103.595 Y91.684 E11.12781
G1 X102.581 Y90.670 E11.15484
G1 X101.961 Y90.670 E11.16651
G1 X103.012 Y91.721 E11.19452
G1 X102.543 Y91.871 E11.20380
G1 X101.342 Y90.670 E11.23580
G1 X100.722 Y90.670 E11.24747
G1 X102.131 Y92.079 E11.28502
G1 X101.765 Y92.332 E11.29341
G1 X100.103 Y90.670 E11.33770
G1 X99.483 Y90.670 E11.34937
G1 X101.465 Y92.652 E11.40217
G1 X101.217 Y93.023 E11.41058
G1 X98.864 Y90.670 E11.47327
G1 X98.244 Y90.670 E11.48494
G1 X101.015 Y93.440 E11.55876
G1 X100.888 Y93.933 E11.56835
G1 X97.625 Y90.670 E11.65530
G1 X97.005 Y90.670 E11.66697
G1 X100.874 Y94.539 E11.77006
G1 X101.077 Y95.361 E11.78601
G1 X96.386 Y90.670 E11.91101
G1 X95.766 Y90.670 E11.92268
G1 X135.263 Y130.166 E12.97506
G1 X135.263 Y130.786 E12.98673
G1 X95.147 Y90.670 E14.05562
G1 X94.527 Y90.670 E14.06729
G1 X128.141 Y124.283 E14.96291
G1 X127.521 Y124.283 E14.97458
G1 X93.908 Y90.670 E15.87021
G1 X93.466 Y90.848 E15.87918
G1 X126.902 Y124.283 E16.77006
G1 X126.282 Y124.283 E16.78174
G1 X93.156 Y91.157 E17.66437
G1 X92.847 Y91.467 E17.67262
G1 X125.663 Y124.283 E18.54701
G1 X125.043 Y124.283 E18.55868
G1 X92.537 Y91.777 E19.42481
G1 X92.227 Y92.087 E19.43306
G1 X124.424 Y124.283 E20.29093
G1 X123.804 Y124.283 E20.30261
G1 X91.918 Y92.396 E21.15223
G1 X91.608 Y92.706 E21.16048
G1 X123.185 Y124.283 E22.00185
G1 X122.565 Y124.283 E22.01352
G1 X91.298 Y93.016 E22.84664
G1 X90.988 Y93.325 E22.85489
G1 X121.946 Y124.283 E23.67976
G1 X121.326 Y124.283 E23.69143
G1 X90.679 Y93.635 E24.50804
G1 X90.369 Y93.945 E24.51629
G1 X120.707 Y124.283 E25.32465
G1 X120.087 Y124.283 E25.33632
G1 X90.059 Y94.255 E26.13643
G1 X89.749 Y94.564 E26.14468
G1 X119.468 Y124.283 E26.93654
G1 X118.849 Y124.283 E26.94821
G1 X89.440 Y94.874 E27.73181
G1 X89.130 Y95.184 E27.74006
G1 X118.229 Y124.283 E28.51541
G1 X117.610 Y124.283 E28.52708
G1 X88.820 Y95.494 E29.29418
G1 X88.510 Y95.803 E29.30243
G1 X116.990 Y124.283 E30.06127
G1 X116.371 Y124.283 E30.07294
G1 X88.201 Y96.113 E30.82353
G1 X87.891 Y96.423 E30.83178
G1 X115.751 Y124.283 E31.57412
G1 X115.132 Y124.283 E31.58579
G1 X87.581 Y96.733 E32.31987
G1 X87.272 Y97.042 E32.32813
G1 X114.512 Y124.283 E33.05396
G1 X113.893 Y124.283 E33.06563
G1 X86.962 Y97.352 E33.78321
G1 X86.652 Y97.662 E33.79146
G1 X113.273 Y124.283 E34.50079
G1 X112.654 Y124.283 E34.51246
G1 X97.878 Y109.507 E34.90617
