; generated by Slic3r 1.2.9 on 2015-12-06 at 16:15:30

; external perimeters extrusion width = 0.50mm
; perimeters extrusion width = 0.50mm
; infill extrusion width = 0.50mm
; solid infill extrusion width = 0.50mm
; top infill extrusion width = 0.50mm

M104 S190 ; set temperature
G28 ; home all axes
G1 Z15 F120 ; lift nozzle
M109 S190 ; wait for temperature to be reached
G21 ; set units to millimeters
G90 ; use absolute coordinates
M82 ; use absolute distances for extrusion
G92 E0
M106 S102
G1 E-2.00000 F1680.00000
G92 E0
G1 Z0.200 F12000.000
G1 X21.192 Y23.851 F12000.000
G1 E2.00000 F1680.00000
G1 X22.945 Y22.365 E2.06471 F1200.000
G1 X25.100 Y21.564 E2.12942
G1 X26.305 Y21.454 E2.16350
G1 X68.654 Y21.462 E3.35569
G1 X131.240 Y24.445 E5.11960 F1200.000
G1 X132.079 Y24.539 E5.14335
G1 X135.493 Y25.141 E5.24097
G1 X136.422 Y25.374 E5.26793
G1 X137.377 Y25.705 E5.29640
G1 X137.965 Y25.936 E5.31415
G1 X138.826 Y26.354 E5.34110
G1 X141.829 Y28.087 E5.43872
G1 X142.621 Y28.625 E5.46567
G1 X143.406 Y29.262 E5.49414
G1 X143.879 Y29.679 E5.51188
G1 X144.545 Y30.367 E5.53884
G1 X146.774 Y33.023 E5.63646
G1 X147.335 Y33.799 E5.66341
G1 X147.656 Y34.324 E5.68073
G1 X148.156 Y35.221 E5.70965
G1 X148.547 Y36.094 E5.73658
G1 X149.733 Y39.353 E5.83420
G1 X149.995 Y40.274 E5.86116
G1 X150.079 Y40.677 E5.87276
G1 X150.280 Y41.890 E5.90736
G1 X150.349 Y42.845 E5.93432
G1 X150.349 Y46.312 E6.03194
G1 X150.296 Y47.147 E6.05549
G1 X147.607 Y68.414 E6.65894
G1 X147.477 Y69.405 E6.68710
G1 X147.356 Y70.064 E6.70596
G1 X131.906 Y135.560 E8.60039
G1 X131.000 Y137.672 E8.66510
G1 X129.429 Y139.350 E8.72981
G1 X127.381 Y140.394 E8.79452
G1 X126.246 Y140.636 E8.82720
G1 X50.268 Y150.026 E10.98238
G1 X49.452 Y150.076 E11.00540
G1 X30.452 Y150.076 E11.54029
G1 X29.583 Y150.019 E11.56479
G1 X28.625 Y149.893 E11.59200
G1 X26.948 Y149.443 E11.64089
G1 X26.055 Y149.074 E11.66808
G1 X24.551 Y148.205 E11.71698
G1 X23.784 Y147.617 E11.74418
G1 X22.556 Y146.389 E11.79308
G1 X21.968 Y145.622 E11.82028
G1 X21.100 Y144.118 E11.86918
G1 X20.730 Y143.225 E11.89638
G1 X20.280 Y141.548 E11.94527
G1 X20.154 Y140.590 E11.97247
G1 X20.097 Y139.767 E11.99570
G1 X19.651 Y74.423 E13.83529
G1 X19.651 Y28.109 E15.13912
G1 X20.048 Y25.845 E15.20383
G1 X21.154 Y23.916 E15.26643
G1 E13.26643 F1680.00000
G92 E0
G1 X48.882 Y137.502 F12000.000
G1 E2.00000 F1680.00000
G1 X49.434 Y137.432 E2.01042 F900.000
G1 X50.019 Y137.501 E2.02145
G1 X50.556 Y137.714 E2.03227
G1 X51.020 Y138.051 E2.04303
G1 X51.386 Y138.494 E2.05380
G1 X51.631 Y139.013 E2.06456
G1 X51.738 Y139.577 E2.07532
G1 X51.702 Y140.151 E2.08608
G1 X51.530 Y140.679 E2.09650
G1 X51.219 Y141.180 E2.10753
G1 X50.798 Y141.575 E2.11835
G1 X50.295 Y141.851 E2.12911
G1 X49.736 Y141.995 E2.13993
G1 X49.147 Y141.990 E2.15097
G1 X48.608 Y141.851 E2.16139
G1 X48.105 Y141.575 E2.17215
G1 X47.686 Y141.182 E2.18291
G1 X47.389 Y140.712 E2.19333
G1 X47.202 Y140.154 E2.20436
G1 X47.165 Y139.577 E2.21518
G1 X47.273 Y139.013 E2.22594
G1 X47.517 Y138.494 E2.23670
G1 X47.883 Y138.051 E2.24746
G1 X48.348 Y137.714 E2.25822
G1 X48.812 Y137.530 E2.26758
G1 X48.973 Y137.935 F12000.000
G1 X48.991 Y137.927 E2.26795 F900.000
G1 X49.436 Y137.871 E2.27635 F900.000
G1 X49.911 Y137.927 E2.28532
G1 X50.344 Y138.098 E2.29404
G1 X50.720 Y138.371 E2.30274
G1 X51.015 Y138.729 E2.31144
G1 X51.213 Y139.149 E2.32013
G1 X51.300 Y139.605 E2.32883
G1 X51.271 Y140.068 E2.33753
G1 X51.133 Y140.494 E2.34593
G1 X50.880 Y140.901 E2.35490
G1 X50.540 Y141.220 E2.36362
G1 X50.134 Y141.443 E2.37232
G1 X49.683 Y141.559 E2.38104
G1 X49.204 Y141.555 E2.39001
G1 X48.770 Y141.443 E2.39840
G1 X48.363 Y141.220 E2.40710
G1 X48.025 Y140.902 E2.41580
G1 X47.785 Y140.523 E2.42420
G1 X47.633 Y140.069 E2.43317
G1 X47.603 Y139.605 E2.44189
G1 X47.690 Y139.149 E2.45059
G1 X47.888 Y138.729 E2.45928
G1 X48.184 Y138.371 E2.46798
G1 X48.560 Y138.098 E2.47668
G1 X48.903 Y137.962 E2.48360
G1 X48.976 Y137.915 F12000.000
G1 X49.165 Y91.994 F12000.000
G1 X48.608 Y91.851 E2.49436 F900.000
G1 X48.105 Y91.575 E2.50512
G1 X47.686 Y91.182 E2.51588
G1 X47.389 Y90.712 E2.52630
G1 X47.202 Y90.154 E2.53734
G1 X47.162 Y89.530 E2.54904
G1 X47.277 Y89.005 E2.55911
G1 X47.517 Y88.494 E2.56970
G1 X47.883 Y88.051 E2.58046
G1 X48.348 Y87.714 E2.59122
G1 X48.882 Y87.502 E2.60198
G1 X49.434 Y87.432 E2.61241 F900.000
G1 X50.019 Y87.501 E2.62344
G1 X50.556 Y87.714 E2.63426
G1 X51.020 Y88.051 E2.64502
G1 X51.386 Y88.494 E2.65578
G1 X51.627 Y89.005 E2.66637
G1 X51.741 Y89.530 E2.67644
G1 X51.702 Y90.151 E2.68809
G1 X51.525 Y90.697 E2.69885
G1 X51.215 Y91.184 E2.70967
G1 X50.783 Y91.584 E2.72070
G1 X50.295 Y91.851 E2.73112
G1 X49.739 Y91.994 E2.74188
G1 X49.240 Y91.994 E2.75124
G1 X49.240 Y91.559 F12000.000
G1 X48.770 Y91.443 E2.76030 F900.000
G1 X48.363 Y91.220 E2.76900
G1 X48.025 Y90.902 E2.77770
G1 X47.785 Y90.523 E2.78609
G1 X47.633 Y90.069 E2.79506
G1 X47.601 Y89.564 E2.80456
G1 X47.692 Y89.146 E2.81257
G1 X47.888 Y88.729 E2.82121
G1 X48.184 Y88.371 E2.82990
G1 X48.560 Y88.098 E2.83860
G1 X48.991 Y87.927 E2.84730
G1 X49.436 Y87.871 E2.85570 F900.000
G1 X49.911 Y87.927 E2.86467
G1 X50.344 Y88.098 E2.87339
G1 X50.720 Y88.371 E2.88209
G1 X51.015 Y88.729 E2.89078
G1 X51.212 Y89.146 E2.89942
G1 X51.303 Y89.564 E2.90743
G1 X51.271 Y90.068 E2.91690
G1 X51.128 Y90.510 E2.92560
G1 X50.878 Y90.903 E2.93432
G1 X50.526 Y91.227 E2.94329
G1 X50.134 Y91.443 E2.95169
G1 X49.684 Y91.559 E2.96039
G1 X49.315 Y91.559 E2.96731
G1 X48.934 Y91.933 F12000.000
G1 X52.466 Y111.709 F12000.000
G1 X52.466 Y139.676 E3.49133 F900.000
G1 X52.358 Y140.500 E3.50690
G1 X52.057 Y141.226 E3.52161
G1 X51.579 Y141.849 E3.53633
G1 X50.956 Y142.327 E3.55105
G1 X50.230 Y142.627 E3.56576
G1 X49.452 Y142.730 E3.58048
G1 X48.673 Y142.627 E3.59519
G1 X47.948 Y142.327 E3.60991
G1 X47.324 Y141.849 E3.62462
G1 X46.846 Y141.226 E3.63934
G1 X46.558 Y140.530 E3.65344
G1 X46.437 Y139.673 E3.66966
G1 X46.437 Y89.766 E4.60478
G1 X46.546 Y88.943 E4.62034
G1 X46.834 Y88.247 E4.63444
G1 X47.327 Y87.592 E4.64981
G1 X47.948 Y87.116 E4.66447
G1 X48.673 Y86.815 E4.67918
G1 X49.452 Y86.713 E4.69390
G1 X50.198 Y86.811 E4.70800
G1 X50.959 Y87.118 E4.72337 F900.000
G1 X51.579 Y87.594 E4.73802
G1 X52.057 Y88.217 E4.75274
G1 X52.358 Y88.943 E4.76745
G1 X52.466 Y89.766 E4.78302
G1 X52.466 Y111.634 E5.19277
G1 X52.902 Y111.634 F12000.000
G1 X52.902 Y139.705 E5.71873 F720.000
G1 X52.782 Y140.614 E5.73591
G1 X52.438 Y141.445 E5.75277
G1 X51.890 Y142.159 E5.76964
G1 X51.176 Y142.707 E5.78650
G1 X50.344 Y143.052 E5.80337
G1 X49.452 Y143.169 E5.82023
G1 X48.559 Y143.052 E5.83710
G1 X47.728 Y142.707 E5.85396
G1 X47.014 Y142.159 E5.87083
G1 X46.466 Y141.445 E5.88769
G1 X46.135 Y140.646 E5.90390
G1 X46.002 Y139.704 E5.92173
G1 X46.002 Y89.738 E6.85796
G1 X46.121 Y88.829 E6.87513
G1 X46.452 Y88.030 E6.89134
G1 X47.015 Y87.283 E6.90886
G1 X47.728 Y86.735 E6.92570
G1 X48.559 Y86.391 E6.94257
G1 X49.452 Y86.273 E6.95943
G1 X50.309 Y86.386 E6.97564
G1 X51.177 Y86.736 E6.99316 F720.000
G1 X51.890 Y87.283 E7.01001
G1 X52.438 Y87.997 E7.02687
G1 X52.782 Y88.829 E7.04374
G1 X52.902 Y89.738 E7.06091
G1 X52.902 Y111.559 E7.46979
G1 X52.469 Y111.884 F12000.000
G1 X52.208 Y91.329 F12000.000
G1 X51.979 Y91.101 E7.47591 F1200.000
G1 X51.464 Y91.208 E7.48587
G1 X52.208 Y91.952 E7.50579
G1 X52.208 Y92.574 E7.51757
G1 X51.164 Y91.530 E7.54551
G1 X50.827 Y91.815 E7.55386
G1 X52.208 Y93.196 E7.59083
G1 X52.208 Y93.819 E7.60260
G1 X50.426 Y92.036 E7.65032
G1 X49.952 Y92.185 E7.65971
G1 X52.208 Y94.441 E7.72009
G1 X52.208 Y95.063 E7.73187
G1 X49.397 Y92.252 E7.80711
G1 X48.688 Y92.165 E7.82064
G1 X52.208 Y95.685 E7.91488
G1 X52.208 Y96.308 E7.92666
G1 X46.965 Y91.064 E8.06700
G1 X46.695 Y91.417 E8.07540
G1 X52.208 Y96.930 E8.22297
G1 X52.208 Y97.552 E8.23475
G1 X46.695 Y92.039 E8.38231
G1 X46.695 Y92.661 E8.39409
G1 X52.208 Y98.175 E8.54165
G1 X52.208 Y98.797 E8.55343
G1 X46.695 Y93.284 E8.70099
G1 X46.695 Y93.906 E8.71277
G1 X52.208 Y99.419 E8.86034
G1 X52.208 Y100.041 E8.87211
G1 X46.695 Y94.528 E9.01968
G1 X46.695 Y95.150 E9.03146
G1 X52.208 Y100.664 E9.17902
G1 X52.208 Y101.286 E9.19080
G1 X46.695 Y95.773 E9.33836
G1 X46.695 Y96.395 E9.35014
G1 X52.208 Y101.908 E9.49771
G1 X52.208 Y102.530 E9.50948
G1 X46.695 Y97.017 E9.65705
G1 X46.695 Y97.640 E9.66883
G1 X52.208 Y103.153 E9.81639
G1 X52.208 Y103.775 E9.82817
G1 X46.695 Y98.262 E9.97573
G1 X46.695 Y98.884 E9.98751
G1 X52.208 Y104.397 E10.13507
G1 X52.208 Y105.020 E10.14685
G1 X46.695 Y99.506 E10.29442
G1 X46.695 Y100.129 E10.30619
G1 X52.208 Y105.642 E10.45376
G1 X52.208 Y106.264 E10.46554
G1 X46.695 Y100.751 E10.61310
G1 X46.695 Y101.373 E10.62488
G1 X52.208 Y106.886 E10.77244
G1 X52.208 Y107.509 E10.78422
G1 X46.695 Y101.996 E10.93179
G1 X46.695 Y102.618 E10.94356
G1 X52.208 Y108.131 E11.09113
G1 X52.208 Y108.753 E11.10291
G1 X46.695 Y103.240 E11.25047
G1 X46.695 Y103.862 E11.26225
G1 X52.208 Y109.376 E11.40981
G1 X52.208 Y109.998 E11.42159
G1 X46.695 Y104.485 E11.56915
G1 X46.695 Y105.107 E11.58093
G1 X52.208 Y110.620 E11.72850
G1 X52.208 Y111.242 E11.74027
G1 X46.695 Y105.729 E11.88784
G1 X46.695 Y106.352 E11.89962
G1 X52.208 Y111.865 E12.04718
G1 X52.208 Y112.487 E12.05896
G1 X46.695 Y106.974 E12.20652
G1 X46.695 Y107.596 E12.21830
G1 X52.208 Y113.109 E12.36587
G1 X52.208 Y113.731 E12.37764
G1 X46.695 Y108.218 E12.52521
G1 X46.695 Y108.841 E12.53699
G1 X52.208 Y114.354 E12.68455
G1 X52.208 Y114.976 E12.69633
G1 X46.695 Y109.463 E12.84389
G1 X46.695 Y110.085 E12.85567
G1 X52.208 Y115.598 E13.00324
G1 X52.208 Y116.221 E13.01501
G1 X46.695 Y110.707 E13.16258
G1 X46.695 Y111.330 E13.17436
G1 X52.208 Y116.843 E13.32192
G1 X52.208 Y117.465 E13.33370
G1 X46.695 Y111.952 E13.48126
G1 X46.695 Y112.574 E13.49304
G1 X52.208 Y118.087 E13.64060
G1 X52.208 Y118.710 E13.65238
G1 X46.695 Y113.197 E13.79995
G1 X46.695 Y113.819 E13.81172
G1 X52.208 Y119.332 E13.95929
G1 X52.208 Y119.954 E13.97107
G1 X46.695 Y114.441 E14.11863
G1 X46.695 Y115.063 E14.13041
G1 X52.208 Y120.577 E14.27797
G1 X52.208 Y121.199 E14.28975
G1 X46.695 Y115.686 E14.43732
G1 X46.695 Y116.308 E14.44909
G1 X52.208 Y121.821 E14.59666
G1 X52.208 Y122.443 E14.60844
G1 X46.695 Y116.930 E14.75600
G1 X46.695 Y117.553 E14.76778
G1 X52.208 Y123.066 E14.91534
G1 X52.208 Y123.688 E14.92712
G1 X46.695 Y118.175 E15.07469
G1 X46.695 Y118.797 E15.08646
G1 X52.208 Y124.310 E15.23403
G1 X52.208 Y124.932 E15.24580
G1 X46.695 Y119.419 E15.39337
G1 X46.695 Y120.042 E15.40515
G1 X52.208 Y125.555 E15.55271
G1 X52.208 Y126.177 E15.56449
G1 X46.695 Y120.664 E15.71205
G1 X46.695 Y121.286 E15.72383
G1 X52.208 Y126.799 E15.87140
G1 X52.208 Y127.422 E15.88317
G1 X46.695 Y121.908 E16.03074
G1 X46.695 Y122.531 E16.04252
G1 X52.208 Y128.044 E16.19008
G1 X52.208 Y128.666 E16.20186
G1 X46.695 Y123.153 E16.34942
G1 X46.695 Y123.775 E16.36120
G1 X52.208 Y129.288 E16.50877
G1 X52.208 Y129.911 E16.52054
G1 X46.695 Y124.398 E16.66811
G1 X46.695 Y125.020 E16.67989
G1 X52.208 Y130.533 E16.82745
G1 X52.208 Y131.155 E16.83923
G1 X46.695 Y125.642 E16.98679
G1 X46.695 Y126.264 E16.99857
G1 X52.208 Y131.778 E17.14613
G1 X52.208 Y132.400 E17.15791
G1 X46.695 Y126.887 E17.30548
G1 X46.695 Y127.509 E17.31725
G1 X52.208 Y133.022 E17.46482
G1 X52.208 Y133.644 E17.47660
G1 X46.695 Y128.131 E17.62416
G1 X46.695 Y128.754 E17.63594
G1 X52.208 Y134.267 E17.78350
G1 X52.208 Y134.889 E17.79528
G1 X46.695 Y129.376 E17.94285
G1 X46.695 Y129.998 E17.95462
G1 X52.208 Y135.511 E18.10219
G1 X52.208 Y136.133 E18.11397
G1 X46.695 Y130.620 E18.26153
G1 X46.695 Y131.243 E18.27331
G1 X52.208 Y136.756 E18.42087
G1 X52.208 Y137.378 E18.43265
G1 X46.695 Y131.865 E18.58022
G1 X46.695 Y132.487 E18.59199
G1 X52.208 Y138.000 E18.73956
G1 X51.952 Y138.366 E18.74801
G1 X46.695 Y133.109 E18.88870
G1 X46.695 Y133.732 E18.90048
G1 X50.226 Y137.262 E18.99498
G1 X49.515 Y137.173 E19.00854
G1 X46.695 Y134.354 E19.08400
G1 X46.695 Y134.976 E19.09578
G1 X48.962 Y137.243 E19.15645
G1 X48.502 Y137.405 E19.16569
G1 X46.695 Y135.599 E19.21404
G1 X46.695 Y136.221 E19.22582
G1 X48.097 Y137.623 E19.26334
G1 X47.737 Y137.884 E19.27177
G1 X46.695 Y136.843 E19.29965
G1 X46.695 Y137.465 E19.31142
G1 X47.454 Y138.225 E19.33174
G1 X46.926 Y138.319 E19.34189
G1 X46.695 Y138.088 E19.34808
G1 X46.928 Y138.595 F12000.000
G1 X46.861 Y138.907 E19.36090 F600.000
G1 X46.791 Y139.651 E19.39098
G1 X46.804 Y139.652 F12000.000
G1 X46.865 Y140.236 E19.40199 F600.000
G1 X46.912 Y140.434 E19.40579
G1 X47.067 Y140.848 E19.41407
G1 X47.165 Y141.041 E19.41814
G1 X47.409 Y141.390 E19.42612
G1 X47.585 Y141.588 E19.43108
G1 X47.914 Y141.865 E19.43914
G1 X48.132 Y142.007 E19.44401
G1 X48.466 Y142.167 E19.45095
G1 X48.769 Y142.271 E19.45694
G1 X49.117 Y142.336 E19.46359
G1 X49.452 Y142.360 E19.46987
G1 X49.794 Y142.336 E19.47630
G1 X50.135 Y142.271 E19.48280
G1 X50.438 Y142.167 E19.48879
G1 X50.772 Y142.007 E19.49574
G1 X50.989 Y141.865 E19.50061
G1 X51.318 Y141.588 E19.50867
G1 X51.498 Y141.386 E19.51373
G1 X51.737 Y141.041 E19.52160
G1 X51.853 Y140.812 E19.52640
G1 X52.003 Y140.405 E19.53454
G1 X52.042 Y140.232 E19.53786
G1 X52.100 Y139.652 E19.54877
G1 X52.112 Y139.651 F12000.000
G1 X52.042 Y138.907 E19.57886 F600.000
G1 X51.976 Y138.595 E19.59168
G1 X51.987 Y90.825 F12000.000
G1 X52.083 Y90.202 E19.61704 F600.000
G1 X52.090 Y89.615 E19.64066
G1 X52.105 Y89.615 F12000.000
G1 X52.005 Y89.037 E19.65164 F600.000
G1 X51.953 Y88.879 E19.65477
G1 X51.741 Y88.399 E19.66459
G1 X51.673 Y88.292 E19.66697
G1 X51.274 Y87.805 E19.67876
G1 X50.711 Y87.397 E19.69181
G1 X50.107 Y87.156 E19.70398
G1 X49.452 Y87.074 E19.71635
G1 X48.766 Y87.164 E19.72931
G1 X48.129 Y87.429 E19.74225
G1 X47.629 Y87.805 E19.75396
G1 X47.233 Y88.294 E19.76576
G1 X47.150 Y88.428 E19.76871
G1 X46.950 Y88.879 E19.77795
G1 X46.899 Y89.037 E19.78107
G1 X46.798 Y89.615 E19.79205
G1 X46.814 Y89.615 F12000.000
G1 X46.821 Y90.206 E19.81584 F600.000
G1 X46.919 Y90.824 E19.84103
G1 E17.84103 F1680.00000
G92 E0
G1 X31.019 Y137.501 F12000.000
G1 E2.00000 F1680.00000
G1 X31.547 Y137.710 E2.01064 F900.000
G1 X31.989 Y138.013 E2.02068
G1 X32.386 Y138.494 E2.03237
G1 X32.631 Y139.013 E2.04313
G1 X32.738 Y139.577 E2.05389
G1 X32.702 Y140.151 E2.06465
G1 X32.530 Y140.679 E2.07507
G1 X32.219 Y141.180 E2.08610
G1 X31.798 Y141.575 E2.09692
G1 X31.295 Y141.851 E2.10768
G1 X30.736 Y141.995 E2.11850
G1 X30.147 Y141.990 E2.12954
G1 X29.608 Y141.851 E2.13996
G1 X29.105 Y141.575 E2.15072
G1 X28.686 Y141.182 E2.16148
G1 X28.389 Y140.712 E2.17190
G1 X28.202 Y140.154 E2.18293
G1 X28.165 Y139.577 E2.19375
G1 X28.273 Y139.013 E2.20451
G1 X28.517 Y138.494 E2.21527
G1 X28.883 Y138.051 E2.22604
G1 X29.348 Y137.714 E2.23680
G1 X29.882 Y137.502 E2.24756
G1 X30.434 Y137.432 E2.25798 F900.000
G1 X30.944 Y137.492 E2.26761
G1 X30.893 Y137.925 F12000.000
G1 X31.341 Y138.097 E2.27659 F900.000
G1 X31.692 Y138.338 E2.28457
G1 X32.015 Y138.729 E2.29407
G1 X32.213 Y139.149 E2.30277
G1 X32.300 Y139.605 E2.31147
G1 X32.271 Y140.068 E2.32017
G1 X32.133 Y140.494 E2.32857
G1 X31.880 Y140.901 E2.33754
G1 X31.540 Y141.220 E2.34626
G1 X31.134 Y141.443 E2.35496
G1 X30.683 Y141.559 E2.36367
G1 X30.204 Y141.555 E2.37265
G1 X29.770 Y141.443 E2.38104
G1 X29.363 Y141.220 E2.38974
G1 X29.025 Y140.902 E2.39844
G1 X28.785 Y140.523 E2.40683
G1 X28.633 Y140.069 E2.41581
G1 X28.603 Y139.605 E2.42453
G1 X28.690 Y139.149 E2.43322
G1 X28.888 Y138.729 E2.44192
G1 X29.184 Y138.371 E2.45062
G1 X29.560 Y138.098 E2.45932
G1 X29.991 Y137.927 E2.46802
G1 X30.436 Y137.871 E2.47641 F900.000
G1 X30.819 Y137.916 E2.48364
G1 X31.240 Y137.594 F12000.000
G1 X30.739 Y91.994 F12000.000
G1 X30.165 Y91.994 E2.49440 F900.000
G1 X29.608 Y91.851 E2.50516
G1 X29.105 Y91.575 E2.51592
G1 X28.686 Y91.182 E2.52669
G1 X28.389 Y90.712 E2.53711
G1 X28.202 Y90.154 E2.54814
G1 X28.162 Y89.530 E2.55984
G1 X28.277 Y89.005 E2.56991
G1 X28.517 Y88.494 E2.58051
G1 X28.883 Y88.051 E2.59127
G1 X29.348 Y87.714 E2.60203
G1 X29.882 Y87.502 E2.61279
G1 X30.434 Y87.432 E2.62321 F900.000
G1 X31.019 Y87.501 E2.63424
G1 X31.556 Y87.714 E2.64506
G1 X32.020 Y88.051 E2.65582
G1 X32.386 Y88.494 E2.66658
G1 X32.627 Y89.005 E2.67717
