; generated by Slic3r 1.2.9 on 2015-11-23 at 20:20:49

; external perimeters extrusion width = 0.50mm
; perimeters extrusion width = 0.50mm
; infill extrusion width = 0.50mm
; solid infill extrusion width = 0.50mm
; top infill extrusion width = 0.50mm

M104 S190 ; set temperature
G28 ; home all axes
G1 Z15 F120 ; lift nozzle
M109 S190 ; wait for temperature to be reached
G21 ; set units to millimeters
G90 ; use absolute coordinates
M82 ; use absolute distances for extrusion
G92 E0
M106 S102
G1 E-2.00000 F1680.00000
G92 E0
G1 Z0.350 F12000.000
G1 X56.486 Y57.165 F12000.000
G1 E2.00000 F1680.00000
G1 X71.614 Y46.976 E2.51346 F1200.000
G1 X73.681 Y46.062 E2.57710
G1 X75.209 Y45.878 E2.62042
G1 X94.791 Y45.878 E3.17167
G1 X97.016 Y46.275 E3.23530
G1 X98.386 Y46.976 E3.27863 F1200.000
G1 X113.514 Y57.165 E3.79209
G1 X115.138 Y58.737 E3.85573
G1 X116.253 Y61.365 E3.93609
G1 X117.456 Y68.164 E4.13048
G1 X117.993 Y71.480 E4.22505
G1 X118.450 Y74.703 E4.31667
G1 X118.765 Y77.494 E4.39576
G1 X118.958 Y79.839 E4.46200
G1 X119.007 Y80.521 E4.48125
G1 X119.120 Y82.981 E4.55057
G1 X119.155 Y85.758 E4.62874
G1 X119.105 Y88.268 E4.69941
G1 X118.984 Y90.689 E4.76768
G1 X118.815 Y92.845 E4.82856
G1 X118.575 Y95.064 E4.89138
G1 X118.212 Y97.553 E4.96219
G1 X117.836 Y99.372 E5.01449
G1 X117.701 Y99.908 E5.03005
G1 X117.150 Y101.742 E5.08395
G1 X116.940 Y102.334 E5.10163
G1 X116.158 Y104.238 E5.15958
G1 X115.913 Y104.766 E5.17597
G1 X114.825 Y106.842 E5.24197
G1 X114.560 Y107.300 E5.25687
G1 X113.209 Y109.429 E5.32785
G1 X112.911 Y109.858 E5.34254
G1 X111.311 Y111.976 E5.41727
G1 X110.953 Y112.409 E5.43309
G1 X109.134 Y114.422 E5.50947
G1 X108.683 Y114.875 E5.52746
G1 X106.668 Y116.702 E5.60404
G1 X106.231 Y117.065 E5.62001
G1 X104.087 Y118.690 E5.69577
G1 X103.657 Y118.989 E5.71051
G1 X101.448 Y120.397 E5.78425
G1 X101.009 Y120.652 E5.79853
G1 X98.798 Y121.827 E5.86903
G1 X98.327 Y122.053 E5.88373
G1 X96.186 Y122.975 E5.94937
G1 X95.766 Y123.139 E5.96205
G1 X93.752 Y123.843 E6.02211
G1 X91.599 Y124.464 E6.08519
G1 X89.751 Y124.892 E6.13859
G1 X88.324 Y125.153 E6.17945
G1 X87.048 Y125.314 E6.21565
G1 X86.626 Y125.348 E6.22757
G1 X85.612 Y125.390 E6.25614
G1 X84.075 Y125.383 E6.29939
G1 X82.952 Y125.314 E6.33108
G1 X82.062 Y125.210 E6.35631
G1 X80.528 Y124.949 E6.40011
G1 X78.727 Y124.547 E6.45205
G1 X76.610 Y123.957 E6.51392
G1 X74.234 Y123.139 E6.58467
G1 X73.814 Y122.975 E6.59735
G1 X71.673 Y122.053 E6.66299
G1 X71.202 Y121.827 E6.67769
G1 X68.991 Y120.652 E6.74819
G1 X68.552 Y120.397 E6.76247
G1 X66.343 Y118.989 E6.83621
G1 X65.913 Y118.690 E6.85095
G1 X63.769 Y117.065 E6.92671
G1 X63.332 Y116.702 E6.94268
G1 X61.317 Y114.875 E7.01927
G1 X60.866 Y114.422 E7.03725
G1 X59.047 Y112.409 E7.11363
G1 X58.689 Y111.976 E7.12945
G1 X57.089 Y109.858 E7.20418
G1 X56.791 Y109.429 E7.21887
G1 X55.440 Y107.300 E7.28985
G1 X55.175 Y106.842 E7.30475
G1 X54.263 Y105.103 E7.36006
G1 X53.842 Y104.238 E7.38713
G1 X53.060 Y102.334 E7.44508
G1 X52.850 Y101.742 E7.46277
G1 X52.299 Y99.908 E7.51667
G1 X52.164 Y99.372 E7.53223
G1 X51.718 Y97.153 E7.59595
G1 X51.425 Y95.064 E7.65534
G1 X51.203 Y93.038 E7.71271
G1 X51.004 Y90.508 E7.78416
G1 X50.888 Y88.075 E7.85273
G1 X50.845 Y85.758 E7.91797
G1 X50.880 Y82.981 E7.99615
G1 X51.005 Y80.336 E8.07070
G1 X51.216 Y77.694 E8.14529
G1 X51.569 Y74.548 E8.23443
G1 X52.007 Y71.480 E8.32167
G1 X52.544 Y68.164 E8.41623
G1 X53.747 Y61.365 E8.61062
G1 X54.531 Y59.245 E8.67425
G1 X56.435 Y57.219 E8.75251
G1 E6.75251 F1680.00000
G92 E0
G1 X77.419 Y74.932 F12000.000
G1 E2.00000 F1680.00000
G1 X78.639 Y73.712 E2.04490 F720.000
G1 X80.052 Y72.723 E2.08981
G1 X81.615 Y71.994 E2.13471
G1 X83.281 Y71.547 E2.17961 F720.000
G1 X85.000 Y71.397 E2.22451
G1 X86.719 Y71.547 E2.26941
G1 X88.385 Y71.994 E2.31432
G1 X89.948 Y72.723 E2.35922
G1 X91.361 Y73.712 E2.40412
G1 X92.581 Y74.932 E2.44902
G1 X93.571 Y76.345 E2.49393
G1 X94.300 Y77.909 E2.53883
G1 X94.746 Y79.575 E2.58373
G1 X94.897 Y81.294 E2.62864
G1 X94.746 Y83.012 E2.67354
G1 X94.300 Y84.679 E2.71844
G1 X93.571 Y86.242 E2.76334
G1 X92.581 Y87.655 E2.80825
G1 X91.361 Y88.875 E2.85315
G1 X89.948 Y89.864 E2.89805
G1 X88.385 Y90.593 E2.94295
G1 X86.719 Y91.040 E2.98785
G1 X85.000 Y91.190 E3.03276
G1 X83.281 Y91.040 E3.07766
G1 X81.615 Y90.593 E3.12256
G1 X80.052 Y89.864 E3.16746
G1 X78.639 Y88.875 E3.21237
G1 X77.419 Y87.655 E3.25727
G1 X76.429 Y86.242 E3.30217
G1 X75.700 Y84.679 E3.34707
G1 X75.254 Y83.012 E3.39198
G1 X75.103 Y81.294 E3.43688
G1 X75.254 Y79.575 E3.48178
G1 X75.700 Y77.909 E3.52668
G1 X76.429 Y76.345 E3.57159
G1 X77.376 Y74.994 E3.61454
G1 E1.61454 F1680.00000
G92 E0
G1 X112.347 Y81.441 F12000.000
G1 E2.00000 F1680.00000
G1 X112.441 Y83.285 E2.04806 F720.000
G1 X112.470 Y85.640 E2.10935
G1 X112.427 Y87.945 E2.16936
G1 X112.291 Y90.518 E2.23643
G1 X112.150 Y92.315 E2.28336
G1 X111.929 Y94.333 E2.33620
G1 X111.663 Y96.206 E2.38543
G1 X111.291 Y98.004 E2.43322
G1 X110.750 Y99.805 E2.48217
G1 X109.977 Y101.687 E2.53513
G1 X108.908 Y103.727 E2.59507
G1 X107.568 Y105.838 E2.66016
G1 X105.984 Y107.935 E2.72857
G1 X104.181 Y109.931 E2.79858
G1 X102.184 Y111.743 E2.86877
G1 X100.056 Y113.356 E2.93827
G1 X97.863 Y114.752 E3.00593
G1 X95.673 Y115.916 E3.07049
G1 X93.549 Y116.831 E3.13069
G1 X91.562 Y117.526 E3.18548
G1 X89.785 Y118.028 E3.23354
G1 X88.291 Y118.367 E3.27341
G1 X87.156 Y118.570 E3.30342
G1 X86.292 Y118.670 E3.32606
G1 X85.606 Y118.704 E3.34396
G1 X84.394 Y118.704 E3.37548
G1 X83.708 Y118.670 E3.39338
G1 X82.844 Y118.570 E3.41602
G1 X81.709 Y118.367 E3.44603
G1 X80.215 Y118.028 E3.48590
G1 X78.438 Y117.526 E3.53396
G1 X76.451 Y116.831 E3.58875
G1 X74.327 Y115.916 E3.64895
G1 X72.137 Y114.752 E3.71351
G1 X69.944 Y113.356 E3.78117
G1 X67.816 Y111.743 E3.85067
G1 X65.819 Y109.931 E3.92086
G1 X64.016 Y107.935 E3.99087
G1 X62.432 Y105.838 E4.05928
G1 X61.092 Y103.727 E4.12437
G1 X60.023 Y101.687 E4.18431
G1 X59.250 Y99.805 E4.23727
G1 X58.709 Y98.004 E4.28622
G1 X58.337 Y96.206 E4.33402
G1 X58.071 Y94.333 E4.38324
G1 X57.850 Y92.315 E4.43608
G1 X57.682 Y90.178 E4.49188
G1 X57.573 Y87.945 E4.55007
G1 X57.530 Y85.640 E4.61009
G1 X57.559 Y83.285 E4.67138
G1 X57.707 Y80.376 E4.74719
G1 X57.880 Y78.239 E4.80301
G1 X58.194 Y75.455 E4.87593
G1 X58.625 Y72.435 E4.95535
G1 X59.144 Y69.237 E5.03967
G1 X60.305 Y62.677 E5.21307
G1 X60.853 Y62.430 E5.22873
G1 X62.704 Y63.433 E5.28352
G1 X62.699 Y64.796 E5.31900
G1 X70.590 Y64.810 E5.52440
G1 X75.380 Y52.565 E5.86665
G1 X85.000 Y52.579 E6.11705
G1 X94.620 Y52.565 E6.36745
G1 X95.426 Y54.625 E6.42503
G1 X99.410 Y64.810 E6.70970 F720.000
G1 X107.301 Y64.796 E6.91510
G1 X107.296 Y63.433 E6.95057
G1 X109.147 Y62.430 E7.00536
G1 X109.695 Y62.677 E7.02103
G1 X110.856 Y69.237 E7.19443
G1 X111.375 Y72.435 E7.27874
G1 X111.806 Y75.455 E7.35816
G1 X112.120 Y78.239 E7.43109
G1 X112.293 Y80.376 E7.48690
G1 X112.343 Y81.366 E7.51270
G1 X109.500 Y63.026 F12000.000
G1 X109.264 Y62.790 E7.52143 F1200.000
G1 X108.770 Y62.870 E7.53453
G1 X109.623 Y63.723 E7.56612
G1 X109.746 Y64.420 E7.58466
G1 X108.398 Y63.071 E7.63461
G1 X108.025 Y63.273 E7.64569
G1 X109.870 Y65.117 E7.71398
G1 X109.993 Y65.815 E7.73252
G1 X107.653 Y63.475 E7.81915
G1 X107.536 Y63.931 E7.83149
G1 X110.117 Y66.512 E7.92705
G1 X110.240 Y67.209 E7.94559
G1 X107.538 Y64.507 E8.04565
G1 X107.490 Y65.033 E8.05948
G1 X110.363 Y67.906 E8.16588
G1 X110.487 Y68.604 E8.18442
G1 X106.917 Y65.034 E8.31660
G1 X106.344 Y65.035 E8.33160
G1 X110.610 Y69.301 E8.48956
G1 X110.723 Y69.987 E8.50777
G1 X105.771 Y65.036 E8.69110
G1 X105.198 Y65.037 E8.70610
G1 X110.834 Y70.672 E8.91476
G1 X110.945 Y71.357 E8.93293
G1 X104.626 Y65.038 E9.16692
G1 X104.053 Y65.039 E9.18192
G1 X111.056 Y72.043 E9.44123
G1 X111.164 Y72.724 E9.45929
G1 X103.480 Y65.040 E9.74380
G1 X102.907 Y65.041 E9.75880
G1 X111.259 Y73.393 E10.06805
G1 X111.355 Y74.063 E10.08576
G1 X102.334 Y65.042 E10.41976
G1 X101.761 Y65.043 E10.43476
G1 X111.450 Y74.732 E10.79351
G1 X111.546 Y75.402 E10.81121
G1 X101.188 Y65.044 E11.19471
G1 X100.616 Y65.045 E11.20971
G1 X111.625 Y76.054 E11.61734
G1 X111.698 Y76.701 E11.63438
G1 X100.043 Y65.046 E12.06592
G1 X99.470 Y65.047 E12.08092
G1 X111.770 Y77.348 E12.53637
G1 X111.843 Y77.995 E12.55341
G1 X86.663 Y52.814 E13.48577
G1 X87.236 Y52.813 E13.50078
G1 X99.040 Y64.617 E13.93784
G1 X98.671 Y63.675 F12000.000
G1 X87.809 Y52.812 E14.34004 F1200.000
G1 X88.382 Y52.811 E14.35505
G1 X98.302 Y62.732 E14.72237
G1 X97.934 Y61.790 F12000.000
G1 X88.955 Y52.811 E15.05483 F1200.000
G1 X89.528 Y52.810 E15.06984
G1 X97.565 Y60.847 E15.36743
G1 X97.196 Y59.904 F12000.000
G1 X90.101 Y52.809 E15.63015 F1200.000
G1 X90.674 Y52.808 E15.64515
G1 X96.828 Y58.962 E15.87300
G1 X96.459 Y58.019 F12000.000
G1 X91.247 Y52.807 E16.06599 F1200.000
G1 X91.820 Y52.806 E16.08099
G1 X96.090 Y57.077 E16.23910
G1 X95.721 Y56.134 F12000.000
G1 X92.393 Y52.806 E16.36235 F1200.000
G1 X92.966 Y52.805 E16.37735
G1 X95.353 Y55.191 E16.46572
G1 X94.984 Y54.249 F12000.000
G1 X93.539 Y52.804 E16.51923 F1200.000
G1 X94.112 Y52.803 E16.53423
G1 X94.615 Y53.306 E16.55287
G1 X86.090 Y52.815 F12000.000
G1 X111.906 Y78.632 E17.50878 F1200.000
G1 X111.957 Y79.256 E17.52519
G1 X85.517 Y52.816 E18.50420
G1 X84.944 Y52.817 E18.51920
G1 X112.008 Y79.881 E19.52130
G1 X112.058 Y80.505 E19.53769
G1 X84.369 Y52.816 E20.56292
G1 X83.794 Y52.815 E20.57797
G1 X112.088 Y81.109 E21.62561
G1 X112.119 Y81.714 E21.64146
G1 X83.219 Y52.814 E22.71152
G1 X82.645 Y52.813 E22.72656
G1 X112.150 Y82.318 E23.81904
G1 X112.180 Y82.923 E23.83488
G1 X82.070 Y52.812 E24.94977
G1 X81.495 Y52.812 E24.96482
G1 X112.205 Y83.522 E26.10191
G1 X112.212 Y84.103 E26.11713
G1 X80.920 Y52.811 E27.27577
G1 X80.346 Y52.810 E27.29082
G1 X112.220 Y84.684 E28.47101
G1 X112.227 Y85.265 E28.48623
G1 X79.771 Y52.809 E29.68796
G1 X79.196 Y52.808 E29.70301
G1 X112.230 Y85.842 E30.92616
G1 X112.220 Y86.406 E30.94091
G1 X78.621 Y52.807 E32.18496
G1 X78.047 Y52.806 E32.20000
G1 X112.209 Y86.969 E33.46493
G1 X112.199 Y87.532 E33.47969
G1 X77.472 Y52.806 E34.76551
G1 X76.897 Y52.805 E34.78056
G1 X112.186 Y88.093 E36.08718
G1 X112.157 Y88.638 E36.10147
G1 X76.322 Y52.804 E37.42831
G1 X75.748 Y52.803 E37.44336
G1 X112.128 Y89.184 E38.79042
G1 X112.100 Y89.729 E38.80471
G1 X75.419 Y53.048 E40.16289
G1 X75.257 Y53.460 E40.17449
G1 X112.071 Y90.274 E41.53758
G1 X112.037 Y90.813 E41.55173
G1 X75.096 Y53.873 E42.91952
G1 X74.935 Y54.285 E42.93112
G1 X111.995 Y91.345 E44.30333
G1 X111.953 Y91.877 E44.31730
G1 X74.773 Y54.698 E45.69393
G1 X74.612 Y55.111 E45.70552
G1 X111.909 Y92.408 E47.08653
G1 X111.853 Y92.925 E47.10016
G1 X74.451 Y55.523 E48.48505
G1 X74.289 Y55.936 E48.49665
G1 X111.796 Y93.443 E49.88542
G1 X111.740 Y93.960 E49.89904
G1 X93.505 Y75.725 E50.57422
G1 X94.170 Y76.964 F12000.000
G1 X111.680 Y94.475 E51.22258 F1200.000
G1 X111.609 Y94.977 E51.23587
G1 X94.583 Y77.951 E51.86631
G1 X94.793 Y78.735 E51.88756
G1 X111.538 Y95.480 E52.50758
G1 X111.467 Y95.982 E52.52087
G1 X94.986 Y79.502 E53.13110
G1 X95.041 Y80.131 E53.14763
G1 X111.382 Y96.472 E53.75268
G1 X111.283 Y96.947 E53.76540
G1 X95.096 Y80.759 E54.36477
G1 X95.122 Y81.359 E54.38049
G1 X111.185 Y97.422 E54.97525
G1 X111.087 Y97.898 E54.98796
G1 X95.076 Y81.887 E55.58079
G1 X95.030 Y82.415 E55.59466
G1 X110.962 Y98.347 E56.18459
G1 X110.830 Y98.789 E56.19666
G1 X94.983 Y82.943 E56.78339
G1 X94.868 Y83.401 E56.79576
G1 X110.697 Y99.230 E57.38186
G1 X110.564 Y99.671 E57.39393
G1 X94.747 Y83.854 E57.97961
G1 X94.625 Y84.306 E57.99188
G1 X110.406 Y100.087 E58.57619
G1 X110.239 Y100.494 E58.58771
G1 X94.497 Y84.751 E59.17060
G1 X94.314 Y85.143 E59.18190
G1 X110.072 Y100.901 E59.76537
G1 X109.905 Y101.307 E59.77688
G1 X94.132 Y85.534 E60.36091
G1 X93.949 Y85.925 E60.37222
G1 X109.732 Y101.708 E60.95661
G1 X109.535 Y102.085 E60.96774
G1 X93.767 Y86.317 E61.55158
G1 X93.530 Y86.655 E61.56237
G1 X109.337 Y102.461 E62.14765
G1 X109.140 Y102.838 E62.15878
G1 X93.294 Y86.992 E62.74550
G1 X93.058 Y87.330 E62.75629
G1 X108.943 Y103.215 E63.34446
G1 X108.745 Y103.591 E63.35559
G1 X92.821 Y87.667 E63.94520
G1 X92.551 Y87.971 E63.95584
G1 X108.527 Y103.946 E64.54736
G1 X108.304 Y104.297 E64.55825
G1 X92.264 Y88.258 E65.15215
G1 X91.977 Y88.545 E65.16277
G1 X108.081 Y104.648 E65.75904
G1 X107.858 Y105.000 E65.76993
G1 X91.690 Y88.832 E66.36858
G1 X91.389 Y89.104 E66.37922
G1 X107.635 Y105.351 E66.98077
G1 X107.413 Y105.702 E66.99165
G1 X91.052 Y89.341 E67.59745
G1 X90.714 Y89.577 E67.60824
G1 X107.168 Y106.031 E68.21749
G1 X106.921 Y106.358 E68.22822
G1 X90.376 Y89.813 E68.84082
G1 X90.039 Y90.050 E68.85160
G1 X106.674 Y106.685 E69.46755
G1 X106.427 Y107.012 E69.47828
G1 X89.650 Y90.234 E70.09949
G1 X89.258 Y90.417 E70.11080
G1 X106.180 Y107.339 E70.73735
G1 X105.933 Y107.665 E70.74808
G1 X88.867 Y90.599 E71.37998
G1 X88.476 Y90.782 E71.39129
G1 X105.672 Y107.979 E72.02802
G1 X105.400 Y108.280 E72.03866
G1 X88.033 Y90.913 E72.68169
G1 X87.581 Y91.035 E72.69396
G1 X105.127 Y108.582 E73.34366
G1 X104.855 Y108.883 E73.35430
G1 X87.128 Y91.156 E74.01068
G1 X86.673 Y91.275 E74.02299
G1 X104.583 Y109.185 E74.68612
G1 X104.310 Y109.486 E74.69676
G1 X86.145 Y91.321 E75.36935
G1 X85.618 Y91.367 E75.38322
G1 X104.024 Y109.773 E76.06474
G1 X103.737 Y110.060 E76.07537
G1 X85.090 Y91.413 E76.76580
G1 X84.495 Y91.392 E76.78140
G1 X103.436 Y110.334 E77.48274
G1 X103.135 Y110.607 E77.49338
G1 X83.866 Y91.337 E78.20686
G1 X83.237 Y91.282 E78.22339
G1 X102.834 Y110.880 E78.94902
G1 X102.533 Y111.153 E78.95966
G1 X82.477 Y91.096 E79.70229
G1 X81.693 Y90.886 E79.72354
G1 X102.233 Y111.426 E80.48405
G1 X101.921 Y111.687 E80.49472
G1 X80.720 Y90.486 E81.27972
G1 X79.520 Y89.860 F12000.000
G1 X101.594 Y111.935 E82.09706 F1200.000
G1 X101.268 Y112.182 E82.10779
G1 X59.225 Y70.140 E83.66449
G1 X59.305 Y69.646 E83.67759
G1 X76.433 Y86.774 E84.31179
G1 X75.807 Y85.574 F12000.000
G1 X59.386 Y69.153 E84.91982 F1200.000
G1 X59.472 Y68.665 E84.93279
G1 X75.408 Y84.601 E85.52283
G1 X75.198 Y83.817 E85.54408
G1 X59.558 Y68.177 E86.12315
G1 X59.645 Y67.690 E86.13612
G1 X75.012 Y83.057 E86.70510
G1 X74.957 Y82.428 E86.72163
G1 X59.731 Y67.202 E87.28539
G1 X59.817 Y66.715 E87.29835
G1 X74.902 Y81.799 E87.85688
G1 X74.880 Y81.204 E87.87247
G1 X59.904 Y66.227 E88.42701
G1 X59.990 Y65.739 E88.43997
G1 X74.926 Y80.676 E88.99302
G1 X74.973 Y80.148 E89.00689
G1 X60.076 Y65.252 E89.55846
G1 X60.162 Y64.764 E89.57143
G1 X75.019 Y79.621 E90.12151
G1 X75.138 Y79.166 E90.13382
G1 X60.249 Y64.277 E90.68511
G1 X60.335 Y63.789 E90.69808
G1 X75.259 Y78.713 E91.25066
G1 X75.380 Y78.260 E91.26293
G1 X60.421 Y63.301 E91.81682
G1 X60.524 Y62.831 E91.82944
G1 X62.462 Y64.768 E91.90119
G1 X62.727 Y65.034 F12000.000
G1 X75.512 Y77.818 E92.37456 F1200.000
G1 X75.694 Y77.427 E92.38586
G1 X63.302 Y65.035 E92.84470
G1 X63.877 Y65.036 E92.85975
G1 X75.877 Y77.035 E93.30406
G1 X76.059 Y76.644 E93.31537
G1 X64.452 Y65.037 E93.74515
G1 X65.027 Y65.038 E93.76020
G1 X76.244 Y76.255 E94.17553
G1 X76.480 Y75.917 E94.18632
G1 X65.602 Y65.039 E94.58911
G1 X66.177 Y65.040 E94.60417
G1 X76.717 Y75.580 E94.99442
G1 X76.953 Y75.242 E95.00521
G1 X66.752 Y65.041 E95.38293
G1 X67.327 Y65.042 E95.39799
G1 X77.189 Y74.905 E95.76317
G1 X77.462 Y74.603 E95.77381
G1 X67.902 Y65.043 E96.12781
G1 X68.477 Y65.044 E96.14286
G1 X77.749 Y74.316 E96.48619
G1 X78.036 Y74.030 E96.49681
G1 X69.051 Y65.045 E96.82948
G1 X69.626 Y65.046 E96.84454
G1 X78.323 Y73.743 E97.16654
G1 X78.626 Y73.472 E97.17718
G1 X70.201 Y65.047 E97.48914
G1 X70.739 Y65.011 E97.50326
G1 X78.964 Y73.236 E97.80779
G1 X79.302 Y73.000 E97.81858
G1 X70.901 Y64.599 E98.12964
G1 X71.062 Y64.186 E98.14124
G1 X79.639 Y72.763 E98.45882
G1 X79.977 Y72.527 E98.46961
G1 X71.223 Y63.774 E98.79373
G1 X71.385 Y63.361 E98.80532
G1 X80.368 Y72.345 E99.13796
G1 X80.760 Y72.162 E99.14926
G1 X71.546 Y62.949 E99.49041
G1 X71.707 Y62.536 E99.50201
G1 X81.151 Y71.980 E99.85167
G1 X81.542 Y71.797 E99.86298
G1 X71.869 Y62.123 E100.22116
G1 X72.030 Y61.711 E100.23276
G1 X81.988 Y71.668 E100.60145
G1 X82.440 Y71.547 E100.61372
G1 X72.192 Y61.298 E100.99319
