; generated by Slic3r 1.2.9 on 2015-11-24 at 20:03:48

; external perimeters extrusion width = 0.50mm
; perimeters extrusion width = 0.50mm
; infill extrusion width = 0.50mm
; solid infill extrusion width = 0.50mm
; top infill extrusion width = 0.50mm

M104 S190 ; set temperature
G28 ; home all axes
G1 Z15 F120 ; lift nozzle
M109 S190 ; wait for temperature to be reached
G21 ; set units to millimeters
G90 ; use absolute coordinates
M82 ; use absolute distances for extrusion
G92 E0
M106 S102
G1 E-2.00000 F1680.00000
G92 E0
G1 Z0.200 F12000.000
G1 X63.839 Y63.733 F12000.000
G1 E2.00000 F1680.00000
G1 X74.430 Y56.601 E2.35946 F1200.000
G1 X76.529 Y55.665 E2.42417
G1 X78.147 Y55.466 E2.47005
G1 X91.853 Y55.466 E2.85592
G1 X94.117 Y55.863 E2.92063
G1 X95.570 Y56.601 E2.96650 F1200.000
G1 X106.161 Y63.733 E3.32597
G1 X107.818 Y65.327 E3.39068
G1 X108.994 Y68.075 E3.47483
G1 X109.842 Y72.872 E3.61198
G1 X110.224 Y75.232 E3.67929
G1 X110.533 Y77.394 E3.74075
G1 X110.793 Y79.715 E3.80651
G1 X110.942 Y81.577 E3.85908
G1 X111.033 Y83.490 E3.91301
G1 X111.060 Y85.572 E3.97162
G1 X111.023 Y87.394 E4.02294
G1 X110.934 Y89.150 E4.07243
G1 X110.815 Y90.663 E4.11515
G1 X110.642 Y92.280 E4.16094
G1 X110.356 Y94.225 E4.21627
G1 X110.092 Y95.498 E4.25289
G1 X109.952 Y96.052 E4.26897
G1 X109.566 Y97.339 E4.30681
G1 X109.349 Y97.952 E4.32509
G1 X108.801 Y99.284 E4.36566
G1 X108.548 Y99.830 E4.38260
G1 X107.783 Y101.290 E4.42898
G1 X107.509 Y101.763 E4.44439
G1 X106.563 Y103.254 E4.49408
G1 X106.256 Y103.697 E4.50927
G1 X105.134 Y105.181 E4.56163
G1 X104.764 Y105.629 E4.57799
G1 X103.491 Y107.038 E4.63146
G1 X103.024 Y107.506 E4.65006
G1 X101.613 Y108.786 E4.70368
G1 X101.162 Y109.160 E4.72019
G1 X99.660 Y110.298 E4.77324
G1 X99.216 Y110.607 E4.78847
G1 X97.670 Y111.593 E4.84010
G1 X97.216 Y111.857 E4.85486
G1 X95.667 Y112.680 E4.90426
G1 X95.180 Y112.914 E4.91945
G1 X93.681 Y113.559 E4.96541
G1 X93.247 Y113.729 E4.97852
G1 X91.833 Y114.223 E5.02068
G1 X90.205 Y114.696 E5.06841
G1 X88.797 Y115.025 E5.10911
G1 X87.704 Y115.226 E5.14040
G1 X86.679 Y115.358 E5.16949
G1 X86.243 Y115.394 E5.18183
G1 X85.428 Y115.425 E5.20477
G1 X84.248 Y115.418 E5.23799
G1 X83.321 Y115.358 E5.26416
G1 X82.694 Y115.285 E5.28192
G1 X81.492 Y115.083 E5.31624
G1 X80.132 Y114.782 E5.35544
G1 X78.541 Y114.341 E5.40192
G1 X76.753 Y113.729 E5.45513
G1 X76.319 Y113.559 E5.46824
G1 X74.820 Y112.914 E5.51420
G1 X74.333 Y112.680 E5.52940
G1 X72.784 Y111.857 E5.57879
G1 X72.330 Y111.593 E5.59355
G1 X70.784 Y110.607 E5.64518
G1 X70.340 Y110.298 E5.66042
G1 X68.838 Y109.160 E5.71346
G1 X68.387 Y108.786 E5.72997
G1 X66.976 Y107.506 E5.78359
G1 X66.509 Y107.038 E5.80219
G1 X65.236 Y105.629 E5.85566
G1 X64.866 Y105.181 E5.87202
G1 X63.744 Y103.697 E5.92438
G1 X63.437 Y103.254 E5.93957
G1 X62.491 Y101.763 E5.98926
G1 X62.217 Y101.290 E6.00467
G1 X61.452 Y99.830 E6.05105
G1 X61.199 Y99.284 E6.06800
G1 X60.651 Y97.952 E6.10856
G1 X60.434 Y97.339 E6.12685
G1 X60.048 Y96.052 E6.16468
G1 X59.908 Y95.498 E6.18077
G1 X59.644 Y94.224 E6.21739
G1 X59.385 Y92.492 E6.26670
G1 X59.203 Y90.862 E6.31287
G1 X59.084 Y89.389 E6.35449
G1 X58.970 Y87.195 E6.41632
G1 X58.939 Y85.377 E6.46750
G1 X58.960 Y83.712 E6.51440
G1 X59.058 Y81.577 E6.57457
G1 X59.207 Y79.715 E6.62714
G1 X59.447 Y77.553 E6.68837
G1 X59.776 Y75.232 E6.75436
G1 X60.239 Y72.393 E6.83536
G1 X61.006 Y68.075 E6.95882
G1 X61.797 Y65.917 E7.02353
G1 X63.787 Y63.788 E7.10557
G1 E5.10557 F1680.00000
G92 E0
G1 X79.300 Y77.623 F12000.000
G1 E2.00000 F1680.00000
G1 X80.218 Y76.706 E2.02430 F900.000
G1 X81.280 Y75.962 E2.04860
G1 X82.455 Y75.414 E2.07290
G1 X83.708 Y75.078 E2.09720
G1 X83.916 Y75.060 E2.10112
G1 X85.000 Y74.965 E2.12150 F900.000
G1 X86.292 Y75.078 E2.14580
G1 X87.545 Y75.414 E2.17010
G1 X88.720 Y75.962 E2.19440
G1 X89.782 Y76.706 E2.21871
G1 X90.700 Y77.623 E2.24301
G1 X91.443 Y78.685 E2.26731
G1 X91.992 Y79.861 E2.29161
G1 X92.327 Y81.114 E2.31591
G1 X92.440 Y82.406 E2.34021
G1 X92.327 Y83.698 E2.36451
G1 X91.992 Y84.950 E2.38881
G1 X91.443 Y86.126 E2.41311
G1 X90.700 Y87.188 E2.43741
G1 X89.782 Y88.105 E2.46171
G1 X88.720 Y88.849 E2.48601
G1 X87.545 Y89.397 E2.51031
G1 X86.292 Y89.733 E2.53461
G1 X85.000 Y89.846 E2.55891
G1 X83.708 Y89.733 E2.58321
G1 X82.455 Y89.397 E2.60752
G1 X81.280 Y88.849 E2.63182
G1 X80.218 Y88.105 E2.65612
G1 X79.300 Y87.188 E2.68042
G1 X78.557 Y86.126 E2.70472
G1 X78.008 Y84.950 E2.72902
G1 X77.673 Y83.698 E2.75332
G1 X77.560 Y82.406 E2.77762
G1 X77.673 Y81.114 E2.80192
G1 X78.008 Y79.861 E2.82622
G1 X78.557 Y78.685 E2.85052
G1 X79.257 Y77.685 E2.87342
G1 X79.614 Y77.934 F12000.000
G1 X80.499 Y77.041 E2.89697 F720.000
G1 X81.499 Y76.341 E2.91984
G1 X82.605 Y75.825 E2.94271
G1 X83.784 Y75.509 E2.96559
G1 X83.954 Y75.494 E2.96879
G1 X85.000 Y75.403 E2.98846 F720.000
G1 X86.216 Y75.509 E3.01133
G1 X87.395 Y75.825 E3.03420
G1 X88.501 Y76.341 E3.05708
G1 X89.501 Y77.041 E3.07995
G1 X90.365 Y77.904 E3.10282
G1 X91.065 Y78.904 E3.12569
G1 X91.581 Y80.010 E3.14857
G1 X91.897 Y81.190 E3.17144
G1 X92.003 Y82.406 E3.19431
G1 X91.897 Y83.622 E3.21718
G1 X91.581 Y84.801 E3.24006
G1 X91.065 Y85.907 E3.26293
G1 X90.365 Y86.907 E3.28580
G1 X89.501 Y87.770 E3.30867
G1 X88.501 Y88.470 E3.33155
G1 X87.395 Y88.986 E3.35442
G1 X86.216 Y89.302 E3.37729
G1 X85.000 Y89.409 E3.40016
G1 X83.784 Y89.302 E3.42303
G1 X82.605 Y88.986 E3.44591
G1 X81.499 Y88.470 E3.46878
G1 X80.499 Y87.770 E3.49165
G1 X79.635 Y86.907 E3.51452
G1 X78.935 Y85.907 E3.53740
G1 X78.419 Y84.801 E3.56027
G1 X78.103 Y83.622 E3.58314
G1 X77.997 Y82.406 E3.60601
G1 X78.103 Y81.190 E3.62889
G1 X78.419 Y80.010 E3.65176
G1 X78.935 Y78.904 E3.67463
G1 X79.571 Y77.996 E3.69541
G1 X79.455 Y77.460 F12000.000
G1 X66.932 Y77.038 F12000.000
G1 X67.402 Y74.053 E3.75203 F900.000
G1 X68.153 Y69.813 E3.83272
G1 X68.880 Y70.207 E3.84822
G1 X68.876 Y71.367 E3.86995
G1 X75.261 Y71.378 E3.98960
G1 X78.615 Y62.806 E4.16208
G1 X91.385 Y62.806 E4.40137
G1 X91.751 Y63.740 E4.42015
G1 X94.739 Y71.378 E4.57384 F900.000
G1 X101.124 Y71.367 E4.69349
G1 X101.120 Y70.207 E4.71523
G1 X101.847 Y69.813 E4.73073
G1 X102.598 Y74.053 E4.81141
G1 X102.960 Y76.284 E4.85375
G1 X103.260 Y78.386 E4.89354
G1 X103.478 Y80.319 E4.93000
G1 X103.599 Y81.815 E4.95812
G1 X103.701 Y83.818 E4.99570
G1 X103.721 Y85.448 E5.02625
G1 X103.691 Y87.045 E5.05618
G1 X103.598 Y88.820 E5.08947
G1 X103.499 Y90.075 E5.11306
G1 X103.346 Y91.472 E5.13939
G1 X103.164 Y92.758 E5.16374
G1 X102.911 Y93.979 E5.18710
G1 X102.546 Y95.194 E5.21087
G1 X102.023 Y96.467 E5.23664
G1 X101.296 Y97.855 E5.26600
G1 X100.380 Y99.297 E5.29802
G1 X99.297 Y100.731 E5.33169
G1 X98.067 Y102.093 E5.36608
G1 X96.704 Y103.329 E5.40055
G1 X95.249 Y104.432 E5.43477
G1 X93.748 Y105.388 E5.46810
G1 X92.251 Y106.183 E5.49987
G1 X90.800 Y106.808 E5.52948
G1 X89.440 Y107.284 E5.55647
G1 X88.224 Y107.628 E5.58015
G1 X87.203 Y107.860 E5.59977
G1 X86.435 Y107.997 E5.61438
G1 X85.863 Y108.063 E5.62518
G1 X85.412 Y108.085 E5.63364
G1 X84.588 Y108.085 E5.64907
G1 X84.137 Y108.063 E5.65753
G1 X83.565 Y107.997 E5.66833
G1 X82.797 Y107.860 E5.68294
G1 X81.776 Y107.628 E5.70256
G1 X80.560 Y107.284 E5.72624
G1 X79.200 Y106.808 E5.75323
G1 X77.749 Y106.183 E5.78284
G1 X76.252 Y105.388 E5.81461
G1 X74.751 Y104.432 E5.84794
G1 X73.296 Y103.329 E5.88216
G1 X71.933 Y102.093 E5.91663
G1 X70.703 Y100.731 E5.95102
G1 X69.620 Y99.297 E5.98469
G1 X68.704 Y97.855 E6.01671
G1 X67.977 Y96.467 E6.04607
G1 X67.454 Y95.194 E6.07184
G1 X67.089 Y93.979 E6.09561
G1 X66.836 Y92.758 E6.11897
G1 X66.654 Y91.472 E6.14332
G1 X66.501 Y90.075 E6.16965
G1 X66.385 Y88.594 E6.19748
G1 X66.309 Y87.047 E6.22651
G1 X66.279 Y85.448 E6.25646
G1 X66.299 Y83.818 E6.28701
G1 X66.401 Y81.815 E6.32459
G1 X66.522 Y80.319 E6.35271
G1 X66.740 Y78.386 E6.38917
G1 X66.922 Y77.113 E6.41327
G1 X66.490 Y77.051 F12000.000
G1 X66.973 Y73.980 E6.47151 F720.000
G1 X67.779 Y69.426 E6.55817
G1 X68.093 Y69.285 E6.56462
G1 X69.316 Y69.948 E6.59070
G1 X69.313 Y70.932 E6.60913
G1 X74.964 Y70.942 E6.71503
G1 X78.317 Y62.370 E6.88749
G1 X91.683 Y62.370 E7.13792
G1 X92.156 Y63.581 E7.16228
G1 X95.036 Y70.942 E7.31039 F720.000
G1 X100.687 Y70.932 E7.41628
G1 X100.684 Y69.948 E7.43472
G1 X101.907 Y69.285 E7.46079
G1 X102.221 Y69.426 E7.46725
G1 X103.027 Y73.980 E7.55391
G1 X103.391 Y76.218 E7.59638
G1 X103.692 Y78.331 E7.63637
G1 X103.912 Y80.277 E7.67308
G1 X104.034 Y81.786 E7.70145
G1 X104.136 Y83.804 E7.73931
G1 X104.157 Y85.450 E7.77014
G1 X104.126 Y87.061 E7.80033
G1 X104.033 Y88.848 E7.83387
G1 X103.933 Y90.116 E7.85769
G1 X103.778 Y91.526 E7.88427
G1 X103.593 Y92.833 E7.90901
G1 X103.334 Y94.086 E7.93299
G1 X102.957 Y95.340 E7.95752
G1 X102.419 Y96.651 E7.98407
G1 X101.673 Y98.073 E8.01415
G1 X100.739 Y99.546 E8.04684
G1 X99.633 Y101.009 E8.08120
G1 X98.376 Y102.401 E8.11635
G1 X96.982 Y103.664 E8.15159
G1 X95.498 Y104.790 E8.18650
G1 X93.968 Y105.764 E8.22048
G1 X92.440 Y106.576 E8.25291
G1 X90.958 Y107.215 E8.28314
G1 X89.571 Y107.699 E8.31066
G1 X88.332 Y108.050 E8.33481
G1 X87.289 Y108.287 E8.35483
G1 X86.499 Y108.428 E8.36988
G1 X85.899 Y108.498 E8.38120
G1 X85.422 Y108.521 E8.39014
G1 X84.578 Y108.521 E8.40596
G1 X84.101 Y108.498 E8.41489
G1 X83.501 Y108.428 E8.42622
G1 X82.711 Y108.287 E8.44127
G1 X81.668 Y108.050 E8.46129
G1 X80.429 Y107.699 E8.48543
G1 X79.042 Y107.215 E8.51295
G1 X77.560 Y106.576 E8.54319
G1 X76.032 Y105.764 E8.57561
G1 X74.502 Y104.790 E8.60960
G1 X73.018 Y103.664 E8.64451
G1 X71.624 Y102.401 E8.67975
G1 X70.367 Y101.009 E8.71490
G1 X69.261 Y99.546 E8.74926
G1 X68.326 Y98.073 E8.78195
G1 X67.581 Y96.651 E8.81203
G1 X67.043 Y95.340 E8.83858
G1 X66.666 Y94.086 E8.86311
G1 X66.407 Y92.833 E8.88709
G1 X66.222 Y91.526 E8.91182
G1 X66.067 Y90.116 E8.93840
G1 X65.950 Y88.622 E8.96648
G1 X65.874 Y87.061 E8.99576
G1 X65.843 Y85.450 E9.02596
G1 X65.864 Y83.804 E9.05679
G1 X65.966 Y81.786 E9.09465
G1 X66.088 Y80.277 E9.12302
G1 X66.308 Y78.331 E9.15972
G1 X66.480 Y77.125 E9.18254
G1 X66.956 Y76.869 F12000.000
G1 X68.361 Y71.584 F12000.000
G1 X68.482 Y70.239 E9.23689 F600.000
G1 E7.23689 F1680.00000
G92 E0
G1 X84.911 Y63.064 F12000.000
G1 E2.00000 F1680.00000
G1 X103.304 Y81.457 E2.49072 F1200.000
G1 X103.352 Y82.125 E2.50336
G1 X84.290 Y63.064 E3.01192
G1 X83.670 Y63.064 E3.02362
G1 X103.385 Y82.779 E3.54961
G1 X103.418 Y83.432 E3.56195
G1 X83.050 Y63.064 E4.10536
G1 X82.430 Y63.064 E4.11706
G1 X103.445 Y84.079 E4.67773
G1 X103.453 Y84.707 E4.68958
G1 X81.809 Y63.064 E5.26701
G1 X81.189 Y63.064 E5.27871
G1 X103.460 Y85.335 E5.87290
G1 X103.455 Y85.950 E5.88451
G1 X80.569 Y63.064 E6.49511
G1 X79.949 Y63.064 E6.50681
G1 X103.444 Y86.559 E7.13365
G1 X103.431 Y87.167 E7.14511
G1 X79.328 Y63.064 E7.78816
G1 X78.746 Y63.102 E7.79917
G1 X103.400 Y87.756 E8.45692
G1 X103.369 Y88.345 E8.46806
G1 X78.572 Y63.548 E9.12964
G1 X78.398 Y63.994 E9.13867
G1 X103.337 Y88.934 E9.80405
G1 X103.292 Y89.508 E9.81493
G1 X78.223 Y64.440 E10.48376
G1 X78.049 Y64.885 E10.49279
G1 X88.848 Y75.685 E10.78090
G1 X87.705 Y75.162 F12000.000
G1 X77.874 Y65.331 E11.04318 F1200.000
G1 X77.700 Y65.777 E11.05221
G1 X86.858 Y74.935 E11.29654
G1 X86.096 Y74.794 E11.31115
G1 X77.526 Y66.223 E11.53981
G1 X77.351 Y66.669 E11.54885
G1 X85.417 Y74.735 E11.76403
G1 X84.794 Y74.732 E11.77578
G1 X77.177 Y67.115 E11.97901
G1 X77.002 Y67.561 E11.98804
G1 X84.224 Y74.782 E12.18071
G1 X83.666 Y74.844 E12.19130
G1 X76.828 Y68.007 E12.37373
G1 X76.654 Y68.452 E12.38276
G1 X83.176 Y74.975 E12.55679
G1 X82.687 Y75.106 E12.56634
G1 X76.479 Y68.898 E12.73198
G1 X76.305 Y69.344 E12.74101
G1 X82.229 Y75.269 E12.89907
G1 X81.806 Y75.466 E12.90787
G1 X76.130 Y69.790 E13.05930
G1 X75.956 Y70.236 E13.06833
G1 X81.383 Y75.663 E13.21313
G1 X80.993 Y75.893 E13.22168
G1 X75.781 Y70.682 E13.36071
G1 X75.607 Y71.128 E13.36974
G1 X80.628 Y76.148 E13.50369
G1 X80.263 Y76.404 E13.51209
G1 X75.433 Y71.573 E13.64096
G1 X74.875 Y71.636 E13.65155
G1 X79.926 Y76.687 E13.78632
G1 X79.616 Y76.997 E13.79459
G1 X74.253 Y71.635 E13.93766
G1 X73.632 Y71.634 E13.94939
G1 X79.306 Y77.307 E14.10076
G1 X79.018 Y77.640 E14.10906
G1 X73.011 Y71.632 E14.26933
G1 X72.389 Y71.631 E14.28106
G1 X78.763 Y78.005 E14.45110
G1 X78.507 Y78.370 E14.45950
G1 X71.768 Y71.630 E14.63931
G1 X71.146 Y71.629 E14.65103
G1 X78.273 Y78.756 E14.84116
G1 X78.076 Y79.179 E14.84997
G1 X70.525 Y71.628 E15.05142
G1 X69.904 Y71.627 E15.06314
G1 X77.878 Y79.602 E15.27590
G1 X77.711 Y80.055 E15.28501
G1 X69.282 Y71.626 E15.50989
G1 X68.939 Y71.903 E15.51821
G1 X77.580 Y80.544 E15.74874
G1 X77.449 Y81.033 E15.75829
G1 X68.258 Y71.842 E16.00350
G1 X67.980 Y72.184 E16.01182
G1 X77.381 Y81.585 E16.26263
G1 X77.331 Y82.155 E16.27343
G1 X67.887 Y72.711 E16.52539
G1 X67.793 Y73.238 E16.53549
G1 X77.324 Y82.769 E16.78977
G1 X77.384 Y83.449 E16.80264
G1 X67.700 Y73.765 E17.06100
G1 X67.610 Y74.295 E17.07115
G1 X77.512 Y84.197 E17.33532
G1 X77.739 Y85.044 E17.35187
G1 X67.524 Y74.829 E17.62440
G1 X67.437 Y75.363 E17.63460
G1 X78.237 Y86.162 E17.92273
G1 X81.243 Y89.169 F12000.000
G1 X95.806 Y103.732 E18.31127 F1200.000
G1 X96.159 Y103.465 E18.31963
G1 X82.361 Y89.667 E18.68775
G1 X83.209 Y89.894 E18.70430
G1 X96.512 Y103.197 E19.05923
G1 X96.842 Y102.907 E19.06752
G1 X83.957 Y90.022 E19.41129
G1 X84.636 Y90.081 E19.42417
G1 X97.167 Y102.612 E19.75848
G1 X97.492 Y102.317 E19.76676
G1 X85.250 Y90.075 E20.09338
G1 X85.821 Y90.025 E20.10418
G1 X97.808 Y102.012 E20.42398
G1 X98.118 Y101.702 E20.43226
G1 X86.373 Y89.957 E20.74562
G1 X86.862 Y89.826 E20.75517
G1 X98.415 Y101.379 E21.06342
G1 X98.710 Y101.053 E21.07170
G1 X87.351 Y89.694 E21.37475
G1 X87.804 Y89.527 E21.38386
G1 X99.004 Y100.727 E21.68267
G1 X99.282 Y100.385 E21.69099
G1 X88.227 Y89.330 E21.98593
G1 X88.650 Y89.133 E21.99473
G1 X99.549 Y100.031 E22.28551
G1 X99.816 Y99.678 E22.29386
G1 X89.036 Y88.898 E22.58146
G1 X89.401 Y88.643 E22.58987
G1 X100.083 Y99.325 E22.87486
G1 X100.334 Y98.955 E22.88328
G1 X89.766 Y88.387 E23.16523
G1 X90.098 Y88.100 E23.17353
G1 X100.574 Y98.576 E23.45303
G1 X100.815 Y98.197 E23.46151
G1 X90.408 Y87.790 E23.73916
G1 X90.719 Y87.480 E23.74743
G1 X101.056 Y97.817 E24.02323
G1 X101.273 Y97.413 E24.03187
G1 X91.002 Y87.143 E24.30589
G1 X91.257 Y86.778 E24.31429
G1 X101.486 Y97.006 E24.58719
G1 X101.699 Y96.599 E24.59586
G1 X91.513 Y86.413 E24.86763
G1 X91.742 Y86.022 E24.87618
G1 X101.895 Y96.175 E25.14704
G1 X102.076 Y95.735 E25.15601
G1 X91.940 Y85.599 E25.42642
G1 X92.137 Y85.176 E25.43523
G1 X102.256 Y95.296 E25.70520
G1 X102.410 Y94.829 E25.71446
G1 X92.299 Y84.718 E25.98422
G1 X92.430 Y84.229 E25.99377
G1 X102.553 Y94.352 E26.26385
G1 X102.688 Y93.867 E26.27336
G1 X92.561 Y83.740 E26.54354
G1 X92.623 Y83.182 E26.55413
G1 X102.794 Y93.353 E26.82549
G1 X102.901 Y92.839 E26.83539
G1 X92.673 Y82.611 E27.10826
G1 X92.671 Y81.989 E27.12000
G1 X102.981 Y92.298 E27.39506
G1 X103.058 Y91.755 E27.40541
G1 X92.612 Y81.309 E27.68410
G1 X92.471 Y80.548 E27.69871
G1 X103.126 Y91.203 E27.98299
G1 X103.187 Y90.644 E27.99360
G1 X92.243 Y79.701 E28.28556
G1 X91.721 Y78.558 F12000.000
G1 X103.247 Y90.083 E28.59306 F1200.000
G1 X95.454 Y104.000 F12000.000
G1 X67.350 Y75.896 E29.34284 F1200.000
G1 X67.267 Y76.433 E29.35309
G1 X95.098 Y104.264 E30.09560
G1 X94.719 Y104.506 E30.10408
G1 X67.189 Y76.976 E30.83855
G1 X67.112 Y77.519 E30.84889
G1 X94.340 Y104.747 E31.57533
G1 X93.961 Y104.988 E31.58380
G1 X67.034 Y78.062 E32.30219
G1 X66.964 Y78.612 E32.31265
G1 X93.577 Y105.224 E33.02266
G1 X93.171 Y105.439 E33.03131
G1 X66.901 Y79.169 E33.73219
G1 X66.838 Y79.726 E33.74277
G1 X92.766 Y105.654 E34.43452
G1 X92.361 Y105.870 E34.44317
G1 X66.776 Y80.285 E35.12577
G1 X66.730 Y80.858 E35.13663
G1 X91.940 Y106.068 E35.80922
G1 X91.506 Y106.255 E35.81812
G1 X66.683 Y81.432 E36.48039
G1 X66.644 Y82.013 E36.49138
G1 X91.073 Y106.442 E37.14312
G1 X90.632 Y106.621 E37.15210
G1 X66.614 Y82.604 E37.79287
G1 X66.585 Y83.194 E37.80402
G1 X90.172 Y106.782 E38.43332
G1 X89.712 Y106.942 E38.44250
G1 X66.557 Y83.786 E39.06029
G1 X66.549 Y84.399 E39.07185
G1 X89.244 Y107.094 E39.67734
G1 X88.760 Y107.231 E39.68682
G1 X66.541 Y85.012 E40.27961
