; generated by Slic3r 1.2.9 on 2015-11-22 at 18:32:59

; external perimeters extrusion width = 0.50mm
; perimeters extrusion width = 0.72mm
; infill extrusion width = 0.27mm
; solid infill extrusion width = 0.72mm
; top infill extrusion width = 0.72mm

M104 S190 ; set temperature
G28 ; home all axes
G1 Z15 F120 ; lift nozzle
M109 S190 ; wait for temperature to be reached
G21 ; set units to millimeters
G90 ; use absolute coordinates
M82 ; use absolute distances for extrusion
G92 E0
M106 S102
G1 E-2.00000 F1680.00000
G92 E0
G1 Z0.350 F12000.000
G1 X59.961 Y37.275 F12000.000
G1 E2.00000 F1680.00000
G1 X61.449 Y34.949 E2.07774 F1200.000
G1 X62.449 Y33.949 E2.11756
G1 X64.303 Y32.656 E2.18120
G1 X66.490 Y32.084 E2.24483
G1 X68.740 Y32.303 E2.30846
G1 X71.258 Y33.674 E2.38918 F1200.000
G1 X105.258 Y63.674 E3.66568
G1 X108.551 Y66.949 E3.79642
G1 X109.844 Y68.803 E3.86005
G1 X110.436 Y71.500 E3.93779
G1 X110.436 Y98.500 E4.69789
G1 X110.039 Y100.725 E4.76152
G1 X108.551 Y103.051 E4.83926
G1 X105.258 Y106.326 E4.97000
G1 X71.258 Y136.326 E6.24649
G1 X69.327 Y137.501 E6.31013
G1 X67.109 Y137.935 E6.37376
G1 X64.878 Y137.576 E6.43739
G1 X62.449 Y136.051 E6.51813
G1 X61.449 Y135.051 E6.55794
G1 X60.156 Y133.197 E6.62157
G1 X59.564 Y130.500 E6.69931
G1 X59.564 Y39.500 E9.26113
G1 X59.947 Y37.349 E9.32265
G1 E7.32265 F1680.00000
G92 E0
G1 X92.908 Y91.556 F12000.000
G1 E2.00000 F1680.00000
G1 X94.591 Y91.009 E2.04984 F900.000
G1 X94.800 Y90.941 E2.05601 F900.000
G1 X96.779 Y91.149 E2.11203
G1 X98.502 Y92.144 E2.16804
G1 X99.671 Y93.754 E2.22405
G1 X100.085 Y95.700 E2.28006
G1 X99.671 Y97.646 E2.33607
G1 X98.502 Y99.256 E2.39209
G1 X96.779 Y100.251 E2.44810
G1 X94.800 Y100.459 E2.50411
G1 X92.908 Y99.844 E2.56012
G1 X91.429 Y98.512 E2.61614
G1 X90.620 Y96.695 E2.67215
G1 X90.620 Y94.705 E2.72816
G1 X91.429 Y92.888 E2.78417
G1 X92.852 Y91.606 E2.83807
G1 X93.122 Y91.928 F12000.000
G1 X94.721 Y91.408 E2.88184 F900.000
G1 X94.845 Y91.368 E2.88522 F900.000
G1 X96.646 Y91.558 E2.93236
G1 X98.214 Y92.463 E2.97950
G1 X99.279 Y93.928 E3.02664
G1 X99.656 Y95.700 E3.07379
G1 X99.279 Y97.472 E3.12093
G1 X98.214 Y98.937 E3.16807
G1 X96.646 Y99.842 E3.21521
G1 X94.845 Y100.032 E3.26236
G1 X93.122 Y99.472 E3.30950
G1 X91.776 Y98.260 E3.35664
G1 X91.040 Y96.606 E3.40378
G1 X91.040 Y94.794 E3.45093
G1 X91.776 Y93.140 E3.49807
G1 X93.066 Y91.978 E3.54326
G1 X93.157 Y91.429 F12000.000
G1 E1.54326 F1680.00000
G92 E0
G1 X98.383 Y100.830 F12000.000
G1 E2.00000 F1680.00000
G1 X73.330 Y100.830 E2.70529 F900.000
G1 X73.330 Y124.223 E3.36383
G1 X67.000 Y130.553 E3.61585
G1 X66.670 Y130.223 E3.62899
G1 X66.670 Y96.488 E4.57868
G1 X73.259 Y87.170 E4.89996
G1 X98.723 Y87.170 E5.61681
G1 X103.330 Y91.777 E5.80025
G1 X103.330 Y98.223 E5.98170 F900.000
G1 X100.723 Y100.830 E6.08551
G1 X98.458 Y100.830 E6.14926
G1 X98.458 Y101.250 F12000.000
G1 X73.750 Y101.250 E6.79239 F720.000
G1 X73.750 Y124.396 E7.39486
G1 X67.000 Y131.146 E7.64334
G1 X66.250 Y130.396 E7.67094
G1 X66.250 Y96.354 E8.55702
G1 X73.041 Y86.750 E8.86320
G1 X98.896 Y86.750 E9.53618
G1 X103.750 Y91.604 E9.71485
G1 X103.750 Y98.396 E9.89166 F720.000
G1 X100.896 Y101.250 E9.99670
G1 X98.533 Y101.250 E10.05821
G1 X98.208 Y100.817 F12000.000
G1 X97.555 Y100.353 F12000.000
G1 X96.855 Y100.537 E10.07857 F600.000
G1 X95.717 Y100.597 E10.11065
G1 X94.481 Y100.598 F12000.000
G1 X93.500 Y100.443 E10.13861 F600.000
G1 X92.849 Y100.067 E10.15976
G1 X92.537 Y100.158 F12000.000
G1 X79.807 Y87.428 E10.67034 F1200.000
G1 X80.429 Y87.428 E10.68797
G1 X90.762 Y97.761 E11.10239
G1 X90.361 Y96.739 F12000.000
G1 X81.050 Y87.428 E11.47583 F1200.000
G1 X81.672 Y87.428 E11.49346
G1 X90.361 Y96.117 E11.84197
G1 X90.361 Y95.496 E11.85960
G1 X82.294 Y87.428 E12.18317
G1 X82.915 Y87.428 E12.20080
G1 X90.361 Y94.874 E12.49945
G1 X90.506 Y94.398 E12.51358
G1 X83.537 Y87.428 E12.79310
G1 X84.159 Y87.428 E12.81073
G1 X90.698 Y93.967 E13.07300
G1 X90.889 Y93.537 E13.08636
G1 X84.780 Y87.428 E13.33138
G1 X85.402 Y87.428 E13.34901
G1 X91.081 Y93.107 E13.57678
G1 X91.301 Y92.706 E13.58976
G1 X86.024 Y87.428 E13.80144
G1 X86.645 Y87.428 E13.81907
G1 X91.629 Y92.412 E14.01894
G1 X91.956 Y92.117 E14.03143
G1 X87.267 Y87.428 E14.21948
G1 X87.889 Y87.428 E14.23711
G1 X92.283 Y91.822 E14.41336
G1 X92.610 Y91.528 E14.42584
G1 X88.510 Y87.428 E14.59028
G1 X89.132 Y87.428 E14.60791
G1 X92.988 Y91.284 E14.76255
G1 X93.457 Y91.131 E14.77654
G1 X89.753 Y87.428 E14.92507
G1 X90.375 Y87.428 E14.94270
G1 X93.926 Y90.979 E15.08512
G1 X94.395 Y90.827 E15.09911
G1 X90.997 Y87.428 E15.23541
G1 X91.618 Y87.428 E15.25304
G1 X94.869 Y90.679 E15.38341
G1 X95.563 Y90.752 E15.40322
G1 X92.240 Y87.428 E15.53652
G1 X92.862 Y87.428 E15.55415
G1 X96.258 Y90.825 E15.69037
G1 X96.953 Y90.898 E15.71018
G1 X93.483 Y87.428 E15.84933
G1 X98.391 Y91.714 F12000.000
G1 X94.105 Y87.428 E16.02124 F1200.000
G1 X94.727 Y87.428 E16.03887
G1 X103.072 Y95.773 E16.37358
G1 X103.072 Y95.152 E16.39121
G1 X95.348 Y87.428 E16.70099
G1 X95.970 Y87.428 E16.71861
G1 X103.072 Y94.530 E17.00346
G1 X103.072 Y93.909 E17.02109
G1 X96.591 Y87.428 E17.28100
G1 X97.213 Y87.428 E17.29863
G1 X103.072 Y93.287 E17.53361
G1 X103.072 Y92.665 E17.55124
G1 X97.835 Y87.428 E17.76129
G1 X98.456 Y87.428 E17.77892
G1 X103.072 Y92.044 E17.96404
G1 X99.147 Y92.470 F12000.000
G1 X103.072 Y96.395 E18.12146 F1200.000
G1 X103.072 Y97.017 E18.13909
G1 X99.997 Y93.942 E18.26241
G1 X100.165 Y94.731 E18.28530
G1 X103.072 Y97.638 E18.40190
G1 X103.013 Y98.201 E18.41794
G1 X100.333 Y95.521 E18.52542
G1 X100.254 Y96.064 E18.54098
G1 X102.702 Y98.512 E18.63916
G1 X102.391 Y98.822 E18.65162
G1 X100.145 Y96.576 E18.74170
G1 X100.036 Y97.089 E18.75657
G1 X102.080 Y99.133 E18.83855
G1 X101.769 Y99.444 E18.85102
G1 X99.927 Y97.602 E18.92490
G1 X99.695 Y97.991 E18.93776
G1 X101.458 Y99.755 E19.00850
G1 X101.148 Y100.066 E19.02097
G1 X99.433 Y98.351 E19.08974
G1 X99.171 Y98.711 E19.10236
G1 X100.837 Y100.376 E19.16916
G1 X100.411 Y100.572 E19.18246
G1 X98.910 Y99.071 E19.24265
G1 X98.648 Y99.431 E19.25527
G1 X99.789 Y100.572 E19.30104
G1 X99.167 Y100.572 E19.31867
G1 X98.254 Y99.658 E19.35531
G1 X97.860 Y99.886 E19.36822
G1 X98.546 Y100.572 E19.39574
G1 X92.329 Y100.572 F12000.000
G1 X79.186 Y87.428 E19.92290 F1200.000
G1 X78.564 Y87.428 E19.94053
G1 X91.708 Y100.572 E20.46769
G1 X91.086 Y100.572 E20.48532
G1 X77.942 Y87.428 E21.01248
G1 X77.321 Y87.428 E21.03011
G1 X90.464 Y100.572 E21.55727
G1 X89.843 Y100.572 E21.57490
G1 X76.699 Y87.428 E22.10206
G1 X76.077 Y87.428 E22.11969
G1 X89.221 Y100.572 E22.64685
G1 X88.599 Y100.572 E22.66448
G1 X75.456 Y87.428 E23.19164
G1 X74.834 Y87.428 E23.20927
G1 X87.978 Y100.572 E23.73643
G1 X87.356 Y100.572 E23.75406
G1 X74.212 Y87.428 E24.28122
G1 X73.591 Y87.428 E24.29885
G1 X86.734 Y100.572 E24.82601
G1 X86.113 Y100.572 E24.84364
G1 X73.191 Y87.650 E25.36191
G1 X72.933 Y88.014 E25.37456
G1 X85.491 Y100.572 E25.87822
G1 X84.870 Y100.572 E25.89585
G1 X72.676 Y88.378 E26.38490
G1 X72.418 Y88.742 E26.39755
G1 X84.248 Y100.572 E26.87200
G1 X83.626 Y100.572 E26.88963
G1 X72.161 Y89.107 E27.34948
G1 X71.904 Y89.471 E27.36213
G1 X83.005 Y100.572 E27.80737
G1 X82.383 Y100.572 E27.82500
G1 X71.646 Y89.835 E28.25563
G1 X71.389 Y90.199 E28.26828
G1 X81.761 Y100.572 E28.68431
G1 X81.140 Y100.572 E28.70194
G1 X71.131 Y90.563 E29.10337
G1 X70.874 Y90.927 E29.11601
G1 X80.518 Y100.572 E29.50283
G1 X79.896 Y100.572 E29.52046
G1 X70.616 Y91.291 E29.89268
G1 X70.359 Y91.656 E29.90533
G1 X79.275 Y100.572 E30.26294
G1 X78.653 Y100.572 E30.28057
G1 X70.101 Y92.020 E30.62357
G1 X69.844 Y92.384 E30.63622
G1 X78.032 Y100.572 E30.96462
G1 X77.410 Y100.572 E30.98225
G1 X69.586 Y92.748 E31.29604
G1 X69.329 Y93.112 E31.30869
G1 X76.788 Y100.572 E31.60788
G1 X76.167 Y100.572 E31.62551
G1 X69.071 Y93.476 E31.91010
G1 X68.814 Y93.840 E31.92275
G1 X75.545 Y100.572 E32.19273
G1 X74.923 Y100.572 E32.21036
G1 X68.556 Y94.205 E32.46573
G1 X68.299 Y94.569 E32.47838
G1 X74.302 Y100.572 E32.71915
G1 X73.680 Y100.572 E32.73678
G1 X68.041 Y94.933 E32.96294
G1 X67.784 Y95.297 E32.97559
G1 X73.072 Y100.585 E33.18769
G1 X73.072 Y101.207 E33.20532
G1 X67.526 Y95.661 E33.42774
G1 X67.269 Y96.025 E33.44039
G1 X73.072 Y101.828 E33.67314
G1 X73.072 Y102.450 E33.69077
G1 X67.011 Y96.389 E33.93384
G1 X66.928 Y96.928 E33.94930
G1 X73.072 Y103.072 E34.19571
G1 X73.072 Y103.693 E34.21334
G1 X66.928 Y97.550 E34.45974
G1 X66.928 Y98.171 E34.47737
G1 X73.072 Y104.315 E34.72378
G1 X73.072 Y104.937 E34.74141
G1 X66.928 Y98.793 E34.98782
G1 X66.928 Y99.415 E35.00545
G1 X73.072 Y105.558 E35.25186
G1 X73.072 Y106.180 E35.26949
G1 X66.928 Y100.036 E35.51589
G1 X66.928 Y100.658 E35.53352
G1 X73.072 Y106.802 E35.77993
G1 X73.072 Y107.423 E35.79756
G1 X66.928 Y101.280 E36.04397
G1 X66.928 Y101.901 E36.06160
G1 X73.072 Y108.045 E36.30800
G1 X73.072 Y108.666 E36.32563
G1 X66.928 Y102.523 E36.57204
G1 X66.928 Y103.144 E36.58967
G1 X73.072 Y109.288 E36.83608
G1 X73.072 Y109.910 E36.85371
G1 X66.928 Y103.766 E37.10011
G1 X66.928 Y104.388 E37.11774
G1 X73.072 Y110.531 E37.36415
G1 X73.072 Y111.153 E37.38178
G1 X66.928 Y105.009 E37.62819
G1 X66.928 Y105.631 E37.64582
G1 X73.072 Y111.775 E37.89222
G1 X73.072 Y112.396 E37.90985
G1 X66.928 Y106.253 E38.15626
G1 X66.928 Y106.874 E38.17389
G1 X73.072 Y113.018 E38.42030
G1 X73.072 Y113.640 E38.43793
G1 X66.928 Y107.496 E38.68433
G1 X66.928 Y108.118 E38.70196
G1 X73.072 Y114.261 E38.94837
G1 X73.072 Y114.883 E38.96600
G1 X66.928 Y108.739 E39.21241
G1 X66.928 Y109.361 E39.23004
G1 X73.072 Y115.505 E39.47644
G1 X73.072 Y116.126 E39.49407
G1 X66.928 Y109.983 E39.74048
G1 X66.928 Y110.604 E39.75811
G1 X73.072 Y116.748 E40.00452
G1 X73.072 Y117.369 E40.02215
G1 X66.928 Y111.226 E40.26856
G1 X66.928 Y111.847 E40.28619
G1 X73.072 Y117.991 E40.53259
G1 X73.072 Y118.613 E40.55022
G1 X66.928 Y112.469 E40.79663
G1 X66.928 Y113.091 E40.81426
G1 X73.072 Y119.234 E41.06067
G1 X73.072 Y119.856 E41.07830
G1 X66.928 Y113.712 E41.32470
G1 X66.928 Y114.334 E41.34233
G1 X73.072 Y120.478 E41.58874
G1 X73.072 Y121.099 E41.60637
G1 X66.928 Y114.956 E41.85278
G1 X66.928 Y115.577 E41.87041
G1 X73.072 Y121.721 E42.11681
G1 X73.072 Y122.343 E42.13444
G1 X66.928 Y116.199 E42.38085
G1 X66.928 Y116.821 E42.39848
G1 X73.072 Y122.964 E42.64489
G1 X73.072 Y123.586 E42.66252
G1 X66.928 Y117.442 E42.90892
G1 X66.928 Y118.064 E42.92655
G1 X73.053 Y124.189 E43.17220
G1 X72.742 Y124.499 E43.18467
G1 X66.928 Y118.685 E43.41786
G1 X66.928 Y119.307 E43.43549
G1 X72.431 Y124.810 E43.65620
G1 X72.121 Y125.121 E43.66867
G1 X66.928 Y119.929 E43.87692
G1 X66.928 Y120.550 E43.89455
G1 X71.810 Y125.432 E44.09034
G1 X71.499 Y125.743 E44.10281
G1 X66.928 Y121.172 E44.28613
G1 X66.928 Y121.794 E44.30376
G1 X71.188 Y126.054 E44.47461
G1 X70.877 Y126.364 E44.48708
G1 X66.928 Y122.415 E44.64546
G1 X66.928 Y123.037 E44.66309
G1 X70.566 Y126.675 E44.80901
G1 X70.256 Y126.986 E44.82148
G1 X66.928 Y123.659 E44.95494
G1 X66.928 Y124.280 E44.97257
G1 X69.945 Y127.297 E45.09356
G1 X69.634 Y127.608 E45.10602
G1 X66.928 Y124.902 E45.21454
G1 X66.928 Y125.523 E45.23217
G1 X69.323 Y127.918 E45.32823
G1 X69.012 Y128.229 E45.34070
G1 X66.928 Y126.145 E45.42429
G1 X66.928 Y126.767 E45.44192
G1 X68.702 Y128.540 E45.51304
G1 X68.391 Y128.851 E45.52551
G1 X66.928 Y127.388 E45.58417
G1 X66.928 Y128.010 E45.60180
G1 X68.080 Y129.162 E45.64799
G1 X67.769 Y129.473 E45.66045
G1 X66.928 Y128.632 E45.69418
G1 X66.928 Y129.253 E45.71181
G1 X67.458 Y129.783 E45.73307
G1 X67.147 Y130.094 E45.74553
G1 X66.928 Y129.875 E45.75433
G1 E43.75433 F1680.00000
G92 E0
G1 X92.908 Y78.444 F12000.000
G1 E2.00000 F1680.00000
G1 X91.429 Y77.112 E2.05601 F900.000
G1 X90.620 Y75.295 E2.11203
G1 X90.620 Y73.305 E2.16804
G1 X91.429 Y71.488 E2.22405
G1 X92.908 Y70.156 E2.28006
G1 X94.450 Y69.655 E2.32572
G1 X94.800 Y69.541 E2.33607 F900.000
G1 X96.779 Y69.749 E2.39209
G1 X98.502 Y70.744 E2.44810
G1 X99.671 Y72.354 E2.50411
G1 X100.085 Y74.300 E2.56012
G1 X99.671 Y76.246 E2.61613
G1 X98.502 Y77.856 E2.67215
G1 X96.779 Y78.851 E2.72816
G1 X94.800 Y79.059 E2.78417
G1 X92.979 Y78.467 E2.83807
G1 X93.122 Y78.072 F12000.000
G1 X91.776 Y76.860 E2.88522 F900.000
G1 X91.040 Y75.206 E2.93236
G1 X91.040 Y73.394 E2.97950
G1 X91.776 Y71.740 E3.02664
G1 X93.122 Y70.528 E3.07378
G1 X94.580 Y70.054 E3.11368
G1 X94.845 Y69.968 E3.12093 F900.000
G1 X96.646 Y70.158 E3.16807
G1 X98.214 Y71.063 E3.21521
G1 X99.279 Y72.528 E3.26235
G1 X99.656 Y74.300 E3.30950
G1 X99.279 Y76.072 E3.35664
G1 X98.214 Y77.537 E3.40378
G1 X96.646 Y78.442 E3.45092
G1 X94.845 Y78.632 E3.49807
G1 X93.194 Y78.095 E3.54326
G1 X92.673 Y78.291 F12000.000
G1 E1.54326 F1680.00000
G92 E0
G1 X73.330 Y50.596 F12000.000
G1 E2.00000 F1680.00000
G1 X73.330 Y69.170 E2.52289 F900.000
G1 X100.723 Y69.170 E3.29404
G1 X103.330 Y71.777 E3.39786
G1 X103.330 Y78.223 E3.57930
G1 X98.723 Y82.830 E3.76274
G1 X73.259 Y82.830 E4.47959
G1 X66.670 Y73.512 E4.80087
G1 X66.670 Y39.777 E5.75056
G1 X67.000 Y39.447 E5.76370
G1 X73.330 Y45.777 E6.01572
G1 X73.330 Y50.521 E6.14926 F900.000
G1 X73.750 Y50.521 F12000.000
G1 X73.750 Y68.750 E6.62374 F720.000
G1 X100.896 Y68.750 E7.33034
G1 X103.750 Y71.604 E7.43538
G1 X103.750 Y78.396 E7.61219
G1 X98.896 Y83.250 E7.79085
G1 X73.041 Y83.250 E8.46383
G1 X66.250 Y73.646 E8.77001
G1 X66.250 Y39.604 E9.65609
G1 X67.000 Y38.854 E9.68370
G1 X73.750 Y45.604 E9.93217
G1 X73.750 Y50.446 E10.05821 F720.000
G1 X73.317 Y50.771 F12000.000
G1 X66.928 Y40.279 F12000.000
G1 X73.072 Y46.423 E10.30618 F1200.000
G1 X73.072 Y47.048 E10.32403
G1 X66.928 Y40.905 E10.57200
G1 X66.928 Y41.530 E10.58986
G1 X73.072 Y47.674 E10.83782
G1 X73.072 Y48.299 E10.85568
G1 X66.928 Y42.156 E11.10364
G1 X66.928 Y42.781 E11.12150
G1 X73.072 Y48.925 E11.36947
G1 X73.072 Y49.551 E11.38732
G1 X66.928 Y43.407 E11.63529
G1 X66.928 Y44.032 E11.65314
G1 X73.072 Y50.176 E11.90111
G1 X73.072 Y50.802 E11.91896
G1 X66.928 Y44.658 E12.16693
G1 X66.928 Y45.284 E12.18478
G1 X73.072 Y51.427 E12.43275
G1 X73.072 Y52.053 E12.45060
G1 X66.928 Y45.909 E12.69857
G1 X66.928 Y46.535 E12.71643
G1 X73.072 Y52.678 E12.96439
G1 X73.072 Y53.304 E12.98225
G1 X66.928 Y47.160 E13.23021
G1 X66.928 Y47.786 E13.24807
G1 X73.072 Y53.930 E13.49603
G1 X73.072 Y54.555 E13.51389
G1 X66.928 Y48.412 E13.76186
G1 X66.928 Y49.037 E13.77971
G1 X73.072 Y55.181 E14.02768
G1 X73.072 Y55.806 E14.04553
G1 X66.928 Y49.663 E14.29350
G1 X66.928 Y50.288 E14.31135
G1 X73.072 Y56.432 E14.55932
G1 X73.072 Y57.057 E14.57717
G1 X66.928 Y50.914 E14.82514
G1 X66.928 Y51.539 E14.84299
G1 X73.072 Y57.683 E15.09096
G1 X73.072 Y58.309 E15.10882
G1 X66.928 Y52.165 E15.35678
G1 X66.928 Y52.791 E15.37464
G1 X73.072 Y58.934 E15.62260
G1 X73.072 Y59.560 E15.64046
G1 X66.928 Y53.416 E15.88843
G1 X66.928 Y54.042 E15.90628
G1 X73.072 Y60.185 E16.15425
G1 X73.072 Y60.811 E16.17210
G1 X66.928 Y54.667 E16.42007
G1 X66.928 Y55.293 E16.43792
G1 X73.072 Y61.436 E16.68589
G1 X73.072 Y62.062 E16.70374
G1 X66.928 Y55.918 E16.95171
G1 X66.928 Y56.544 E16.96956
G1 X73.072 Y62.688 E17.21753
G1 X73.072 Y63.313 E17.23538
G1 X66.928 Y57.170 E17.48335
G1 X66.928 Y57.795 E17.50121
G1 X73.072 Y63.939 E17.74917
G1 X73.072 Y64.564 E17.76703
G1 X66.928 Y58.421 E18.01499
G1 X66.928 Y59.046 E18.03285
G1 X73.072 Y65.190 E18.28082
G1 X73.072 Y65.815 E18.29867
G1 X66.928 Y59.672 E18.54664
G1 X66.928 Y60.297 E18.56449
G1 X73.072 Y66.441 E18.81246
G1 X73.072 Y67.067 E18.83031
G1 X66.928 Y60.923 E19.07828
G1 X66.928 Y61.549 E19.09613
G1 X73.072 Y67.692 E19.34410
G1 X73.072 Y68.318 E19.36195
G1 X66.928 Y62.174 E19.60992
G1 X66.928 Y62.800 E19.62778
G1 X73.072 Y68.943 E19.87574
G1 X67.233 Y73.740 F12000.000
G1 X76.066 Y82.572 E20.23222 F1200.000
G1 X76.691 Y82.572 E20.25007
G1 X66.928 Y72.809 E20.64412
G1 X66.928 Y72.183 E20.66197
G1 X77.317 Y82.572 E21.08127
G1 X77.942 Y82.572 E21.09912
G1 X66.928 Y71.558 E21.54367
G1 X66.928 Y70.932 E21.56152
G1 X78.568 Y82.572 E22.03132
G1 X79.193 Y82.572 E22.04917
G1 X66.928 Y70.307 E22.54422
G1 X66.928 Y69.681 E22.56207
G1 X79.819 Y82.572 E23.08237
G1 X80.445 Y82.572 E23.10022
G1 X66.928 Y69.055 E23.64576
