; generated by Slic3r 1.2.6 on 2015-06-19 at 15:18:38

; external perimeters extrusion width = 0.50mm
; perimeters extrusion width = 0.72mm
; infill extrusion width = 0.27mm
; solid infill extrusion width = 0.72mm
; top infill extrusion width = 0.72mm

M104 S190 ; set temperature
G28 ; home all axes
G1 Z15 F120 ; lift nozzle
M109 S190 ; wait for temperature to be reached
G21 ; set units to millimeters
G90 ; use absolute coordinates
M82 ; use absolute distances for extrusion
G92 E0
M106 S102
G1 E-2.00000 F1680.00000
G92 E0
G1 Z0.350 F12000.000
G1 X28.374 Y25.796 F12000.000
G1 E2.00000 F1680.00000
G1 X28.753 Y25.379 E2.01585 F1200.000
G1 X30.087 Y24.587 E2.05953
G1 X39.339 Y20.513 E2.34413
G1 X41.933 Y19.967 E2.41876
G1 X77.429 Y19.967 E3.41802
G1 X139.696 Y22.493 E5.17241 F1200.000
G1 X140.523 Y22.563 E5.19577
G1 X141.515 Y22.704 E5.22398
G1 X142.146 Y22.832 E5.24209
G1 X143.083 Y23.071 E5.26933
G1 X143.729 Y23.275 E5.28841
G1 X144.603 Y23.602 E5.31467
G1 X145.256 Y23.888 E5.33473
G1 X146.059 Y24.291 E5.36002
G1 X146.707 Y24.662 E5.38105
G1 X147.616 Y25.256 E5.41162
G1 X148.066 Y25.589 E5.42737
G1 X148.879 Y26.255 E5.45696
G1 X149.316 Y26.658 E5.47369
G1 X150.028 Y27.383 E5.50231
G1 X150.443 Y27.856 E5.52001
G1 X151.052 Y28.626 E5.54766
G1 X151.433 Y29.169 E5.56633
G1 X151.937 Y29.971 E5.59300
G1 X152.373 Y30.781 E5.61889
G1 X152.687 Y31.428 E5.63916
G1 X152.938 Y32.017 E5.65717
G1 X153.278 Y32.964 E5.68548
G1 X153.454 Y33.543 E5.70252
G1 X153.698 Y34.554 E5.73180
G1 X153.837 Y35.334 E5.75411
G1 X153.977 Y36.518 E5.78769
G1 X159.139 Y109.163 E7.83793
G1 X159.200 Y110.235 E7.86816
G1 X159.210 Y138.722 E8.67011
G1 X158.813 Y140.947 E8.73374
G1 X157.671 Y142.898 E8.79737
G1 X155.926 Y144.334 E8.86101
G1 X152.873 Y145.157 E8.95003
G1 X73.676 Y146.374 E11.17981
G1 X17.226 Y146.374 E12.76899
G1 X15.001 Y145.977 E12.83262
G1 X13.050 Y144.835 E12.89625
G1 X11.615 Y143.090 E12.95989
G1 X10.790 Y139.938 E13.05161
G1 X10.790 Y103.588 E14.07491
G1 X10.929 Y102.257 E14.11259
G1 X26.384 Y29.147 E16.21626
G1 X27.232 Y27.052 E16.27990
G1 X28.324 Y25.851 E16.32557
G1 E14.32557 F1680.00000
G92 E0
G1 X44.752 Y119.154 F12000.000
G1 E2.00000 F1680.00000
G1 X45.160 Y119.101 E2.01158 F900.000
G1 X45.451 Y119.062 E2.01985 F900.000
G1 X46.150 Y119.154 E2.03970
G1 X46.802 Y119.424 E2.05954
G1 X47.361 Y119.853 E2.07939
G1 X47.790 Y120.413 E2.09924
G1 X48.060 Y121.064 E2.11908
G1 X48.152 Y121.763 E2.13893
G1 X48.060 Y122.462 E2.15878
G1 X47.790 Y123.113 E2.17863
G1 X47.361 Y123.673 E2.19847
G1 X46.802 Y124.102 E2.21832
G1 X46.150 Y124.372 E2.23817
G1 X45.451 Y124.464 E2.25802
G1 X44.752 Y124.372 E2.27786
G1 X44.101 Y124.102 E2.29771
G1 X43.542 Y123.673 E2.31756
G1 X43.112 Y123.113 E2.33741
G1 X42.843 Y122.462 E2.35725
G1 X42.751 Y121.763 E2.37710
G1 X42.843 Y121.064 E2.39695
G1 X43.113 Y120.413 E2.41680
G1 X43.542 Y119.853 E2.43664
G1 X44.101 Y119.424 E2.45649
G1 X44.683 Y119.183 E2.47423
G1 X44.844 Y119.571 F12000.000
G1 X45.215 Y119.517 E2.48479 F900.000
G1 X45.451 Y119.486 E2.49150 F900.000
G1 X46.041 Y119.563 E2.50824
G1 X46.590 Y119.791 E2.52497
G1 X47.062 Y120.153 E2.54171
G1 X47.423 Y120.624 E2.55844
G1 X47.651 Y121.174 E2.57518
G1 X47.728 Y121.763 E2.59191
G1 X47.651 Y122.352 E2.60865
G1 X47.423 Y122.901 E2.62538
G1 X47.062 Y123.373 E2.64212
G1 X46.590 Y123.735 E2.65885
G1 X46.041 Y123.962 E2.67559
G1 X45.451 Y124.040 E2.69232
G1 X44.862 Y123.962 E2.70906
G1 X44.313 Y123.735 E2.72579
G1 X43.841 Y123.373 E2.74253
G1 X43.479 Y122.901 E2.75926
G1 X43.252 Y122.352 E2.77600
G1 X43.174 Y121.763 E2.79273
G1 X43.252 Y121.174 E2.80947
G1 X43.479 Y120.624 E2.82620
G1 X43.841 Y120.153 E2.84294
G1 X44.313 Y119.791 E2.85967
G1 X44.774 Y119.600 E2.87374
G1 X44.953 Y119.212 F12000.000
G1 E0.87374 F1680.00000
G92 E0
G1 X56.800 Y139.268 F12000.000
G1 E2.00000 F1680.00000
G1 X56.621 Y139.268 E2.00502 F900.000
G1 X56.621 Y139.093 E2.00994
G1 X34.281 Y139.093 E2.63885
G1 X34.281 Y139.268 E2.64377
G1 X17.896 Y139.268 E3.10504
G1 X17.896 Y136.024 E3.19636
G1 X36.396 Y136.024 E3.71717
G1 X36.396 Y107.502 E4.52012
G1 X17.896 Y107.502 E5.04093
G1 X17.896 Y104.258 E5.13225
G1 X34.281 Y104.258 E5.59353
G1 X34.281 Y104.433 E5.59845
G1 X56.621 Y104.433 E6.22736 F900.000
G1 X56.621 Y104.258 E6.23227
G1 X73.006 Y104.258 E6.69355
G1 X73.006 Y107.502 E6.78487
G1 X54.506 Y107.502 E7.30568
G1 X54.506 Y136.024 E8.10863
G1 X73.006 Y136.024 E8.62944
G1 X73.006 Y139.268 E8.72076
G1 X56.875 Y139.268 E9.17490
G1 X56.875 Y139.688 F12000.000
G1 X56.201 Y139.688 E9.19386 F720.000
G1 X56.201 Y139.513 E9.19877
G1 X34.701 Y139.513 E9.80404
G1 X34.701 Y139.688 E9.80896
G1 X17.476 Y139.688 E10.29388
G1 X17.476 Y135.604 E10.40884
G1 X35.976 Y135.604 E10.92965
G1 X35.976 Y107.922 E11.70896
G1 X17.476 Y107.922 E12.22977
G1 X17.476 Y103.838 E12.34473
G1 X34.701 Y103.838 E12.82964
G1 X34.701 Y104.013 E12.83456
G1 X56.201 Y104.013 E13.43983 F720.000
G1 X56.201 Y103.838 E13.44475
G1 X73.426 Y103.838 E13.92966
G1 X73.426 Y107.922 E14.04462
G1 X54.926 Y107.922 E14.56543
G1 X54.926 Y135.604 E15.34474
G1 X73.426 Y135.604 E15.86555
G1 X73.426 Y139.688 E15.98051
G1 X56.950 Y139.688 E16.44436
G1 X56.625 Y139.255 F12000.000
G1 X56.424 Y138.913 F12000.000
G1 X36.576 Y119.065 E17.23541 F1200.000
G1 X36.576 Y119.682 E17.25281
G1 X55.807 Y138.913 E18.01924
G1 X55.189 Y138.913 E18.03665
G1 X36.576 Y120.300 E18.77845
G1 X36.576 Y120.918 E18.79586
G1 X54.571 Y138.913 E19.51305
G1 X53.954 Y138.913 E19.53046
G1 X36.576 Y121.536 E20.22302
G1 X36.576 Y122.153 E20.24043
G1 X53.336 Y138.913 E20.90838
G1 X52.718 Y138.913 E20.92579
G1 X36.576 Y122.771 E21.56912
G1 X36.576 Y123.389 E21.58653
G1 X52.100 Y138.913 E22.20525
G1 X51.483 Y138.913 E22.22265
G1 X36.576 Y124.006 E22.81675
G1 X36.576 Y124.624 E22.83416
G1 X50.865 Y138.913 E23.40363
G1 X50.247 Y138.913 E23.42104
G1 X36.576 Y125.242 E23.96590
G1 X36.576 Y125.860 E23.98331
G1 X49.630 Y138.913 E24.50355
G1 X49.012 Y138.913 E24.52096
G1 X36.576 Y126.477 E25.01658
G1 X36.576 Y127.095 E25.03399
G1 X48.394 Y138.913 E25.50499
G1 X47.777 Y138.913 E25.52240
G1 X36.576 Y127.713 E25.96878
G1 X36.576 Y128.330 E25.98619
G1 X47.159 Y138.913 E26.40796
G1 X46.541 Y138.913 E26.42536
G1 X36.576 Y128.948 E26.82251
G1 X36.576 Y129.566 E26.83992
G1 X45.923 Y138.913 E27.21245
G1 X45.306 Y138.913 E27.22986
G1 X36.576 Y130.184 E27.57777
G1 X36.576 Y130.801 E27.59518
G1 X44.688 Y138.913 E27.91847
G1 X44.070 Y138.913 E27.93588
G1 X36.576 Y131.419 E28.23455
G1 X36.576 Y132.037 E28.25196
G1 X43.453 Y138.913 E28.52602
G1 X42.835 Y138.913 E28.54342
G1 X36.576 Y132.654 E28.79286
G1 X36.576 Y133.272 E28.81027
G1 X42.217 Y138.913 E29.03509
G1 X41.599 Y138.913 E29.05250
G1 X36.576 Y133.890 E29.25270
G1 X36.576 Y134.508 E29.27010
G1 X40.982 Y138.913 E29.44569
G1 X40.364 Y138.913 E29.46310
G1 X36.576 Y135.125 E29.61406
G1 X36.576 Y135.743 E29.63147
G1 X39.746 Y138.913 E29.75781
G1 X39.129 Y138.913 E29.77522
G1 X36.419 Y136.204 E29.88320
G1 X35.801 Y136.204 E29.90061
G1 X38.511 Y138.913 E30.00859
G1 X37.893 Y138.913 E30.02600
G1 X35.184 Y136.204 E30.13398
G1 X34.566 Y136.204 E30.15138
G1 X37.275 Y138.913 E30.25936
G1 X36.658 Y138.913 E30.27677
G1 X33.948 Y136.204 E30.38475
G1 X33.331 Y136.204 E30.40216
G1 X36.040 Y138.913 E30.51014
G1 X35.422 Y138.913 E30.52755
G1 X32.713 Y136.204 E30.63553
G1 X32.095 Y136.204 E30.65294
G1 X34.805 Y138.913 E30.76092
G1 X34.187 Y138.913 E30.77832
G1 X31.477 Y136.204 E30.88630
G1 X30.860 Y136.204 E30.90371
G1 X33.744 Y139.088 E31.01866
G1 X33.126 Y139.088 E31.03607
G1 X30.242 Y136.204 E31.15101
G1 X29.624 Y136.204 E31.16842
G1 X32.508 Y139.088 E31.28336
G1 X31.891 Y139.088 E31.30077
G1 X29.007 Y136.204 E31.41571
G1 X28.389 Y136.204 E31.43312
G1 X31.273 Y139.088 E31.54807
G1 X30.655 Y139.088 E31.56548
G1 X27.771 Y136.204 E31.68042
G1 X27.154 Y136.204 E31.69783
G1 X30.038 Y139.088 E31.81277
G1 X29.420 Y139.088 E31.83018
G1 X26.536 Y136.204 E31.94512
G1 X25.918 Y136.204 E31.96253
G1 X28.802 Y139.088 E32.07748
G1 X28.185 Y139.088 E32.09489
G1 X25.300 Y136.204 E32.20983
G1 X24.683 Y136.204 E32.22724
G1 X27.567 Y139.088 E32.34218
G1 X26.949 Y139.088 E32.35959
G1 X24.065 Y136.204 E32.47453
G1 X23.447 Y136.204 E32.49194
G1 X26.331 Y139.088 E32.60689
G1 X25.714 Y139.088 E32.62430
G1 X22.830 Y136.204 E32.73924
G1 X22.212 Y136.204 E32.75665
G1 X25.096 Y139.088 E32.87159
G1 X24.478 Y139.088 E32.88900
G1 X21.594 Y136.204 E33.00394
G1 X20.976 Y136.204 E33.02135
G1 X23.861 Y139.088 E33.13630
G1 X23.243 Y139.088 E33.15370
G1 X20.359 Y136.204 E33.26865
G1 X19.741 Y136.204 E33.28606
G1 X22.625 Y139.088 E33.40100
G1 X22.007 Y139.088 E33.41841
G1 X19.123 Y136.204 E33.53335
G1 X18.506 Y136.204 E33.55076
G1 X21.390 Y139.088 E33.66571
G1 X20.772 Y139.088 E33.68311
G1 X18.076 Y136.392 E33.79056
G1 X18.076 Y137.010 E33.80797
G1 X20.154 Y139.088 E33.89079
G1 X19.537 Y139.088 E33.90820
G1 X18.076 Y137.627 E33.96640
G1 X18.076 Y138.245 E33.98381
G1 X18.919 Y139.088 E34.01740
G1 X18.301 Y139.088 E34.03481
G1 X18.076 Y138.863 E34.04378
G1 E32.04378 F1680.00000
G92 E0
G1 X36.576 Y115.976 F12000.000
G1 E2.00000 F1680.00000
G1 X42.586 Y121.986 E2.23951 F1200.000
G1 X42.627 Y121.410 E2.25578
G1 X36.576 Y115.359 E2.49695
G1 X36.576 Y114.741 E2.51435
G1 X42.743 Y120.908 E2.76014
G1 X42.924 Y120.471 E2.77347
G1 X36.576 Y114.123 E3.02647
G1 X36.576 Y113.505 E3.04388
G1 X43.172 Y120.101 E3.30674
G1 X43.440 Y119.752 E3.31916
G1 X36.576 Y112.888 E3.59271
G1 X36.576 Y112.270 E3.61012
G1 X43.789 Y119.483 E3.89760
G1 X44.160 Y119.236 E3.91015
G1 X36.576 Y111.652 E4.21239
G1 X36.576 Y111.035 E4.22980
G1 X44.596 Y119.055 E4.54944
G1 X45.098 Y118.939 E4.56395
G1 X36.576 Y110.417 E4.90358
G1 X36.576 Y109.799 E4.92099
G1 X45.674 Y118.897 E5.28359
G1 X46.420 Y119.025 E5.30492
G1 X36.576 Y109.181 E5.69724
G1 X35.952 Y107.322 F12000.000
G1 X33.068 Y104.438 E5.81218 F1200.000
G1 X32.450 Y104.438 E5.82959
G1 X35.334 Y107.322 E5.94453
G1 X34.717 Y107.322 E5.96194
G1 X31.833 Y104.438 E6.07689
G1 X31.215 Y104.438 E6.09429
G1 X34.099 Y107.322 E6.20924
G1 X33.481 Y107.322 E6.22665
G1 X30.597 Y104.438 E6.34159
G1 X29.979 Y104.438 E6.35900
G1 X32.864 Y107.322 E6.47394
G1 X32.246 Y107.322 E6.49135
G1 X29.362 Y104.438 E6.60630
G1 X28.744 Y104.438 E6.62370
G1 X31.628 Y107.322 E6.73865
G1 X31.010 Y107.322 E6.75606
G1 X28.126 Y104.438 E6.87100
G1 X27.509 Y104.438 E6.88841
G1 X30.393 Y107.322 E7.00335
G1 X29.775 Y107.322 E7.02076
G1 X26.891 Y104.438 E7.13571
G1 X26.273 Y104.438 E7.15311
G1 X29.157 Y107.322 E7.26806
G1 X28.540 Y107.322 E7.28547
G1 X25.655 Y104.438 E7.40041
G1 X25.038 Y104.438 E7.41782
G1 X27.922 Y107.322 E7.53276
G1 X27.304 Y107.322 E7.55017
G1 X24.420 Y104.438 E7.66512
G1 X23.802 Y104.438 E7.68252
G1 X26.686 Y107.322 E7.79747
G1 X26.069 Y107.322 E7.81488
G1 X23.185 Y104.438 E7.92982
G1 X22.567 Y104.438 E7.94723
G1 X25.451 Y107.322 E8.06217
G1 X24.833 Y107.322 E8.07958
G1 X21.949 Y104.438 E8.19453
G1 X21.331 Y104.438 E8.21193
G1 X24.216 Y107.322 E8.32688
G1 X23.598 Y107.322 E8.34429
G1 X20.714 Y104.438 E8.45923
G1 X20.096 Y104.438 E8.47664
G1 X22.980 Y107.322 E8.59158
G1 X22.362 Y107.322 E8.60899
G1 X19.478 Y104.438 E8.72394
G1 X18.861 Y104.438 E8.74134
G1 X21.745 Y107.322 E8.85629
G1 X21.127 Y107.322 E8.87370
G1 X18.243 Y104.438 E8.98864
G1 X18.076 Y104.889 E9.00219
G1 X20.509 Y107.322 E9.09917
G1 X19.892 Y107.322 E9.11657
G1 X18.076 Y105.506 E9.18893
G1 X18.076 Y106.124 E9.20634
G1 X19.274 Y107.322 E9.25408
G1 X18.656 Y107.322 E9.27149
G1 X18.076 Y106.742 E9.29461
G1 E7.29461 F1680.00000
G92 E0
G1 X42.714 Y122.732 F12000.000
G1 E2.00000 F1680.00000
G1 X36.576 Y116.594 E2.24461 F1200.000
G1 X36.576 Y117.212 E2.26202
G1 X54.327 Y134.962 E2.96946
G1 X54.327 Y135.580 E2.98686
G1 X36.576 Y117.829 E3.69430
G1 X36.576 Y118.447 E3.71171
G1 X57.217 Y139.088 E4.53433
G1 X57.835 Y139.088 E4.55174
G1 X54.951 Y136.204 E4.66668
G1 X55.568 Y136.204 E4.68409
G1 X58.452 Y139.088 E4.79904
G1 X59.070 Y139.088 E4.81644
G1 X56.186 Y136.204 E4.93139
G1 X56.804 Y136.204 E4.94880
G1 X59.688 Y139.088 E5.06374
G1 X60.305 Y139.088 E5.08115
G1 X57.421 Y136.204 E5.19609
G1 X58.039 Y136.204 E5.21350
G1 X60.923 Y139.088 E5.32845
G1 X61.541 Y139.088 E5.34585
G1 X58.657 Y136.204 E5.46080
G1 X59.274 Y136.204 E5.47821
G1 X62.159 Y139.088 E5.59315
G1 X62.776 Y139.088 E5.61056
G1 X59.892 Y136.204 E5.72550
G1 X60.510 Y136.204 E5.74291
G1 X63.394 Y139.088 E5.85786
G1 X64.012 Y139.088 E5.87526
G1 X61.128 Y136.204 E5.99021
G1 X61.745 Y136.204 E6.00762
G1 X64.629 Y139.088 E6.12256
G1 X65.247 Y139.088 E6.13997
G1 X62.363 Y136.204 E6.25491
G1 X62.981 Y136.204 E6.27232
G1 X65.865 Y139.088 E6.38727
G1 X66.483 Y139.088 E6.40467
G1 X63.598 Y136.204 E6.51962
G1 X64.216 Y136.204 E6.53703
G1 X67.100 Y139.088 E6.65197
G1 X67.718 Y139.088 E6.66938
G1 X64.834 Y136.204 E6.78432
G1 X65.452 Y136.204 E6.80173
G1 X68.336 Y139.088 E6.91668
G1 X68.953 Y139.088 E6.93408
G1 X66.069 Y136.204 E7.04903
G1 X66.687 Y136.204 E7.06644
G1 X69.571 Y139.088 E7.18138
G1 X70.189 Y139.088 E7.19879
G1 X67.305 Y136.204 E7.31373
G1 X67.922 Y136.204 E7.33114
G1 X70.807 Y139.088 E7.44609
G1 X71.424 Y139.088 E7.46349
G1 X68.540 Y136.204 E7.57844
G1 X69.158 Y136.204 E7.59585
G1 X72.042 Y139.088 E7.71079
G1 X72.660 Y139.088 E7.72820
G1 X69.776 Y136.204 E7.84314
G1 X70.393 Y136.204 E7.86055
G1 X72.827 Y138.637 E7.95753
G1 X72.827 Y138.019 E7.97494
G1 X71.011 Y136.204 E8.04730
G1 X71.629 Y136.204 E8.06470
G1 X72.827 Y137.402 E8.11245
G1 X72.827 Y136.784 E8.12985
G1 X72.246 Y136.204 E8.15298
G1 E6.15298 F1680.00000
G92 E0
G1 X44.483 Y124.500 F12000.000
G1 E2.00000 F1680.00000
G1 X54.327 Y134.344 E2.39233 F1200.000
G1 X54.327 Y133.727 E2.40973
G1 X45.228 Y124.629 E2.77233
G1 X45.805 Y124.587 E2.78861
G1 X54.327 Y133.109 E3.12825
G1 X54.327 Y132.491 E3.14566
G1 X46.306 Y124.471 E3.46530
G1 X46.743 Y124.290 E3.47863
G1 X54.327 Y131.874 E3.78087
G1 X54.327 Y131.256 E3.79827
G1 X47.113 Y124.042 E4.08576
G1 X47.463 Y123.774 E4.09817
G1 X54.327 Y130.638 E4.37173
G1 X54.327 Y130.020 E4.38914
G1 X47.731 Y123.425 E4.65200
G1 X47.978 Y123.055 E4.66455
G1 X54.327 Y129.403 E4.91755
G1 X54.327 Y128.785 E4.93496
G1 X48.159 Y122.618 E5.18075
G1 X48.276 Y122.116 E5.19526
G1 X54.327 Y128.167 E5.43642
G1 X54.327 Y127.550 E5.45383
G1 X48.317 Y121.540 E5.69334
G1 X48.189 Y120.794 E5.71466
G1 X54.327 Y126.932 E5.95928
G1 X54.327 Y126.314 E5.97668
G1 X36.576 Y108.564 E6.68412
G1 X36.576 Y107.946 E6.70153
G1 X54.327 Y125.696 E7.40896
G1 X54.327 Y125.079 E7.42637
G1 X33.686 Y104.438 E8.24900
G1 X34.478 Y104.613 E8.27187
G1 X54.327 Y124.461 E9.06291
G1 X54.327 Y123.843 E9.08032
G1 X35.096 Y104.613 E9.84675
G1 X35.714 Y104.613 E9.86415
G1 X54.327 Y123.226 E10.60596
G1 X54.327 Y122.608 E10.62337
G1 X36.331 Y104.613 E11.34056
G1 X36.949 Y104.613 E11.35797
G1 X54.327 Y121.990 E12.05054
G1 X54.327 Y121.373 E12.06795
G1 X37.567 Y104.613 E12.73590
G1 X38.184 Y104.613 E12.75331
G1 X54.327 Y120.755 E13.39664
G1 X54.327 Y120.137 E13.41405
G1 X38.802 Y104.613 E14.03277
G1 X39.420 Y104.613 E14.05018
G1 X54.327 Y119.519 E14.64427
G1 X54.327 Y118.902 E14.66168
G1 X40.038 Y104.613 E15.23116
G1 X40.655 Y104.613 E15.24857
G1 X54.327 Y118.284 E15.79343
G1 X54.327 Y117.666 E15.81084
G1 X41.273 Y104.613 E16.33108
G1 X41.891 Y104.613 E16.34849
G1 X54.327 Y117.049 E16.84411
G1 X54.327 Y116.431 E16.86152
G1 X42.508 Y104.613 E17.33253
G1 X43.126 Y104.613 E17.34993
G1 X54.327 Y115.813 E17.79632
G1 X54.327 Y115.195 E17.81373
G1 X43.744 Y104.613 E18.23550
G1 X44.362 Y104.613 E18.25291
G1 X54.327 Y114.578 E18.65006
G1 X54.327 Y113.960 E18.66747
G1 X44.979 Y104.613 E19.04000
G1 X45.597 Y104.613 E19.05741
G1 X54.327 Y113.342 E19.40532
G1 X54.327 Y112.725 E19.42273
G1 X46.215 Y104.613 E19.74602
G1 X46.832 Y104.613 E19.76343
G1 X54.327 Y112.107 E20.06211
G1 X54.327 Y111.489 E20.07952
G1 X47.450 Y104.613 E20.35357
G1 X48.068 Y104.613 E20.37098
G1 X54.327 Y110.871 E20.62042
G1 X54.327 Y110.254 E20.63783
G1 X48.686 Y104.613 E20.86265
G1 X49.303 Y104.613 E20.88006
G1 X54.327 Y109.636 E21.08026
G1 X54.327 Y109.018 E21.09767
G1 X49.921 Y104.613 E21.27326
G1 X50.539 Y104.613 E21.29066
G1 X54.327 Y108.401 E21.44163
