; generated by Slic3r 1.2.6 on 2015-06-19 at 15:20:17

; external perimeters extrusion width = 0.50mm
; perimeters extrusion width = 0.72mm
; infill extrusion width = 0.27mm
; solid infill extrusion width = 0.72mm
; top infill extrusion width = 0.72mm

M104 S190 ; set temperature
G28 ; home all axes
G1 Z15 F120 ; lift nozzle
M109 S190 ; wait for temperature to be reached
G21 ; set units to millimeters
G90 ; use absolute coordinates
M82 ; use absolute distances for extrusion
G92 E0
M106 S102
G1 E-2.00000 F1680.00000
G92 E0
G1 Z0.350 F12000.000
G1 X20.771 Y20.994 F12000.000
G1 E2.00000 F1680.00000
G1 X21.180 Y20.606 E2.01587 F1200.000
G1 X22.844 Y19.133 E2.07841
G1 X24.421 Y17.874 E2.13523
G1 X26.397 Y16.468 E2.20350
G1 X28.081 Y15.398 E2.25967
G1 X30.005 Y14.310 E2.32189
G1 X31.985 Y13.328 E2.38411
G1 X34.015 Y12.454 E2.44633
G1 X36.088 Y11.689 E2.50855
G1 X38.200 Y11.037 E2.57077
G1 X40.344 Y10.500 E2.63299
G1 X42.302 Y10.117 E2.68916
G1 X42.818 Y10.029 E2.70388
G1 X44.703 Y9.773 E2.75744
G1 X46.673 Y9.605 E2.81311
G1 X47.235 Y9.569 E2.82898
G1 X48.893 Y9.524 E2.87566
G1 X49.666 Y9.524 E2.89741
G1 X51.660 Y9.587 E2.95358 F1200.000
G1 X53.544 Y9.739 E3.00680
G1 X56.051 Y10.078 E3.07802
G1 X57.931 Y10.437 E3.13190
G1 X58.481 Y10.562 E3.14776
G1 X60.365 Y11.037 E3.20246
G1 X62.217 Y11.603 E3.25699
G1 X144.973 Y39.814 E5.71838
G1 X147.447 Y41.355 E5.80044
G1 X148.447 Y42.355 E5.84025
G1 X149.740 Y44.209 E5.90388
G1 X150.246 Y45.852 E5.95228
G1 X161.338 Y112.673 E7.85913
G1 X161.656 Y115.060 E7.92695
G1 X161.826 Y117.276 E7.98949
G1 X161.877 Y119.491 E8.05187
G1 X161.809 Y121.700 E8.11409
G1 X161.622 Y123.902 E8.17631
G1 X161.317 Y126.091 E8.23854
G1 X160.896 Y128.261 E8.30075
G1 X160.433 Y130.130 E8.35496
G1 X160.278 Y130.672 E8.37083
G1 X159.706 Y132.517 E8.42520
G1 X159.037 Y134.347 E8.48006
G1 X158.170 Y136.392 E8.54260
G1 X157.085 Y138.600 E8.61186
G1 X156.113 Y140.329 E8.66770
G1 X154.809 Y142.387 E8.73629
G1 X153.521 Y144.184 E8.79851
G1 X152.139 Y145.909 E8.86074
G1 X150.667 Y147.557 E8.92295
G1 X148.952 Y149.272 E8.99122
G1 X147.304 Y150.744 E9.05344
G1 X145.579 Y152.126 E9.11566
G1 X143.603 Y153.532 E9.18393
G1 X141.919 Y154.602 E9.24010
G1 X140.281 Y155.533 E9.29316
G1 X139.784 Y155.799 E9.30903
G1 X138.015 Y156.672 E9.36454
G1 X135.742 Y157.642 E9.43412
G1 X133.912 Y158.311 E9.48898
G1 X132.067 Y158.883 E9.54335
G1 X131.525 Y159.038 E9.55922
G1 X129.656 Y159.500 E9.61343
G1 X127.182 Y159.971 E9.68431
G1 X125.297 Y160.227 E9.73787
G1 X123.327 Y160.395 E9.79354
G1 X122.765 Y160.431 E9.80940
G1 X120.886 Y160.482 E9.86231
G1 X118.340 Y160.413 E9.93400
G1 X116.456 Y160.261 E9.98723
G1 X115.896 Y160.195 E10.00310
G1 X113.949 Y159.922 E10.05845
G1 X112.069 Y159.563 E10.11233
G1 X109.635 Y158.963 E10.18288
G1 X107.783 Y158.397 E10.23742
G1 X107.250 Y158.213 E10.25328
G1 X105.450 Y157.547 E10.30732
G1 X103.648 Y156.775 E10.36251
G1 X101.440 Y155.690 E10.43177
G1 X99.516 Y154.602 E10.49398
G1 X97.653 Y153.413 E10.55620
G1 X95.856 Y152.126 E10.61843
G1 X94.131 Y150.744 E10.68065
G1 X92.483 Y149.272 E10.74287
G1 X20.863 Y80.451 E13.53910
G1 X19.333 Y78.912 E13.60018
G1 X17.861 Y77.264 E13.66240
G1 X16.479 Y75.539 E13.72463
G1 X15.191 Y73.742 E13.78685
G1 X14.180 Y72.166 E13.83958
G1 X13.887 Y71.684 E13.85545
G1 X12.805 Y69.744 E13.91799
G1 X11.933 Y67.975 E13.97351
G1 X11.058 Y65.945 E14.03573
G1 X10.294 Y63.872 E14.09795
G1 X9.642 Y61.760 E14.16017
G1 X9.104 Y59.616 E14.22239
G1 X8.729 Y57.698 E14.27741
G1 X8.634 Y57.142 E14.29328
G1 X8.344 Y54.940 E14.35582
G1 X8.174 Y52.724 E14.41837
G1 X8.123 Y50.509 E14.48075
G1 X8.191 Y48.300 E14.54297
G1 X8.378 Y46.098 E14.60519
G1 X8.683 Y43.909 E14.66741
G1 X9.042 Y42.029 E14.72129
G1 X9.567 Y39.870 E14.78384
G1 X10.208 Y37.743 E14.84638
G1 X10.963 Y35.653 E14.90893
G1 X11.174 Y35.131 E14.92479
G1 X11.933 Y33.380 E14.97851
G1 X12.915 Y31.400 E15.04073
G1 X14.002 Y29.476 E15.10295
G1 X15.191 Y27.613 E15.16517
G1 X16.479 Y25.816 E15.22739
G1 X17.861 Y24.091 E15.28961
G1 X19.333 Y22.443 E15.35183
G1 X20.718 Y21.047 E15.40720
G1 E13.40720 F1680.00000
G92 E0
G1 X43.961 Y60.545 F12000.000
G1 E2.00000 F1680.00000
G1 X44.987 Y60.070 E2.03183 F900.000
G1 X46.055 Y59.698 E2.06366
G1 X47.154 Y59.433 E2.09549
G1 X48.270 Y59.279 E2.12722
G1 X49.165 Y59.235 E2.15243 F900.000
G1 X50.291 Y59.278 E2.18415
G1 X51.411 Y59.433 E2.21598
G1 X52.510 Y59.698 E2.24781
G1 X53.578 Y60.070 E2.27964
G1 X54.604 Y60.545 E2.31147
G1 X55.578 Y61.120 E2.34331
G1 X56.490 Y61.787 E2.37514
G1 X57.332 Y62.542 E2.40697
G1 X58.096 Y63.376 E2.43880
G1 X58.773 Y64.281 E2.47064
G1 X59.358 Y65.249 E2.50247
G1 X59.845 Y66.269 E2.53430
G1 X60.228 Y67.333 E2.56614
G1 X60.505 Y68.430 E2.59797
G1 X60.672 Y69.548 E2.62980
G1 X60.728 Y70.678 E2.66164
G1 X60.672 Y71.807 E2.69347
G1 X60.505 Y72.925 E2.72531
G1 X60.228 Y74.022 E2.75714
G1 X59.845 Y75.086 E2.78897
G1 X59.358 Y76.106 E2.82081
G1 X58.773 Y77.074 E2.85264
G1 X58.096 Y77.979 E2.88447
G1 X57.332 Y78.813 E2.91631
G1 X56.490 Y79.568 E2.94814
G1 X55.578 Y80.235 E2.97997
G1 X54.604 Y80.810 E3.01180
G1 X53.578 Y81.285 E3.04363
G1 X52.510 Y81.657 E3.07546
G1 X51.411 Y81.922 E3.10729
G1 X50.294 Y82.076 E3.13902
G1 X49.400 Y82.120 E3.16423
G1 X48.274 Y82.077 E3.19596
G1 X47.154 Y81.922 E3.22779
G1 X46.055 Y81.657 E3.25962
G1 X44.987 Y81.285 E3.29145
G1 X43.961 Y80.810 E3.32328
G1 X42.987 Y80.235 E3.35511
G1 X42.075 Y79.568 E3.38694
G1 X41.232 Y78.813 E3.41877
G1 X40.469 Y77.979 E3.45060
G1 X39.791 Y77.074 E3.48244
G1 X39.206 Y76.106 E3.51427
G1 X38.720 Y75.086 E3.54610
G1 X38.336 Y74.022 E3.57794
G1 X38.060 Y72.925 E3.60977
G1 X37.893 Y71.807 E3.64161
G1 X37.837 Y70.678 E3.67344
G1 X37.893 Y69.548 E3.70527
G1 X38.060 Y68.430 E3.73711
G1 X38.336 Y67.333 E3.76894
G1 X38.720 Y66.269 E3.80078
G1 X39.206 Y65.249 E3.83261
G1 X39.791 Y64.281 E3.86444
G1 X40.469 Y63.376 E3.89628
G1 X41.232 Y62.542 E3.92811
G1 X42.075 Y61.787 E3.95994
G1 X42.987 Y61.120 E3.99177
G1 X43.896 Y60.583 E4.02149
G1 X44.110 Y60.945 F12000.000
G1 X45.145 Y60.459 E4.05367 F720.000
G1 X46.173 Y60.101 E4.08433
G1 X47.232 Y59.846 E4.11499
G1 X48.309 Y59.697 E4.14562
G1 X49.167 Y59.655 E4.16979 F720.000
G1 X50.254 Y59.697 E4.20041
G1 X51.333 Y59.846 E4.23107
G1 X52.392 Y60.101 E4.26173
G1 X53.420 Y60.459 E4.29239
G1 X54.408 Y60.917 E4.32305
G1 X55.346 Y61.471 E4.35371
G1 X56.225 Y62.114 E4.38437
G1 X57.037 Y62.841 E4.41504
G1 X57.772 Y63.644 E4.44570
G1 X58.425 Y64.516 E4.47636
G1 X58.988 Y65.448 E4.50703
G1 X59.457 Y66.431 E4.53769
G1 X59.826 Y67.456 E4.56836
G1 X60.093 Y68.512 E4.59902
G1 X60.254 Y69.590 E4.62968
G1 X60.308 Y70.678 E4.66035
G1 X60.254 Y71.765 E4.69101
G1 X60.093 Y72.843 E4.72168
G1 X59.826 Y73.899 E4.75234
G1 X59.457 Y74.924 E4.78301
G1 X58.988 Y75.907 E4.81367
G1 X58.425 Y76.839 E4.84434
G1 X57.772 Y77.711 E4.87500
G1 X57.037 Y78.514 E4.90566
G1 X56.225 Y79.241 E4.93633
G1 X55.346 Y79.884 E4.96699
G1 X54.408 Y80.438 E4.99765
G1 X53.420 Y80.896 E5.02831
G1 X52.392 Y81.254 E5.05897
G1 X51.333 Y81.509 E5.08963
G1 X50.255 Y81.658 E5.12025
G1 X49.398 Y81.700 E5.14443
G1 X48.311 Y81.658 E5.17505
G1 X47.232 Y81.509 E5.20570
G1 X46.173 Y81.254 E5.23636
G1 X45.145 Y80.896 E5.26703
G1 X44.156 Y80.438 E5.29769
G1 X43.218 Y79.884 E5.32835
G1 X42.339 Y79.241 E5.35901
G1 X41.528 Y78.514 E5.38967
G1 X40.792 Y77.711 E5.42034
G1 X40.140 Y76.839 E5.45100
G1 X39.576 Y75.907 E5.48166
G1 X39.108 Y74.924 E5.51233
G1 X38.738 Y73.899 E5.54299
G1 X38.472 Y72.843 E5.57366
G1 X38.311 Y71.765 E5.60432
G1 X38.257 Y70.678 E5.63499
G1 X38.311 Y69.590 E5.66565
G1 X38.472 Y68.512 E5.69632
G1 X38.738 Y67.456 E5.72698
G1 X39.108 Y66.431 E5.75765
G1 X39.576 Y65.448 E5.78831
G1 X40.140 Y64.516 E5.81897
G1 X40.792 Y63.644 E5.84964
G1 X41.528 Y62.841 E5.88030
G1 X42.339 Y62.114 E5.91096
G1 X43.218 Y61.471 E5.94163
G1 X44.045 Y60.983 E5.96865
G1 X44.137 Y60.446 F12000.000
G1 X41.241 Y60.061 F12000.000
G1 X40.944 Y60.966 E5.99544 F900.000
G1 X40.486 Y62.000 E6.02728
G1 X39.929 Y62.984 E6.05911
G1 X39.278 Y63.908 E6.09094
G1 X38.538 Y64.763 E6.12277
G1 X37.718 Y65.541 E6.15461
G1 X36.824 Y66.235 E6.18644
G1 X35.867 Y66.837 E6.21828
G1 X34.855 Y67.341 E6.25011
G1 X33.798 Y67.743 E6.28194
G1 X32.707 Y68.039 E6.31378
G1 X31.591 Y68.226 E6.34561
G1 X30.463 Y68.302 E6.37745
G1 X29.333 Y68.266 E6.40928
G1 X28.212 Y68.118 E6.44111
G1 X27.111 Y67.861 E6.47295
G1 X26.040 Y67.496 E6.50478
G1 X25.011 Y67.028 E6.53661
G1 X24.033 Y66.460 E6.56845
G1 X23.116 Y65.799 E6.60028
G1 X22.269 Y65.050 E6.63211
G1 X21.500 Y64.221 E6.66394
G1 X20.816 Y63.320 E6.69577
G1 X20.225 Y62.357 E6.72760
G1 X19.732 Y61.340 E6.75943
G1 X19.342 Y60.282 E6.79115
G1 X19.108 Y59.418 E6.81636
G1 X18.910 Y58.308 E6.84809
G1 X18.822 Y57.181 E6.87992
G1 X18.845 Y56.051 E6.91175
G1 X18.980 Y54.928 E6.94358
G1 X19.226 Y53.824 E6.97541
G1 X19.579 Y52.750 E7.00725
G1 X20.036 Y51.716 E7.03908
G1 X20.593 Y50.732 E7.07091
G1 X21.245 Y49.808 E7.10274
G1 X21.984 Y48.953 E7.13458
G1 X22.805 Y48.174 E7.16641
G1 X23.698 Y47.481 E7.19824
G1 X24.655 Y46.879 E7.23008
G1 X25.667 Y46.374 E7.26191
G1 X26.724 Y45.972 E7.29375
G1 X27.816 Y45.676 E7.32558
G1 X28.930 Y45.490 E7.35740
G1 X29.800 Y45.430 E7.38194
G1 X30.061 Y45.414 E7.38931 F900.000
G1 X31.189 Y45.450 E7.42108
G1 X32.311 Y45.597 E7.45292
G1 X33.412 Y45.855 E7.48475
G1 X34.482 Y46.219 E7.51658
G1 X35.511 Y46.688 E7.54841
G1 X36.489 Y47.256 E7.58025
G1 X37.406 Y47.917 E7.61208
G1 X38.253 Y48.666 E7.64391
G1 X39.022 Y49.495 E7.67574
G1 X39.706 Y50.395 E7.70757
G1 X40.297 Y51.359 E7.73940
G1 X40.791 Y52.376 E7.77123
G1 X41.180 Y53.434 E7.80295
G1 X41.415 Y54.298 E7.82816
G1 X41.613 Y55.407 E7.85989
G1 X41.701 Y56.535 E7.89172
G1 X41.677 Y57.665 E7.92355
G1 X41.542 Y58.788 E7.95538
G1 X41.264 Y59.990 E7.99013
G1 X40.865 Y59.859 F12000.000
G1 X40.551 Y60.815 E8.01845 F720.000
G1 X40.111 Y61.811 E8.04911
G1 X39.574 Y62.759 E8.07978
G1 X38.946 Y63.649 E8.11044
G1 X38.234 Y64.473 E8.14110
G1 X37.444 Y65.222 E8.17177
G1 X36.583 Y65.890 E8.20243
G1 X35.661 Y66.470 E8.23310
G1 X34.686 Y66.956 E8.26376
G1 X33.668 Y67.344 E8.29443
G1 X32.617 Y67.629 E8.32509
G1 X31.543 Y67.808 E8.35576
G1 X30.456 Y67.881 E8.38642
G1 X29.367 Y67.847 E8.41708
G1 X28.287 Y67.705 E8.44775
G1 X27.226 Y67.457 E8.47841
G1 X26.195 Y67.106 E8.50908
G1 X25.204 Y66.654 E8.53974
G1 X24.262 Y66.107 E8.57040
G1 X23.379 Y65.470 E8.60106
G1 X22.563 Y64.749 E8.63173
G1 X21.822 Y63.951 E8.66239
G1 X21.163 Y63.083 E8.69305
G1 X20.594 Y62.155 E8.72371
G1 X20.118 Y61.175 E8.75437
G1 X19.743 Y60.154 E8.78499
G1 X19.518 Y59.326 E8.80916
G1 X19.327 Y58.255 E8.83978
G1 X19.242 Y57.169 E8.87044
G1 X19.265 Y56.080 E8.90110
G1 X19.395 Y54.999 E8.93176
G1 X19.631 Y53.936 E8.96242
G1 X19.971 Y52.901 E8.99309
G1 X20.412 Y51.905 E9.02375
G1 X20.948 Y50.957 E9.05441
G1 X21.576 Y50.067 E9.08508
G1 X22.289 Y49.243 E9.11574
G1 X23.079 Y48.493 E9.14640
G1 X23.939 Y47.825 E9.17707
G1 X24.861 Y47.245 E9.20773
G1 X25.836 Y46.760 E9.23840
G1 X26.854 Y46.372 E9.26906
G1 X27.906 Y46.087 E9.29973
G1 X28.980 Y45.907 E9.33039
G1 X29.827 Y45.849 E9.35431
G1 X30.067 Y45.834 E9.36108 F720.000
G1 X31.155 Y45.869 E9.39172
G1 X32.235 Y46.011 E9.42239
G1 X33.296 Y46.259 E9.45305
G1 X34.327 Y46.610 E9.48371
G1 X35.318 Y47.061 E9.51438
G1 X36.260 Y47.608 E9.54504
G1 X37.143 Y48.246 E9.57570
G1 X37.960 Y48.967 E9.60636
G1 X38.701 Y49.765 E9.63702
G1 X39.359 Y50.633 E9.66769
G1 X39.929 Y51.561 E9.69835
G1 X40.404 Y52.541 E9.72900
G1 X40.780 Y53.561 E9.75962
G1 X41.005 Y54.390 E9.78380
G1 X41.196 Y55.461 E9.81442
G1 X41.281 Y56.547 E9.84508
G1 X41.258 Y57.636 E9.87574
G1 X41.128 Y58.717 E9.90640
G1 X40.889 Y59.788 E9.93729
G1 X41.210 Y60.221 F12000.000
G1 E7.93729 F1680.00000
G92 E0
G1 X39.177 Y45.822 F12000.000
G1 E2.00000 F1680.00000
G1 X38.052 Y45.930 E2.03183 F900.000
G1 X36.921 Y45.926 E2.06366
G1 X35.796 Y45.811 E2.09550
G1 X34.688 Y45.585 E2.12733
G1 X33.608 Y45.251 E2.15916
G1 X32.566 Y44.812 E2.19099
G1 X31.572 Y44.272 E2.22283
G1 X30.637 Y43.637 E2.25466
G1 X29.768 Y42.912 E2.28650
G1 X28.976 Y42.106 E2.31833
G1 X28.267 Y41.225 E2.35016
G1 X27.648 Y40.278 E2.38200
G1 X27.126 Y39.275 E2.41383
G1 X26.705 Y38.226 E2.44567
G1 X26.390 Y37.140 E2.47750
G1 X26.184 Y36.028 E2.50933
G1 X26.088 Y34.901 E2.54117
G1 X26.104 Y33.770 E2.57300
G1 X26.232 Y32.647 E2.60483
G1 X26.470 Y31.541 E2.63666
G1 X26.816 Y30.465 E2.66850
G1 X27.266 Y29.428 E2.70033
G1 X27.816 Y28.440 E2.73216
G1 X28.462 Y27.512 E2.76399
G1 X29.195 Y26.651 E2.79582
G1 X30.010 Y25.868 E2.82765
G1 X30.896 Y25.171 E2.85937
G1 X31.645 Y24.681 E2.88458
G1 X32.639 Y24.149 E2.91631
G1 X33.684 Y23.717 E2.94814
G1 X34.767 Y23.391 E2.97997
G1 X35.876 Y23.172 E3.01180
G1 X37.002 Y23.064 E3.04363 F900.000
G1 X38.132 Y23.068 E3.07547
G1 X39.257 Y23.184 E3.10730
G1 X40.365 Y23.409 E3.13913
G1 X41.445 Y23.744 E3.17096
G1 X42.487 Y24.183 E3.20280
G1 X43.481 Y24.722 E3.23463
G1 X44.417 Y25.358 E3.26646
G1 X45.285 Y26.082 E3.29830
G1 X46.077 Y26.889 E3.33013
G1 X46.786 Y27.770 E3.36197
G1 X47.405 Y28.716 E3.39380
G1 X47.927 Y29.719 E3.42563
G1 X48.348 Y30.769 E3.45747
G1 X48.663 Y31.855 E3.48930
G1 X48.869 Y32.967 E3.52114
G1 X48.965 Y34.093 E3.55297
G1 X48.949 Y35.224 E3.58480
G1 X48.821 Y36.347 E3.61663
G1 X48.583 Y37.453 E3.64847
G1 X48.238 Y38.529 E3.68030
G1 X47.787 Y39.567 E3.71213
G1 X47.237 Y40.554 E3.74396
G1 X46.592 Y41.483 E3.77579
G1 X45.858 Y42.343 E3.80762
G1 X45.043 Y43.127 E3.83945
G1 X44.157 Y43.824 E3.87117
G1 X43.408 Y44.314 E3.89638
G1 X42.414 Y44.845 E3.92811
G1 X41.369 Y45.277 E3.95994
G1 X40.287 Y45.604 E3.99177
G1 X39.251 Y45.808 E4.02149
G1 X39.170 Y45.396 F12000.000
G1 X38.032 Y45.510 E4.05367 F720.000
G1 X36.943 Y45.506 E4.08434
G1 X35.860 Y45.395 E4.11500
G1 X34.792 Y45.178 E4.14566
G1 X33.752 Y44.856 E4.17633
G1 X32.748 Y44.433 E4.20699
G1 X31.791 Y43.913 E4.23765
G1 X30.890 Y43.301 E4.26832
G1 X30.053 Y42.603 E4.29898
G1 X29.290 Y41.826 E4.32965
G1 X28.607 Y40.978 E4.36031
G1 X28.011 Y40.066 E4.39098
G1 X27.508 Y39.100 E4.42164
G1 X27.103 Y38.089 E4.45231
G1 X26.799 Y37.043 E4.48297
G1 X26.601 Y35.972 E4.51364
G1 X26.509 Y34.886 E4.54430
G1 X26.524 Y33.797 E4.57496
G1 X26.647 Y32.715 E4.60563
G1 X26.876 Y31.650 E4.63629
G1 X27.209 Y30.613 E4.66695
G1 X27.643 Y29.614 E4.69761
G1 X28.173 Y28.663 E4.72827
G1 X28.795 Y27.768 E4.75894
G1 X29.501 Y26.940 E4.78960
G1 X30.287 Y26.185 E4.82025
G1 X31.141 Y25.512 E4.85087
G1 X31.860 Y25.042 E4.87505
G1 X32.819 Y24.529 E4.90567
G1 X33.825 Y24.113 E4.93633
G1 X34.868 Y23.799 E4.96699
G1 X35.937 Y23.588 E4.99765
G1 X37.021 Y23.484 E5.02831 F720.000
G1 X38.110 Y23.488 E5.05897
G1 X39.194 Y23.599 E5.08964
G1 X40.261 Y23.817 E5.12030
G1 X41.301 Y24.139 E5.15096
G1 X42.305 Y24.562 E5.18163
G1 X43.262 Y25.081 E5.21229
G1 X44.164 Y25.693 E5.24296
G1 X45.000 Y26.391 E5.27362
G1 X45.763 Y27.168 E5.30429
G1 X46.446 Y28.017 E5.33495
G1 X47.042 Y28.928 E5.36561
G1 X47.545 Y29.895 E5.39628
G1 X47.950 Y30.906 E5.42694
G1 X48.254 Y31.952 E5.45761
G1 X48.453 Y33.023 E5.48827
G1 X48.545 Y34.108 E5.51894
G1 X48.529 Y35.197 E5.54960
G1 X48.406 Y36.279 E5.58026
G1 X48.177 Y37.344 E5.61093
G1 X47.844 Y38.381 E5.64159
G1 X47.410 Y39.380 E5.67225
G1 X46.880 Y40.332 E5.70291
G1 X46.259 Y41.226 E5.73357
G1 X45.552 Y42.055 E5.76423
G1 X44.767 Y42.809 E5.79489
G1 X43.912 Y43.482 E5.82551
G1 X43.194 Y43.952 E5.84968
G1 X42.234 Y44.465 E5.88031
G1 X41.228 Y44.881 E5.91097
G1 X40.185 Y45.196 E5.94163
G1 X39.243 Y45.381 E5.96865
G1 X38.979 Y45.858 F12000.000
G1 E3.96865 F1680.00000
G92 E0
G1 X50.777 Y39.567 F12000.000
G1 E2.00000 F1680.00000
G1 X50.327 Y38.529 E2.03183 F900.000
G1 X49.981 Y37.453 E2.06366
G1 X49.743 Y36.347 E2.09550
G1 X49.616 Y35.224 E2.12733
G1 X49.600 Y34.093 E2.15916
G1 X49.695 Y32.967 E2.19099
G1 X49.902 Y31.855 E2.22283
G1 X50.217 Y30.769 E2.25466
G1 X50.637 Y29.719 E2.28650
G1 X51.160 Y28.716 E2.31833
G1 X51.778 Y27.770 E2.35016
G1 X52.487 Y26.889 E2.38200
G1 X53.280 Y26.082 E2.41383
G1 X54.148 Y25.358 E2.44567
G1 X55.084 Y24.722 E2.47750
G1 X56.077 Y24.183 E2.50933
G1 X57.119 Y23.744 E2.54117
G1 X58.200 Y23.409 E2.57300
G1 X59.308 Y23.184 E2.60483
G1 X60.432 Y23.068 E2.63667
