; generated by Slic3r 1.2.6 on 2015-06-20 at 18:51:41

; external perimeters extrusion width = 0.50mm
; perimeters extrusion width = 0.72mm
; infill extrusion width = 0.27mm
; solid infill extrusion width = 0.72mm
; top infill extrusion width = 0.72mm

M104 S190 ; set temperature
G28 ; home all axes
G1 Z15 F120 ; lift nozzle
M109 S190 ; wait for temperature to be reached
G21 ; set units to millimeters
G90 ; use absolute coordinates
M82 ; use absolute distances for extrusion
G92 E0
M106 S102
G1 E-2.00000 F1680.00000
G92 E0
G1 Z0.350 F12000.000
G1 X28.468 Y19.842 F12000.000
G1 E2.00000 F1680.00000
G1 X29.321 Y18.786 E2.03820 F1200.000
G1 X30.632 Y17.776 E2.08480
G1 X31.837 Y17.231 E2.12201
G1 X32.243 Y17.096 E2.13407
G1 X34.280 Y16.765 E2.19216
G1 X82.540 Y16.765 E3.55077
G1 X84.577 Y17.096 E3.60887
G1 X85.280 Y17.339 E3.62980 F1200.000
G1 X135.003 Y36.682 E5.13180
G1 X137.221 Y38.129 E5.20635
G1 X138.221 Y39.129 E5.24617
G1 X139.514 Y40.983 E5.30980
G1 X140.099 Y43.374 E5.37909
G1 X142.871 Y101.574 E7.01939
G1 X142.878 Y137.181 E8.02180
G1 X142.803 Y138.379 E8.05558
G1 X142.470 Y139.974 E8.10146
G1 X142.244 Y140.626 E8.12088
G1 X141.520 Y142.086 E8.16676
G1 X141.138 Y142.660 E8.18618
G1 X140.071 Y143.892 E8.23206
G1 X139.557 Y144.352 E8.25148
G1 X138.215 Y145.276 E8.29735
G1 X137.601 Y145.592 E8.31678
G1 X136.853 Y145.919 E8.33976
G1 X118.145 Y152.729 E8.90023
G1 X117.375 Y152.971 E8.92296
G1 X116.647 Y153.143 E8.94403
G1 X116.220 Y153.218 E8.95622
G1 X115.477 Y153.305 E8.97730
G1 X115.044 Y153.330 E8.98949
G1 X114.296 Y153.330 E9.01056
G1 X113.863 Y153.305 E9.02276
G1 X113.120 Y153.218 E9.04383
G1 X55.995 Y142.836 E10.67835
G1 X54.975 Y142.563 E10.70807
G1 X54.250 Y142.303 E10.72975
G1 X53.515 Y142.029 E10.75183
G1 X52.142 Y141.316 E10.79540
G1 X50.855 Y140.422 E10.83951
G1 X50.021 Y139.719 E10.87020
G1 X34.641 Y124.348 E11.48236
G1 X34.174 Y123.829 E11.50200
G1 X33.235 Y122.652 E11.54439
G1 X32.405 Y121.288 E11.58933
G1 X31.789 Y119.901 E11.63206
G1 X31.337 Y118.383 E11.67665
G1 X31.090 Y116.873 E11.71973
G1 X31.033 Y116.396 E11.73324
G1 X27.246 Y70.064 E13.04193
G1 X27.225 Y69.540 E13.05670
G1 X27.225 Y23.820 E14.34381
G1 X27.762 Y21.246 E14.41784
G1 X27.972 Y20.765 E14.43259
G1 X28.433 Y19.908 E14.46000
G1 E12.46000 F1680.00000
G92 E0
G1 X61.190 Y135.109 F12000.000
G1 E2.00000 F1680.00000
G1 X61.031 Y135.236 E2.00573 F900.000
G1 X59.854 Y135.759 E2.04197
G1 X58.580 Y135.967 E2.07833
G1 X57.295 Y135.845 E2.11465
G1 X56.081 Y135.401 E2.15105
G1 X55.026 Y134.668 E2.18722
G1 X54.185 Y133.685 E2.22362
G1 X53.622 Y132.524 E2.25994
G1 X53.371 Y131.255 E2.29636
G1 X53.405 Y130.576 E2.31550
G1 X53.449 Y129.975 E2.33246
G1 X53.853 Y128.745 E2.36890
G1 X54.556 Y127.658 E2.40535
G1 X55.500 Y126.793 E2.44140
G1 X57.080 Y125.961 E2.49167
G1 X57.080 Y120.613 E2.64222
G1 X55.986 Y120.114 E2.67608
G1 X55.384 Y119.727 E2.69622
G1 X54.837 Y119.253 E2.71659
G1 X54.363 Y118.706 E2.73697
G1 X53.976 Y118.104 E2.75711
G1 X53.477 Y117.010 E2.79096
G1 X48.105 Y117.010 E2.94220
G1 X47.583 Y118.141 E2.97726
G1 X47.160 Y118.780 E2.99883
G1 X46.646 Y119.347 E3.02039
G1 X46.052 Y119.831 E3.04195
G1 X45.392 Y120.219 E3.06351
G1 X44.680 Y120.502 E3.08508
G1 X43.934 Y120.675 E3.10664
G1 X43.188 Y120.732 E3.12771
G1 X41.890 Y120.565 E3.16454
G1 X41.256 Y120.309 E3.18378
G1 X40.695 Y120.081 E3.20084
G1 X39.660 Y119.310 E3.23717
G1 X38.854 Y118.301 E3.27353
G1 X38.574 Y117.678 E3.29274
G1 X38.331 Y117.124 E3.30977
G1 X38.123 Y115.849 E3.34614
G1 X38.245 Y114.563 E3.38252
G1 X38.475 Y113.921 E3.40171
G1 X38.687 Y113.356 E3.41871
G1 X39.424 Y112.294 E3.45510
G1 X40.407 Y111.453 E3.49151
G1 X41.017 Y111.150 E3.51067
G1 X41.562 Y110.893 E3.52765
G1 X42.831 Y110.642 E3.56407
G1 X44.119 Y110.721 E3.60039
G1 X45.349 Y111.125 E3.63683
G1 X46.425 Y111.819 E3.67289
G1 X47.299 Y112.775 E3.70935
G1 X48.129 Y114.350 E3.75947
G1 X53.477 Y114.350 E3.91003
G1 X53.976 Y113.256 E3.94388
G1 X54.363 Y112.654 E3.96403
G1 X54.837 Y112.107 E3.98440
G1 X55.384 Y111.633 E4.00477
G1 X55.986 Y111.246 E4.02492
G1 X57.080 Y110.747 E4.05877
G1 X57.080 Y105.375 E4.21001
G1 X55.949 Y104.853 E4.24507
G1 X55.307 Y104.428 E4.26674
G1 X54.745 Y103.919 E4.28809
G1 X54.259 Y103.322 E4.30976
G1 X53.871 Y102.662 E4.33132
G1 X53.588 Y101.950 E4.35288
G1 X53.415 Y101.204 E4.37445
G1 X53.358 Y100.458 E4.39552
G1 X53.525 Y99.160 E4.43234
G1 X54.009 Y97.964 E4.46868
G1 X54.416 Y97.415 E4.48791
G1 X54.779 Y96.930 E4.50496
G1 X55.788 Y96.125 E4.54130
G1 X56.967 Y95.601 E4.57762
G1 X58.242 Y95.393 E4.61400
G1 X58.922 Y95.453 E4.63319
G1 X59.523 Y95.514 E4.65021 F900.000
G1 X60.736 Y95.958 E4.68659
G1 X61.796 Y96.694 E4.72291
G1 X62.637 Y97.677 E4.75932
G1 X62.940 Y98.287 E4.77847
G1 X63.197 Y98.832 E4.79545
G1 X63.448 Y100.101 E4.83187
G1 X63.369 Y101.389 E4.86819
G1 X62.965 Y102.619 E4.90463
G1 X62.271 Y103.695 E4.94070
G1 X61.315 Y104.569 E4.97715
G1 X59.740 Y105.399 E5.02728
G1 X59.740 Y110.747 E5.17783
G1 X60.834 Y111.246 E5.21168
G1 X61.436 Y111.633 E5.23183
G1 X61.983 Y112.107 E5.25220
G1 X62.457 Y112.654 E5.27257
G1 X62.844 Y113.256 E5.29272
G1 X63.343 Y114.350 E5.32657
G1 X68.715 Y114.350 E5.47781
G1 X69.237 Y113.219 E5.51287
G1 X69.662 Y112.577 E5.53454
G1 X70.171 Y112.015 E5.55590
G1 X70.768 Y111.529 E5.57756
G1 X71.428 Y111.141 E5.59912
G1 X72.140 Y110.858 E5.62069
G1 X72.886 Y110.685 E5.64225
G1 X73.632 Y110.628 E5.66332
G1 X74.930 Y110.795 E5.70014
G1 X76.126 Y111.279 E5.73646
G1 X77.161 Y112.051 E5.77281
G1 X77.589 Y112.583 E5.79203
G1 X77.965 Y113.057 E5.80907
G1 X78.489 Y114.237 E5.84543
G1 X78.697 Y115.510 E5.88175
G1 X78.575 Y116.795 E5.91807
G1 X78.131 Y118.009 E5.95446
G1 X77.746 Y118.571 E5.97363
G1 X77.398 Y119.064 E5.99063
G1 X76.415 Y119.905 E6.02703
G1 X75.254 Y120.468 E6.06335
G1 X73.985 Y120.719 E6.09978
G1 X73.306 Y120.685 E6.11892
G1 X72.705 Y120.641 E6.13588
G1 X71.475 Y120.237 E6.17232
G1 X70.388 Y119.534 E6.20877
G1 X69.523 Y118.590 E6.24481
G1 X68.691 Y117.010 E6.29508
G1 X63.343 Y117.010 E6.44564
G1 X62.844 Y118.104 E6.47949
G1 X62.457 Y118.706 E6.49964
G1 X61.983 Y119.253 E6.52001
G1 X61.436 Y119.727 E6.54038
G1 X60.834 Y120.114 E6.56053
G1 X59.740 Y120.613 E6.59438
G1 X59.740 Y125.985 E6.74562
G1 X60.871 Y126.507 E6.78068
G1 X61.510 Y126.930 E6.80224
G1 X62.077 Y127.444 E6.82380
G1 X62.561 Y128.038 E6.84537
G1 X62.949 Y128.698 E6.86693
G1 X63.232 Y129.410 E6.88849
G1 X63.405 Y130.156 E6.91006
G1 X63.462 Y130.902 E6.93112
G1 X63.295 Y132.200 E6.96796
G1 X62.811 Y133.395 E7.00425
G1 X62.040 Y134.430 E7.04059
G1 X61.248 Y135.062 E7.06911
G1 X61.511 Y135.391 F12000.000
G1 X61.251 Y135.598 E7.07845 F720.000
G1 X59.974 Y136.165 E7.11778
G1 X58.594 Y136.390 E7.15716
G1 X57.202 Y136.258 E7.19653
G1 X55.888 Y135.777 E7.23592
G1 X54.741 Y134.981 E7.27523
G1 X53.831 Y133.917 E7.31463
G1 X53.221 Y132.659 E7.35399
G1 X52.949 Y131.286 E7.39340
G1 X52.986 Y130.550 E7.41413
G1 X53.035 Y129.893 E7.43268
G1 X53.471 Y128.563 E7.47209
G1 X54.231 Y127.387 E7.51150
G1 X54.767 Y126.882 E7.53222
G1 X55.259 Y126.445 E7.55076
G1 X56.660 Y125.707 E7.59533
G1 X56.660 Y120.883 E7.73116
G1 X55.786 Y120.484 E7.75820
G1 X55.130 Y120.063 E7.78014
G1 X54.539 Y119.551 E7.80216
G1 X54.027 Y118.960 E7.82418
G1 X53.606 Y118.304 E7.84611
G1 X53.207 Y117.430 E7.87316
G1 X48.374 Y117.430 E8.00924
G1 X47.951 Y118.346 E8.03763
G1 X47.493 Y119.038 E8.06099
G1 X46.936 Y119.653 E8.08435
G1 X46.292 Y120.176 E8.10771
G1 X45.577 Y120.597 E8.13107
G1 X44.806 Y120.904 E8.15443
G1 X43.997 Y121.091 E8.17779
G1 X43.177 Y121.154 E8.20097
G1 X41.783 Y120.974 E8.24053
G1 X41.099 Y120.699 E8.26130
G1 X40.487 Y120.450 E8.27988
G1 X39.366 Y119.614 E8.31926
G1 X38.492 Y118.521 E8.35864
G1 X38.190 Y117.849 E8.37940
G1 X37.925 Y117.244 E8.39797
G1 X37.700 Y115.864 E8.43736
G1 X37.832 Y114.471 E8.47674
G1 X38.081 Y113.777 E8.49750
G1 X38.312 Y113.159 E8.51606
G1 X39.110 Y112.010 E8.55545
G1 X40.174 Y111.100 E8.59485
G1 X40.834 Y110.773 E8.61559
G1 X41.430 Y110.491 E8.63415
G1 X42.803 Y110.220 E8.67355
G1 X44.198 Y110.305 E8.71291
G1 X45.529 Y110.742 E8.75232
G1 X46.152 Y111.133 E8.77305
G1 X46.700 Y111.498 E8.79159
G1 X47.646 Y112.531 E8.83101
G1 X48.383 Y113.930 E8.87552
G1 X53.207 Y113.930 E9.01135
G1 X53.606 Y113.056 E9.03839
G1 X54.027 Y112.400 E9.06033
G1 X54.539 Y111.809 E9.08235
G1 X55.130 Y111.297 E9.10437
G1 X55.786 Y110.876 E9.12630
G1 X56.660 Y110.477 E9.15335
G1 X56.660 Y105.644 E9.28943
G1 X55.744 Y105.221 E9.31782
G1 X55.051 Y104.762 E9.34122
G1 X54.438 Y104.207 E9.36450
G1 X53.914 Y103.562 E9.38790
G1 X53.493 Y102.847 E9.41126
G1 X53.186 Y102.076 E9.43462
G1 X52.999 Y101.267 E9.45798
G1 X52.936 Y100.447 E9.48116
G1 X53.116 Y99.053 E9.52071
G1 X53.640 Y97.756 E9.56009
G1 X54.080 Y97.164 E9.58086
G1 X54.475 Y96.636 E9.59944
G1 X55.568 Y95.763 E9.63881
G1 X56.846 Y95.195 E9.67818
G1 X58.227 Y94.970 E9.71757
G1 X58.961 Y95.035 E9.73832
G1 X59.618 Y95.102 E9.75689 F720.000
G1 X60.932 Y95.583 E9.79628
G1 X62.080 Y96.380 E9.83564
G1 X62.990 Y97.444 E9.87504
G1 X63.317 Y98.104 E9.89578
G1 X63.599 Y98.700 E9.91434
G1 X63.870 Y100.073 E9.95374
G1 X63.785 Y101.468 E9.99310
G1 X63.348 Y102.799 E10.03251
G1 X62.957 Y103.422 E10.05324
G1 X62.592 Y103.970 E10.07178
G1 X61.559 Y104.916 E10.11120
G1 X60.160 Y105.653 E10.15571
G1 X60.160 Y110.477 E10.29153
G1 X61.034 Y110.876 E10.31858
G1 X61.690 Y111.297 E10.34052
G1 X62.281 Y111.809 E10.36254
G1 X62.793 Y112.400 E10.38455
G1 X63.214 Y113.056 E10.40649
G1 X63.613 Y113.930 E10.43354
G1 X68.446 Y113.930 E10.56961
G1 X68.869 Y113.014 E10.59801
G1 X69.328 Y112.321 E10.62141
G1 X69.883 Y111.708 E10.64469
G1 X70.528 Y111.184 E10.66809
G1 X71.243 Y110.763 E10.69145
G1 X72.014 Y110.456 E10.71481
G1 X72.823 Y110.269 E10.73817
G1 X73.643 Y110.206 E10.76135
G1 X75.037 Y110.386 E10.80090
G1 X76.333 Y110.910 E10.84027
G1 X77.455 Y111.746 E10.87965
G1 X77.917 Y112.321 E10.90041
G1 X78.327 Y112.838 E10.91899
G1 X78.895 Y114.116 E10.95837
G1 X79.120 Y115.496 E10.99773
G1 X78.988 Y116.888 E11.03710
G1 X78.507 Y118.202 E11.07649
G1 X78.091 Y118.811 E11.09724
G1 X77.711 Y119.349 E11.11580
G1 X76.647 Y120.259 E11.15520
G1 X75.389 Y120.869 E11.19456
G1 X74.016 Y121.141 E11.23397
G1 X73.280 Y121.104 E11.25470
G1 X72.623 Y121.055 E11.27325
G1 X71.293 Y120.619 E11.31266
G1 X70.117 Y119.859 E11.35207
G1 X69.612 Y119.323 E11.37279
G1 X69.175 Y118.831 E11.39133
G1 X68.437 Y117.430 E11.43590
G1 X63.613 Y117.430 E11.57173
G1 X63.214 Y118.304 E11.59877
G1 X62.793 Y118.960 E11.62071
G1 X62.281 Y119.551 E11.64273
G1 X61.690 Y120.063 E11.66475
G1 X61.034 Y120.484 E11.68668
G1 X60.160 Y120.883 E11.71373
G1 X60.160 Y125.716 E11.84981
G1 X61.076 Y126.139 E11.87820
G1 X61.768 Y126.597 E11.90156
G1 X62.383 Y127.154 E11.92492
G1 X62.906 Y127.798 E11.94828
G1 X63.327 Y128.513 E11.97164
G1 X63.634 Y129.284 E11.99500
G1 X63.821 Y130.093 E12.01836
G1 X63.884 Y130.913 E12.04154
G1 X63.704 Y132.307 E12.08110
G1 X63.180 Y133.603 E12.12045
G1 X62.344 Y134.724 E12.15983
G1 X61.569 Y135.344 E12.18776
G1 X61.202 Y135.270 F12000.000
G1 X56.828 Y135.442 F12000.000
G1 X53.847 Y132.462 E12.30675 F1200.000
G1 X53.653 Y131.649 E12.33034
G1 X57.697 Y135.693 E12.49179
G1 X58.381 Y135.758 E12.51117
G1 X53.563 Y130.940 E12.70349
G1 X53.595 Y130.354 E12.72006
G1 X58.975 Y135.734 E12.93481
G1 X59.507 Y135.647 E12.95002
G1 X53.668 Y129.808 E13.18310
G1 X53.821 Y129.342 E13.19693
G1 X60.007 Y135.528 E13.44384
G1 X60.436 Y135.339 E13.45709
G1 X53.974 Y128.876 E13.71505
G1 X54.196 Y128.480 E13.72788
G1 X60.863 Y135.147 E13.99400
G1 X61.230 Y134.895 E14.00656
G1 X54.439 Y128.104 E14.27763
G1 X54.685 Y127.731 E14.29023
G1 X61.574 Y134.620 E14.56522
G1 X61.905 Y134.333 E14.57760
G1 X55.008 Y127.436 E14.85293
G1 X55.331 Y127.140 E14.86529
G1 X62.186 Y133.995 E15.13892
G1 X62.450 Y133.641 E15.15140
G1 X55.676 Y126.867 E15.42179
G1 X56.082 Y126.653 E15.43472
G1 X62.698 Y133.270 E15.69884
G1 X62.877 Y132.830 E15.71225
G1 X56.487 Y126.440 E15.96733
G1 X56.892 Y126.226 E15.98025
G1 X63.055 Y132.389 E16.22625
G1 X63.166 Y131.881 E16.24092
G1 X57.260 Y125.975 E16.47667
G1 X57.260 Y125.357 E16.49413
G1 X63.236 Y131.333 E16.73270
G1 X63.262 Y130.740 E16.74945
G1 X57.260 Y124.738 E16.98904
G1 X57.260 Y124.119 E17.00650
G1 X63.166 Y130.026 E17.24228
G1 X62.879 Y129.120 E17.26911
G1 X60.213 Y126.453 E17.37554
G1 X59.560 Y125.801 F12000.000
G1 X57.260 Y123.501 E17.46737 F1200.000
G1 X57.260 Y122.882 E17.48484
G1 X59.560 Y125.182 E17.57667
G1 X59.560 Y124.564 E17.59413
G1 X57.260 Y122.263 E17.68596
G1 X57.260 Y121.645 E17.70342
G1 X59.560 Y123.945 E17.79525
G1 X59.560 Y123.326 E17.81272
G1 X57.260 Y121.026 E17.90455
G1 X56.185 Y119.951 F12000.000
G1 X54.139 Y117.905 E17.98623 F1200.000
G1 X53.238 Y114.530 F12000.000
G1 X59.560 Y120.852 E18.23858 F1200.000
G1 X59.560 Y121.470 E18.25604
G1 X52.620 Y114.530 E18.53309
G1 X52.001 Y114.530 E18.55055
G1 X59.560 Y122.089 E18.85229
G1 X59.560 Y122.708 E18.86976
G1 X51.382 Y114.530 E19.19620
G1 X50.764 Y114.530 E19.21366
G1 X53.064 Y116.830 E19.30549
G1 X52.445 Y116.830 E19.32295
G1 X50.145 Y114.530 E19.41478
G1 X49.526 Y114.530 E19.43225
G1 X51.827 Y116.830 E19.52408
G1 X51.208 Y116.830 E19.54154
G1 X48.908 Y114.530 E19.63337
G1 X48.289 Y114.530 E19.65083
G1 X50.589 Y116.830 E19.74266
G1 X49.971 Y116.830 E19.76013
G1 X44.070 Y110.929 E19.99568
G1 X43.384 Y110.862 E20.01514
G1 X49.352 Y116.830 E20.25337
G1 X48.733 Y116.830 E20.27084
G1 X42.732 Y110.829 E20.51041
G1 X42.215 Y110.931 E20.52527
G1 X48.115 Y116.830 E20.76076
G1 X47.857 Y117.191 E20.77328
G1 X41.699 Y111.033 E21.01909
G1 X41.252 Y111.205 E21.03260
G1 X47.661 Y117.614 E21.28846
G1 X47.466 Y118.037 E21.30162
G1 X40.835 Y111.406 E21.56631
G1 X40.430 Y111.620 E21.57923
G1 X47.227 Y118.417 E21.85055
G1 X46.970 Y118.779 E21.86308
G1 X40.097 Y111.906 E22.13744
G1 X39.763 Y112.191 E22.14983
G1 X46.676 Y119.103 E22.42576
G1 X46.355 Y119.401 E22.43812
G1 X39.455 Y112.501 E22.71353
G1 X39.201 Y112.867 E22.72608
G1 X46.013 Y119.679 E22.99800
G1 X45.627 Y119.911 E23.01072
G1 X38.948 Y113.232 E23.27734
G1 X38.742 Y113.645 E23.29037
G1 X45.220 Y120.123 E23.54896
G1 X44.778 Y120.299 E23.56240
G1 X38.576 Y114.097 E23.80997
G1 X38.418 Y114.558 E23.82372
G1 X44.288 Y120.427 E24.05802
G1 X43.756 Y120.515 E24.07322
G1 X38.365 Y115.123 E24.28845
G1 X38.311 Y115.688 E24.30447
G1 X43.157 Y120.534 E24.49789
G1 X42.446 Y120.442 E24.51810
G1 X38.413 Y116.409 E24.67910
G1 X38.629 Y117.244 E24.70344
G1 X41.591 Y120.206 E24.82168
G1 X40.055 Y119.288 F12000.000
G1 X39.645 Y118.878 E24.83805 F1200.000
G1 X44.991 Y111.232 F12000.000
G1 X47.593 Y113.834 E24.94195 F1200.000
G1 E22.94195 F1680.00000
G92 E0
G1 X53.653 Y114.326 F12000.000
G1 E2.00000 F1680.00000
G1 X59.764 Y120.437 E2.24395 F1200.000
G1 X60.189 Y120.243 E2.25713
G1 X53.847 Y113.901 E2.51031
G1 X54.041 Y113.476 E2.52349
G1 X60.614 Y120.049 E2.78590
G1 X61.012 Y119.828 E2.79874
G1 X54.262 Y113.078 E3.06817
G1 X54.507 Y112.704 E3.08078
G1 X61.386 Y119.583 E3.35537
G1 X61.717 Y119.296 E3.36775
G1 X54.794 Y112.373 E3.64411
G1 X55.103 Y112.064 E3.65646
G1 X62.026 Y118.987 E3.93282
G1 X62.314 Y118.655 E3.94520
G1 X55.435 Y111.776 E4.21979
G1 X55.809 Y111.532 E4.23240
G1 X62.558 Y118.281 E4.50183
G1 X62.780 Y117.884 E4.51467
G1 X56.206 Y111.310 E4.77707
G1 X56.631 Y111.117 E4.79025
G1 X62.973 Y117.459 E5.04343
G1 X63.167 Y117.034 E5.05661
G1 X57.056 Y110.923 E5.30056
G1 X57.260 Y110.508 F12000.000
G1 X63.582 Y116.830 E5.55292 F1200.000
G1 X64.201 Y116.830 E5.57038
G1 X57.260 Y109.889 E5.84744
G1 X57.260 Y109.271 E5.86490
G1 X64.819 Y116.830 E6.16666
G1 E4.16666 F1680.00000
G92 E0
G1 X62.681 Y113.454 F12000.000
G1 E2.00000 F1680.00000
G1 X60.636 Y111.409 E2.08163 F1200.000
G1 X59.560 Y110.953 F12000.000
G1 X57.260 Y108.652 E2.17346 F1200.000
G1 E0.17346 F1680.00000
G92 E0
G1 X57.260 Y105.559 F12000.000
G1 E2.00000 F1680.00000
G1 X59.560 Y107.859 E2.09183 F1200.000
G1 X59.560 Y108.478 E2.10929
G1 X57.260 Y106.177 E2.20112
G1 X57.260 Y106.796 E2.21859
G1 X59.560 Y109.097 E2.31042
G1 X59.560 Y109.715 E2.32788
G1 X57.260 Y107.415 E2.41971
G1 X57.260 Y108.033 E2.43717
G1 X59.560 Y110.334 E2.52900
