; generated by Slic3r 1.2.9 on 2015-09-13 at 19:33:41

; external perimeters extrusion width = 0.50mm
; perimeters extrusion width = 0.50mm
; infill extrusion width = 0.50mm
; solid infill extrusion width = 0.50mm
; top infill extrusion width = 0.50mm

M104 S190 ; set temperature
G28 ; home all axes
G1 Z15 F120 ; lift nozzle
M109 S190 ; wait for temperature to be reached
G21 ; set units to millimeters
G90 ; use absolute coordinates
M82 ; use absolute distances for extrusion
G92 E0
M106 S102
G1 E-2.00000 F1680.00000
G92 E0
G1 Z0.350 F12000.000
G1 X48.384 Y31.967 F12000.000
G1 E2.00000 F1680.00000
G1 X59.130 Y15.702 E2.54879 F1200.000
G1 X60.688 Y14.064 E2.61243
G1 X62.716 Y13.066 E2.67606
G1 X64.500 Y12.814 E2.72679
G1 X87.750 Y12.814 E3.38132
G1 X88.488 Y12.856 E3.40214
G1 X136.866 Y18.443 E4.77312 F1200.000
G1 X137.996 Y18.677 E4.80561
G1 X138.840 Y18.933 E4.83045
G1 X140.006 Y19.416 E4.86597
G1 X140.755 Y19.816 E4.88987
G1 X141.833 Y20.533 E4.92632
G1 X142.515 Y21.093 E4.95116
G1 X143.407 Y21.985 E4.98668
G1 X143.967 Y22.667 E5.01151
G1 X144.668 Y23.716 E5.04702
G1 X145.084 Y24.494 E5.07186
G1 X145.567 Y25.660 E5.10740
G1 X145.823 Y26.504 E5.13223
G1 X145.980 Y27.135 E5.15053
G1 X154.047 Y68.318 E6.33193
G1 X154.155 Y69.120 E6.35472
G1 X154.186 Y69.750 E6.37249
G1 X154.186 Y107.750 E7.44226
G1 X154.173 Y108.157 E7.45371
G1 X151.655 Y147.881 E8.57428
G1 X151.588 Y148.564 E8.59360
G1 X151.342 Y149.801 E8.62908
G1 X151.143 Y150.457 E8.64840
G1 X150.660 Y151.624 E8.68395
G1 X150.336 Y152.229 E8.70327
G1 X149.636 Y153.277 E8.73876
G1 X149.201 Y153.808 E8.75807
G1 X148.308 Y154.701 E8.79363
G1 X147.777 Y155.136 E8.81294
G1 X146.729 Y155.836 E8.84843
G1 X146.124 Y156.160 E8.86775
G1 X144.957 Y156.643 E8.90330
G1 X144.301 Y156.842 E8.92262
G1 X143.064 Y157.088 E8.95810
G1 X142.381 Y157.155 E8.97742
G1 X141.750 Y157.186 E8.99522
G1 X113.750 Y157.186 E9.78347
G1 X113.119 Y157.155 E9.80126
G1 X112.436 Y157.088 E9.82058
G1 X111.863 Y157.005 E9.83688
G1 X69.863 Y149.005 E11.04051
G1 X69.199 Y148.842 E11.05976
G1 X68.542 Y148.643 E11.07908
G1 X67.377 Y148.160 E11.11460
G1 X66.771 Y147.836 E11.13392
G1 X65.722 Y147.135 E11.16944
G1 X65.192 Y146.700 E11.18875
G1 X64.338 Y145.854 E11.22260
G1 X17.865 Y90.278 E13.26211
G1 X17.164 Y89.229 E13.29763
G1 X16.840 Y88.623 E13.31694
G1 X16.357 Y87.458 E13.35246
G1 X16.158 Y86.801 E13.37178
G1 X15.907 Y85.513 E13.40874
G1 X15.845 Y84.881 E13.42661
G1 X15.845 Y83.619 E13.46213
G1 X15.912 Y82.936 E13.48145
G1 X16.158 Y81.699 E13.51697
G1 X16.342 Y81.091 E13.53483
G1 X16.840 Y79.877 E13.57180
G1 X17.164 Y79.271 E13.59111
G1 X17.470 Y78.758 E13.60795
G1 X48.343 Y32.029 E15.18462
G1 E13.18462 F1680.00000
G92 E0
G1 X112.160 Y78.333 F12000.000
G1 E2.00000 F1680.00000
G1 X113.256 Y76.855 E2.04790 F720.000
G1 X114.492 Y75.492 E2.09579
G1 X115.855 Y74.256 E2.14369
G1 X117.333 Y73.160 E2.19158
G1 X118.911 Y72.214 E2.23948
G1 X120.575 Y71.427 E2.28737
G1 X122.307 Y70.807 E2.33527
G1 X124.092 Y70.360 E2.38316
G1 X125.912 Y70.090 E2.43106
G1 X127.669 Y70.004 E2.47683 F720.000
G1 X129.587 Y70.090 E2.52682
G1 X131.408 Y70.360 E2.57473
G1 X133.193 Y70.807 E2.62263
G1 X134.925 Y71.427 E2.67052
G1 X136.589 Y72.214 E2.71842
G1 X138.167 Y73.160 E2.76631
G1 X139.645 Y74.256 E2.81421
G1 X141.008 Y75.492 E2.86210
G1 X142.244 Y76.855 E2.91000
G1 X143.340 Y78.333 E2.95790
G1 X144.286 Y79.911 E3.00579
G1 X145.073 Y81.575 E3.05368
G1 X145.693 Y83.307 E3.10158
G1 X146.140 Y85.092 E3.14947
G1 X146.410 Y86.912 E3.19737
G1 X146.500 Y88.750 E3.24526
G1 X146.410 Y90.588 E3.29316
G1 X146.140 Y92.408 E3.34105
G1 X145.693 Y94.193 E3.38895
G1 X145.073 Y95.925 E3.43684
G1 X144.286 Y97.589 E3.48474
G1 X143.340 Y99.167 E3.53263
G1 X142.244 Y100.645 E3.58053
G1 X141.008 Y102.008 E3.62842
G1 X139.645 Y103.244 E3.67632
G1 X138.167 Y104.340 E3.72422
G1 X136.589 Y105.286 E3.77211
G1 X134.925 Y106.073 E3.82001
G1 X133.193 Y106.693 E3.86790
G1 X131.408 Y107.140 E3.91580
G1 X129.588 Y107.410 E3.96369
G1 X127.750 Y107.500 E4.01159
G1 X125.912 Y107.410 E4.05948
G1 X124.092 Y107.140 E4.10738
G1 X122.307 Y106.693 E4.15527
G1 X120.575 Y106.073 E4.20317
G1 X118.911 Y105.286 E4.25106
G1 X117.333 Y104.340 E4.29895
G1 X115.855 Y103.244 E4.34685
G1 X114.492 Y102.008 E4.39475
G1 X113.256 Y100.645 E4.44264
G1 X112.160 Y99.167 E4.49054
G1 X111.214 Y97.589 E4.53843
G1 X110.427 Y95.925 E4.58633
G1 X109.807 Y94.193 E4.63422
G1 X109.360 Y92.408 E4.68212
G1 X109.090 Y90.588 E4.73001
G1 X109.000 Y88.750 E4.77791
G1 X109.090 Y86.912 E4.82580
G1 X109.360 Y85.092 E4.87370
G1 X109.807 Y83.307 E4.92159
G1 X110.427 Y81.575 E4.96949
G1 X111.214 Y79.911 E5.01738
G1 X112.121 Y78.397 E5.06332
G1 X111.946 Y77.881 F12000.000
G1 E3.06332 F1680.00000
G92 E0
G1 X141.586 Y73.180 F12000.000
G1 E2.00000 F1680.00000
G1 X141.543 Y72.750 E2.01126 F900.000
G1 X141.586 Y72.320 E2.02252
G1 X141.711 Y71.906 E2.03378
G1 X141.915 Y71.524 E2.04504
G1 X142.190 Y71.190 E2.05630
G1 X142.524 Y70.915 E2.06756
G1 X142.906 Y70.711 E2.07881
G1 X143.360 Y70.574 E2.09117
G1 X143.718 Y70.548 E2.10053 F900.000
G1 X144.174 Y70.584 E2.11243
G1 X144.594 Y70.711 E2.12386
G1 X144.976 Y70.915 E2.13512
G1 X145.310 Y71.190 E2.14638
G1 X145.585 Y71.524 E2.15764
G1 X145.789 Y71.906 E2.16889
G1 X145.914 Y72.320 E2.18015
G1 X145.957 Y72.750 E2.19141
G1 X145.914 Y73.180 E2.20267
G1 X145.789 Y73.594 E2.21393
G1 X145.585 Y73.976 E2.22519
G1 X145.310 Y74.310 E2.23645
G1 X144.976 Y74.585 E2.24771
G1 X144.594 Y74.789 E2.25897
G1 X144.180 Y74.914 E2.27023
G1 X143.750 Y74.957 E2.28149
G1 X143.320 Y74.914 E2.29275
G1 X142.906 Y74.789 E2.30401
G1 X142.524 Y74.585 E2.31527
G1 X142.190 Y74.310 E2.32653
G1 X141.915 Y73.976 E2.33778
G1 X141.711 Y73.594 E2.34904
G1 X141.608 Y73.252 E2.35835
G1 X141.994 Y73.135 F12000.000
G1 X141.949 Y72.750 E2.36844 F900.000
G1 X141.983 Y72.399 E2.37764
G1 X142.086 Y72.061 E2.38683
G1 X142.252 Y71.749 E2.39602
G1 X142.476 Y71.476 E2.40521
G1 X142.749 Y71.252 E2.41440
G1 X143.061 Y71.086 E2.42359
G1 X143.434 Y70.973 E2.43373
G1 X143.717 Y70.953 E2.44112 F900.000
G1 X144.099 Y70.983 E2.45110
G1 X144.439 Y71.086 E2.46036
G1 X144.751 Y71.252 E2.46955
G1 X145.024 Y71.476 E2.47874
G1 X145.248 Y71.749 E2.48793
G1 X145.414 Y72.061 E2.49712
G1 X145.517 Y72.399 E2.50631
G1 X145.551 Y72.750 E2.51550
G1 X145.517 Y73.101 E2.52469
G1 X145.414 Y73.439 E2.53388
G1 X145.248 Y73.751 E2.54307
G1 X145.024 Y74.024 E2.55226
G1 X144.751 Y74.248 E2.56146
G1 X144.439 Y74.414 E2.57064
G1 X144.101 Y74.517 E2.57984
G1 X143.750 Y74.551 E2.58903
G1 X143.399 Y74.517 E2.59822
G1 X143.061 Y74.414 E2.60741
G1 X142.749 Y74.248 E2.61660
G1 X142.476 Y74.024 E2.62579
G1 X142.252 Y73.751 E2.63498
G1 X142.086 Y73.439 E2.64417
G1 X142.015 Y73.207 E2.65049
G1 X141.629 Y73.003 F12000.000
G1 E0.65049 F1680.00000
G92 E0
G1 X147.097 Y72.020 F12000.000
G1 E2.00000 F1680.00000
G1 X147.097 Y87.854 E2.41214 F900.000
G1 X146.860 Y87.859 E2.41829
G1 X146.812 Y86.873 E2.44400
G1 X146.536 Y85.013 E2.49293
G1 X146.079 Y83.190 E2.54186
G1 X145.446 Y81.420 E2.59078
G1 X144.642 Y79.721 E2.63971
G1 X143.676 Y78.109 E2.68864
G1 X142.556 Y76.599 E2.73756
G1 X141.294 Y75.206 E2.78649
G1 X139.901 Y73.944 E2.83542
G1 X138.391 Y72.824 E2.88435
G1 X136.779 Y71.858 E2.93327
G1 X135.080 Y71.054 E2.98220
G1 X133.310 Y70.421 E3.03113
G1 X131.487 Y69.964 E3.08005
G1 X129.626 Y69.688 E3.12901
G1 X127.668 Y69.600 E3.18004
G1 X126.903 Y69.637 E3.19996
G1 X126.903 Y62.051 E3.39743
G1 X128.597 Y62.051 E3.44150
G1 X128.597 Y69.403 E3.63288
G1 X133.103 Y69.403 E3.75019 F900.000
G1 X133.103 Y62.051 E3.94157
G1 X134.797 Y62.051 E3.98564
G1 X134.797 Y69.403 E4.17701
G1 X146.817 Y69.413 E4.48990
G1 X146.941 Y69.464 E4.49338
G1 X146.993 Y69.507 E4.49513
G1 X147.036 Y69.559 E4.49689
G1 X147.087 Y69.683 E4.50037
G1 X147.097 Y71.945 E4.55925
G1 E2.55925 F1680.00000
G92 E0
G1 X113.957 Y72.750 F12000.000
G1 E2.00000 F1680.00000
G1 X113.914 Y73.180 E2.01126 F900.000
G1 X113.789 Y73.594 E2.02252
G1 X113.585 Y73.976 E2.03378
G1 X113.310 Y74.310 E2.04504
G1 X112.976 Y74.585 E2.05630
G1 X112.594 Y74.789 E2.06755
G1 X112.180 Y74.914 E2.07881
G1 X111.750 Y74.957 E2.09007
G1 X111.320 Y74.914 E2.10133
G1 X110.906 Y74.789 E2.11259
G1 X110.524 Y74.585 E2.12385
G1 X110.190 Y74.310 E2.13511
G1 X109.915 Y73.976 E2.14637
G1 X109.711 Y73.594 E2.15763
G1 X109.586 Y73.180 E2.16889
G1 X109.543 Y72.750 E2.18015
G1 X109.586 Y72.320 E2.19141
G1 X109.711 Y71.906 E2.20267
G1 X109.915 Y71.524 E2.21393
G1 X110.190 Y71.190 E2.22519
G1 X110.524 Y70.915 E2.23645
G1 X110.906 Y70.711 E2.24770
G1 X111.320 Y70.586 E2.25896
G1 X111.709 Y70.547 E2.26916 F900.000
G1 X112.174 Y70.584 E2.28130
G1 X112.594 Y70.711 E2.29273
G1 X112.976 Y70.915 E2.30398
G1 X113.310 Y71.190 E2.31524
G1 X113.585 Y71.524 E2.32650
G1 X113.789 Y71.906 E2.33776
G1 X113.914 Y72.320 E2.34902
G1 X113.949 Y72.675 E2.35833
G1 X113.548 Y72.715 F12000.000
G1 X113.517 Y73.101 E2.36842 F900.000
G1 X113.414 Y73.439 E2.37761
G1 X113.248 Y73.751 E2.38680
G1 X113.024 Y74.024 E2.39599
G1 X112.751 Y74.248 E2.40519
G1 X112.439 Y74.414 E2.41437
G1 X112.101 Y74.517 E2.42357
G1 X111.750 Y74.551 E2.43276
G1 X111.399 Y74.517 E2.44195
G1 X111.061 Y74.414 E2.45114
G1 X110.749 Y74.248 E2.46033
G1 X110.476 Y74.024 E2.46952
G1 X110.252 Y73.751 E2.47871
G1 X110.086 Y73.439 E2.48790
G1 X109.983 Y73.101 E2.49709
G1 X109.949 Y72.750 E2.50628
G1 X109.983 Y72.399 E2.51547
G1 X110.086 Y72.061 E2.52467
G1 X110.252 Y71.749 E2.53385
G1 X110.476 Y71.476 E2.54305
G1 X110.749 Y71.252 E2.55224
G1 X111.061 Y71.086 E2.56143
G1 X111.399 Y70.983 E2.57062
G1 X111.713 Y70.952 E2.57885 F900.000
G1 X112.099 Y70.983 E2.58892
G1 X112.439 Y71.086 E2.59818
G1 X112.751 Y71.252 E2.60737
G1 X113.024 Y71.476 E2.61656
G1 X113.248 Y71.749 E2.62575
G1 X113.414 Y72.061 E2.63494
G1 X113.517 Y72.399 E2.64413
G1 X113.540 Y72.640 E2.65045
G1 X113.879 Y72.916 F12000.000
G1 X126.649 Y69.650 F12000.000
G1 X125.873 Y69.688 E2.67068 F900.000
G1 X124.013 Y69.964 E2.71961
G1 X122.190 Y70.421 E2.76853
G1 X120.420 Y71.054 E2.81746
G1 X118.721 Y71.858 E2.86639
G1 X117.109 Y72.824 E2.91531
G1 X115.599 Y73.944 E2.96424
G1 X114.206 Y75.206 E3.01317
G1 X112.944 Y76.599 E3.06209
G1 X111.824 Y78.109 E3.11102
G1 X110.858 Y79.721 E3.15995
G1 X110.054 Y81.420 E3.20888
G1 X109.421 Y83.190 E3.25780
G1 X108.964 Y85.013 E3.30673
G1 X108.688 Y86.873 E3.35566
G1 X108.640 Y87.859 E3.38137
G1 X108.403 Y87.854 E3.38752
G1 X108.403 Y69.782 E3.85790
G1 X108.413 Y69.683 E3.86050
G1 X108.464 Y69.559 E3.86398
G1 X108.559 Y69.464 E3.86747
G1 X108.619 Y69.433 E3.86922
G1 X108.785 Y69.403 E3.87363
G1 X120.703 Y69.403 E4.18385
G1 X120.703 Y62.051 E4.37523
G1 X122.397 Y62.051 E4.41930
G1 X122.397 Y69.403 E4.61068
G1 X126.854 Y69.403 E4.72669 F900.000
G1 X126.859 Y69.640 E4.73284
G1 X126.724 Y69.646 E4.73637
G1 E2.73637 F1680.00000
G92 E0
G1 X112.594 Y102.711 F12000.000
G1 E2.00000 F1680.00000
G1 X112.976 Y102.915 E2.01126 F900.000
G1 X113.310 Y103.190 E2.02252
G1 X113.585 Y103.524 E2.03378
G1 X113.789 Y103.906 E2.04504
G1 X113.914 Y104.320 E2.05630
G1 X113.957 Y104.750 E2.06755
G1 X113.914 Y105.180 E2.07881
G1 X113.789 Y105.594 E2.09007
G1 X113.585 Y105.976 E2.10133
G1 X113.310 Y106.310 E2.11259
G1 X112.976 Y106.585 E2.12385
G1 X112.594 Y106.789 E2.13511
G1 X112.180 Y106.914 E2.14637
G1 X111.750 Y106.957 E2.15763
G1 X111.320 Y106.914 E2.16889
G1 X110.906 Y106.789 E2.18015
G1 X110.524 Y106.585 E2.19141
G1 X110.190 Y106.310 E2.20267
G1 X109.915 Y105.976 E2.21393
G1 X109.711 Y105.594 E2.22518
G1 X109.586 Y105.180 E2.23644
G1 X109.543 Y104.750 E2.24770
G1 X109.586 Y104.320 E2.25896
G1 X109.711 Y103.906 E2.27022
G1 X109.915 Y103.524 E2.28148
G1 X110.190 Y103.190 E2.29274
G1 X110.524 Y102.915 E2.30400
G1 X110.906 Y102.711 E2.31526
G1 X111.319 Y102.586 E2.32652
G1 X111.709 Y102.547 E2.33672 F900.000
G1 X112.174 Y102.584 E2.34885
G1 X112.523 Y102.690 E2.35833
G1 X112.406 Y103.076 F12000.000
G1 X112.751 Y103.252 E2.36842 F900.000
G1 X113.024 Y103.476 E2.37761
G1 X113.248 Y103.749 E2.38680
G1 X113.414 Y104.061 E2.39599
G1 X113.517 Y104.399 E2.40518
G1 X113.551 Y104.750 E2.41437
G1 X113.517 Y105.101 E2.42357
G1 X113.414 Y105.439 E2.43276
G1 X113.248 Y105.751 E2.44195
G1 X113.024 Y106.024 E2.45114
G1 X112.751 Y106.248 E2.46033
G1 X112.439 Y106.414 E2.46952
G1 X112.101 Y106.517 E2.47871
G1 X111.750 Y106.551 E2.48790
G1 X111.399 Y106.517 E2.49709
G1 X111.061 Y106.414 E2.50628
G1 X110.749 Y106.248 E2.51547
G1 X110.476 Y106.024 E2.52466
G1 X110.252 Y105.751 E2.53386
G1 X110.086 Y105.439 E2.54304
G1 X109.983 Y105.101 E2.55224
G1 X109.949 Y104.750 E2.56143
G1 X109.983 Y104.399 E2.57062
G1 X110.086 Y104.061 E2.57981
G1 X110.252 Y103.749 E2.58900
G1 X110.476 Y103.476 E2.59819
G1 X110.749 Y103.252 E2.60738
G1 X111.061 Y103.086 E2.61657
G1 X111.399 Y102.983 E2.62576
G1 X111.713 Y102.952 E2.63400 F900.000
G1 X112.099 Y102.983 E2.64406
G1 X112.334 Y103.054 E2.65045
G1 X112.718 Y102.846 F12000.000
G1 X115.141 Y103.141 F12000.000
G1 X115.599 Y103.556 E2.66654 F900.000
G1 X117.109 Y104.676 E2.71547
G1 X118.721 Y105.642 E2.76439
G1 X120.420 Y106.446 E2.81332
G1 X122.190 Y107.079 E2.86225
G1 X124.013 Y107.536 E2.91118
G1 X125.873 Y107.812 E2.96010
G1 X126.859 Y107.860 E2.98582
G1 X126.854 Y108.097 E2.99197
G1 X108.782 Y108.097 E3.46235
G1 X108.619 Y108.067 E3.46668
G1 X108.507 Y107.993 E3.47016
G1 X108.433 Y107.881 E3.47365
G1 X108.403 Y107.718 E3.47797
G1 X108.403 Y89.646 E3.94836
G1 X108.640 Y89.641 E3.95451
G1 X108.688 Y90.627 E3.98022
G1 X108.964 Y92.487 E4.02915 F900.000
G1 X109.421 Y94.310 E4.07808
G1 X110.054 Y96.080 E4.12700
G1 X110.858 Y97.779 E4.17593
G1 X111.824 Y99.391 E4.22486
G1 X112.944 Y100.901 E4.27378
G1 X114.206 Y102.294 E4.32271
G1 X115.085 Y103.091 E4.35360
G1 E2.35360 F1680.00000
G92 E0
G1 X141.543 Y104.750 F12000.000
G1 E2.00000 F1680.00000
G1 X141.586 Y104.320 E2.01126 F900.000
G1 X141.711 Y103.906 E2.02252
G1 X141.915 Y103.524 E2.03378
G1 X142.190 Y103.190 E2.04504
G1 X142.524 Y102.915 E2.05630
G1 X142.906 Y102.711 E2.06755
G1 X143.319 Y102.586 E2.07881
G1 X143.709 Y102.547 E2.08901 F900.000
G1 X144.174 Y102.584 E2.10115
G1 X144.594 Y102.711 E2.11258
G1 X144.976 Y102.915 E2.12384
G1 X145.310 Y103.190 E2.13510
G1 X145.585 Y103.524 E2.14636
G1 X145.789 Y103.906 E2.15761
G1 X145.914 Y104.320 E2.16887
G1 X145.957 Y104.750 E2.18013
G1 X145.914 Y105.180 E2.19139
G1 X145.789 Y105.594 E2.20265
G1 X145.585 Y105.976 E2.21391
G1 X145.310 Y106.310 E2.22517
G1 X144.976 Y106.585 E2.23643
G1 X144.594 Y106.789 E2.24769
G1 X144.180 Y106.914 E2.25895
G1 X143.750 Y106.957 E2.27021
G1 X143.320 Y106.914 E2.28147
G1 X142.906 Y106.789 E2.29273
G1 X142.524 Y106.585 E2.30399
G1 X142.190 Y106.310 E2.31524
G1 X141.915 Y105.976 E2.32650
G1 X141.711 Y105.594 E2.33776
G1 X141.586 Y105.180 E2.34902
G1 X141.551 Y104.825 E2.35833
G1 X141.952 Y104.785 F12000.000
G1 X141.983 Y104.399 E2.36842 F900.000
G1 X142.086 Y104.061 E2.37761
G1 X142.252 Y103.749 E2.38680
G1 X142.476 Y103.476 E2.39599
G1 X142.749 Y103.252 E2.40519
G1 X143.061 Y103.086 E2.41437
G1 X143.399 Y102.983 E2.42357
G1 X143.713 Y102.952 E2.43180 F900.000
G1 X144.099 Y102.983 E2.44187
G1 X144.439 Y103.086 E2.45112
G1 X144.751 Y103.252 E2.46031
G1 X145.024 Y103.476 E2.46951
G1 X145.248 Y103.749 E2.47870
G1 X145.414 Y104.061 E2.48789
G1 X145.517 Y104.399 E2.49708
G1 X145.551 Y104.750 E2.50627
G1 X145.517 Y105.101 E2.51546
G1 X145.414 Y105.439 E2.52465
G1 X145.248 Y105.751 E2.53384
G1 X145.024 Y106.024 E2.54303
G1 X144.751 Y106.248 E2.55222
G1 X144.439 Y106.414 E2.56141
G1 X144.101 Y106.517 E2.57060
G1 X143.750 Y106.551 E2.57979
G1 X143.399 Y106.517 E2.58899
G1 X143.061 Y106.414 E2.59818
G1 X142.749 Y106.248 E2.60737
G1 X142.476 Y106.024 E2.61656
G1 X142.252 Y105.751 E2.62575
G1 X142.086 Y105.439 E2.63494
G1 X141.983 Y105.101 E2.64413
G1 X141.960 Y104.860 E2.65045
G1 X141.621 Y104.584 F12000.000
G1 X141.789 Y101.748 F12000.000
G1 X142.556 Y100.901 E2.68019 F900.000
G1 X143.676 Y99.391 E2.72912
G1 X144.642 Y97.779 E2.77804
G1 X145.446 Y96.080 E2.82697
G1 X146.079 Y94.310 E2.87590
G1 X146.536 Y92.487 E2.92482
G1 X146.812 Y90.627 E2.97375
G1 X146.860 Y89.641 E2.99947
G1 X147.097 Y89.646 E3.00561
