; generated by Slic3r 1.2.9 on 2015-12-20 at 12:20:44

; external perimeters extrusion width = 0.50mm
; perimeters extrusion width = 0.50mm
; infill extrusion width = 0.50mm
; solid infill extrusion width = 0.50mm
; top infill extrusion width = 0.50mm

M104 S190 ; set temperature
G28 ; home all axes
G1 Z15 F120 ; lift nozzle
M109 S190 ; wait for temperature to be reached
G21 ; set units to millimeters
G90 ; use absolute coordinates
M82 ; use absolute distances for extrusion
G92 E0
M106 S102
G1 E-2.00000 F1680.00000
G92 E0
G1 Z0.200 F12000.000
G1 X44.545 Y44.311 F12000.000
G1 E2.00000 F1680.00000
G1 X46.208 Y42.639 E2.06639 F1200.000
G1 X46.697 Y42.194 E2.08502
G1 X50.420 Y39.131 E2.22072
G1 X50.923 Y38.755 E2.23842
G1 X54.917 Y36.057 E2.37409
G1 X55.456 Y35.730 E2.39184
G1 X59.682 Y33.425 E2.52737
G1 X60.252 Y33.149 E2.54518
G1 X64.673 Y31.258 E2.68056
G1 X65.268 Y31.036 E2.69842
G1 X69.847 Y29.576 E2.83374
G1 X70.460 Y29.412 E2.85162
G1 X75.164 Y28.393 E2.98710
G1 X75.748 Y28.294 E3.00378
G1 X79.913 Y27.773 E3.12194
G1 X80.462 Y27.728 E3.13746
G1 X84.725 Y27.551 E3.25756
G1 X85.344 Y27.554 E3.27500
G1 X90.664 Y27.830 E3.42497 F1200.000
G1 X91.350 Y27.901 E3.44437
G1 X96.512 Y28.710 E3.59147
G1 X97.189 Y28.852 E3.61095
G1 X102.292 Y30.207 E3.75958
G1 X102.956 Y30.421 E3.77921
G1 X107.893 Y32.303 E3.92797
G1 X108.531 Y32.585 E3.94759
G1 X113.258 Y34.981 E4.09679
G1 X113.862 Y35.327 E4.11638
G1 X118.329 Y38.214 E4.26613
G1 X118.893 Y38.622 E4.28570
G1 X123.049 Y41.970 E4.43597
G1 X123.567 Y42.434 E4.45555
G1 X127.361 Y46.208 E4.60618
G1 X127.806 Y46.697 E4.62481
G1 X130.869 Y50.420 E4.76051
G1 X131.245 Y50.923 E4.77821
G1 X133.942 Y54.917 E4.91388
G1 X134.270 Y55.456 E4.93163
G1 X136.575 Y59.682 E5.06716
G1 X136.851 Y60.252 E5.08497
G1 X138.742 Y64.673 E5.22035
G1 X138.963 Y65.267 E5.23820
G1 X140.424 Y69.847 E5.37353
G1 X140.588 Y70.460 E5.39141
G1 X141.607 Y75.164 E5.52689
G1 X141.706 Y75.748 E5.54357
G1 X142.227 Y79.913 E5.66173
G1 X142.272 Y80.462 E5.67725
G1 X142.449 Y84.725 E5.79734
G1 X142.446 Y85.345 E5.81480
G1 X142.170 Y90.668 E5.96485
G1 X142.098 Y91.353 E5.98426
G1 X141.289 Y96.519 E6.13145
G1 X141.146 Y97.196 E6.15094
G1 X139.790 Y102.302 E6.29966
G1 X139.576 Y102.966 E6.31930
G1 X137.691 Y107.906 E6.46815
G1 X137.409 Y108.544 E6.48778
G1 X135.011 Y113.273 E6.63707
G1 X134.664 Y113.877 E6.65667
G1 X131.774 Y118.346 E6.80651
G1 X131.366 Y118.910 E6.82609
G1 X128.013 Y123.068 E6.97645
G1 X127.549 Y123.586 E6.99604
G1 X123.771 Y127.380 E7.14676
G1 X123.281 Y127.825 E7.16540
G1 X119.555 Y130.888 E7.30119
G1 X119.051 Y131.264 E7.31889
G1 X115.054 Y133.961 E7.45464
G1 X114.514 Y134.288 E7.47240
G1 X110.284 Y136.592 E7.60801
G1 X109.714 Y136.868 E7.62584
G1 X105.289 Y138.757 E7.76129
G1 X104.694 Y138.978 E7.77916
G1 X100.110 Y140.436 E7.91457
G1 X99.496 Y140.599 E7.93245
G1 X94.789 Y141.615 E8.06802
G1 X94.216 Y141.713 E8.08439
G1 X90.219 Y142.215 E8.19779
G1 X89.693 Y142.260 E8.21267
G1 X85.332 Y142.454 E8.33554
G1 X84.656 Y142.446 E8.35459
G1 X79.336 Y142.170 E8.50456
G1 X78.650 Y142.099 E8.52396
G1 X73.488 Y141.290 E8.67106
G1 X72.811 Y141.148 E8.69054
G1 X67.708 Y139.793 E8.83917
G1 X67.044 Y139.579 E8.85880
G1 X62.107 Y137.697 E9.00756
G1 X61.469 Y137.415 E9.02718
G1 X56.742 Y135.019 E9.17638
G1 X56.138 Y134.673 E9.19597
G1 X51.671 Y131.786 E9.34572
G1 X51.107 Y131.378 E9.36529
G1 X46.951 Y128.030 E9.51556
G1 X46.433 Y127.566 E9.53514
G1 X42.639 Y123.792 E9.68577
G1 X42.194 Y123.303 E9.70440
G1 X39.131 Y119.580 E9.84010
G1 X38.755 Y119.077 E9.85780
G1 X36.057 Y115.083 E9.99347
G1 X35.730 Y114.544 E10.01122
G1 X33.425 Y110.318 E10.14675
G1 X33.149 Y109.748 E10.16456
G1 X31.258 Y105.327 E10.29994
G1 X31.036 Y104.733 E10.31780
G1 X29.576 Y100.153 E10.45312
G1 X29.412 Y99.540 E10.47100
G1 X28.393 Y94.836 E10.60648
G1 X28.294 Y94.252 E10.62316
G1 X27.773 Y90.087 E10.74132
G1 X27.728 Y89.538 E10.75684
G1 X27.551 Y85.275 E10.87693
G1 X27.554 Y84.656 E10.89438
G1 X27.830 Y79.336 E11.04435
G1 X27.901 Y78.650 E11.06375
G1 X28.710 Y73.488 E11.21085
G1 X28.852 Y72.811 E11.23033
G1 X30.207 Y67.708 E11.37896
G1 X30.421 Y67.044 E11.39859
G1 X32.303 Y62.106 E11.54736
G1 X32.585 Y61.469 E11.56697
G1 X34.981 Y56.742 E11.71617
G1 X35.327 Y56.138 E11.73576
G1 X38.214 Y51.671 E11.88551
G1 X38.622 Y51.107 E11.90508
G1 X41.970 Y46.951 E12.05535
G1 X42.434 Y46.433 E12.07493
G1 X44.492 Y44.364 E12.15706
G1 E10.15706 F1680.00000
G92 E0
G1 X83.361 Y126.612 F12000.000
G1 E2.00000 F1680.00000
G1 X83.993 Y126.314 E2.01310 F900.000
G1 X84.768 Y126.136 E2.02801
G1 X85.546 Y126.129 E2.04258 F900.000
G1 X86.325 Y126.288 E2.05748
G1 X86.751 Y126.455 E2.06606
G1 X87.147 Y126.668 E2.07448
G1 X87.655 Y127.049 E2.08638
G1 X87.968 Y127.365 E2.09472
G1 X88.256 Y127.735 E2.10349
G1 X88.600 Y128.368 E2.11700
G1 X88.816 Y129.070 E2.13075
G1 X88.889 Y129.802 E2.14454
G1 X88.808 Y130.571 E2.15904
G1 X88.567 Y131.309 E2.17357
G1 X88.177 Y131.980 E2.18813
G1 X87.641 Y132.567 E2.20302
G1 X86.989 Y133.027 E2.21797
G1 X86.239 Y133.338 E2.23317
G1 X85.474 Y133.479 E2.24775
G1 X84.679 Y133.453 E2.26266
G1 X83.908 Y133.256 E2.27757
G1 X83.198 Y132.899 E2.29245
G1 X82.605 Y132.422 E2.30673
G1 X82.113 Y131.823 E2.32125
G1 X81.662 Y130.859 E2.34119
G1 X81.507 Y129.791 E2.36141
G1 X81.667 Y128.724 E2.38163
G1 X82.124 Y127.760 E2.40160
G1 X82.643 Y127.140 E2.41676
G1 X83.293 Y126.644 E2.43208
G1 X83.502 Y127.027 F12000.000
G1 X84.136 Y126.728 E2.44522 F900.000
G1 X84.820 Y126.571 E2.45836
G1 X85.504 Y126.565 E2.47118 F900.000
G1 X86.201 Y126.707 E2.48451
G1 X86.567 Y126.851 E2.49189
G1 X86.912 Y127.037 E2.49922
G1 X87.368 Y127.378 E2.50991
G1 X87.640 Y127.653 E2.51715
G1 X87.890 Y127.974 E2.52477
G1 X88.196 Y128.538 E2.53680
G1 X88.387 Y129.156 E2.54892
G1 X88.451 Y129.801 E2.56105
G1 X88.380 Y130.480 E2.57385
G1 X88.167 Y131.130 E2.58666
G1 X87.823 Y131.721 E2.59947
G1 X87.351 Y132.239 E2.61261
G1 X86.777 Y132.643 E2.62576
G1 X86.115 Y132.918 E2.63920
G1 X85.442 Y133.042 E2.65202
G1 X84.741 Y133.019 E2.66516
G1 X84.061 Y132.845 E2.67830
G1 X83.435 Y132.531 E2.69143
G1 X82.913 Y132.111 E2.70400
G1 X82.484 Y131.589 E2.71665
G1 X82.084 Y130.733 E2.73436
G1 X81.947 Y129.792 E2.75217
G1 X82.089 Y128.852 E2.76998
G1 X82.493 Y127.997 E2.78770
G1 X82.947 Y127.456 E2.80093
G1 X83.442 Y127.073 E2.81266
G1 X83.507 Y126.527 F12000.000
G1 E0.81266 F1680.00000
G92 E0
G1 X89.989 Y127.271 F12000.000
G1 E2.00000 F1680.00000
G1 X94.783 Y126.344 E2.09149 F900.000
G1 X93.949 Y123.060 E2.15498
G1 X98.663 Y121.588 E2.24752
G1 X102.518 Y119.905 E2.32634
G1 X106.151 Y117.828 E2.40474
G1 X109.542 Y115.373 E2.48318
G1 X113.482 Y111.780 E2.58310
G1 X115.913 Y114.147 E2.64668
G1 X117.045 Y112.917 E2.67800
G1 X118.540 Y111.098 E2.72211
G1 X120.692 Y108.062 E2.79184
G1 X121.132 Y107.443 E2.80607 F900.000
G1 X125.163 Y110.105 E2.89659
G1 X123.216 Y112.931 E2.96089
G1 X121.525 Y115.106 E3.01250
G1 X118.372 Y118.565 E3.10021
G1 X114.492 Y122.021 E3.19757
G1 X110.271 Y125.026 E3.29466
G1 X105.764 Y127.544 E3.39139
G1 X101.024 Y129.548 E3.48781
G1 X96.167 Y131.005 E3.58282
G1 X90.141 Y132.119 E3.69764
G1 X90.443 Y130.666 E3.72544
G1 X90.496 Y130.235 E3.73359
G1 X90.514 Y129.805 E3.74164
G1 X90.479 Y129.200 E3.75301
G1 X90.378 Y128.607 E3.76427
G1 X90.010 Y127.343 E3.78894
G1 X90.541 Y127.608 F12000.000
G1 X95.319 Y126.685 E3.88013 F720.000
G1 X94.473 Y123.353 E3.94454
G1 X98.816 Y121.997 E4.02979
G1 X102.714 Y120.295 E4.10949
G1 X106.387 Y118.195 E4.18877
G1 X109.817 Y115.712 E4.26811
G1 X113.473 Y112.378 E4.36081
G1 X115.930 Y114.772 E4.42508
G1 X117.374 Y113.203 E4.46502
G1 X118.887 Y111.363 E4.50966
G1 X121.048 Y108.314 E4.57968
G1 X121.243 Y108.039 E4.58601 F720.000
G1 X124.552 Y110.224 E4.66031
G1 X122.865 Y112.674 E4.71605
G1 X121.192 Y114.825 E4.76710
G1 X118.065 Y118.255 E4.85408
G1 X114.220 Y121.680 E4.95056
G1 X110.037 Y124.658 E5.04676
G1 X105.572 Y127.152 E5.14260
G1 X100.876 Y129.138 E5.23812
G1 X96.065 Y130.581 E5.33225
G1 X90.699 Y131.573 E5.43448
G1 X90.873 Y130.737 E5.45047
G1 X90.931 Y130.270 E5.45929
G1 X90.950 Y129.802 E5.46807
G1 X90.913 Y129.151 E5.48029
G1 X90.803 Y128.509 E5.49248
G1 X90.562 Y127.680 E5.50867
G1 X90.431 Y127.120 F12000.000
G1 E3.50867 F1680.00000
G92 E0
G1 X122.490 Y105.077 F12000.000
G1 E2.00000 F1680.00000
G1 X123.813 Y102.331 E2.05713 F900.000
G1 X124.717 Y100.156 E2.10125
G1 X125.701 Y97.193 E2.15975
G1 X122.434 Y96.270 E2.22335
G1 X123.393 Y92.172 E2.30221
G1 X123.887 Y88.633 E2.36916
G1 X124.055 Y85.000 E2.43731
G1 X123.887 Y81.363 E2.50553
G1 X123.393 Y77.821 E2.57254
G1 X122.434 Y73.719 E2.65147
G1 X125.712 Y72.793 E2.71529
G1 X125.206 Y71.178 E2.74701
G1 X124.373 Y68.971 E2.79120
G1 X122.500 Y64.918 E2.87486
G1 X123.177 Y64.584 E2.88902
G1 X126.837 Y62.779 E2.96548 F900.000
G1 X128.613 Y66.573 E3.04397
G1 X129.871 Y69.885 E3.11035
G1 X131.241 Y74.825 E3.20640
G1 X132.060 Y79.833 E3.30148
G1 X132.339 Y84.997 E3.39838
G1 X132.155 Y89.206 E3.47733
G1 X131.611 Y93.312 E3.55494
G1 X130.565 Y97.872 E3.64260
G1 X129.055 Y102.347 E3.73109
G1 X126.845 Y107.224 E3.83142
G1 X122.557 Y105.110 E3.92100
G1 X123.070 Y104.877 F12000.000
G1 X124.211 Y102.509 E3.97026 F720.000
G1 X125.125 Y100.309 E4.01491
G1 X126.258 Y96.898 E4.08225
G1 X122.953 Y95.964 E4.14659
G1 X123.821 Y92.252 E4.21803
G1 X124.321 Y88.673 E4.28572
G1 X124.491 Y85.000 E4.35463
G1 X124.321 Y81.323 E4.42360
G1 X123.822 Y77.741 E4.49136
G1 X122.953 Y74.025 E4.56287
G1 X126.262 Y73.090 E4.62728
G1 X125.618 Y71.036 E4.66764
G1 X124.775 Y68.802 E4.71236
G1 X123.073 Y65.121 E4.78835
G1 X123.370 Y64.975 E4.79455
G1 X126.631 Y63.367 E4.86268 F720.000
G1 X128.212 Y66.743 E4.93253
G1 X129.456 Y70.021 E4.99823
G1 X130.815 Y74.918 E5.09346
G1 X131.627 Y79.880 E5.18766
G1 X131.903 Y84.999 E5.28371
G1 X131.720 Y89.168 E5.36190
G1 X131.181 Y93.235 E5.43877
G1 X130.145 Y97.754 E5.52564
G1 X128.649 Y102.187 E5.61332
G1 X126.634 Y106.635 E5.70481
G1 X123.137 Y104.911 E5.77786
G1 X122.620 Y104.659 F12000.000
G1 X113.481 Y99.552 F12000.000
G1 X112.388 Y101.522 E5.82008 F900.000
G1 X109.892 Y105.168 E5.90288
G1 X97.188 Y95.641 E6.20041
G1 X95.525 Y97.353 E6.24515
G1 X93.019 Y99.112 E6.30252
G1 X90.306 Y100.342 E6.35832
G1 X88.010 Y100.900 E6.40259
G1 X89.911 Y116.715 E6.70105
G1 X87.215 Y116.982 E6.75183
G1 X84.999 Y117.047 E6.79336
G1 X82.782 Y116.974 E6.83492
G1 X80.089 Y116.689 E6.88566
G1 X81.987 Y100.925 E7.18316
G1 X80.925 Y100.711 E7.20346
G1 X79.265 Y100.185 E7.23608
G1 X76.764 Y98.986 E7.28805
G1 X74.495 Y97.369 E7.34025
G1 X72.812 Y95.640 E7.38547
G1 X60.085 Y105.172 E7.68340
G1 X58.379 Y102.766 E7.73867
G1 X57.102 Y100.639 E7.78514
G1 X55.195 Y96.660 E7.86783
G1 X69.726 Y90.452 E8.16391
G1 X69.391 Y89.483 E8.18313
G1 X69.002 Y87.795 E8.21559
G1 X68.762 Y85.012 E8.26793
G1 X68.851 Y83.300 E8.30004
G1 X69.111 Y81.640 E8.33153
G1 X69.665 Y79.774 E8.36799
G1 X55.173 Y73.571 E8.66337
G1 X56.406 Y70.889 E8.71868
G1 X57.612 Y68.716 E8.76525
G1 X60.108 Y65.069 E8.84805
G1 X72.665 Y74.489 E9.14218
G1 X73.284 Y73.775 E9.15989
G1 X74.471 Y72.653 E9.19048
G1 X76.962 Y70.897 E9.24760
G1 X79.668 Y69.664 E9.30331
G1 X81.958 Y69.101 E9.34750
G1 X80.088 Y53.518 E9.64158
G1 X83.087 Y53.241 E9.69800
G1 X85.509 Y53.195 E9.74339 F900.000
G1 X89.913 Y53.527 E9.82615
G1 X88.045 Y69.078 E10.11962
G1 X89.189 Y69.314 E10.14150
G1 X90.920 Y69.882 E10.17564
G1 X93.409 Y71.112 E10.22766
G1 X95.656 Y72.754 E10.27981
G1 X97.313 Y74.496 E10.32485
G1 X109.915 Y65.066 E10.61978
G1 X111.621 Y67.472 E10.67503
G1 X112.898 Y69.598 E10.72151
G1 X114.805 Y73.578 E10.80420
G1 X100.352 Y79.756 E11.09871
G1 X100.658 Y80.680 E11.11693
G1 X101.017 Y82.309 E11.14820
G1 X101.238 Y84.990 E11.19861
G1 X101.142 Y86.767 E11.23194
G1 X100.859 Y88.489 E11.26464
G1 X100.255 Y90.434 E11.30279
G1 X114.827 Y96.666 E11.59975
G1 X113.518 Y99.487 E11.65801
G1 X113.137 Y99.275 F12000.000
G1 X112.017 Y101.293 E11.70125 F720.000
G1 X109.789 Y104.547 E11.77514
G1 X97.143 Y95.062 E12.07134
G1 X95.241 Y97.020 E12.12249
G1 X92.802 Y98.732 E12.17833
G1 X90.163 Y99.928 E12.23260
G1 X87.532 Y100.569 E12.28335
G1 X89.426 Y116.326 E12.58072
G1 X87.187 Y116.547 E12.62288
G1 X85.000 Y116.611 E12.66388
G1 X82.812 Y116.539 E12.70489
G1 X80.575 Y116.302 E12.74704
G1 X82.467 Y100.578 E13.04381
G1 X81.034 Y100.289 E13.07120
G1 X79.426 Y99.779 E13.10281
G1 X76.986 Y98.609 E13.15351
G1 X74.780 Y97.037 E13.20427
G1 X72.857 Y95.062 E13.25592
G1 X60.182 Y104.555 E13.55265
G1 X58.744 Y102.527 E13.59922
G1 X57.486 Y100.433 E13.64500
G1 X55.784 Y96.881 E13.71879
G1 X70.271 Y90.693 E14.01395
G1 X69.811 Y89.362 E14.04033
G1 X69.434 Y87.727 E14.07178
G1 X69.198 Y85.004 E14.12298
G1 X69.285 Y83.345 E14.15411
G1 X69.537 Y81.736 E14.18463
G1 X70.193 Y79.527 E14.22782
G1 X55.756 Y73.347 E14.52208
G1 X56.795 Y71.086 E14.56870
G1 X57.983 Y68.945 E14.61458
G1 X60.211 Y65.691 E14.68848
G1 X72.728 Y75.081 E14.98169
G1 X73.599 Y74.077 E15.00660
G1 X74.747 Y72.991 E15.03620
G1 X77.180 Y71.276 E15.09197
G1 X79.811 Y70.077 E15.14615
G1 X82.436 Y69.432 E15.19680
G1 X80.574 Y53.910 E15.48972
G1 X83.111 Y53.676 E15.53746
G1 X85.496 Y53.631 E15.58215 F720.000
G1 X89.426 Y53.928 E15.65600
G1 X87.565 Y69.423 E15.94844
G1 X89.077 Y69.736 E15.97736
G1 X90.755 Y70.286 E16.01046
G1 X93.182 Y71.486 E16.06119
G1 X95.368 Y73.083 E16.11190
G1 X97.264 Y75.077 E16.16346
G1 X109.818 Y65.683 E16.45727
G1 X111.256 Y67.710 E16.50384
G1 X112.514 Y69.805 E16.54962
G1 X114.216 Y73.356 E16.62341
G1 X99.813 Y79.513 E16.91690
G1 X100.237 Y80.795 E16.94221
G1 X100.585 Y82.374 E16.97250
G1 X100.802 Y84.996 E17.02180
G1 X100.708 Y86.720 E17.05413
G1 X100.434 Y88.389 E17.08583
G1 X99.723 Y90.680 E17.13077
G1 X114.244 Y96.891 E17.42671
G1 X113.173 Y99.210 E17.47457
G1 X113.404 Y99.698 F12000.000
G1 E15.47457 F1680.00000
G92 E0
G1 X121.134 Y62.564 F12000.000
G1 E2.00000 F1680.00000
G1 X119.404 Y60.039 E2.05735 F900.000
G1 X117.965 Y58.172 E2.10152
G1 X115.905 Y55.861 E2.15953
G1 X113.478 Y58.225 E2.22301
G1 X110.151 Y55.129 E2.30815
G1 X107.081 Y52.791 E2.38046
G1 X103.124 Y50.407 E2.46702
G1 X98.985 Y48.534 E2.55216
G1 X93.950 Y46.937 E2.65113
G1 X94.788 Y43.635 E2.71496
G1 X93.181 Y43.276 E2.74582
G1 X90.866 Y42.892 E2.78979
G1 X86.369 Y42.478 E2.87440
G1 X86.416 Y41.728 E2.88849
G1 X86.671 Y37.671 E2.96466 F900.000
G1 X90.570 Y37.994 E3.03798
G1 X93.737 Y38.475 E3.09800
G1 X98.285 Y39.560 E3.18561
G1 X102.703 Y41.093 E3.27323
G1 X106.949 Y43.057 E3.36090
G1 X110.984 Y45.434 E3.44864
G1 X114.767 Y48.199 E3.53644
G1 X118.259 Y51.324 E3.62423
G1 X121.733 Y55.147 E3.72102
G1 X125.177 Y59.884 E3.83077
G1 X121.197 Y62.522 E3.92025
G1 X121.251 Y61.964 F12000.000
G1 X119.756 Y59.783 E3.96979 F720.000
G1 X118.301 Y57.894 E4.01448
G1 X115.927 Y55.231 E4.08131
G1 X113.471 Y57.623 E4.14555
G1 X110.432 Y54.796 E4.22332
G1 X107.326 Y52.430 E4.29648
G1 X103.327 Y50.020 E4.38396
G1 X99.141 Y48.127 E4.47006
G1 X94.473 Y46.646 E4.56181
G1 X95.321 Y43.308 E4.62634
G1 X93.264 Y42.848 E4.66583
G1 X90.921 Y42.460 E4.71032
G1 X86.830 Y42.083 E4.78730
G1 X86.851 Y41.755 E4.79347
G1 X87.078 Y38.141 E4.86131 F720.000
G1 X90.519 Y38.427 E4.92602
G1 X93.654 Y38.903 E4.98542
G1 X98.163 Y39.979 E5.07228
G1 X102.540 Y41.497 E5.15909
G1 X106.747 Y43.443 E5.24595
G1 X110.745 Y45.799 E5.33288
G1 X114.492 Y48.538 E5.41987
G1 X117.952 Y51.633 E5.50685
G1 X121.394 Y55.422 E5.60277
G1 X124.557 Y59.772 E5.70354
G1 X121.314 Y61.922 E5.77646
G1 X120.837 Y62.244 F12000.000
G1 X83.632 Y42.490 F12000.000
G1 X80.552 Y42.722 E5.83432 F900.000
G1 X78.212 Y43.029 E5.87855
G1 X75.215 Y43.647 E5.93589
G1 X76.055 Y46.955 E5.99985
G1 X73.119 Y47.795 E6.05705
G1 X70.911 Y48.575 E6.10095
G1 X67.092 Y50.297 E6.17944
G1 X63.483 Y52.417 E6.25787
G1 X60.114 Y54.917 E6.33648
G1 X56.530 Y58.224 E6.42784
G1 X54.096 Y55.843 E6.49163
G1 X52.962 Y57.075 E6.52301
G1 X51.464 Y58.896 E6.56719
G1 X48.868 Y62.557 E6.65128
G1 X44.827 Y59.888 E6.74203
G1 X47.785 Y55.750 E6.83734
G1 X50.664 Y52.421 E6.91980
G1 X54.441 Y48.855 E7.01714
G1 X58.575 Y45.727 E7.11426
G1 X63.009 Y43.079 E7.21103
G1 X67.688 Y40.936 E7.30747
G1 X72.563 Y39.321 E7.40370
G1 X77.522 Y38.257 E7.49872
