; generated by Slic3r 1.2.9 on 2015-11-23 at 20:17:18

; external perimeters extrusion width = 0.50mm
; perimeters extrusion width = 0.50mm
; infill extrusion width = 0.50mm
; solid infill extrusion width = 0.50mm
; top infill extrusion width = 0.50mm

M104 S190 ; set temperature
G28 ; home all axes
G1 Z15 F120 ; lift nozzle
M109 S190 ; wait for temperature to be reached
G21 ; set units to millimeters
G90 ; use absolute coordinates
M82 ; use absolute distances for extrusion
G92 E0
M106 S102
G1 E-2.00000 F1680.00000
G92 E0
G1 Z0.260 F12000.000
G1 X48.610 Y48.355 F12000.000
G1 E2.00000 F1680.00000
G1 X49.068 Y47.895 E2.01828 F1200.000
G1 X49.550 Y47.457 E2.03661
G1 X50.790 Y46.436 E2.08184
G1 X51.286 Y46.066 E2.09925
G1 X52.617 Y45.167 E2.14447
G1 X53.147 Y44.844 E2.16193
G1 X54.556 Y44.076 E2.20711
G1 X55.116 Y43.804 E2.22463
G1 X56.589 Y43.174 E2.26976
G1 X57.174 Y42.956 E2.28732
G1 X58.701 Y42.469 E2.33243
G1 X59.304 Y42.308 E2.35001
G1 X60.872 Y41.969 E2.39517
G1 X61.446 Y41.871 E2.41157
G1 X62.835 Y41.697 E2.45096
G1 X63.375 Y41.652 E2.46623
G1 X65.067 Y41.588 E2.51388
G1 X105.272 Y41.597 E3.64574
G1 X107.045 Y41.689 E3.69573 F1200.000
G1 X107.720 Y41.759 E3.71481
G1 X109.440 Y42.028 E3.76385
G1 X110.106 Y42.168 E3.78301
G1 X111.807 Y42.620 E3.83255
G1 X112.460 Y42.830 E3.85186
G1 X114.106 Y43.458 E3.90145
G1 X114.733 Y43.735 E3.92075
G1 X116.309 Y44.534 E3.97048
G1 X116.902 Y44.875 E3.98975
G1 X118.392 Y45.837 E4.03967
G1 X118.946 Y46.238 E4.05892
G1 X120.331 Y47.354 E4.10901
G1 X120.841 Y47.810 E4.12827
G1 X122.105 Y49.068 E4.17848
G1 X122.543 Y49.550 E4.19680
G1 X123.564 Y50.790 E4.24204
G1 X123.934 Y51.286 E4.25944
G1 X124.833 Y52.617 E4.30467
G1 X125.156 Y53.147 E4.32213
G1 X125.924 Y54.556 E4.36730
G1 X126.196 Y55.116 E4.38483
G1 X126.826 Y56.589 E4.42995
G1 X127.044 Y57.174 E4.44752
G1 X127.531 Y58.701 E4.49262
G1 X127.692 Y59.304 E4.51021
G1 X128.031 Y60.872 E4.55537
G1 X128.129 Y61.446 E4.57177
G1 X128.303 Y62.835 E4.61116
G1 X128.348 Y63.375 E4.62642
G1 X128.406 Y64.796 E4.66645
G1 X128.403 Y105.272 E5.80594
G1 X128.311 Y107.047 E5.85596
G1 X128.241 Y107.721 E5.87505
G1 X127.971 Y109.443 E5.92412
G1 X127.831 Y110.109 E5.94329
G1 X127.379 Y111.811 E5.99286
G1 X127.168 Y112.464 E6.01218
G1 X126.540 Y114.111 E6.06180
G1 X126.262 Y114.738 E6.08111
G1 X125.463 Y116.315 E6.13087
G1 X125.122 Y116.909 E6.15015
G1 X124.158 Y118.398 E6.20010
G1 X123.757 Y118.953 E6.21936
G1 X122.640 Y120.339 E6.26948
G1 X122.183 Y120.848 E6.28875
G1 X120.924 Y122.113 E6.33899
G1 X120.442 Y122.551 E6.35733
G1 X119.200 Y123.572 E6.40259
G1 X118.704 Y123.942 E6.42001
G1 X117.371 Y124.841 E6.46526
G1 X116.841 Y125.163 E6.48273
G1 X115.431 Y125.931 E6.52793
G1 X114.870 Y126.202 E6.54546
G1 X113.395 Y126.832 E6.59062
G1 X112.810 Y127.050 E6.60819
G1 X111.282 Y127.536 E6.65333
G1 X110.678 Y127.696 E6.67092
G1 X109.109 Y128.035 E6.71611
G1 X108.545 Y128.131 E6.73221
G1 X107.213 Y128.299 E6.77000
G1 X106.695 Y128.343 E6.78465
G1 X104.993 Y128.412 E6.83261
G1 X65.067 Y128.412 E7.95660
G1 X62.955 Y128.311 E8.01612
G1 X62.280 Y128.241 E8.03520
G1 X60.560 Y127.972 E8.08424
G1 X59.894 Y127.832 E8.10340
G1 X58.193 Y127.380 E8.15295
G1 X57.540 Y127.170 E8.17225
G1 X55.894 Y126.542 E8.22184
G1 X55.267 Y126.265 E8.24114
G1 X53.691 Y125.466 E8.29087
G1 X53.098 Y125.125 E8.31014
G1 X51.608 Y124.163 E8.36006
G1 X51.054 Y123.762 E8.37931
G1 X49.669 Y122.646 E8.42940
G1 X49.159 Y122.190 E8.44866
G1 X47.895 Y120.932 E8.49887
G1 X47.457 Y120.450 E8.51719
G1 X46.436 Y119.210 E8.56243
G1 X46.066 Y118.714 E8.57984
G1 X45.167 Y117.383 E8.62506
G1 X44.844 Y116.853 E8.64252
G1 X44.076 Y115.444 E8.68770
G1 X43.804 Y114.884 E8.70522
G1 X43.174 Y113.411 E8.75034
G1 X42.956 Y112.826 E8.76791
G1 X42.469 Y111.299 E8.81302
G1 X42.308 Y110.696 E8.83060
G1 X41.969 Y109.128 E8.87576
G1 X41.871 Y108.554 E8.89216
G1 X41.697 Y107.165 E8.93155
G1 X41.652 Y106.625 E8.94682
G1 X41.588 Y104.933 E8.99447
G1 X41.597 Y64.728 E10.12633
G1 X41.689 Y62.955 E10.17632
G1 X41.759 Y62.280 E10.19540
G1 X42.028 Y60.560 E10.24443
G1 X42.168 Y59.894 E10.26360
G1 X42.620 Y58.193 E10.31314
G1 X42.830 Y57.540 E10.33245
G1 X43.458 Y55.894 E10.38204
G1 X43.735 Y55.267 E10.40134
G1 X44.534 Y53.691 E10.45107
G1 X44.875 Y53.098 E10.47034
G1 X45.837 Y51.608 E10.52026
G1 X46.238 Y51.054 E10.53951
G1 X47.354 Y49.669 E10.58960
G1 X47.810 Y49.159 E10.60886
G1 X48.557 Y48.408 E10.63867
G1 E8.63867 F1680.00000
G92 E0
G1 X106.142 Y80.512 F12000.000
G1 E2.00000 F1680.00000
G1 X106.010 Y80.739 E2.00575 F900.000
G1 X105.828 Y80.939 E2.01163
G1 X105.605 Y81.096 E2.01757
G1 X105.337 Y81.203 E2.02387
G1 X105.093 Y81.248 E2.02929
G1 X104.823 Y81.239 E2.03518
G1 X104.562 Y81.172 E2.04107
G1 X104.321 Y81.051 E2.04695
G1 X104.120 Y80.889 E2.05259
G1 X103.953 Y80.686 E2.05833
G1 X103.800 Y80.359 E2.06620
G1 X103.747 Y79.997 E2.07419
G1 X103.802 Y79.635 E2.08218
G1 X103.956 Y79.308 E2.09006
G1 X104.133 Y79.098 E2.09605
G1 X104.346 Y78.933 E2.10194
G1 X104.590 Y78.817 E2.10783
G1 X104.854 Y78.757 E2.11372
G1 X105.102 Y78.755 E2.11914 F900.000
G1 X105.387 Y78.809 E2.12548
G1 X105.654 Y78.933 E2.13191
G1 X105.839 Y79.071 E2.13693
G1 X106.033 Y79.293 E2.14337
G1 X106.153 Y79.514 E2.14886
G1 X106.226 Y79.752 E2.15429
G1 X106.251 Y80.001 E2.15974
G1 X106.224 Y80.262 E2.16546
G1 X106.165 Y80.440 E2.16957
G1 X106.622 Y80.799 F12000.000
G1 X106.727 Y80.277 E2.18120 F900.000
G1 X106.749 Y79.997 E2.18732
G1 X106.705 Y79.607 E2.19588
G1 X106.569 Y79.140 E2.20649
G1 X108.168 Y78.831 E2.24202
G1 X107.891 Y77.739 E2.26662
G1 X109.480 Y77.242 E2.30295
G1 X110.763 Y76.682 E2.33350
G1 X111.972 Y75.991 E2.36389
G1 X113.100 Y75.174 E2.39428
G1 X114.428 Y73.964 E2.43348
G1 X115.237 Y74.752 E2.45812
G1 X115.599 Y74.358 E2.46978
G1 X116.096 Y73.753 E2.48688
G1 X116.972 Y72.518 E2.51991
G1 X118.351 Y73.429 E2.55597
G1 X117.689 Y74.390 E2.58142
G1 X117.125 Y75.116 E2.60149
G1 X116.072 Y76.270 E2.63558
G1 X114.777 Y77.424 E2.67342
G1 X113.368 Y78.427 E2.71116
G1 X111.864 Y79.267 E2.74876
G1 X110.282 Y79.936 E2.78624
G1 X108.661 Y80.423 E2.82317
G1 X106.696 Y80.786 E2.86677
G1 E0.86677 F1680.00000
G92 E0
G1 X117.401 Y71.769 F12000.000
G1 E2.00000 F1680.00000
G1 X117.851 Y70.835 E2.02263 F900.000
G1 X118.152 Y70.111 E2.03972
G1 X118.473 Y69.146 E2.06193
G1 X117.386 Y68.838 E2.08657
G1 X117.710 Y67.453 E2.11761
G1 X117.874 Y66.276 E2.14355
G1 X117.930 Y65.067 E2.16996
G1 X117.874 Y63.856 E2.19640
G1 X117.710 Y62.678 E2.22237
G1 X117.386 Y61.291 E2.25344
G1 X118.477 Y60.983 E2.27817
G1 X118.315 Y60.466 E2.28999
G1 X118.038 Y59.732 E2.30712
G1 X117.405 Y58.363 E2.34003
G1 X118.889 Y57.631 E2.37614
G1 X119.491 Y58.916 E2.40710
G1 X119.911 Y60.022 E2.43291
G1 X120.368 Y61.670 E2.47024
G1 X120.641 Y63.342 E2.50720
G1 X120.735 Y65.065 E2.54486
G1 X120.673 Y66.471 E2.57555
G1 X120.491 Y67.841 E2.60572
G1 X120.142 Y69.363 E2.63980
G1 X119.638 Y70.857 E2.67419
G1 X118.892 Y72.504 E2.71365
G1 X117.469 Y71.802 E2.74827
G1 X114.904 Y68.944 F12000.000
G1 X114.484 Y69.859 E2.77025 F720.000
G1 X114.081 Y70.585 E2.78836
G1 X113.236 Y71.820 E2.82102
G1 X108.998 Y68.642 E2.93659
G1 X108.456 Y69.201 E2.95359
G1 X107.617 Y69.789 E2.97595
G1 X106.709 Y70.201 E2.99769
G1 X105.960 Y70.383 E3.01451
G1 X106.594 Y75.658 E3.13042
G1 X105.673 Y75.749 E3.15063
G1 X104.933 Y75.771 E3.16678
G1 X104.192 Y75.746 E3.18295
G1 X103.273 Y75.649 E3.20313
G1 X103.905 Y70.392 E3.31866
G1 X103.570 Y70.324 E3.32613
G1 X103.014 Y70.148 E3.33885
G1 X102.177 Y69.747 E3.35910
G1 X101.418 Y69.206 E3.37944
G1 X100.868 Y68.642 E3.39663
G1 X96.624 Y71.821 E3.51235
G1 X96.042 Y71.000 E3.53430
G1 X95.615 Y70.290 E3.55238
G1 X94.969 Y68.942 E3.58499
G1 X99.815 Y66.872 E3.69997
G1 X99.710 Y66.567 E3.70702
G1 X99.580 Y66.002 E3.71968
G1 X99.499 Y65.071 E3.74006
G1 X99.529 Y64.498 E3.75258
G1 X99.616 Y63.942 E3.76486
G1 X99.796 Y63.337 E3.77863
G1 X94.962 Y61.268 E3.89335
G1 X95.383 Y60.353 E3.91532
G1 X95.786 Y59.627 E3.93344
G1 X96.631 Y58.392 E3.96609
G1 X100.819 Y61.534 E4.08032
G1 X101.013 Y61.310 E4.08678
G1 X101.410 Y60.934 E4.09871
G1 X102.243 Y60.347 E4.12096
G1 X103.149 Y59.934 E4.14267
G1 X103.896 Y59.751 E4.15946
G1 X103.272 Y54.551 E4.27373
G1 X104.399 Y54.457 E4.29840
G1 X105.103 Y54.444 E4.31378
G1 X106.595 Y54.556 E4.34642
G1 X105.972 Y59.742 E4.46039
G1 X106.335 Y59.817 E4.46848
G1 X106.915 Y60.007 E4.48180
G1 X107.747 Y60.419 E4.50206
G1 X108.500 Y60.969 E4.52239
G1 X109.040 Y61.537 E4.53950
G1 X113.243 Y58.392 E4.65405
G1 X113.825 Y59.212 E4.67600
G1 X114.251 Y59.923 E4.69407
G1 X114.897 Y61.270 E4.72668
G1 X110.077 Y63.331 E4.84106
G1 X110.173 Y63.621 E4.84773
G1 X110.294 Y64.167 E4.85993
G1 X110.368 Y65.063 E4.87956
G1 X110.335 Y65.658 E4.89255
G1 X110.240 Y66.235 E4.90530
G1 X110.045 Y66.866 E4.91972
G1 X114.835 Y68.915 E5.03342
G1 X116.972 Y57.618 F12000.000
G1 X116.384 Y56.759 E5.05613 F900.000
G1 X115.905 Y56.138 E5.07324
G1 X115.234 Y55.385 E5.09526
G1 X114.426 Y56.171 E5.11985
G1 X113.303 Y55.126 E5.15333
G1 X112.282 Y54.348 E5.18135
G1 X110.965 Y53.555 E5.21489
G1 X109.587 Y52.931 E5.24789
G1 X107.891 Y52.393 E5.28672
G1 X108.170 Y51.295 E5.31146
G1 X107.656 Y51.180 E5.32294
G1 X106.886 Y51.052 E5.33998
G1 X105.367 Y50.912 E5.37326
G1 X105.470 Y49.267 E5.40923
G1 X106.793 Y49.377 E5.43819
G1 X107.850 Y49.537 E5.46152
G1 X109.368 Y49.899 E5.49557
G1 X110.842 Y50.411 E5.52963
G1 X112.260 Y51.067 E5.56371
G1 X113.607 Y51.860 E5.59781
G1 X114.869 Y52.783 E5.63194
G1 X116.035 Y53.826 E5.66607
G1 X117.194 Y55.102 E5.70369
G1 X118.356 Y56.700 E5.74680
G1 X117.035 Y57.576 E5.78140
G1 X104.500 Y50.916 F12000.000
G1 X103.453 Y50.995 E5.80430 F900.000
G1 X102.674 Y51.098 E5.82144
G1 X101.698 Y51.299 E5.84320
G1 X101.978 Y52.400 E5.86798
G1 X100.980 Y52.685 E5.89063
G1 X100.245 Y52.945 E5.90764
G1 X98.974 Y53.518 E5.93806
G1 X97.773 Y54.224 E5.96846
G1 X96.652 Y55.056 E5.99892
G1 X95.443 Y56.171 E6.03480
G1 X94.633 Y55.379 E6.05953
G1 X94.270 Y55.773 E6.07121
G1 X93.772 Y56.378 E6.08833
G1 X92.895 Y57.615 E6.12141
G1 X91.512 Y56.702 E6.15758
G1 X92.511 Y55.303 E6.19508
G1 X93.473 Y54.192 E6.22714
G1 X94.733 Y53.002 E6.26497
G1 X96.113 Y51.958 E6.30272
G1 X97.593 Y51.074 E6.34034
G1 X99.155 Y50.359 E6.37782
G1 X100.782 Y49.820 E6.41523
G1 X102.437 Y49.464 E6.45216
G1 X104.396 Y49.262 E6.49514
G1 X104.495 Y50.841 E6.52967
G1 X92.465 Y58.364 F12000.000
G1 X92.015 Y59.298 E6.55228 F900.000
G1 X91.714 Y60.020 E6.56936
G1 X91.394 Y60.984 E6.59152
G1 X92.481 Y61.291 E6.61617
G1 X92.157 Y62.678 E6.64723
G1 X91.992 Y63.856 E6.67320
G1 X91.936 Y65.067 E6.69964
G1 X91.993 Y66.276 E6.72605
G1 X92.157 Y67.453 E6.75199
G1 X92.481 Y68.838 E6.78303
G1 X91.390 Y69.147 E6.80777
G1 X91.552 Y69.665 E6.81961
G1 X91.829 Y70.400 E6.83676
G1 X92.462 Y71.771 E6.86970
G1 X90.978 Y72.502 E6.90581
G1 X90.376 Y71.217 E6.93677
G1 X89.956 Y70.112 E6.96258
G1 X89.499 Y68.463 E6.99991
G1 X89.225 Y66.791 E7.03687
G1 X89.132 Y65.068 E7.07453
G1 X89.194 Y63.663 E7.10522
G1 X89.375 Y62.292 E7.13539
G1 X89.724 Y60.770 E7.16947
G1 X90.228 Y59.276 E7.20386
G1 X90.975 Y57.629 E7.24332
G1 X92.398 Y58.331 E7.27795
G1 X92.898 Y72.516 F12000.000
G1 X93.487 Y73.375 E7.30067 F900.000
G1 X93.965 Y73.998 E7.31780
G1 X94.636 Y74.752 E7.33982
G1 X95.444 Y73.962 E7.36447
G1 X96.568 Y75.008 E7.39799
G1 X97.591 Y75.787 E7.42604
G1 X98.907 Y76.580 E7.45957
G1 X100.282 Y77.203 E7.49250
G1 X101.976 Y77.740 E7.53128
G1 X101.697 Y78.838 E7.55600
G1 X102.287 Y78.968 E7.56919
G1 X103.410 Y79.145 E7.59398
G1 X103.266 Y79.797 E7.60856
G1 X103.254 Y80.105 E7.61528
G1 X103.366 Y80.807 E7.63080
G1 X101.752 Y80.546 E7.66646
G1 X100.505 Y80.237 E7.69450
G1 X99.030 Y79.726 E7.72856
G1 X97.612 Y79.070 E7.76265
G1 X96.264 Y78.277 E7.79678
G1 X95.001 Y77.353 E7.83094
G1 X93.834 Y76.310 E7.86509
G1 X92.673 Y75.032 E7.90274
G1 X91.510 Y73.433 E7.94590
G1 X92.836 Y72.557 E7.98056
G1 X90.809 Y73.927 F12000.000
G1 X90.671 Y73.723 E7.98594 F720.000
G1 X89.914 Y72.335 E8.02044
G1 X89.293 Y70.883 E8.05490
G1 X88.814 Y69.379 E8.08934
G1 X88.479 Y67.834 E8.12384
G1 X88.308 Y66.467 E8.15390
G1 X88.250 Y65.068 E8.18444
G1 X88.341 Y63.319 E8.22265
G1 X88.606 Y61.624 E8.26009
G1 X89.051 Y59.948 E8.29792
G1 X89.669 Y58.327 E8.33578
G1 X90.456 Y56.775 E8.37376
G1 X91.404 Y55.307 E8.41188
G1 X92.504 Y53.942 E8.45013
G1 X93.744 Y52.696 E8.48849
G1 X94.966 Y51.690 E8.52302
G1 X96.277 Y50.804 E8.55755
G1 X97.665 Y50.048 E8.59205
G1 X99.117 Y49.427 E8.62651
G1 X100.621 Y48.947 E8.66095
G1 X102.166 Y48.612 E8.69545
G1 X103.533 Y48.442 E8.72551
G1 X104.932 Y48.384 E8.75606
G1 X106.534 Y48.467 E8.79106
G1 X106.681 Y48.474 E8.79427 F720.000
G1 X108.376 Y48.740 E8.83170
G1 X110.052 Y49.184 E8.86953
G1 X111.673 Y49.803 E8.90740
G1 X113.225 Y50.589 E8.94537
G1 X114.693 Y51.537 E8.98349
G1 X116.058 Y52.637 E9.02174
G1 X117.304 Y53.877 E9.06010
G1 X118.310 Y55.099 E9.09463
G1 X119.196 Y56.411 E9.12917
G1 X119.952 Y57.799 E9.16366
G1 X120.573 Y59.251 E9.19812
G1 X121.053 Y60.754 E9.23256
G1 X121.388 Y62.300 E9.26706
G1 X121.558 Y63.667 E9.29712
G1 X121.616 Y65.065 E9.32767
G1 X121.526 Y66.815 E9.36590
G1 X121.260 Y68.511 E9.40336
G1 X120.815 Y70.188 E9.44121
G1 X120.196 Y71.810 E9.47910
G1 X119.408 Y73.363 E9.51709
G1 X118.459 Y74.831 E9.55523
G1 X117.358 Y76.196 E9.59351
G1 X116.117 Y77.443 E9.63189
G1 X114.894 Y78.448 E9.66644
G1 X113.581 Y79.334 E9.70100
G1 X112.191 Y80.091 E9.73552
G1 X110.738 Y80.711 E9.76999
G1 X109.233 Y81.190 E9.80445
G1 X107.686 Y81.523 E9.83898
G1 X106.375 Y81.688 E9.86781
G1 X104.934 Y81.750 E9.89928
G1 X103.186 Y81.659 E9.93749
G1 X101.491 Y81.394 E9.97493
G1 X99.815 Y80.949 E10.01276
G1 X98.194 Y80.331 E10.05062
G1 X96.641 Y79.544 E10.08859
G1 X95.174 Y78.596 E10.12671
G1 X93.809 Y77.496 E10.16496
G1 X92.563 Y76.256 E10.20332
G1 X91.557 Y75.034 E10.23786
G1 X90.851 Y73.989 E10.26537
G1 X91.031 Y73.496 F12000.000
G1 X91.919 Y74.764 E10.33910 F600.000
G1 X92.331 Y75.296 E10.37113
G1 X92.897 Y75.952 E10.41241
G1 X93.539 Y76.622 E10.45663
G1 X94.110 Y77.160 E10.49397
G1 X94.722 Y77.680 E10.53222
G1 X95.438 Y78.231 E10.57525
G1 X96.037 Y78.642 E10.60984
G1 X96.866 Y79.153 E10.65623
G1 X97.422 Y79.457 E10.68640
G1 X98.376 Y79.919 E10.73690
G1 X98.879 Y80.130 E10.76289
G1 X99.953 Y80.521 E10.81731
G1 X100.392 Y80.654 E10.83916
G1 X101.655 Y80.974 E10.90123
G1 X103.231 Y81.226 E10.97723
G1 X103.588 Y81.264 E10.99433
G1 X104.140 Y81.177 E11.02094
G1 X104.169 Y81.363 F12000.000
G1 X104.469 Y81.441 E11.02771 F600.000
G1 X104.936 Y81.496 E11.03795
G1 X105.406 Y81.462 E11.04825
G1 X105.731 Y81.393 E11.05550
G1 X105.733 Y81.396 F12000.000
G1 X106.177 Y81.237 E11.07797 F600.000
G1 X106.391 Y81.266 E11.08826
G1 X107.610 Y81.077 E11.14704
G1 X108.751 Y80.848 E11.20245
G1 X109.117 Y80.755 E11.22046
G1 X110.419 Y80.353 E11.28533
G1 X111.998 Y79.691 E11.36688
G1 X113.348 Y78.951 E11.44020
G1 X113.611 Y78.788 E11.45495
G1 X114.624 Y78.087 E11.51362
G1 X115.038 Y77.770 E11.53845
G1 X115.812 Y77.108 E11.58697
G1 X116.382 Y76.568 E11.62437
G1 X117.023 Y75.896 E11.66858
G1 X117.459 Y75.386 E11.70054
G1 X118.101 Y74.572 E11.74992
G1 X118.824 Y73.488 E11.81196
G1 X118.531 Y72.915 F12000.000
G1 X117.030 Y72.054 E11.89441 F600.000
G1 X119.181 Y72.882 F12000.000
G1 X119.783 Y71.627 E11.96070 F600.000
G1 X120.035 Y71.025 E11.99179
G1 X120.386 Y70.049 E12.04117
G1 X120.560 Y69.470 E12.06999
G1 X120.820 Y68.419 E12.12157
G1 X120.918 Y67.908 E12.14634
G1 X121.082 Y66.769 E12.20114
G1 X121.175 Y65.063 E12.28251
G1 X121.111 Y63.704 E12.34732
G1 X121.072 Y63.283 E12.36745
G1 X120.942 Y62.376 E12.41111
G1 X120.792 Y61.589 E12.44923
G1 X120.616 Y60.871 E12.48445
G1 X120.325 Y59.897 E12.53289
G1 X120.155 Y59.406 E12.55761
G1 X119.885 Y58.740 E12.59184
G1 X119.551 Y57.993 E12.63080
G1 X119.176 Y57.254 E12.67030
G1 X118.526 Y57.221 F12000.000
G1 X117.033 Y58.080 E12.75232 F600.000
G1 X118.835 Y56.636 F12000.000
G1 X117.947 Y55.370 E12.82599 F600.000
G1 X117.537 Y54.839 E12.85795
G1 X116.969 Y54.182 E12.89930
G1 X116.329 Y53.513 E12.94338
G1 X115.757 Y52.973 E12.98086
G1 X115.148 Y52.456 E13.01892
G1 X114.428 Y51.903 E13.06214
G1 X113.834 Y51.495 E13.09648
