; generated by Slic3r 1.2.9 on 2015-11-01 at 17:49:47

; external perimeters extrusion width = 0.50mm
; perimeters extrusion width = 0.50mm
; infill extrusion width = 0.50mm
; solid infill extrusion width = 0.50mm
; top infill extrusion width = 0.50mm

M104 S190 ; set temperature
G28 ; home all axes
G1 Z15 F120 ; lift nozzle
M109 S190 ; wait for temperature to be reached
G21 ; set units to millimeters
G90 ; use absolute coordinates
M82 ; use absolute distances for extrusion
G92 E0
M106 S102
G1 E-2.00000 F1680.00000
G92 E0
G1 Z0.350 F12000.000
G1 X44.748 Y70.551 F12000.000
G1 E2.00000 F1680.00000
G1 X45.395 Y70.160 E2.02127 F1200.000
G1 X46.068 Y69.806 E2.04267
G1 X46.575 Y69.566 E2.05846
G1 X47.383 Y69.227 E2.08314
G1 X48.041 Y68.992 E2.10282
G1 X48.970 Y68.715 E2.13010
G1 X49.786 Y68.530 E2.15365
G1 X50.820 Y68.364 E2.18313
G1 X51.526 Y68.290 E2.20313
G1 X52.666 Y68.235 E2.23524
G1 X104.999 Y68.229 E3.70851
G1 X116.978 Y68.615 E4.04593 F1200.000
G1 X119.189 Y69.085 E4.10957
G1 X121.101 Y70.290 E4.17320
G1 X122.683 Y72.513 E4.24998
G1 X127.483 Y83.713 E4.59302
G1 X127.866 Y84.929 E4.62894
G1 X128.442 Y87.681 E4.70809
G1 X128.510 Y89.941 E4.77173
G1 X127.792 Y92.084 E4.83536
G1 X126.377 Y93.847 E4.89899
G1 X124.116 Y95.126 E4.97214
G1 X123.497 Y95.313 E4.99033
G1 X122.945 Y95.454 E5.00637
G1 X94.621 Y101.568 E5.82212
G1 X94.008 Y101.669 E5.83962
G1 X93.491 Y101.729 E5.85426
G1 X92.478 Y101.767 E5.88279
G1 X55.780 Y100.231 E6.91681
G1 X53.574 Y99.741 E6.98044
G1 X51.672 Y98.519 E7.04407
G1 X50.219 Y96.527 E7.11347
G1 X43.243 Y81.615 E7.57694
G1 X42.002 Y78.897 E7.66107
G1 X41.439 Y76.707 E7.72471
G1 X41.668 Y74.459 E7.78834
G1 X42.660 Y72.428 E7.85197
G1 X44.211 Y70.920 E7.91287
G1 X44.687 Y70.593 E7.92911
G1 E5.92911 F1680.00000
G92 E0
G1 X56.473 Y93.164 F12000.000
G1 E2.00000 F1680.00000
G1 X49.667 Y78.614 E2.41811 F900.000
G1 X48.676 Y76.445 E2.48017
G1 X49.347 Y76.092 E2.49989
G1 X50.096 Y75.777 E2.52104
G1 X50.950 Y75.523 E2.54422
G1 X51.906 Y75.370 E2.56943
G1 X52.993 Y75.317 E2.59777
G1 X104.891 Y75.318 E3.94862
G1 X116.330 Y75.688 E4.24651 F900.000
G1 X120.940 Y86.446 E4.55116
G1 X121.378 Y88.536 E4.60676
G1 X93.157 Y94.630 E5.35826
G1 X92.723 Y94.681 E5.36963
G1 X56.548 Y93.167 E6.31205
G1 X56.531 Y93.570 F12000.000
G1 X56.212 Y93.557 E6.32038 F720.000
G1 X49.300 Y78.783 E6.74491
G1 X48.172 Y76.311 E6.81564
G1 X48.524 Y76.069 E6.82676
G1 X49.174 Y75.727 E6.84589
G1 X49.960 Y75.397 E6.86807
G1 X50.860 Y75.129 E6.89251
G1 X51.864 Y74.968 E6.91898
G1 X52.983 Y74.914 E6.94815
G1 X104.898 Y74.914 E8.29943
G1 X116.599 Y75.293 E8.60417 F720.000
G1 X121.327 Y86.324 E8.91655
G1 X121.851 Y88.827 E8.98312
G1 X121.163 Y89.004 E9.00161
G1 X93.223 Y95.029 E9.74558
G1 X92.738 Y95.085 E9.75829
G1 X56.606 Y93.573 E10.69958
G1 X56.383 Y93.286 F12000.000
G1 X56.802 Y92.936 F12000.000
G1 X56.568 Y92.703 E10.70821 F1200.000
G1 X56.065 Y91.626 F12000.000
G1 X57.400 Y92.961 E10.75758 F1200.000
G1 X57.998 Y92.986 E10.77323
G1 X55.561 Y90.549 E10.86333
G1 X55.057 Y89.473 F12000.000
G1 X58.596 Y93.011 E10.99416 F1200.000
G1 X59.194 Y93.036 E11.00980
G1 X54.554 Y88.396 E11.18137
G1 X54.050 Y87.319 F12000.000
G1 X59.792 Y93.061 E11.39366 F1200.000
G1 X60.390 Y93.086 E11.40931
G1 X53.546 Y86.242 E11.66234
G1 X53.043 Y85.166 F12000.000
G1 X60.988 Y93.112 E11.95610 F1200.000
G1 X61.586 Y93.137 E11.97175
G1 X52.539 Y84.089 E12.30625
G1 X52.035 Y83.012 F12000.000
G1 X62.184 Y93.162 E12.68147 F1200.000
G1 X62.782 Y93.187 E12.69712
G1 X51.531 Y81.936 E13.11308
G1 X51.028 Y80.859 F12000.000
G1 X63.381 Y93.212 E13.56978 F1200.000
G1 X63.979 Y93.237 E13.58542
G1 X50.524 Y79.782 E14.08285
G1 X50.020 Y78.705 F12000.000
G1 X64.577 Y93.262 E14.62101 F1200.000
G1 X65.175 Y93.287 E14.63666
G1 X49.533 Y77.645 E15.21496
G1 X49.051 Y76.590 F12000.000
G1 X65.773 Y93.312 E15.83316 F1200.000
G1 X66.371 Y93.337 E15.84881
G1 X49.355 Y76.321 E16.47789
G1 X49.756 Y76.149 E16.48928
G1 X66.969 Y93.362 E17.12567
G1 X67.567 Y93.387 E17.14132
G1 X50.163 Y75.983 E17.78475
G1 X50.605 Y75.852 E17.79680
G1 X68.165 Y93.412 E18.44602
G1 X68.763 Y93.437 E18.46166
G1 X51.059 Y75.733 E19.11618
G1 X51.553 Y75.654 E19.12925
G1 X69.361 Y93.462 E19.78762
G1 X69.959 Y93.487 E19.80327
G1 X52.068 Y75.596 E20.46472
G1 X52.614 Y75.569 E20.47902
G1 X70.557 Y93.512 E21.14238
G1 X71.155 Y93.537 E21.15803
G1 X53.173 Y75.555 E21.82285
G1 X53.746 Y75.555 E21.83783
G1 X71.753 Y93.562 E22.50358
G1 X72.351 Y93.587 E22.51923
G1 X54.319 Y75.555 E23.18590
G1 X54.892 Y75.555 E23.20088
G1 X72.949 Y93.612 E23.86848
G1 X73.547 Y93.637 E23.88413
G1 X55.465 Y75.555 E24.55265
G1 X56.038 Y75.555 E24.56763
G1 X74.145 Y93.662 E25.23708
G1 X74.743 Y93.687 E25.25273
G1 X56.611 Y75.555 E25.92310
G1 X57.184 Y75.555 E25.93808
G1 X75.342 Y93.712 E26.60938
G1 X75.940 Y93.737 E26.62503
G1 X57.757 Y75.555 E27.29726
G1 X58.330 Y75.555 E27.31224
G1 X76.538 Y93.762 E27.98539
G1 X77.136 Y93.787 E28.00104
G1 X58.903 Y75.555 E28.67511
G1 X59.476 Y75.555 E28.69009
G1 X77.734 Y93.812 E29.36509
G1 X78.332 Y93.837 E29.38074
G1 X60.049 Y75.555 E30.05667
G1 X60.622 Y75.555 E30.07165
G1 X78.930 Y93.862 E30.74850
G1 X79.528 Y93.888 E30.76415
G1 X61.195 Y75.555 E31.44192
G1 X61.768 Y75.555 E31.45690
G1 X80.126 Y93.913 E32.13560
G1 X80.724 Y93.938 E32.15125
G1 X62.341 Y75.555 E32.83088
G1 X62.914 Y75.555 E32.84586
G1 X81.322 Y93.963 E33.52641
G1 X81.920 Y93.988 E33.54206
G1 X63.487 Y75.555 E34.22354
G1 X64.060 Y75.555 E34.23852
G1 X82.518 Y94.013 E34.92092
G1 X83.116 Y94.038 E34.93657
G1 X64.633 Y75.555 E35.61990
G1 X65.206 Y75.555 E35.63488
G1 X83.714 Y94.063 E36.31913
G1 X84.312 Y94.088 E36.33478
G1 X65.779 Y75.555 E37.01996
G1 X66.352 Y75.555 E37.03494
G1 X84.910 Y94.113 E37.72104
G1 X85.508 Y94.138 E37.73669
G1 X66.925 Y75.555 E38.42372
G1 X67.498 Y75.555 E38.43870
G1 X86.106 Y94.163 E39.12665
G1 X86.705 Y94.188 E39.14230
G1 X68.072 Y75.555 E39.83118
G1 X68.645 Y75.555 E39.84616
G1 X87.303 Y94.213 E40.53597
G1 X87.901 Y94.238 E40.55162
G1 X69.218 Y75.555 E41.24235
G1 X69.791 Y75.555 E41.25733
G1 X88.499 Y94.263 E41.94898
G1 X89.097 Y94.288 E41.96463
G1 X70.364 Y75.555 E42.65721
G1 X70.937 Y75.555 E42.67219
G1 X89.695 Y94.313 E43.36570
G1 X90.293 Y94.338 E43.38135
G1 X71.510 Y75.555 E44.07578
G1 X72.083 Y75.555 E44.09076
G1 X90.891 Y94.363 E44.78611
G1 X91.489 Y94.388 E44.80176
G1 X72.656 Y75.555 E45.49804
G1 X73.229 Y75.555 E45.51302
G1 X92.087 Y94.413 E46.21023
G1 X92.685 Y94.438 E46.22588
G1 X73.802 Y75.555 E46.92401
G1 X74.375 Y75.555 E46.93899
G1 X93.212 Y94.392 E47.63543
G1 X93.683 Y94.291 E47.64803
G1 X74.948 Y75.555 E48.34070
G1 X75.521 Y75.555 E48.35568
G1 X94.155 Y94.189 E49.04459
G1 X94.626 Y94.087 E49.05720
G1 X76.094 Y75.555 E49.74235
G1 X76.667 Y75.555 E49.75733
G1 X95.097 Y93.985 E50.43871
G1 X95.568 Y93.883 E50.45131
G1 X77.240 Y75.555 E51.12894
G1 X77.813 Y75.555 E51.14392
G1 X96.040 Y93.782 E51.81778
G1 X96.511 Y93.680 E51.83038
G1 X78.386 Y75.555 E52.50048
G1 X78.959 Y75.555 E52.51546
G1 X96.982 Y93.578 E53.18179
G1 X97.453 Y93.476 E53.19440
G1 X79.532 Y75.555 E53.85697
G1 X80.105 Y75.555 E53.87195
G1 X97.925 Y93.375 E54.53076
G1 X98.396 Y93.273 E54.54336
G1 X80.678 Y75.555 E55.19841
G1 X81.251 Y75.555 E55.21339
G1 X98.867 Y93.171 E55.86467
G1 X99.338 Y93.069 E55.87728
G1 X81.824 Y75.555 E56.52480
G1 X82.397 Y75.555 E56.53978
G1 X99.810 Y92.968 E57.18354
G1 X100.281 Y92.866 E57.19614
G1 X82.970 Y75.555 E57.83614
G1 X83.543 Y75.555 E57.85112
G1 X100.752 Y92.764 E58.48735
G1 X101.223 Y92.662 E58.49996
G1 X84.116 Y75.555 E59.13243
G1 X84.689 Y75.555 E59.14741
G1 X101.695 Y92.561 E59.77612
G1 X102.166 Y92.459 E59.78872
G1 X85.262 Y75.555 E60.41367
G1 X85.835 Y75.555 E60.42865
G1 X102.637 Y92.357 E61.04983
G1 X103.109 Y92.255 E61.06244
G1 X86.408 Y75.555 E61.67986
G1 X86.981 Y75.555 E61.69484
G1 X103.580 Y92.153 E62.30850
G1 X104.051 Y92.052 E62.32110
G1 X87.554 Y75.555 E62.93100
G1 X88.127 Y75.555 E62.94598
G1 X104.522 Y91.950 E63.55211
G1 X104.994 Y91.848 E63.56472
G1 X88.700 Y75.555 E64.16709
G1 X89.273 Y75.555 E64.18207
G1 X105.465 Y91.746 E64.78068
G1 X105.936 Y91.645 E64.79328
G1 X89.846 Y75.555 E65.38813
G1 X90.419 Y75.555 E65.40311
G1 X106.407 Y91.543 E65.99419
G1 X106.879 Y91.441 E66.00680
G1 X90.992 Y75.555 E66.59412
G1 X91.566 Y75.555 E66.60910
G1 X107.350 Y91.339 E67.19266
G1 X107.821 Y91.238 E67.20526
G1 X92.139 Y75.555 E67.78506
G1 X92.712 Y75.555 E67.80004
G1 X108.292 Y91.136 E68.37607
G1 X108.764 Y91.034 E68.38868
G1 X93.285 Y75.555 E68.96095
G1 X93.858 Y75.555 E68.97593
G1 X109.235 Y90.932 E69.54444
G1 X109.706 Y90.831 E69.55704
G1 X94.431 Y75.555 E70.12179
G1 X95.004 Y75.555 E70.13677
G1 X110.177 Y90.729 E70.69775
G1 X110.649 Y90.627 E70.71035
G1 X95.577 Y75.555 E71.26758
G1 X96.150 Y75.555 E71.28256
G1 X111.120 Y90.525 E71.83601
G1 X111.591 Y90.423 E71.84862
G1 X96.723 Y75.555 E72.39831
G1 X97.296 Y75.555 E72.41329
G1 X112.062 Y90.322 E72.95923
G1 X112.534 Y90.220 E72.97183
G1 X97.869 Y75.555 E73.51400
G1 X98.442 Y75.555 E73.52898
G1 X113.005 Y90.118 E74.06739
G1 X113.476 Y90.016 E74.08000
G1 X99.015 Y75.555 E74.61464
G1 X99.588 Y75.555 E74.62962
G1 X113.947 Y89.915 E75.16051
G1 X114.419 Y89.813 E75.17311
G1 X100.161 Y75.555 E75.70023
G1 X100.734 Y75.555 E75.71521
G1 X114.890 Y89.711 E76.23857
G1 X115.361 Y89.609 E76.25117
G1 X101.307 Y75.555 E76.77077
G1 X101.880 Y75.555 E76.78575
G1 X115.832 Y89.508 E77.30158
G1 X116.304 Y89.406 E77.31419
G1 X102.453 Y75.555 E77.82626
G1 X103.026 Y75.555 E77.84124
G1 X116.775 Y89.304 E78.34955
G1 X117.246 Y89.202 E78.36215
G1 X103.599 Y75.555 E78.86670
G1 X104.172 Y75.555 E78.88168
G1 X117.717 Y89.100 E79.38246
G1 X118.189 Y88.999 E79.39506
G1 X104.745 Y75.555 E79.89208
G1 X105.335 Y75.572 E79.90752
G1 X118.660 Y88.897 E80.40014
G1 X119.131 Y88.795 E80.41275
G1 X105.928 Y75.592 E80.90089
G1 X106.520 Y75.611 E80.91638
G1 X119.602 Y88.693 E81.40006
G1 X120.074 Y88.592 E81.41267
G1 X107.112 Y75.630 E81.89187
G1 X107.704 Y75.649 E81.90736
G1 X120.545 Y88.490 E82.38210
G1 X121.016 Y88.388 E82.39471
G1 X108.296 Y75.668 E82.86497
G1 X108.888 Y75.687 E82.88046
G1 X120.951 Y87.750 E83.32643
G1 X120.799 Y87.025 E83.34579
G1 X109.481 Y75.706 E83.76426
G1 X110.073 Y75.726 E83.77975
G1 X120.522 Y86.175 E84.16607
G1 X120.092 Y85.172 F12000.000
G1 X110.665 Y75.745 E84.51460 F1200.000
G1 X111.257 Y75.764 E84.53009
G1 X119.662 Y84.169 E84.84085
G1 X119.233 Y83.166 F12000.000
G1 X111.849 Y75.783 E85.11382 F1200.000
G1 X112.441 Y75.802 E85.12931
G1 X118.803 Y82.164 E85.36450
G1 X118.373 Y81.161 F12000.000
G1 X113.034 Y75.821 E85.56190 F1200.000
G1 X113.626 Y75.840 E85.57739
G1 X117.943 Y80.158 E85.73702
G1 X117.514 Y79.155 F12000.000
G1 X114.218 Y75.860 E85.85887 F1200.000
G1 X114.810 Y75.879 E85.87435
G1 X117.084 Y78.153 E85.95842
G1 X116.654 Y77.150 F12000.000
G1 X115.402 Y75.898 E86.00470 F1200.000
G1 X115.994 Y75.917 E86.02019
G1 X116.224 Y76.147 E86.02869
M104 S188 ; set temperature
G1 E84.02869 F1680.00000
G92 E0
G1 Z0.650 F12000.000
G1 X64.226 Y75.350 F12000.000
G1 E2.00000 F1680.00000
G1 X104.927 Y75.351 E2.76263 F1800.000
G1 X116.308 Y75.719 E2.97599 F1800.000
G1 X120.910 Y86.455 E3.19485
G1 X121.340 Y88.512 E3.23423
G1 X93.152 Y94.599 E3.77458
G1 X92.722 Y94.649 E3.78269
G1 X56.494 Y93.132 E4.46209
G1 X49.696 Y78.600 E4.76270
G1 X48.718 Y76.459 E4.80681
G1 X49.360 Y76.121 E4.82040
G1 X50.107 Y75.808 E4.83556
G1 X50.957 Y75.555 E4.85218
G1 X51.909 Y75.402 E4.87026
G1 X52.994 Y75.350 E4.89061
G1 X64.151 Y75.350 E5.09966
G1 X64.151 Y74.914 F12000.000
G1 X104.934 Y74.915 E5.86383 F1440.000
G1 X116.599 Y75.293 E6.08252 F1440.000
G1 X121.327 Y86.324 E6.30739
G1 X121.851 Y88.827 E6.35530
G1 X121.163 Y89.004 E6.36861
G1 X93.223 Y95.029 E6.90417
G1 X92.738 Y95.085 E6.91332
G1 X56.212 Y93.557 E7.59832
G1 X49.300 Y78.783 E7.90393
G1 X48.172 Y76.311 E7.95484
G1 X48.524 Y76.069 E7.96285
G1 X49.174 Y75.727 E7.97661
G1 X49.960 Y75.397 E7.99258
G1 X50.860 Y75.129 E8.01017
G1 X51.864 Y74.968 E8.02923
G1 X52.983 Y74.914 E8.05023
G1 X64.076 Y74.914 E8.25808
G1 X64.401 Y75.347 F12000.000
G1 X50.429 Y76.012 F12000.000
G1 X49.286 Y77.155 E8.28840 F2400.000
G1 X49.480 Y77.578 E8.29714
G1 X51.278 Y75.781 E8.34487
G1 X52.013 Y75.663 E8.35883
G1 X49.673 Y78.002 E8.42093
G1 X49.867 Y78.426 E8.42967
G1 X52.664 Y75.628 E8.50392
G1 X53.302 Y75.607 E8.51590
G1 X50.062 Y78.847 E8.60189
G1 X50.259 Y79.268 E8.61060
G1 X53.919 Y75.607 E8.70775
G1 X54.536 Y75.607 E8.71933
G1 X50.456 Y79.688 E8.82764
G1 X50.652 Y80.108 E8.83635
G1 X55.153 Y75.608 E8.95581
G1 X55.770 Y75.608 E8.96739
G1 X50.849 Y80.529 E9.09802
G1 X51.046 Y80.949 E9.10673
G1 X56.387 Y75.608 E9.24851
G1 X57.004 Y75.608 E9.26009
G1 X51.242 Y81.370 E9.41303
G1 X51.439 Y81.790 E9.42174
G1 X57.621 Y75.608 E9.58584
G1 X58.239 Y75.608 E9.59742
G1 X51.636 Y82.210 E9.77268
G1 X51.832 Y82.631 E9.78139
G1 X58.856 Y75.608 E9.96781
G1 X59.473 Y75.608 E9.97939
G1 X52.029 Y83.051 E10.17696
G1 X52.226 Y83.472 E10.18568
G1 X60.090 Y75.608 E10.39441
G1 X60.707 Y75.608 E10.40599
G1 X52.422 Y83.892 E10.62588
G1 X52.619 Y84.313 E10.63459
G1 X61.324 Y75.608 E10.86564
G1 X61.941 Y75.608 E10.87722
G1 X52.816 Y84.733 E11.11943
G1 X53.012 Y85.153 E11.12814
G1 X62.558 Y75.608 E11.38151
G1 X63.175 Y75.608 E11.39309
G1 X53.209 Y85.574 E11.65762
G1 X53.406 Y85.994 E11.66633
G1 X63.792 Y75.608 E11.94201
G1 X64.409 Y75.608 E11.95359
G1 X53.602 Y86.415 E12.24043
G1 X53.799 Y86.835 E12.24914
G1 X65.026 Y75.608 E12.54714
G1 X65.643 Y75.608 E12.55873
G1 X53.996 Y87.255 E12.86788
G1 X54.192 Y87.676 E12.87660
G1 X66.260 Y75.608 E13.19691
G1 X66.878 Y75.608 E13.20849
G1 X54.389 Y88.096 E13.53997
G1 X54.586 Y88.517 E13.54868
G1 X67.495 Y75.608 E13.89132
G1 X68.112 Y75.608 E13.90290
G1 X54.782 Y88.937 E14.25669
G1 X54.979 Y89.357 E14.26540
G1 X68.729 Y75.608 E14.63035
G1 X69.346 Y75.608 E14.64193
G1 X55.176 Y89.778 E15.01804
G1 X55.372 Y90.198 E15.02675
G1 X69.963 Y75.608 E15.41402
G1 X70.580 Y75.608 E15.42560
G1 X55.569 Y90.619 E15.82403
G1 X55.766 Y91.039 E15.83274
G1 X71.197 Y75.608 E16.24233
G1 X71.814 Y75.608 E16.25391
G1 X55.962 Y91.459 E16.67465
G1 X56.159 Y91.880 E16.68336
G1 X72.431 Y75.608 E17.11526
G1 X73.048 Y75.608 E17.12685
G1 X56.356 Y92.300 E17.56991
G1 X56.552 Y92.721 E17.57862
G1 X73.665 Y75.608 E18.03284
G1 X74.282 Y75.608 E18.04442
G1 X56.991 Y92.899 E18.50337
G1 X57.584 Y92.924 E18.51449
G1 X74.899 Y75.608 E18.97410
G1 X75.517 Y75.608 E18.98568
G1 X58.176 Y92.948 E19.44594
G1 X58.768 Y92.973 E19.45707
G1 X76.134 Y75.608 E19.91799
G1 X76.751 Y75.608 E19.92957
G1 X59.361 Y92.998 E20.39115
G1 X59.953 Y93.023 E20.40228
G1 X77.368 Y75.608 E20.86451
G1 X77.985 Y75.608 E20.87609
G1 X60.545 Y93.048 E21.33899
G1 X61.137 Y93.072 E21.35011
G1 X78.602 Y75.608 E21.81367
G1 X79.219 Y75.608 E21.82525
G1 X61.730 Y93.097 E22.28946
G1 X62.322 Y93.122 E22.30058
G1 X79.836 Y75.608 E22.76545
G1 X80.453 Y75.608 E22.77703
G1 X62.914 Y93.147 E23.24256
G1 X63.507 Y93.172 E23.25368
G1 X81.070 Y75.608 E23.71986
G1 X81.687 Y75.608 E23.73145
G1 X64.099 Y93.196 E24.19829
G1 X64.691 Y93.221 E24.20941
G1 X82.304 Y75.608 E24.67691
G1 X82.921 Y75.608 E24.68849
G1 X65.283 Y93.246 E25.15665
G1 X65.876 Y93.271 E25.16777
G1 X83.538 Y75.608 E25.63659
G1 X84.156 Y75.608 E25.64817
G1 X66.468 Y93.296 E26.11764
G1 X67.060 Y93.320 E26.12876
G1 X84.773 Y75.608 E26.59889
G1 X85.390 Y75.608 E26.61047
G1 X67.653 Y93.345 E27.08126
G1 X68.245 Y93.370 E27.09239
G1 X86.007 Y75.608 E27.56383
G1 X86.624 Y75.608 E27.57541
G1 X68.837 Y93.395 E28.04751
G1 X69.430 Y93.420 E28.05864
G1 X87.241 Y75.608 E28.53140
G1 X87.858 Y75.608 E28.54298
G1 X70.022 Y93.444 E29.01640
G1 X70.614 Y93.469 E29.02752
G1 X88.475 Y75.608 E29.50160
G1 X89.092 Y75.608 E29.51318
G1 X71.206 Y93.494 E29.98791
G1 X71.799 Y93.519 E29.99904
G1 X89.709 Y75.608 E30.47443
G1 X90.326 Y75.608 E30.48601
G1 X72.391 Y93.543 E30.96206
G1 X72.983 Y93.568 E30.97318
G1 X90.943 Y75.608 E31.44989
G1 X91.560 Y75.608 E31.46147
G1 X73.576 Y93.593 E31.93883
G1 X74.168 Y93.618 E31.94996
G1 X92.177 Y75.608 E32.42798
G1 X92.795 Y75.608 E32.43956
G1 X74.760 Y93.643 E32.91824
G1 X75.352 Y93.667 E32.92936
G1 X93.412 Y75.608 E33.40870
