; generated by Slic3r 1.2.9 on 2015-11-23 at 20:16:48

; external perimeters extrusion width = 0.50mm
; perimeters extrusion width = 0.50mm
; infill extrusion width = 0.50mm
; solid infill extrusion width = 0.50mm
; top infill extrusion width = 0.50mm

M104 S190 ; set temperature
G28 ; home all axes
G1 Z15 F120 ; lift nozzle
M109 S190 ; wait for temperature to be reached
G21 ; set units to millimeters
G90 ; use absolute coordinates
M82 ; use absolute distances for extrusion
G92 E0
M106 S102
G1 E-2.00000 F1680.00000
G92 E0
G1 Z0.260 F12000.000
G1 X41.104 Y42.594 F12000.000
G1 E2.00000 F1680.00000
G1 X41.455 Y42.258 E2.01366 F1200.000
G1 X42.707 Y41.151 E2.06071
G1 X43.721 Y40.328 E2.09747
G1 X44.266 Y39.930 E2.11647
G1 X45.848 Y38.914 E2.16940
G1 X47.313 Y38.093 E2.21668
G1 X47.761 Y37.864 E2.23085
G1 X49.722 Y36.972 E2.29149
G1 X51.174 Y36.411 E2.33532
G1 X51.705 Y36.231 E2.35110
G1 X53.031 Y35.845 E2.38997
G1 X54.577 Y35.462 E2.43481
G1 X55.286 Y35.331 E2.45511
G1 X56.789 Y35.136 E2.49777
G1 X57.454 Y35.085 E2.51656
G1 X59.796 Y35.025 E2.58250
G1 X108.399 Y35.027 E3.95077
G1 X110.567 Y35.085 E4.01183 F1200.000
G1 X111.232 Y35.136 E4.03061
G1 X112.735 Y35.331 E4.07327
G1 X113.444 Y35.462 E4.09357
G1 X114.990 Y35.845 E4.13841
G1 X116.316 Y36.231 E4.17728
G1 X116.829 Y36.404 E4.19254
G1 X118.253 Y36.950 E4.23546
G1 X120.152 Y37.808 E4.29412
G1 X120.629 Y38.052 E4.30920
G1 X122.077 Y38.868 E4.35600
G1 X123.747 Y39.948 E4.41198
G1 X124.293 Y40.349 E4.43107
G1 X125.485 Y41.324 E4.47442
G1 X127.011 Y42.724 E4.53272
G1 X128.257 Y44.012 E4.58318
G1 X129.095 Y44.978 E4.61917
G1 X129.488 Y45.488 E4.63729
G1 X129.813 Y45.956 E4.65334
G1 X130.302 Y46.783 E4.68038
G1 X136.292 Y58.849 E5.05961
G1 X136.975 Y61.759 E5.14377
G1 X136.975 Y108.189 E6.45085
G1 X136.296 Y111.092 E6.53478
G1 X130.286 Y123.237 E6.91626
G1 X129.769 Y124.105 E6.94470
G1 X129.450 Y124.559 E6.96032
G1 X129.070 Y125.047 E6.97774
G1 X128.255 Y125.984 E7.01271
G1 X127.016 Y127.269 E7.06296
G1 X125.489 Y128.674 E7.12135
G1 X124.303 Y129.646 E7.16452
G1 X123.765 Y130.043 E7.18335
G1 X122.151 Y131.092 E7.23755
G1 X120.803 Y131.859 E7.28120
G1 X120.344 Y132.097 E7.29576
G1 X118.640 Y132.885 E7.34860
G1 X117.346 Y133.406 E7.38788
G1 X116.831 Y133.589 E7.40327
G1 X115.200 Y134.083 E7.45124
G1 X113.781 Y134.445 E7.49247
G1 X113.195 Y134.566 E7.50933
G1 X111.520 Y134.832 E7.55705
G1 X110.671 Y134.911 E7.58107
G1 X108.225 Y134.975 E7.64995
G1 X59.796 Y134.975 E9.01332
G1 X57.446 Y134.912 E9.07951
G1 X56.776 Y134.859 E9.09841
G1 X55.273 Y134.662 E9.14108
G1 X54.570 Y134.530 E9.16123
G1 X53.305 Y134.221 E9.19790
G1 X51.698 Y133.758 E9.24495
G1 X51.209 Y133.594 E9.25950
G1 X49.792 Y133.056 E9.30216
G1 X47.938 Y132.232 E9.35927
G1 X47.389 Y131.952 E9.37662
G1 X45.885 Y131.094 E9.42538
G1 X45.464 Y130.832 E9.43933
G1 X44.000 Y129.843 E9.48906
G1 X43.491 Y129.462 E9.50697
G1 X42.172 Y128.371 E9.55516
G1 X41.824 Y128.061 E9.56827
G1 X40.667 Y126.956 E9.61333
G1 X40.309 Y126.586 E9.62781
G1 X39.225 Y125.367 E9.67373
G1 X38.201 Y124.098 E9.71964
G1 X37.456 Y123.036 E9.75615
G1 X36.901 Y122.177 E9.78494
G1 X36.156 Y120.859 E9.82758
G1 X35.518 Y119.580 E9.86781
G1 X34.800 Y117.885 E9.91963
G1 X34.393 Y116.785 E9.95265
G1 X34.235 Y116.302 E9.96695
G1 X33.795 Y114.720 E10.01318
G1 X33.479 Y113.319 E10.05361
G1 X33.377 Y112.759 E10.06962
G1 X33.151 Y111.101 E10.11674
G1 X33.095 Y110.434 E10.13560
G1 X33.025 Y108.215 E10.19809
G1 X33.025 Y61.785 E11.50518
G1 X33.095 Y59.566 E11.56766
G1 X33.151 Y58.899 E11.58653
G1 X33.377 Y57.241 E11.63364
G1 X33.479 Y56.681 E11.64965
G1 X33.884 Y54.933 E11.70016
G1 X34.235 Y53.698 E11.73631
G1 X34.398 Y53.202 E11.75101
G1 X34.933 Y51.789 E11.79355
G1 X35.582 Y50.299 E11.83928
G1 X36.111 Y49.237 E11.87270
G1 X36.767 Y48.044 E11.91102
G1 X37.058 Y47.568 E11.92673
G1 X37.860 Y46.389 E11.96689
G1 X38.924 Y44.985 E12.01647
G1 X39.854 Y43.902 E12.05665
G1 X41.052 Y42.648 E12.10549
G1 E10.10549 F1680.00000
G92 E0
G1 X126.014 Y63.759 F12000.000
G1 E2.00000 F1680.00000
G1 X125.318 Y63.759 E2.01519 F900.000
G1 X124.664 Y63.521 E2.03038
G1 X124.234 Y63.160 E2.04261
G1 X124.131 Y63.073 E2.04557
G1 X123.783 Y62.471 E2.06075
G1 X123.662 Y61.785 E2.07594
G1 X123.783 Y61.100 E2.09113
G1 X124.131 Y60.497 E2.10632
G1 X124.664 Y60.049 E2.12151
G1 X125.318 Y59.811 E2.13670
G1 X126.014 Y59.811 E2.15188 F900.000
G1 X126.668 Y60.049 E2.16707
G1 X127.202 Y60.497 E2.18226
G1 X127.550 Y61.100 E2.19745
G1 X127.670 Y61.785 E2.21264
G1 X127.550 Y62.471 E2.22783
G1 X127.202 Y63.073 E2.24302
G1 X126.668 Y63.521 E2.25820
G1 X126.085 Y63.733 E2.27176
G1 X119.812 Y63.661 F12000.000
G1 X120.531 Y64.458 E2.29517 F720.000
G1 X122.808 Y66.537 E2.36245
G1 X123.276 Y67.031 E2.37730
G1 X123.240 Y67.199 E2.38106
G1 X122.420 Y67.915 E2.40482
G1 X121.501 Y68.647 E2.43045
G1 X120.124 Y67.051 E2.47645
G1 X119.272 Y66.237 E2.50216
G1 X118.252 Y65.461 E2.53013
G1 X117.103 Y64.819 E2.55884
G1 X115.942 Y64.329 E2.58634
G1 X114.743 Y63.935 E2.61387
G1 X112.398 Y63.923 E2.66506
G1 X110.282 Y63.968 E2.71124
G1 X109.016 Y64.254 E2.73955
G1 X108.093 Y64.609 E2.76113
G1 X107.328 Y64.978 E2.77966
G1 X106.692 Y65.402 E2.79634
G1 X106.086 Y65.888 E2.81329
G1 X105.562 Y66.447 E2.83001
G1 X105.127 Y67.049 E2.84621
G1 X104.823 Y67.772 E2.86333
G1 X104.611 Y68.619 E2.88239
G1 X104.537 Y69.526 E2.90225
G1 X104.593 Y70.377 E2.92085
G1 X104.783 Y71.147 E2.93817
G1 X105.058 Y71.848 E2.95458
G1 X105.418 Y72.490 E2.97065
G1 X105.823 Y73.133 E2.98722
G1 X106.423 Y73.824 E3.00720
G1 X107.242 Y74.581 E3.03153
G1 X108.300 Y75.339 E3.05993
G1 X109.474 Y76.034 E3.08970
G1 X110.685 Y76.583 E3.11872
G1 X111.834 Y76.993 E3.14534
G1 X113.023 Y77.236 E3.17181
G1 X114.327 Y77.384 E3.20046
G1 X115.591 Y77.398 E3.22804
G1 X116.677 Y77.309 E3.25182
G1 X117.719 Y77.081 E3.27508
G1 X118.880 Y76.754 E3.30140
G1 X120.412 Y76.146 E3.33737
G1 X122.334 Y75.240 E3.38373
G1 X123.019 Y74.893 E3.40048
G1 X123.147 Y75.065 E3.40515
G1 X122.376 Y75.874 E3.42952
G1 X121.177 Y76.992 E3.46530
G1 X120.007 Y77.951 E3.49830
G1 X118.781 Y78.761 E3.53037
G1 X117.449 Y79.519 E3.56381
G1 X116.096 Y80.154 E3.59643
G1 X114.818 Y80.669 E3.62649
G1 X113.518 Y81.070 E3.65617
G1 X112.116 Y81.427 E3.68774
G1 X110.469 Y81.689 E3.72413
G1 X108.225 Y81.750 E3.77311
G1 X106.077 Y81.690 E3.82000
G1 X104.600 Y81.496 E3.85250
G1 X103.354 Y81.191 E3.88050
G1 X102.043 Y80.808 E3.91030
G1 X100.643 Y80.276 E3.94298
G1 X99.175 Y79.613 E3.97813
G1 X97.689 Y78.766 E4.01545
G1 X96.243 Y77.789 E4.05353
G1 X94.941 Y76.711 E4.09041
G1 X93.797 Y75.619 E4.12493
G1 X92.893 Y74.608 E4.15452
G1 X92.167 Y73.729 E4.17939
G1 X91.593 Y72.919 E4.20105
G1 X91.046 Y72.072 E4.22306
G1 X90.536 Y71.148 E4.24607
G1 X90.046 Y70.153 E4.27029
G1 X89.600 Y69.089 E4.29545
G1 X89.198 Y68.004 E4.32071
G1 X88.851 Y66.785 E4.34837
G1 X88.538 Y65.401 E4.37931
G1 X88.316 Y63.766 E4.41532
G1 X88.250 Y61.785 E4.45857
G1 X88.316 Y59.804 E4.50183
G1 X88.538 Y58.169 E4.53783
G1 X88.851 Y56.786 E4.56878
G1 X89.198 Y55.567 E4.59643
G1 X89.613 Y54.454 E4.62233
G1 X90.095 Y53.325 E4.64913
G1 X90.619 Y52.274 E4.67475
G1 X91.131 Y51.353 E4.69775
G1 X91.747 Y50.438 E4.72181
G1 X92.514 Y49.406 E4.74987
G1 X93.433 Y48.336 E4.78065
G1 X94.411 Y47.326 E4.81132
G1 X95.426 Y46.422 E4.84098
G1 X96.425 Y45.610 E4.86907
G1 X97.604 Y44.839 E4.89982
G1 X99.054 Y44.027 E4.93607
G1 X100.608 Y43.308 E4.97345
G1 X102.043 Y42.753 E5.00702
G1 X103.353 Y42.372 E5.03679
G1 X104.600 Y42.068 E5.06478
G1 X106.077 Y41.877 E5.09727
G1 X108.225 Y41.820 E5.14417
G1 X110.374 Y41.877 E5.19106
G1 X111.850 Y42.068 E5.22355
G1 X113.097 Y42.372 E5.25154
G1 X114.407 Y42.753 E5.28132
G1 X115.813 Y43.292 E5.31419
G1 X117.301 Y43.977 E5.34992
G1 X118.733 Y44.784 E5.38578
G1 X120.002 Y45.618 E5.41892
G1 X121.177 Y46.580 E5.45206
G1 X122.381 Y47.698 E5.48791
G1 X123.155 Y48.509 E5.51237
G1 X123.026 Y48.680 E5.51705
G1 X122.490 Y48.403 E5.53024
G1 X120.632 Y47.514 E5.57517
G1 X119.071 Y46.882 E5.61193
G1 X117.846 Y46.522 E5.63977
G1 X116.799 Y46.284 E5.66321
G1 X115.852 Y46.178 E5.68399
G1 X114.874 Y46.134 E5.70535
G1 X113.834 Y46.201 E5.72810
G1 X112.740 Y46.365 E5.75224
G1 X111.624 Y46.654 E5.77740
G1 X110.533 Y47.025 E5.80255
G1 X109.478 Y47.519 E5.82797
G1 X108.453 Y48.103 E5.85371
G1 X107.564 Y48.724 E5.87737
G1 X106.829 Y49.313 E5.89792
G1 X106.217 Y49.963 E5.91740
G1 X105.627 Y50.726 E5.93844
G1 X105.174 Y51.447 E5.95703
G1 X104.884 Y52.006 E5.97076
G1 X104.729 Y52.544 E5.98298
G1 X104.589 Y53.221 E5.99807
G1 X104.537 Y54.052 E6.01622
G1 X104.611 Y54.951 E6.03591
G1 X104.823 Y55.798 E6.05498
G1 X105.127 Y56.522 E6.07209
G1 X105.562 Y57.124 E6.08830
G1 X106.086 Y57.682 E6.10501
G1 X106.693 Y58.168 E6.12197
G1 X107.329 Y58.592 E6.13866
G1 X108.118 Y58.962 E6.15766
G1 X109.091 Y59.315 E6.18027
G1 X110.408 Y59.600 E6.20966
G1 X112.473 Y59.647 E6.25474
G1 X114.561 Y59.574 E6.30032
G1 X115.938 Y59.244 E6.33122
G1 X117.106 Y58.753 E6.35887
G1 X118.228 Y58.100 E6.38720
G1 X119.132 Y57.444 E6.41156
G1 X119.780 Y56.913 E6.42985
G1 X120.298 Y56.343 E6.44665
G1 X121.434 Y54.919 E6.48639
G1 X122.429 Y55.655 E6.51338
G1 X123.252 Y56.360 E6.53703
G1 X123.283 Y56.528 E6.54076
G1 X122.808 Y57.031 E6.55586
G1 X120.551 Y59.119 E6.62295
G1 X119.909 Y59.940 E6.64569
G1 X120.608 Y60.136 E6.66155
G1 X121.335 Y60.107 E6.67741
G1 X122.254 Y59.953 E6.69776
G1 X123.191 Y59.714 E6.71886
G1 X124.158 Y59.353 E6.74137
G1 X125.138 Y58.908 E6.76486
G1 X125.983 Y58.478 E6.78554
G1 X129.600 Y61.371 E6.88661
G1 X130.069 Y61.778 E6.90015
G1 X129.934 Y61.921 E6.90444
G1 X129.121 Y62.598 E6.92753
G1 X125.963 Y65.068 E7.01501
G1 X124.990 Y64.584 E7.03873
G1 X123.961 Y64.120 E7.06335
G1 X123.054 Y63.788 E7.08444
G1 X122.185 Y63.592 E7.10388
G1 X121.242 Y63.456 E7.12465
G1 X120.450 Y63.425 E7.14196
G1 X119.883 Y63.635 E7.15515
G1 E5.15515 F1680.00000
G92 E0
G1 X123.291 Y48.744 F12000.000
G1 E2.00000 F1680.00000
G1 X124.143 Y49.433 E2.02390 F720.000
G1 E0.02390 F1680.00000
G92 E0
G1 X124.123 Y74.161 F12000.000
G1 E2.00000 F1680.00000
G1 X123.283 Y74.830 E2.02342 F720.000
G1 X122.523 Y75.395 F12000.000
G1 X121.981 Y75.781 E2.03793 F600.000
G1 X121.981 Y75.781 F12000.000
G1 X121.127 Y76.359 E2.08705 F600.000
G1 E0.08705 F1680.00000
G92 E0
G1 X125.757 Y64.632 F12000.000
G1 E2.00000 F1680.00000
G1 X125.518 Y64.393 E2.00830 F1200.000
G1 X125.806 Y64.009 E2.02007
G1 X126.057 Y64.259 E2.02877
G1 X126.346 Y64.153 F12000.000
G1 X126.891 Y63.845 E2.05860 F600.000
G1 X127.490 Y63.360 E2.09531
G1 X127.791 Y63.022 E2.11685
G1 X128.169 Y62.913 F12000.000
G1 X127.773 Y62.517 E2.12955 F1200.000
G1 X127.873 Y61.994 E2.14163
G1 X128.607 Y62.729 E2.16521
G1 X128.956 Y62.456 E2.17527
G1 X127.867 Y61.367 E2.21022
G1 X127.887 Y60.765 E2.22389
G1 X129.297 Y62.174 E2.26913
G1 X129.260 Y61.516 E2.28409
G1 X129.622 Y61.878 E2.29570
G1 X127.795 Y60.551 F12000.000
G1 X127.492 Y60.208 E2.31749 F600.000
G1 X126.896 Y59.720 E2.35420
G1 X126.384 Y59.425 E2.38235
G1 X126.268 Y59.187 F12000.000
G1 X125.946 Y58.865 E2.39515 F1200.000
G1 X125.636 Y59.326 E2.41076
G1 X125.872 Y59.562 E2.42014
G1 X125.322 Y59.325 F12000.000
G1 X124.485 Y59.667 E2.46322 F600.000
G1 X124.057 Y59.916 E2.48680
G1 E0.48680 F1680.00000
G92 E0
G1 X124.016 Y63.612 F12000.000
G1 E2.00000 F1680.00000
G1 X124.486 Y63.900 E2.02628 F600.000
G1 X125.338 Y64.246 E2.07005
G1 E0.07005 F1680.00000
G92 E0
G1 X122.524 Y48.171 F12000.000
G1 E2.00000 F1680.00000
G1 X121.971 Y47.779 E2.01480 F600.000
G1 X121.971 Y47.779 F12000.000
G1 X121.099 Y47.186 E2.06500 F600.000
G1 X121.014 Y46.929 F12000.000
G1 X120.679 Y46.594 E2.07542 F1200.000
G1 X120.740 Y47.257 E2.09007
G1 X118.467 Y44.985 E2.16070
G1 X117.941 Y46.265 F12000.000
G1 X114.943 Y43.266 E2.25389 F1200.000
G1 X113.998 Y42.924 F12000.000
G1 X117.162 Y46.088 E2.35222 F1200.000
G1 X116.455 Y45.984 E2.36791
G1 X113.149 Y42.677 E2.47069
G1 X112.338 Y42.468 E2.48908
G1 X115.791 Y45.921 E2.59639
G1 X115.160 Y45.892 E2.61026
G1 X111.563 Y42.295 E2.72206
G1 X110.871 Y42.206 E2.73739
G1 X114.574 Y45.909 E2.85248
G1 X114.009 Y45.945 E2.86493
G1 X110.188 Y42.125 E2.98368
G1 X109.569 Y42.108 E2.99728
G1 X113.476 Y46.015 E3.11870
G1 X112.952 Y46.093 E3.13034
G1 X108.951 Y42.092 E3.25470
G1 X108.332 Y42.075 E3.26830
G1 X112.457 Y46.200 E3.39651
G1 X111.979 Y46.324 E3.40737
G1 X107.735 Y42.081 E3.53926
G1 X107.149 Y42.096 E3.55216
G1 X111.508 Y46.455 E3.68763
G1 X111.058 Y46.608 E3.69806
G1 X106.562 Y42.112 E3.83781
G1 X105.979 Y42.131 E3.85063
G1 X110.609 Y46.761 E3.99454
G1 X110.189 Y46.943 E4.00461
G1 X105.446 Y42.200 E4.15203
G1 X104.913 Y42.269 E4.16385
G1 X109.779 Y47.135 E4.31510
G1 X109.371 Y47.330 E4.32502
G1 X104.397 Y42.355 E4.47963
G1 X103.913 Y42.473 E4.49058
G1 X108.988 Y47.548 E4.64832
G1 X108.604 Y47.767 E4.65802
G1 X103.429 Y42.591 E4.81888
G1 X102.959 Y42.724 E4.82960
G1 X108.231 Y47.996 E4.99345
G1 X107.877 Y48.244 E5.00296
G1 X102.493 Y42.860 E5.17030
G1 X102.029 Y42.998 E5.18093
G1 X107.523 Y48.492 E5.35168
G1 X107.184 Y48.755 E5.36111
G1 X101.595 Y43.166 E5.53484
G1 X101.160 Y43.334 E5.54507
G1 X106.850 Y49.023 E5.72191
G1 X106.537 Y49.313 E5.73127
G1 X100.726 Y43.502 E5.91189
G1 X100.310 Y43.688 E5.92190
G1 X106.245 Y49.623 E6.10634
G1 X105.962 Y49.942 E6.11572
G1 X99.899 Y43.879 E6.30418
G1 X99.487 Y44.069 E6.31415
G1 X105.700 Y50.282 E6.50725
G1 X105.438 Y50.622 E6.51669
G1 X99.078 Y44.262 E6.71435
G1 X98.692 Y44.479 E6.72407
G1 X105.205 Y50.992 E6.92651
G1 X104.973 Y51.361 E6.93610
G1 X98.306 Y44.695 E7.14331
G1 X97.920 Y44.911 E7.15303
G1 X104.767 Y51.757 E7.36582
G1 X104.594 Y52.187 E7.37599
G1 X97.543 Y45.136 E7.59514
G1 X97.179 Y45.374 E7.60470
G1 X104.466 Y52.661 E7.83120
G1 X104.364 Y53.161 E7.84240
G1 X96.815 Y45.612 E8.07702
G1 X96.458 Y45.858 E8.08654
G1 X104.314 Y53.713 E8.33069
G1 X104.299 Y54.301 E8.34361
G1 X96.126 Y46.127 E8.59764
G1 X95.794 Y46.397 E8.60704
G1 X104.353 Y54.956 E8.87307
G1 X104.523 Y55.729 E8.89045
G1 X95.465 Y46.671 E9.17196
G1 X95.147 Y46.955 E9.18134
G1 X104.881 Y56.689 E9.48387
G1 X106.828 Y58.636 F12000.000
G1 X111.879 Y63.687 E9.64084 F1200.000
G1 X112.468 Y63.674 E9.65380
G1 X108.027 Y59.233 E9.79184
G1 X108.960 Y59.564 F12000.000
G1 X113.073 Y63.676 E9.91967 F1200.000
G1 X113.678 Y63.680 E9.93297
G1 X109.729 Y59.730 E10.05571
G1 X110.454 Y59.853 E10.07188
G1 X114.283 Y63.683 E10.19090
G1 X114.889 Y63.686 E10.20420
G1 X111.070 Y59.867 E10.32289
G1 X111.686 Y59.881 E10.33643
G1 X115.786 Y63.981 E10.46385
G1 X116.769 Y64.362 F12000.000
G1 X112.302 Y59.895 E10.60268 F1200.000
G1 X112.889 Y59.879 E10.61557
G1 X117.956 Y64.946 E10.77306
G1 X119.542 Y63.522 F12000.000
G1 X115.586 Y59.566 E10.89602 F1200.000
G1 X116.057 Y59.435 E10.90676
G1 X119.982 Y63.359 E11.02874
G1 X120.421 Y63.196 E11.03904
G1 X116.481 Y59.256 E11.16150
G1 X116.905 Y59.078 E11.17161
G1 X121.021 Y63.194 E11.29952
G1 X121.682 Y63.253 E11.31412
G1 X117.313 Y58.884 E11.44993
G1 X117.693 Y58.662 E11.45961
G1 X122.391 Y63.360 E11.60562
G1 X123.168 Y63.535 E11.62313
G1 X118.073 Y58.440 E11.78148
G1 X118.443 Y58.208 E11.79108
G1 X119.874 Y59.638 E11.83553
G1 X120.138 Y59.301 E11.84496
G1 X118.792 Y57.955 E11.88678
G1 X119.142 Y57.702 E11.89626
G1 X120.405 Y58.965 E11.93552
G1 X120.717 Y58.676 E11.94488
G1 X119.478 Y57.436 E11.98340
G1 X119.809 Y57.165 E11.99281
G1 X121.030 Y58.386 E12.03077
G1 X121.343 Y58.097 E12.04014
G1 X120.111 Y56.865 E12.07844
G1 X120.397 Y56.549 E12.08781
G1 X121.656 Y57.808 E12.12692
G1 X121.969 Y57.518 E12.13629
G1 X120.669 Y56.219 E12.17667
G1 X120.937 Y55.884 E12.18608
G1 X122.281 Y57.229 E12.22788
G1 X122.594 Y56.940 E12.23724
G1 X121.204 Y55.549 E12.28045
G1 X121.974 Y55.717 E12.29777
G1 X122.891 Y56.634 E12.32627
G1 E10.32627 F1680.00000
G92 E0
G1 X123.196 Y59.950 F12000.000
G1 E2.00000 F1680.00000
G1 X123.830 Y60.584 E2.01970 F1200.000
G1 X123.610 Y60.966 E2.02939
G1 X122.716 Y60.072 E2.05716
G1 X122.237 Y60.195 E2.06804
G1 X123.483 Y61.442 E2.10679
G1 X123.427 Y61.987 E2.11884
G1 X121.721 Y60.281 E2.17186
G1 X121.196 Y60.359 E2.18352
G1 X123.594 Y62.756 E2.25805
G1 X123.794 Y63.559 E2.27623
G1 X120.618 Y60.382 E2.37496
G1 X115.100 Y59.682 F12000.000
