; generated by Slic3r 1.2.9 on 2015-10-29 at 21:22:25

; external perimeters extrusion width = 0.50mm
; perimeters extrusion width = 0.50mm
; infill extrusion width = 0.50mm
; solid infill extrusion width = 0.50mm
; top infill extrusion width = 0.50mm

M104 S190 ; set temperature
G28 ; home all axes
G1 Z15 F120 ; lift nozzle
M109 S190 ; wait for temperature to be reached
G21 ; set units to millimeters
G90 ; use absolute coordinates
M82 ; use absolute distances for extrusion
G92 E0
M106 S102
G1 E-2.00000 F1680.00000
G92 E0
G1 Z0.400 F12000.000
G1 X27.866 Y37.900 F12000.000
G1 E2.00000 F1680.00000
G1 X31.000 Y37.082 E2.09699 F1200.000
G1 X139.000 Y37.082 E5.33095
G1 X141.222 Y37.479 E5.39854
G1 X143.169 Y38.621 E5.46612 F1200.000
G1 X144.600 Y40.366 E5.53371
G1 X145.418 Y43.500 E5.63069
G1 X145.418 Y126.500 E8.11605
G1 X145.021 Y128.722 E8.18364
G1 X143.879 Y130.669 E8.25122
G1 X142.134 Y132.100 E8.31881
G1 X139.000 Y132.918 E8.41580
G1 X31.000 Y132.918 E11.64976
G1 X28.778 Y132.521 E11.71734
G1 X26.831 Y131.379 E11.78493
G1 X25.400 Y129.634 E11.85251
G1 X24.582 Y126.500 E11.94950
G1 X24.582 Y43.500 E14.43486
G1 X24.979 Y41.278 E14.50245
G1 X26.121 Y39.331 E14.57003
G1 X27.808 Y37.947 E14.63537
G1 E12.63537 F1680.00000
G92 E0
G1 X31.643 Y44.143 F12000.000
G1 E2.00000 F1680.00000
G1 X138.357 Y44.143 E5.00422 F900.000
G1 X138.357 Y125.857 E7.30464
G1 X31.643 Y125.857 E10.30886
G1 X31.643 Y44.218 E12.60717
G1 X31.250 Y43.750 F12000.000
G1 X138.750 Y43.750 E15.63350 F720.000
G1 X138.750 Y126.250 E17.95603
G1 X31.250 Y126.250 E20.98236
G1 X31.250 Y43.825 E23.30278
G1 X31.683 Y44.000 F12000.000
G1 X31.873 Y125.420 F12000.000
G1 X32.080 Y125.627 E23.31103 F1200.000
G1 X32.637 Y125.627 E23.32674
G1 X31.873 Y124.863 E23.35722
G1 X31.873 Y124.307 E23.37293
G1 X33.193 Y125.627 E23.42564
G1 X33.750 Y125.627 E23.44135
G1 X31.873 Y123.750 E23.51628
G1 X31.873 Y123.193 E23.53200
G1 X34.307 Y125.627 E23.62915
G1 X34.864 Y125.627 E23.64487
G1 X31.873 Y122.636 E23.76425
G1 X31.873 Y122.079 E23.77997
G1 X35.421 Y125.627 E23.92158
G1 X35.977 Y125.627 E23.93730
G1 X31.873 Y121.522 E24.10114
G1 X31.873 Y120.966 E24.11685
G1 X36.534 Y125.627 E24.30292
G1 X37.091 Y125.627 E24.31864
G1 X31.873 Y120.409 E24.52693
G1 X31.873 Y119.852 E24.54265
G1 X37.648 Y125.627 E24.77317
G1 X38.205 Y125.627 E24.78888
G1 X31.873 Y119.295 E25.04163
G1 X31.873 Y118.738 E25.05735
G1 X38.762 Y125.627 E25.33232
G1 X39.318 Y125.627 E25.34804
G1 X31.873 Y118.182 E25.64524
G1 X31.873 Y117.625 E25.66096
G1 X39.875 Y125.627 E25.98039
G1 X40.432 Y125.627 E25.99611
G1 X31.873 Y117.068 E26.33777
G1 X31.873 Y116.511 E26.35348
G1 X40.989 Y125.627 E26.71737
G1 X41.546 Y125.627 E26.73309
G1 X31.873 Y115.954 E27.11920
G1 X31.873 Y115.397 E27.13491
G1 X42.103 Y125.627 E27.54326
G1 X42.659 Y125.627 E27.55897
G1 X31.873 Y114.841 E27.98954
G1 X31.873 Y114.284 E28.00526
G1 X43.216 Y125.627 E28.45805
G1 X43.773 Y125.627 E28.47377
G1 X31.873 Y113.727 E28.94879
G1 X31.873 Y113.170 E28.96451
G1 X44.330 Y125.627 E29.46176
G1 X44.887 Y125.627 E29.47748
G1 X31.873 Y112.613 E29.99695
G1 X31.873 Y112.056 E30.01267
G1 X45.444 Y125.627 E30.55438
G1 X46.000 Y125.627 E30.57009
G1 X31.873 Y111.500 E31.13402
G1 X31.873 Y110.943 E31.14974
G1 X46.557 Y125.627 E31.73590
G1 X47.114 Y125.627 E31.75162
G1 X31.873 Y110.386 E32.36001
G1 X31.873 Y109.829 E32.37572
G1 X47.671 Y125.627 E33.00634
G1 X48.228 Y125.627 E33.02206
G1 X31.873 Y109.272 E33.67490
G1 X31.873 Y108.715 E33.69061
G1 X48.785 Y125.627 E34.36568
G1 X49.341 Y125.627 E34.38140
G1 X31.873 Y108.159 E35.07870
G1 X31.873 Y107.602 E35.09442
G1 X49.898 Y125.627 E35.81394
G1 X50.455 Y125.627 E35.82966
G1 X31.873 Y107.045 E36.57141
G1 X31.873 Y106.488 E36.58713
G1 X51.012 Y125.627 E37.35111
G1 X51.569 Y125.627 E37.36682
G1 X31.873 Y105.931 E38.15303
G1 X31.873 Y105.374 E38.16875
G1 X52.126 Y125.627 E38.97718
G1 X52.682 Y125.627 E38.99290
G1 X31.873 Y104.818 E39.82356
G1 X31.873 Y104.261 E39.83928
G1 X53.239 Y125.627 E40.69217
G1 X53.796 Y125.627 E40.70789
G1 X31.873 Y103.704 E41.58300
G1 X31.873 Y103.147 E41.59872
G1 X54.353 Y125.627 E42.49606
G1 X54.910 Y125.627 E42.51178
G1 X31.873 Y102.590 E43.43135
G1 X31.873 Y102.034 E43.44707
G1 X55.466 Y125.627 E44.38887
G1 X56.023 Y125.627 E44.40459
G1 X31.873 Y101.477 E45.36861
G1 X31.873 Y100.920 E45.38433
G1 X56.580 Y125.627 E46.37059
G1 X57.137 Y125.627 E46.38630
G1 X31.873 Y100.363 E47.39478
G1 X31.873 Y99.806 E47.41050
G1 X57.694 Y125.627 E48.44121
G1 X58.251 Y125.627 E48.45693
G1 X31.873 Y99.249 E49.50986
G1 X31.873 Y98.693 E49.52558
G1 X58.807 Y125.627 E50.60075
G1 X59.364 Y125.627 E50.61646
G1 X31.873 Y98.136 E51.71385
G1 X31.873 Y97.579 E51.72957
G1 X59.921 Y125.627 E52.84919
G1 X60.478 Y125.627 E52.86491
G1 X31.873 Y97.022 E54.00675
G1 X31.873 Y96.465 E54.02247
G1 X61.035 Y125.627 E55.18654
G1 X61.592 Y125.627 E55.20226
G1 X31.873 Y95.908 E56.38856
G1 X31.873 Y95.352 E56.40428
G1 X62.148 Y125.627 E57.61281
G1 X62.705 Y125.627 E57.62853
G1 X31.873 Y94.795 E58.85928
G1 X31.873 Y94.238 E58.87500
G1 X63.262 Y125.627 E60.12798
G1 X63.819 Y125.627 E60.14370
G1 X31.873 Y93.681 E61.41891
G1 X31.873 Y93.124 E61.43463
G1 X64.376 Y125.627 E62.73207
G1 X64.933 Y125.627 E62.74779
G1 X31.873 Y92.567 E64.06745
G1 X31.873 Y92.011 E64.08317
G1 X65.489 Y125.627 E65.42506
G1 X66.046 Y125.627 E65.44078
G1 X31.873 Y91.454 E66.80490
G1 X31.873 Y90.897 E66.82062
G1 X66.603 Y125.627 E68.20697
G1 X67.160 Y125.627 E68.22268
G1 X31.873 Y90.340 E69.63126
G1 X31.873 Y89.783 E69.64698
G1 X67.717 Y125.627 E71.07778
G1 X68.274 Y125.627 E71.09350
G1 X31.873 Y89.226 E72.54653
G1 X31.873 Y88.670 E72.56225
G1 X68.830 Y125.627 E74.03750
G1 X69.387 Y125.627 E74.05322
G1 X31.873 Y88.113 E75.55071
G1 X31.873 Y87.556 E75.56643
G1 X69.944 Y125.627 E77.08614
G1 X70.501 Y125.627 E77.10186
G1 X31.873 Y86.999 E78.64380
G1 X31.873 Y86.442 E78.65951
G1 X71.058 Y125.627 E80.22368
G1 X71.615 Y125.627 E80.23940
G1 X31.873 Y85.885 E81.82580
G1 X31.873 Y85.329 E81.84151
G1 X72.171 Y125.627 E83.45014
G1 X72.728 Y125.627 E83.46585
G1 X31.873 Y84.772 E85.09670
G1 X31.873 Y84.215 E85.11242
G1 X73.285 Y125.627 E86.76550
G1 X73.842 Y125.627 E86.78122
G1 X31.873 Y83.658 E88.45652
G1 X31.873 Y83.101 E88.47224
G1 X74.399 Y125.627 E90.16977
G1 X74.955 Y125.627 E90.18549
G1 X31.873 Y82.545 E91.90525
G1 X31.873 Y81.988 E91.92097
G1 X75.512 Y125.627 E93.66296
G1 X76.069 Y125.627 E93.67867
G1 X31.873 Y81.431 E95.44289
G1 X31.873 Y80.874 E95.45861
G1 X76.626 Y125.627 E97.24505
G1 X77.183 Y125.627 E97.26077
G1 X31.873 Y80.317 E99.06944
G1 X31.873 Y79.760 E99.08515
G1 X77.740 Y125.627 E100.91605
G1 X78.296 Y125.627 E100.93177
G1 X31.873 Y79.204 E102.78489
G1 X31.873 Y78.647 E102.80061
G1 X78.853 Y125.627 E104.67596
G1 X79.410 Y125.627 E104.69168
G1 X31.873 Y78.090 E106.58926
G1 X31.873 Y77.533 E106.60498
G1 X79.967 Y125.627 E108.52479
G1 X80.524 Y125.627 E108.54050
G1 X31.873 Y76.976 E110.48254
G1 X31.873 Y76.419 E110.49826
G1 X81.081 Y125.627 E112.46252
G1 X81.637 Y125.627 E112.47824
G1 X31.873 Y75.863 E114.46473
G1 X31.873 Y75.306 E114.48044
G1 X82.194 Y125.627 E116.48916
G1 X82.751 Y125.627 E116.50488
G1 X31.873 Y74.749 E118.53582
G1 X31.873 Y74.192 E118.55154
G1 X83.308 Y125.627 E120.60471
G1 X83.865 Y125.627 E120.62043
G1 X31.873 Y73.635 E122.69583
G1 X31.873 Y73.078 E122.71155
G1 X84.422 Y125.627 E124.80918
G1 X84.978 Y125.627 E124.82489
G1 X31.873 Y72.522 E126.94475
G1 X31.873 Y71.965 E126.96047
G1 X85.535 Y125.627 E129.10255
G1 X86.092 Y125.627 E129.11827
G1 X31.873 Y71.408 E131.28258
G1 X31.873 Y70.851 E131.29829
G1 X86.649 Y125.627 E133.48483
G1 X87.206 Y125.627 E133.50055
G1 X31.873 Y70.294 E135.70931
G1 X31.873 Y69.737 E135.72503
G1 X87.763 Y125.627 E137.95602
G1 X88.319 Y125.627 E137.97174
G1 X31.873 Y69.181 E140.22496
G1 X31.873 Y68.624 E140.24068
G1 X88.876 Y125.627 E142.51612
G1 X89.433 Y125.627 E142.53184
G1 X31.873 Y68.067 E144.82952
G1 X31.873 Y67.510 E144.84523
G1 X89.990 Y125.627 E147.16514
G1 X90.547 Y125.627 E147.18085
G1 X31.873 Y66.953 E149.52298
G1 X31.873 Y66.397 E149.53870
G1 X91.103 Y125.627 E151.90306
G1 X91.660 Y125.627 E151.91878
G1 X31.873 Y65.840 E154.30536
G1 X31.873 Y65.283 E154.32108
G1 X92.217 Y125.627 E156.72989
G1 X92.774 Y125.627 E156.74561
G1 X31.873 Y64.726 E159.17665
G1 X31.873 Y64.169 E159.19236
G1 X93.331 Y125.627 E161.64563
G1 X93.888 Y125.627 E161.66135
G1 X31.873 Y63.612 E164.13684
G1 X31.873 Y63.056 E164.15256
G1 X94.444 Y125.627 E166.65028
G1 X95.001 Y125.627 E166.66600
G1 X31.873 Y62.499 E169.18595
G1 X31.873 Y61.942 E169.20167
G1 X95.558 Y125.627 E171.74384
G1 X96.115 Y125.627 E171.75956
G1 X31.873 Y61.385 E174.32396
G1 X31.873 Y60.828 E174.33968
G1 X96.672 Y125.627 E176.92631
G1 X97.229 Y125.627 E176.94203
G1 X31.873 Y60.271 E179.55089
G1 X31.873 Y59.715 E179.56661
G1 X97.785 Y125.627 E182.19769
G1 X98.342 Y125.627 E182.21341
G1 X31.873 Y59.158 E184.86673
G1 X31.873 Y58.601 E184.88244
G1 X98.899 Y125.627 E187.55798
G1 X99.456 Y125.627 E187.57370
G1 X31.873 Y58.044 E190.27147
G1 X31.873 Y57.487 E190.28719
G1 X100.013 Y125.627 E193.00719
G1 X100.570 Y125.627 E193.02290
G1 X31.873 Y56.930 E195.76513
G1 X31.873 Y56.374 E195.78084
G1 X101.126 Y125.627 E198.54530
G1 X101.683 Y125.627 E198.56101
G1 X31.873 Y55.817 E201.34769
G1 X31.873 Y55.260 E201.36341
G1 X102.240 Y125.627 E204.17232
G1 X102.797 Y125.627 E204.18803
G1 X31.873 Y54.703 E207.01917
G1 X31.873 Y54.146 E207.03488
G1 X103.354 Y125.627 E209.88825
G1 X103.911 Y125.627 E209.90396
G1 X31.873 Y53.589 E212.77955
G1 X31.873 Y53.033 E212.79527
G1 X104.467 Y125.627 E215.69309
G1 X105.024 Y125.627 E215.70880
G1 X31.873 Y52.476 E218.62885
G1 X31.873 Y51.919 E218.64456
G1 X105.581 Y125.627 E221.58684
G1 X106.138 Y125.627 E221.60255
G1 X31.873 Y51.362 E224.56705
G1 X31.873 Y50.805 E224.58277
G1 X106.695 Y125.627 E227.56950
G1 X107.252 Y125.627 E227.58521
G1 X31.873 Y50.248 E230.59417
G1 X31.873 Y49.692 E230.60988
G1 X107.808 Y125.627 E233.64107
G1 X108.365 Y125.627 E233.65678
G1 X31.873 Y49.135 E236.71019
G1 X31.873 Y48.578 E236.72591
G1 X108.922 Y125.627 E239.80154
G1 X109.479 Y125.627 E239.81726
G1 X31.873 Y48.021 E242.91513
G1 X31.873 Y47.464 E242.93084
G1 X110.036 Y125.627 E246.05093
G1 X110.592 Y125.627 E246.06665
G1 X31.873 Y46.908 E249.20897
G1 X31.873 Y46.351 E249.22469
G1 X111.149 Y125.627 E252.38923
G1 X111.706 Y125.627 E252.40495
G1 X31.873 Y45.794 E255.59172
G1 X31.873 Y45.237 E255.60744
G1 X112.263 Y125.627 E258.81644
G1 X112.820 Y125.627 E258.83216
G1 X31.873 Y44.680 E262.06339
G1 X32.123 Y44.373 E262.07456
G1 X113.377 Y125.627 E265.31805
G1 X113.933 Y125.627 E265.33376
G1 X32.680 Y44.373 E268.57725
G1 X33.237 Y44.373 E268.59297
G1 X114.490 Y125.627 E271.83645
G1 X115.047 Y125.627 E271.85217
G1 X33.793 Y44.373 E275.09566
G1 X34.350 Y44.373 E275.11137
G1 X115.604 Y125.627 E278.35486
G1 X116.161 Y125.627 E278.37058
G1 X34.907 Y44.373 E281.61406
G1 X35.464 Y44.373 E281.62978
G1 X116.718 Y125.627 E284.87327
G1 X117.274 Y125.627 E284.88899
G1 X36.021 Y44.373 E288.13247
G1 X36.578 Y44.373 E288.14819
G1 X117.831 Y125.627 E291.39167
G1 X118.388 Y125.627 E291.40739
G1 X37.134 Y44.373 E294.65088
G1 X37.691 Y44.373 E294.66660
G1 X118.945 Y125.627 E297.91008
G1 X119.502 Y125.627 E297.92580
G1 X38.248 Y44.373 E301.16929
G1 X38.805 Y44.373 E301.18500
G1 X120.059 Y125.627 E304.42849
G1 X120.615 Y125.627 E304.44421
G1 X39.362 Y44.373 E307.68769
G1 X39.918 Y44.373 E307.70341
G1 X121.172 Y125.627 E310.94690
G1 X121.729 Y125.627 E310.96261
G1 X40.475 Y44.373 E314.20610
G1 X41.032 Y44.373 E314.22182
G1 X122.286 Y125.627 E317.46530
G1 X122.843 Y125.627 E317.48102
G1 X41.589 Y44.373 E320.72451
G1 X42.146 Y44.373 E320.74022
G1 X123.400 Y125.627 E323.98371
G1 X123.956 Y125.627 E323.99943
G1 X42.703 Y44.373 E327.24291
G1 X43.259 Y44.373 E327.25863
G1 X124.513 Y125.627 E330.50212
G1 X125.070 Y125.627 E330.51783
G1 X43.816 Y44.373 E333.76132
G1 X44.373 Y44.373 E333.77704
G1 X125.627 Y125.627 E337.02052
G1 X126.184 Y125.627 E337.03624
G1 X44.930 Y44.373 E340.27973
G1 X45.487 Y44.373 E340.29544
G1 X126.740 Y125.627 E343.53893
G1 X127.297 Y125.627 E343.55465
G1 X46.044 Y44.373 E346.79813
G1 X46.600 Y44.373 E346.81385
G1 X127.854 Y125.627 E350.05734
G1 X128.411 Y125.627 E350.07305
G1 X47.157 Y44.373 E353.31654
G1 X47.714 Y44.373 E353.33226
G1 X128.968 Y125.627 E356.57574
G1 X129.525 Y125.627 E356.59146
G1 X48.271 Y44.373 E359.83495
G1 X48.828 Y44.373 E359.85066
G1 X130.081 Y125.627 E363.09415
G1 X130.638 Y125.627 E363.10987
G1 X49.385 Y44.373 E366.35335
G1 X49.941 Y44.373 E366.36907
G1 X131.195 Y125.627 E369.61256
G1 X131.752 Y125.627 E369.62827
G1 X50.498 Y44.373 E372.87176
G1 X51.055 Y44.373 E372.88748
G1 X132.309 Y125.627 E376.13096
G1 X132.866 Y125.627 E376.14668
G1 X51.612 Y44.373 E379.39017
G1 X52.169 Y44.373 E379.40589
G1 X133.422 Y125.627 E382.64937
G1 X133.979 Y125.627 E382.66509
G1 X52.726 Y44.373 E385.90858
G1 X53.282 Y44.373 E385.92429
G1 X134.536 Y125.627 E389.16778
G1 X135.093 Y125.627 E389.18350
G1 X53.839 Y44.373 E392.42698
G1 X54.396 Y44.373 E392.44270
G1 X135.650 Y125.627 E395.68619
G1 X136.207 Y125.627 E395.70190
G1 X54.953 Y44.373 E398.94539
G1 X55.510 Y44.373 E398.96111
G1 X136.763 Y125.627 E402.20459
G1 X137.320 Y125.627 E402.22031
G1 X56.067 Y44.373 E405.46380
G1 X56.623 Y44.373 E405.47951
G1 X137.877 Y125.627 E408.72300
G1 X138.127 Y125.320 E408.73417
G1 X57.180 Y44.373 E411.96540
G1 X57.737 Y44.373 E411.98112
G1 X138.127 Y124.763 E415.19012
G1 X138.127 Y124.206 E415.20584
G1 X58.294 Y44.373 E418.39261
G1 X58.851 Y44.373 E418.40833
G1 X138.127 Y123.649 E421.57288
G1 X138.127 Y123.093 E421.58860
G1 X59.407 Y44.373 E424.73092
G1 X59.964 Y44.373 E424.74663
G1 X138.127 Y122.536 E427.86673
G1 X138.127 Y121.979 E427.88245
G1 X60.521 Y44.373 E430.98031
G1 X61.078 Y44.373 E430.99603
G1 X138.127 Y121.422 E434.07167
G1 X138.127 Y120.865 E434.08738
G1 X61.635 Y44.373 E437.14079
G1 X62.192 Y44.373 E437.15651
G1 X138.127 Y120.308 E440.18769
G1 X138.127 Y119.752 E440.20341
G1 X62.748 Y44.373 E443.21237
G1 X63.305 Y44.373 E443.22808
G1 X138.127 Y119.195 E446.21481
G1 X138.127 Y118.638 E446.23053
G1 X63.862 Y44.373 E449.19503
G1 X64.419 Y44.373 E449.21075
G1 X138.127 Y118.081 E452.15302
G1 X138.127 Y117.524 E452.16874
G1 X64.976 Y44.373 E455.08878
G1 X65.533 Y44.373 E455.10450
G1 X138.127 Y116.967 E458.00232
G1 X138.127 Y116.411 E458.01804
G1 X66.089 Y44.373 E460.89363
G1 X66.646 Y44.373 E460.90934
G1 X138.127 Y115.854 E463.76271
G1 X138.127 Y115.297 E463.77843
G1 X67.203 Y44.373 E466.60956
G1 X67.760 Y44.373 E466.62528
G1 X138.127 Y114.740 E469.43419
G1 X138.127 Y114.183 E469.44990
G1 X68.317 Y44.373 E472.23659
G1 X68.874 Y44.373 E472.25230
G1 X138.127 Y113.626 E475.01676
G1 X138.127 Y113.070 E475.03247
G1 X69.430 Y44.373 E477.77470
G1 X69.987 Y44.373 E477.79042
G1 X138.127 Y112.513 E480.51042
G1 X138.127 Y111.956 E480.52613
G1 X70.544 Y44.373 E483.22390
G1 X71.101 Y44.373 E483.23962
G1 X138.127 Y111.399 E485.91516
G1 X138.127 Y110.842 E485.93088
G1 X71.658 Y44.373 E488.58420
G1 X72.215 Y44.373 E488.59991
G1 X138.127 Y110.285 E491.23100
G1 X138.127 Y109.729 E491.24672
G1 X72.771 Y44.373 E493.85558
G1 X73.328 Y44.373 E493.87130
G1 X138.127 Y109.172 E496.45793
G1 X138.127 Y108.615 E496.47365
G1 X73.885 Y44.373 E499.03806
G1 X74.442 Y44.373 E499.05377
G1 X138.127 Y108.058 E501.59595
G1 X138.127 Y107.501 E501.61167
G1 X74.999 Y44.373 E504.13162
G1 X75.555 Y44.373 E504.14734
G1 X138.127 Y106.945 E506.64506
G1 X138.127 Y106.388 E506.66078
G1 X76.112 Y44.373 E509.13628
G1 X76.669 Y44.373 E509.15199
G1 X138.127 Y105.831 E511.60526
G1 X138.127 Y105.274 E511.62098
G1 X77.226 Y44.373 E514.05202
G1 X77.783 Y44.373 E514.06774
G1 X138.127 Y104.717 E516.47655
G1 X138.127 Y104.160 E516.49227
G1 X78.340 Y44.373 E518.87886
G1 X78.896 Y44.373 E518.89457
G1 X138.127 Y103.604 E521.25893
G1 X138.127 Y103.047 E521.27465
G1 X79.453 Y44.373 E523.61678
G1 X80.010 Y44.373 E523.63250
G1 X138.127 Y102.490 E525.95240
G1 X138.127 Y101.933 E525.96812
G1 X80.567 Y44.373 E528.26580
G1 X81.124 Y44.373 E528.28151
G1 X138.127 Y101.376 E530.55696
G1 X138.127 Y100.819 E530.57268
