; generated by Slic3r 1.2.9 on 2016-01-04 at 13:07:58

; external perimeters extrusion width = 0.50mm
; perimeters extrusion width = 0.50mm
; infill extrusion width = 0.50mm
; solid infill extrusion width = 0.50mm
; top infill extrusion width = 0.50mm

M104 S190 ; set temperature
G28 ; home all axes
G1 Z15 F120 ; lift nozzle
M109 S190 ; wait for temperature to be reached
G21 ; set units to millimeters
G90 ; use absolute coordinates
M82 ; use absolute distances for extrusion
G92 E0
M106 S102
G1 E-2.00000 F1680.00000
G92 E0
G1 Z0.200 F12000.000
G1 X52.641 Y62.638 F12000.000
G1 E2.00000 F1680.00000
G1 X100.427 Y22.478 E3.75726 F1200.000
G1 X102.590 Y20.802 E3.83427
G1 X104.580 Y19.446 E3.90209
G1 X106.828 Y18.102 E3.97581
G1 X109.152 Y16.902 E4.04945
G1 X109.531 Y16.724 E4.06121
G1 X111.549 Y15.851 E4.12312
G1 X114.005 Y14.953 E4.19674
G1 X116.515 Y14.210 E4.27046
G1 X119.066 Y13.626 E4.34411
G1 X119.476 Y13.548 E4.35587
G1 X122.062 Y13.152 E4.42952
G1 X124.668 Y12.918 E4.50318
G1 X126.866 Y12.849 E4.56509
G1 X127.394 Y12.853 E4.57995
G1 X129.900 Y12.945 E4.65053 F1200.000
G1 X132.089 Y13.152 E4.71243
G1 X134.675 Y13.548 E4.78608
G1 X137.231 Y14.106 E4.85974
G1 X139.747 Y14.823 E4.93341
G1 X142.214 Y15.697 E5.00709
G1 X144.620 Y16.724 E5.08073
G1 X144.999 Y16.902 E5.09250
G1 X147.323 Y18.102 E5.16613
G1 X149.571 Y19.446 E5.23986
G1 X151.725 Y20.926 E5.31345
G1 X153.787 Y22.541 E5.38718
G1 X155.740 Y24.281 E5.46080
G1 X157.581 Y26.141 E5.53449
G1 X159.301 Y28.111 E5.60812
G1 X160.897 Y30.190 E5.68188
G1 X162.132 Y32.008 E5.74377
G1 X163.473 Y34.250 E5.81732
G1 X164.674 Y36.578 E5.89105
G1 X165.725 Y38.974 E5.96471
G1 X166.623 Y41.430 E6.03835
G1 X167.366 Y43.941 E6.11206
G1 X167.949 Y46.489 E6.18565
G1 X168.028 Y46.901 E6.19745
G1 X168.424 Y49.487 E6.27111
G1 X168.658 Y52.094 E6.34478
G1 X168.727 Y54.709 E6.41844
G1 X168.631 Y57.325 E6.49211
G1 X168.372 Y59.928 E6.56577
G1 X167.949 Y62.512 E6.63946
G1 X167.366 Y65.060 E6.71306
G1 X166.623 Y67.571 E6.78677
G1 X165.878 Y69.640 E6.84867
G1 X164.852 Y72.045 E6.92230
G1 X163.676 Y74.382 E6.99596
G1 X162.353 Y76.644 E7.06971
G1 X160.897 Y78.811 E7.14324
G1 X160.649 Y79.152 E7.15510
G1 X159.035 Y81.211 E7.22873
G1 X157.295 Y83.165 E7.30241
G1 X155.580 Y84.874 E7.37056
G1 X88.772 Y147.361 E9.94580
G1 X87.889 Y148.058 E9.97746
G1 X60.589 Y166.051 E10.89793
G1 X58.480 Y166.966 E10.96264
G1 X56.927 Y167.149 E11.00666
G1 X17.924 Y167.149 E12.10465
G1 X15.660 Y166.752 E12.16936
G1 X13.666 Y165.609 E12.23407
G1 X12.181 Y163.855 E12.29878
G1 X11.380 Y161.700 E12.36349
G1 X11.270 Y160.495 E12.39757
G1 X11.270 Y100.506 E14.08637
G1 X11.667 Y98.242 E14.15108
G1 X12.811 Y96.248 E14.21579
G1 X13.643 Y95.412 E14.24901
G1 X52.584 Y62.686 E15.68098
G1 E13.68098 F1680.00000
G92 E0
G1 X136.002 Y54.984 F12000.000
G1 E2.00000 F1680.00000
G1 X135.971 Y54.500 E2.00907 F900.000
G1 X136.002 Y54.017 E2.01814
G1 X136.044 Y53.753 E2.02316
G1 X136.162 Y53.293 E2.03204
G1 X136.254 Y53.041 E2.03708
G1 X136.454 Y52.614 E2.04591
G1 X136.591 Y52.382 E2.05096
G1 X136.869 Y52.000 E2.05982
G1 X137.047 Y51.798 E2.06486
G1 X137.392 Y51.474 E2.07372
G1 X137.809 Y51.171 E2.08339
G1 X138.223 Y50.943 E2.09225
G1 X138.470 Y50.837 E2.09728
G1 X138.930 Y50.687 E2.10634
G1 X139.415 Y50.595 E2.11560
G1 X139.887 Y50.565 E2.12445 F900.000
G1 X140.165 Y50.573 E2.12968
G1 X140.635 Y50.632 E2.13855
G1 X140.898 Y50.690 E2.14360
G1 X141.359 Y50.840 E2.15267
G1 X141.796 Y51.046 E2.16172
G1 X142.232 Y51.322 E2.17140
G1 X142.612 Y51.638 E2.18065
G1 X143.096 Y52.185 E2.19434
G1 X143.467 Y52.814 E2.20803
G1 X143.653 Y53.284 E2.21749
G1 X143.774 Y53.752 E2.22655
G1 X143.816 Y54.018 E2.23160
G1 X143.845 Y54.496 E2.24057
G1 X143.824 Y54.930 E2.24872
G1 X143.774 Y55.249 E2.25477
G1 X143.653 Y55.717 E2.26383
G1 X143.467 Y56.186 E2.27328
G1 X143.096 Y56.816 E2.28697
G1 X142.612 Y57.363 E2.30066
G1 X142.232 Y57.679 E2.30992
G1 X141.796 Y57.955 E2.31959
G1 X141.359 Y58.161 E2.32865
G1 X140.898 Y58.311 E2.33771
G1 X140.392 Y58.407 E2.34737
G1 X139.919 Y58.437 E2.35625
G1 X139.651 Y58.428 E2.36128
G1 X139.171 Y58.368 E2.37035
G1 X138.703 Y58.247 E2.37940
G1 X138.450 Y58.156 E2.38444
G1 X138.013 Y57.951 E2.39349
G1 X137.604 Y57.691 E2.40256
G1 X137.392 Y57.527 E2.40759
G1 X137.047 Y57.203 E2.41645
G1 X136.869 Y57.001 E2.42149
G1 X136.591 Y56.619 E2.43035
G1 X136.454 Y56.387 E2.43540
G1 X136.254 Y55.960 E2.44423
G1 X136.162 Y55.708 E2.44927
G1 X136.044 Y55.248 E2.45815
G1 X136.014 Y55.058 E2.46177
G1 X136.444 Y54.989 F12000.000
G1 X136.408 Y54.500 E2.47095 F900.000
G1 X136.436 Y54.066 E2.47912
G1 X136.471 Y53.841 E2.48338
G1 X136.578 Y53.422 E2.49148
G1 X136.656 Y53.208 E2.49575
G1 X136.839 Y52.818 E2.50382
G1 X136.955 Y52.622 E2.50810
G1 X137.209 Y52.272 E2.51619
G1 X137.360 Y52.101 E2.52046
G1 X137.675 Y51.806 E2.52855
G1 X138.037 Y51.543 E2.53693
G1 X138.415 Y51.335 E2.54502
G1 X138.624 Y51.245 E2.54928
G1 X139.038 Y51.110 E2.55745
G1 X139.470 Y51.028 E2.56568
G1 X139.894 Y51.001 E2.57365 F900.000
G1 X140.132 Y51.007 E2.57810
G1 X140.560 Y51.062 E2.58620
G1 X140.783 Y51.111 E2.59048
G1 X141.198 Y51.246 E2.59864
G1 X141.592 Y51.431 E2.60680
G1 X141.970 Y51.671 E2.61519
G1 X142.308 Y51.951 E2.62342
G1 X142.742 Y52.443 E2.63569
G1 X143.075 Y53.007 E2.64797
G1 X143.238 Y53.419 E2.65627
G1 X143.347 Y53.841 E2.66444
G1 X143.382 Y54.066 E2.66871
G1 X143.409 Y54.499 E2.67684
G1 X143.390 Y54.885 E2.68409
G1 X143.347 Y55.160 E2.68931
G1 X143.238 Y55.582 E2.69747
G1 X143.075 Y55.994 E2.70578
G1 X142.742 Y56.558 E2.71805
G1 X142.308 Y57.050 E2.73033
G1 X141.970 Y57.330 E2.73856
G1 X141.592 Y57.570 E2.74695
G1 X141.198 Y57.755 E2.75510
G1 X140.783 Y57.890 E2.76327
G1 X140.344 Y57.974 E2.77165
G1 X139.912 Y58.001 E2.77975
G1 X139.685 Y57.994 E2.78402
G1 X139.253 Y57.939 E2.79218
G1 X138.831 Y57.831 E2.80034
G1 X138.617 Y57.753 E2.80461
G1 X138.223 Y57.568 E2.81276
G1 X137.855 Y57.335 E2.82093
G1 X137.675 Y57.195 E2.82519
G1 X137.360 Y56.900 E2.83329
G1 X137.209 Y56.729 E2.83756
G1 X136.955 Y56.379 E2.84565
G1 X136.839 Y56.183 E2.84992
G1 X136.656 Y55.793 E2.85799
G1 X136.578 Y55.579 E2.86227
G1 X136.456 Y55.063 E2.87219
G1 X135.993 Y54.799 F12000.000
G1 X118.180 Y54.500 F12000.000
G1 X118.149 Y54.984 E2.88126 F900.000
G1 X118.107 Y55.248 E2.88628
G1 X117.989 Y55.708 E2.89516
G1 X117.897 Y55.960 E2.90020
G1 X117.697 Y56.387 E2.90903
G1 X117.560 Y56.619 E2.91408
G1 X117.282 Y57.001 E2.92294
G1 X117.104 Y57.203 E2.92798
G1 X116.759 Y57.527 E2.93684
G1 X116.547 Y57.691 E2.94187
G1 X116.138 Y57.951 E2.95094
G1 X115.701 Y58.156 E2.95999
G1 X115.448 Y58.247 E2.96503
G1 X114.980 Y58.368 E2.97409
G1 X114.500 Y58.428 E2.98315
G1 X114.232 Y58.437 E2.98819
G1 X113.759 Y58.407 E2.99706
G1 X113.505 Y58.367 E3.00188
G1 X113.253 Y58.311 E3.00673
G1 X112.792 Y58.161 E3.01579
G1 X112.355 Y57.955 E3.02484
G1 X111.919 Y57.679 E3.03452
G1 X111.539 Y57.363 E3.04378
G1 X111.055 Y56.816 E3.05747
G1 X110.684 Y56.186 E3.07116
G1 X110.499 Y55.720 E3.08056
G1 X110.383 Y55.284 E3.08900
G1 X110.335 Y54.983 E3.09473
G1 X110.306 Y54.500 E3.10378
G1 X110.335 Y54.018 E3.11283
G1 X110.377 Y53.752 E3.11789
G1 X110.496 Y53.294 E3.12674
G1 X110.685 Y52.815 E3.13641
G1 X110.913 Y52.401 E3.14525
G1 X111.063 Y52.178 E3.15029
G1 X111.366 Y51.814 E3.15917
G1 X111.555 Y51.624 E3.16418
G1 X111.919 Y51.322 E3.17305
G1 X112.142 Y51.171 E3.17809
G1 X112.556 Y50.943 E3.18695
G1 X112.803 Y50.837 E3.19198
G1 X113.263 Y50.687 E3.20104
G1 X113.748 Y50.595 E3.21030
G1 X114.221 Y50.565 E3.21918 F900.000
G1 X114.499 Y50.573 E3.22440
G1 X114.980 Y50.633 E3.23348
G1 X115.448 Y50.754 E3.24254
G1 X115.701 Y50.845 E3.24758
G1 X116.138 Y51.050 E3.25663
G1 X116.547 Y51.310 E3.26570
G1 X116.759 Y51.474 E3.27073
G1 X117.104 Y51.798 E3.27959
G1 X117.282 Y52.000 E3.28463
G1 X117.560 Y52.382 E3.29349
G1 X117.697 Y52.614 E3.29854
G1 X117.897 Y53.041 E3.30737
G1 X117.989 Y53.293 E3.31241
G1 X118.107 Y53.753 E3.32129
G1 X118.149 Y54.017 E3.32631
G1 X118.175 Y54.426 E3.33398
G1 X117.740 Y54.453 F12000.000
G1 X117.715 Y54.935 E3.34302 F900.000
G1 X117.680 Y55.160 E3.34728
G1 X117.573 Y55.579 E3.35538
G1 X117.495 Y55.793 E3.35965
G1 X117.312 Y56.183 E3.36772
G1 X117.196 Y56.379 E3.37200
G1 X116.942 Y56.729 E3.38009
G1 X116.791 Y56.900 E3.38436
G1 X116.476 Y57.195 E3.39245
G1 X116.296 Y57.335 E3.39671
G1 X115.928 Y57.568 E3.40488
G1 X115.534 Y57.753 E3.41304
G1 X115.320 Y57.831 E3.41730
G1 X114.898 Y57.939 E3.42546
G1 X114.466 Y57.994 E3.43363
G1 X114.239 Y58.001 E3.43789
G1 X113.807 Y57.974 E3.44600
G1 X113.587 Y57.939 E3.45018
G1 X113.368 Y57.890 E3.45438
G1 X112.953 Y57.755 E3.46254
G1 X112.559 Y57.570 E3.47070
G1 X112.181 Y57.330 E3.47909
G1 X111.843 Y57.050 E3.48732
G1 X111.409 Y56.558 E3.49960
G1 X111.076 Y55.994 E3.51187
G1 X110.914 Y55.583 E3.52016
G1 X110.810 Y55.194 E3.52771
G1 X110.769 Y54.935 E3.53262
G1 X110.742 Y54.500 E3.54078
G1 X110.769 Y54.066 E3.54894
G1 X110.804 Y53.841 E3.55321
G1 X110.912 Y53.423 E3.56130
G1 X111.077 Y53.007 E3.56968
G1 X111.285 Y52.629 E3.57777
G1 X111.412 Y52.440 E3.58203
G1 X111.688 Y52.107 E3.59013
G1 X111.849 Y51.946 E3.59439
G1 X112.181 Y51.671 E3.60247
G1 X112.370 Y51.543 E3.60675
G1 X112.748 Y51.335 E3.61484
G1 X112.957 Y51.245 E3.61910
G1 X113.371 Y51.110 E3.62726
G1 X113.803 Y51.028 E3.63550
G1 X114.228 Y51.001 E3.64348 F900.000
G1 X114.466 Y51.007 E3.64793
G1 X114.898 Y51.062 E3.65611
G1 X115.320 Y51.170 E3.66426
G1 X115.534 Y51.248 E3.66853
G1 X115.928 Y51.433 E3.67669
G1 X116.296 Y51.666 E3.68486
G1 X116.476 Y51.806 E3.68912
G1 X116.791 Y52.101 E3.69721
G1 X116.942 Y52.272 E3.70148
G1 X117.196 Y52.622 E3.70957
G1 X117.312 Y52.818 E3.71384
G1 X117.495 Y53.208 E3.72192
G1 X117.573 Y53.422 E3.72619
G1 X117.680 Y53.841 E3.73428
G1 X117.735 Y54.379 E3.74441
G1 X118.158 Y54.695 F12000.000
G1 E1.74441 F1680.00000
G92 E0
G1 X93.313 Y60.591 F12000.000
G1 E2.00000 F1680.00000
G1 X93.032 Y58.802 E2.03394 F900.000
G1 X92.829 Y56.655 E2.07434
G1 X92.761 Y54.500 E2.11473
G1 X92.829 Y52.346 E2.15512
G1 X93.032 Y50.199 E2.19552
G1 X93.377 Y48.001 E2.23721
G1 X93.845 Y45.909 E2.27738
G1 X94.443 Y43.850 E2.31754
G1 X95.170 Y41.832 E2.35775
G1 X96.021 Y39.865 E2.39791
G1 X96.993 Y37.955 E2.43807
G1 X98.085 Y36.110 E2.47824
G1 X99.289 Y34.337 E2.51839
G1 X100.603 Y32.644 E2.55855
G1 X102.021 Y31.036 E2.59872
G1 X103.537 Y29.520 E2.63888
G1 X105.146 Y28.101 E2.67909
G1 X106.841 Y26.787 E2.71927
G1 X108.689 Y25.528 E2.76117
G1 X110.545 Y24.431 E2.80157
G1 X112.466 Y23.452 E2.84196
G1 X114.444 Y22.596 E2.88235
G1 X116.471 Y21.866 E2.92273
G1 X118.542 Y21.265 E2.96313
G1 X120.646 Y20.794 E3.00352
G1 X122.774 Y20.457 E3.04390
G1 X124.920 Y20.254 E3.08427
G1 X127.184 Y20.190 E3.12673
G1 X129.230 Y20.254 E3.16508
G1 X131.377 Y20.457 E3.20547 F900.000
G1 X133.505 Y20.794 E3.24585
G1 X135.609 Y21.265 E3.28625
G1 X137.680 Y21.866 E3.32665
G1 X139.707 Y22.596 E3.36703
G1 X141.685 Y23.452 E3.40742
G1 X143.606 Y24.431 E3.44781
G1 X145.462 Y25.528 E3.48821
G1 X147.244 Y26.740 E3.52859
G1 X148.948 Y28.061 E3.56899
G1 X150.565 Y29.487 E3.60938
G1 X152.089 Y31.011 E3.64977
G1 X153.515 Y32.628 E3.69016
G1 X154.836 Y34.331 E3.73056
G1 X156.047 Y36.114 E3.77094
G1 X157.145 Y37.970 E3.81134
G1 X158.124 Y39.890 E3.85173
G1 X158.980 Y41.869 E3.89212
G1 X159.710 Y43.897 E3.93251
G1 X160.311 Y45.967 E3.97290
G1 X160.782 Y48.071 E4.01329
G1 X161.119 Y50.200 E4.05368
G1 X161.322 Y52.346 E4.09407
G1 X161.390 Y54.500 E4.13446
G1 X161.322 Y56.655 E4.17486
G1 X161.119 Y58.801 E4.21525
G1 X160.782 Y60.930 E4.25564
G1 X160.311 Y63.034 E4.29603
G1 X159.710 Y65.104 E4.33642
G1 X158.980 Y67.132 E4.37681
G1 X158.124 Y69.111 E4.41720
G1 X157.145 Y71.031 E4.45759
G1 X156.047 Y72.887 E4.49799
G1 X154.836 Y74.670 E4.53837
G1 X153.515 Y76.373 E4.57877
G1 X152.089 Y77.990 E4.61916
G1 X150.565 Y79.514 E4.65955
G1 X148.948 Y80.940 E4.69994
G1 X147.244 Y82.261 E4.74034
G1 X145.462 Y83.473 E4.78072
G1 X143.606 Y84.570 E4.82112
G1 X141.685 Y85.549 E4.86151
G1 X139.707 Y86.405 E4.90190
G1 X137.680 Y87.135 E4.94228
G1 X135.609 Y87.736 E4.98268
G1 X133.505 Y88.207 E5.02308
G1 X131.377 Y88.544 E5.06345
G1 X129.230 Y88.747 E5.10385
G1 X127.075 Y88.815 E5.14424
G1 X124.921 Y88.747 E5.18464
G1 X122.774 Y88.544 E5.22503
G1 X120.646 Y88.207 E5.26541
G1 X118.542 Y87.736 E5.30581
G1 X116.471 Y87.135 E5.34621
G1 X114.444 Y86.405 E5.38658
G1 X112.466 Y85.549 E5.42698
G1 X110.545 Y84.570 E5.46737
G1 X108.689 Y83.473 E5.50776
G1 X106.843 Y82.216 E5.54961
G1 X105.146 Y80.900 E5.58985
G1 X103.538 Y79.482 E5.63001
G1 X102.021 Y77.965 E5.67022
G1 X100.603 Y76.357 E5.71038
G1 X99.289 Y74.664 E5.75054
G1 X98.085 Y72.891 E5.79070
G1 X96.993 Y71.046 E5.83087
G1 X96.021 Y69.136 E5.87103
G1 X95.170 Y67.169 E5.91119
G1 X94.443 Y65.150 E5.95139
G1 X93.845 Y63.092 E5.99156
G1 X93.377 Y61.000 E6.03172
G1 X93.324 Y60.665 E6.03807
G1 X92.894 Y60.733 F12000.000
G1 X92.600 Y58.856 E6.07366 F720.000
G1 X92.394 Y56.682 E6.11457
G1 X92.326 Y54.500 E6.15548
G1 X92.394 Y52.319 E6.19638
G1 X92.600 Y50.145 E6.23729
G1 X92.949 Y47.920 E6.27949
G1 X93.423 Y45.801 E6.32017
G1 X94.028 Y43.716 E6.36086
G1 X94.764 Y41.671 E6.40157
G1 X95.626 Y39.679 E6.44225
G1 X96.612 Y37.745 E6.48292
G1 X97.717 Y35.876 E6.52360
G1 X98.937 Y34.081 E6.56427
G1 X100.267 Y32.366 E6.60495
G1 X101.703 Y30.737 E6.64562
G1 X103.238 Y29.202 E6.68630
G1 X104.868 Y27.765 E6.72702
G1 X106.584 Y26.434 E6.76771
G1 X108.456 Y25.160 E6.81013
G1 X110.335 Y24.049 E6.85104
G1 X112.280 Y23.058 E6.89194
G1 X114.284 Y22.191 E6.93284
G1 X116.337 Y21.451 E6.97374
G1 X118.434 Y20.842 E7.01465
G1 X120.564 Y20.366 E7.05556
G1 X122.720 Y20.025 E7.09645
G1 X124.893 Y19.819 E7.13735
G1 X127.185 Y19.754 E7.18031
G1 X129.258 Y19.819 E7.21917
G1 X131.431 Y20.025 E7.26007 F720.000
G1 X133.587 Y20.366 E7.30097
G1 X135.717 Y20.842 E7.34187
G1 X137.814 Y21.451 E7.38279
G1 X139.867 Y22.191 E7.42368
G1 X141.871 Y23.058 E7.46458
G1 X143.816 Y24.049 E7.50549
G1 X145.695 Y25.160 E7.54640
G1 X147.500 Y26.387 E7.58729
G1 X149.226 Y27.725 E7.62821
G1 X150.863 Y29.169 E7.66911
G1 X152.407 Y30.713 E7.71002
G1 X153.851 Y32.350 E7.75092
G1 X155.189 Y34.075 E7.79183
G1 X156.415 Y35.881 E7.83272
G1 X157.527 Y37.760 E7.87363
G1 X158.518 Y39.705 E7.91453
G1 X159.385 Y41.708 E7.95544
G1 X160.125 Y43.762 E7.99634
G1 X160.733 Y45.859 E8.03724
G1 X161.210 Y47.989 E8.07815
G1 X161.551 Y50.145 E8.11905
G1 X161.757 Y52.319 E8.15996
G1 X161.825 Y54.500 E8.20086
G1 X161.757 Y56.682 E8.24177
G1 X161.551 Y58.856 E8.28267
G1 X161.210 Y61.012 E8.32358
G1 X160.733 Y63.142 E8.36448
G1 X160.125 Y65.239 E8.40538
G1 X159.385 Y67.293 E8.44629
G1 X158.518 Y69.296 E8.48719
G1 X157.527 Y71.241 E8.52809
G1 X156.415 Y73.120 E8.56900
G1 X155.189 Y74.926 E8.60990
G1 X153.851 Y76.651 E8.65081
G1 X152.407 Y78.288 E8.69171
G1 X150.863 Y79.832 E8.73262
G1 X149.226 Y81.276 E8.77352
G1 X147.500 Y82.614 E8.81443
G1 X145.695 Y83.841 E8.85533
G1 X143.816 Y84.952 E8.89624
G1 X141.871 Y85.943 E8.93714
G1 X139.867 Y86.810 E8.97805
G1 X137.814 Y87.550 E9.01894
G1 X135.717 Y88.159 E9.05985
G1 X133.587 Y88.635 E9.10076
G1 X131.431 Y88.976 E9.14165
G1 X129.258 Y89.182 E9.18256
G1 X127.075 Y89.250 E9.22347
G1 X124.893 Y89.182 E9.26438
G1 X122.720 Y88.976 E9.30528
G1 X120.564 Y88.635 E9.34617
G1 X118.434 Y88.159 E9.38708
G1 X116.337 Y87.550 E9.42799
G1 X114.284 Y86.810 E9.46889
G1 X112.280 Y85.943 E9.50979
G1 X110.335 Y84.952 E9.55069
G1 X108.456 Y83.841 E9.59160
G1 X106.587 Y82.569 E9.63396
G1 X104.868 Y81.236 E9.67471
G1 X103.240 Y79.800 E9.71539
G1 X101.703 Y78.264 E9.75611
G1 X100.267 Y76.635 E9.79679
G1 X98.937 Y74.920 E9.83746
G1 X97.717 Y73.125 E9.87813
G1 X96.612 Y71.256 E9.91881
G1 X95.626 Y69.322 E9.95948
G1 X94.764 Y67.330 E10.00016
G1 X94.028 Y65.285 E10.04087
G1 X93.423 Y63.200 E10.08156
G1 X92.949 Y61.081 E10.12224
G1 X92.906 Y60.807 E10.12744
G1 X93.283 Y60.418 F12000.000
G1 X95.145 Y66.232 F12000.000
G1 X115.321 Y86.408 E10.66480 F1200.000
G1 X116.289 Y86.756 F12000.000
G1 X94.797 Y65.264 E11.23721 F1200.000
G1 X94.512 Y64.361 E11.25505
G1 X117.199 Y87.047 E11.85927
G1 X118.072 Y87.301 E11.87639
G1 X94.259 Y63.488 E12.51060
G1 X94.031 Y62.641 E12.52712
