; generated by Slic3r 1.2.9 on 2016-01-04 at 13:05:44

; external perimeters extrusion width = 0.50mm
; perimeters extrusion width = 0.50mm
; infill extrusion width = 0.50mm
; solid infill extrusion width = 0.50mm
; top infill extrusion width = 0.50mm

M104 S190 ; set temperature
G28 ; home all axes
G1 Z15 F120 ; lift nozzle
M109 S190 ; wait for temperature to be reached
G21 ; set units to millimeters
G90 ; use absolute coordinates
M82 ; use absolute distances for extrusion
G92 E0
M106 S102
G1 E-2.00000 F1680.00000
G92 E0
G1 Z0.200 F12000.000
G1 X55.648 Y55.636 F12000.000
G1 E2.00000 F1680.00000
G1 X56.878 Y54.424 E2.04863 F1200.000
G1 X59.177 Y52.415 E2.13459
G1 X61.260 Y50.799 E2.20880
G1 X63.779 Y49.071 E2.29480
G1 X66.400 Y47.506 E2.38073
G1 X66.767 Y47.304 E2.39251
G1 X69.493 Y45.930 E2.47845
G1 X72.301 Y44.729 E2.56444
G1 X74.782 Y43.836 E2.63866
G1 X77.709 Y42.972 E2.72459
G1 X78.244 Y42.839 E2.74009
G1 X81.097 Y42.215 E2.82233
G1 X83.701 Y41.802 E2.89653
G1 X86.739 Y41.502 E2.98250
G1 X89.791 Y41.393 E3.06846
G1 X92.711 Y41.471 E3.15069
G1 X93.261 Y41.502 E3.16619 F1200.000
G1 X95.885 Y41.750 E3.24039
G1 X96.299 Y41.802 E3.25215
G1 X99.313 Y42.293 E3.33811
G1 X102.291 Y42.972 E3.42410
G1 X105.218 Y43.836 E3.51003
G1 X107.699 Y44.729 E3.58424
G1 X110.507 Y45.930 E3.67023
G1 X113.233 Y47.304 E3.75618
G1 X113.600 Y47.506 E3.76796
G1 X115.869 Y48.848 E3.84217
G1 X118.401 Y50.553 E3.92812
G1 X118.844 Y50.880 E3.94362
G1 X121.144 Y52.680 E4.02583
G1 X123.122 Y54.424 E4.10005
G1 X125.290 Y56.574 E4.18603
G1 X127.319 Y58.855 E4.27197
G1 X127.586 Y59.178 E4.28376
G1 X129.446 Y61.597 E4.36968
G1 X130.929 Y63.779 E4.44393
G1 X132.494 Y66.401 E4.52990
G1 X133.892 Y69.114 E4.61581
G1 X134.070 Y69.493 E4.62761
G1 X135.117 Y71.913 E4.70185
G1 X136.163 Y74.780 E4.78775
G1 X137.028 Y77.710 E4.87376
G1 X137.707 Y80.686 E4.95970
G1 X137.785 Y81.098 E4.97149
G1 X138.197 Y83.701 E5.04569
G1 X138.498 Y86.739 E5.13164
G1 X138.608 Y89.950 E5.22208
G1 X138.498 Y93.261 E5.31533
G1 X138.250 Y95.885 E5.38954
G1 X137.785 Y98.902 E5.47548
G1 X137.707 Y99.314 E5.48728
G1 X137.028 Y102.290 E5.57321
G1 X136.163 Y105.220 E5.65922
G1 X135.117 Y108.087 E5.74513
G1 X134.070 Y110.507 E5.81936
G1 X133.892 Y110.886 E5.83117
G1 X132.494 Y113.599 E5.91707
G1 X130.929 Y116.221 E6.00305
G1 X129.446 Y118.403 E6.07729
G1 X127.586 Y120.822 E6.16321
G1 X127.319 Y121.145 E6.17500
G1 X125.290 Y123.426 E6.26094
G1 X123.122 Y125.576 E6.34692
G1 X121.144 Y127.320 E6.42114
G1 X118.845 Y129.120 E6.50334
G1 X118.401 Y129.447 E6.51886
G1 X115.869 Y131.152 E6.60480
G1 X113.600 Y132.494 E6.67902
G1 X113.115 Y132.756 E6.69452
G1 X110.507 Y134.070 E6.77674
G1 X107.699 Y135.271 E6.86273
G1 X105.218 Y136.164 E6.93694
G1 X102.291 Y137.028 E7.02287
G1 X99.313 Y137.707 E7.10886
G1 X96.299 Y138.198 E7.19482
G1 X95.885 Y138.250 E7.20659
G1 X92.844 Y138.524 E7.29254
G1 X90.209 Y138.607 E7.36675
G1 X87.156 Y138.524 E7.45272
G1 X86.607 Y138.486 E7.46822
G1 X83.701 Y138.198 E7.55044
G1 X80.687 Y137.707 E7.63640
G1 X78.114 Y137.132 E7.71061
G1 X77.709 Y137.028 E7.72239
G1 X74.782 Y136.164 E7.80832
G1 X71.911 Y135.117 E7.89433
G1 X69.115 Y133.892 E7.98026
G1 X66.767 Y132.695 E8.05447
G1 X64.131 Y131.152 E8.14046
G1 X61.709 Y129.522 E8.22265
G1 X61.260 Y129.201 E8.23817
G1 X58.856 Y127.320 E8.32412
G1 X56.878 Y125.576 E8.39834
G1 X56.573 Y125.290 E8.41013
G1 X54.424 Y123.122 E8.49605
G1 X52.414 Y120.822 E8.58204
G1 X50.554 Y118.402 E8.66797
G1 X49.071 Y116.221 E8.74221
G1 X48.780 Y115.754 E8.75771
G1 X47.306 Y113.235 E8.83989
G1 X46.108 Y110.886 E8.91409
G1 X45.877 Y110.385 E8.92963
G1 X44.730 Y107.700 E9.01184
G1 X43.837 Y105.220 E9.08604
G1 X43.707 Y104.821 E9.09785
G1 X42.868 Y101.886 E9.18379
G1 X42.215 Y98.902 E9.26978
G1 X41.750 Y95.885 E9.35572
G1 X41.502 Y93.261 E9.42993
G1 X41.395 Y90.259 E9.51450
G1 X41.395 Y89.741 E9.52905
G1 X41.502 Y86.739 E9.61362
G1 X41.750 Y84.115 E9.68782
G1 X42.215 Y81.098 E9.77377
G1 X42.293 Y80.686 E9.78557
G1 X42.972 Y77.710 E9.87150
G1 X43.707 Y75.179 E9.94571
G1 X43.837 Y74.780 E9.95751
G1 X44.883 Y71.913 E10.04342
G1 X46.108 Y69.114 E10.12946
G1 X47.506 Y66.401 E10.21536
G1 X48.848 Y64.132 E10.28958
G1 X50.554 Y61.598 E10.37558
G1 X52.414 Y59.178 E10.46150
G1 X52.681 Y58.855 E10.47329
G1 X54.424 Y56.878 E10.54750
G1 X55.595 Y55.689 E10.59446
G1 E8.59446 F1680.00000
G92 E0
G1 X49.047 Y95.080 F12000.000
G1 E2.00000 F1680.00000
G1 X48.812 Y92.591 E2.04684 F900.000
G1 X48.754 Y90.736 E2.08163
G1 X73.307 Y90.736 E2.54169
G1 X73.354 Y90.979 E2.54634
G1 X73.503 Y91.439 E2.55539 F900.000
G1 X73.614 Y91.695 E2.56063
G1 X73.980 Y92.315 E2.57412
G1 X74.463 Y92.863 E2.58781
G1 X74.844 Y93.178 E2.59706
G1 X75.280 Y93.455 E2.60674
G1 X75.717 Y93.660 E2.61579
G1 X76.177 Y93.810 E2.62486
G1 X76.430 Y93.866 E2.62970
G1 X76.684 Y93.907 E2.63452
G1 X77.156 Y93.936 E2.64340
G1 X77.425 Y93.928 E2.64843
G1 X77.905 Y93.867 E2.65750
G1 X78.373 Y93.747 E2.66655
G1 X78.626 Y93.656 E2.67159
G1 X79.053 Y93.455 E2.68044
G1 X79.489 Y93.178 E2.69011
G1 X79.853 Y92.877 E2.69896
G1 X80.043 Y92.687 E2.70400
G1 X80.352 Y92.314 E2.71307
G1 X80.612 Y91.905 E2.72215
G1 X80.733 Y91.666 E2.72717
G1 X80.907 Y91.227 E2.73602
G1 X81.027 Y90.736 E2.74550
G1 X98.973 Y90.736 E3.08177
G1 X99.093 Y91.227 E3.09125
G1 X99.267 Y91.666 E3.10009
G1 X99.388 Y91.905 E3.10512
G1 X99.648 Y92.314 E3.11420
G1 X99.957 Y92.687 E3.12327
G1 X100.147 Y92.877 E3.12831
G1 X100.511 Y93.178 E3.13715
G1 X100.947 Y93.455 E3.14683
G1 X101.374 Y93.656 E3.15568
G1 X101.627 Y93.747 E3.16072
G1 X102.095 Y93.867 E3.16977
G1 X102.575 Y93.928 E3.17884
G1 X102.844 Y93.936 E3.18387
G1 X103.316 Y93.907 E3.19275
G1 X103.570 Y93.866 E3.19757
G1 X103.823 Y93.810 E3.20241
G1 X104.283 Y93.660 E3.21148
G1 X104.720 Y93.455 E3.22053
G1 X104.942 Y93.323 E3.22536
G1 X105.156 Y93.178 E3.23021
G1 X105.537 Y92.863 E3.23947
G1 X106.020 Y92.315 E3.25316
G1 X106.386 Y91.695 E3.26664
G1 X106.497 Y91.439 E3.27188
G1 X106.646 Y90.979 E3.28093
G1 X106.693 Y90.736 E3.28558
G1 X131.246 Y90.736 E3.74565
G1 X131.188 Y92.591 E3.78043
G1 X130.944 Y95.173 E3.82901
G1 X130.539 Y97.733 E3.87759
G1 X129.973 Y100.263 E3.92617
G1 X129.250 Y102.753 E3.97475
G1 X128.371 Y105.192 E4.02333
G1 X127.342 Y107.572 E4.07191
G1 X126.165 Y109.882 E4.12049
G1 X124.845 Y112.114 E4.16907
G1 X123.388 Y114.258 E4.21764
G1 X121.799 Y116.306 E4.26622
G1 X120.084 Y118.251 E4.31480
G1 X118.251 Y120.085 E4.36338
G1 X116.306 Y121.799 E4.41196
G1 X114.258 Y123.388 E4.46054
G1 X112.113 Y124.845 E4.50912
G1 X109.882 Y126.165 E4.55770
G1 X107.572 Y127.342 E4.60628
G1 X105.193 Y128.372 E4.65485
G1 X102.753 Y129.250 E4.70344
G1 X100.264 Y129.973 E4.75201
G1 X97.733 Y130.539 E4.80059
G1 X95.172 Y130.945 E4.84918
G1 X92.722 Y131.176 E4.89528
G1 X89.999 Y131.270 E4.94634
G1 X87.409 Y131.189 E4.99491
G1 X84.828 Y130.945 E5.04348
G1 X82.267 Y130.539 E5.09206
G1 X79.736 Y129.973 E5.14064
G1 X77.247 Y129.250 E5.18921
G1 X74.807 Y128.372 E5.23780
G1 X72.428 Y127.342 E5.28637
G1 X70.235 Y126.225 E5.33249
G1 X67.886 Y124.845 E5.38354
G1 X65.742 Y123.388 E5.43211
G1 X63.694 Y121.799 E5.48069
G1 X61.749 Y120.085 E5.52927
G1 X59.916 Y118.251 E5.57785
G1 X58.201 Y116.306 E5.62643
G1 X56.612 Y114.258 E5.67501
G1 X55.155 Y112.114 E5.72358
G1 X53.835 Y109.882 E5.77216
G1 X52.658 Y107.572 E5.82074
G1 X51.629 Y105.192 E5.86932
G1 X50.750 Y102.753 E5.91790
G1 X50.027 Y100.263 E5.96648
G1 X49.461 Y97.733 E6.01506
G1 X49.054 Y95.155 E6.06397
G1 X48.620 Y95.196 F12000.000
G1 X48.377 Y92.619 E6.11247 F720.000
G1 X48.304 Y90.300 E6.15594
G1 X73.682 Y90.300 E6.63146
G1 X73.694 Y90.441 E6.63411
G1 X73.776 Y90.871 E6.64230 F720.000
G1 X73.911 Y91.285 E6.65046
G1 X74.003 Y91.497 E6.65480
G1 X74.334 Y92.058 E6.66700
G1 X74.767 Y92.549 E6.67928
G1 X75.106 Y92.829 E6.68751
G1 X75.291 Y92.955 E6.69171
G1 X75.484 Y93.069 E6.69590
G1 X75.878 Y93.255 E6.70406
G1 X76.292 Y93.389 E6.71222
G1 X76.511 Y93.438 E6.71643
G1 X76.731 Y93.473 E6.72061
G1 X77.163 Y93.500 E6.72871
G1 X77.391 Y93.493 E6.73298
G1 X77.823 Y93.438 E6.74114
G1 X78.245 Y93.330 E6.74930
G1 X78.459 Y93.253 E6.75357
G1 X78.849 Y93.069 E6.76165
G1 X79.042 Y92.955 E6.76585
G1 X79.227 Y92.829 E6.77004
G1 X79.559 Y92.554 E6.77812
G1 X79.721 Y92.393 E6.78240
G1 X79.999 Y92.058 E6.79056
G1 X80.233 Y91.689 E6.79873
G1 X80.335 Y91.487 E6.80299
G1 X80.495 Y91.086 E6.81108
G1 X80.558 Y90.867 E6.81535
G1 X80.639 Y90.439 E6.82351
G1 X80.649 Y90.300 E6.82612
G1 X99.351 Y90.300 E7.17655
G1 X99.361 Y90.439 E7.17916
G1 X99.442 Y90.867 E7.18732
G1 X99.505 Y91.086 E7.19159
G1 X99.665 Y91.487 E7.19968
G1 X99.767 Y91.689 E7.20394
G1 X100.001 Y92.058 E7.21211
G1 X100.279 Y92.393 E7.22027
G1 X100.441 Y92.554 E7.22455
G1 X100.773 Y92.829 E7.23263
G1 X100.958 Y92.955 E7.23682
G1 X101.151 Y93.069 E7.24102
G1 X101.541 Y93.253 E7.24910
G1 X101.755 Y93.330 E7.25337
G1 X102.177 Y93.438 E7.26153
G1 X102.609 Y93.493 E7.26969
G1 X102.837 Y93.500 E7.27396
G1 X103.269 Y93.473 E7.28206
G1 X103.489 Y93.438 E7.28624
G1 X103.708 Y93.389 E7.29045
G1 X104.122 Y93.255 E7.29861
G1 X104.516 Y93.069 E7.30677
G1 X104.709 Y92.955 E7.31096
G1 X104.894 Y92.829 E7.31516
G1 X105.233 Y92.549 E7.32339
G1 X105.666 Y92.058 E7.33567
G1 X105.997 Y91.497 E7.34787
G1 X106.089 Y91.285 E7.35221
G1 X106.224 Y90.871 E7.36037
G1 X106.306 Y90.439 E7.36859
G1 X106.316 Y90.300 E7.37121
G1 X131.696 Y90.300 E7.84677
G1 X131.623 Y92.619 E7.89023
G1 X131.377 Y95.227 E7.93933
G1 X130.967 Y97.815 E7.98842
G1 X130.395 Y100.372 E8.03751
G1 X129.665 Y102.888 E8.08660
G1 X128.777 Y105.353 E8.13570
G1 X127.737 Y107.757 E8.18478
G1 X126.547 Y110.092 E8.23388
G1 X125.213 Y112.347 E8.28297
G1 X123.741 Y114.514 E8.33206
G1 X122.135 Y116.584 E8.38115
G1 X120.402 Y118.550 E8.43025
G1 X118.550 Y120.402 E8.47933
G1 X116.584 Y122.135 E8.52843
G1 X114.514 Y123.741 E8.57752
G1 X112.347 Y125.213 E8.62662
G1 X110.092 Y126.547 E8.67571
G1 X107.757 Y127.737 E8.72480
G1 X105.353 Y128.777 E8.77389
G1 X102.887 Y129.665 E8.82299
G1 X100.372 Y130.396 E8.87207
G1 X97.815 Y130.967 E8.92117
G1 X95.227 Y131.377 E8.97026
G1 X92.750 Y131.611 E9.01687
G1 X90.000 Y131.706 E9.06844
G1 X87.381 Y131.624 E9.11753
G1 X84.773 Y131.377 E9.16662
G1 X82.185 Y130.967 E9.21571
G1 X79.628 Y130.396 E9.26481
G1 X77.113 Y129.665 E9.31389
G1 X74.647 Y128.777 E9.36299
G1 X72.243 Y127.737 E9.41208
G1 X70.026 Y126.607 E9.45869
G1 X67.653 Y125.213 E9.51026
G1 X65.486 Y123.741 E9.55935
G1 X63.416 Y122.135 E9.60844
G1 X61.450 Y120.402 E9.65754
G1 X59.598 Y118.550 E9.70663
G1 X57.865 Y116.584 E9.75572
G1 X56.259 Y114.514 E9.80481
G1 X54.787 Y112.347 E9.85390
G1 X53.453 Y110.092 E9.90299
G1 X52.263 Y107.757 E9.95209
G1 X51.223 Y105.353 E10.00118
G1 X50.335 Y102.888 E10.05027
G1 X49.605 Y100.372 E10.09936
G1 X49.033 Y97.815 E10.14846
G1 X48.630 Y95.270 E10.19673
G1 X49.022 Y94.898 F12000.000
G1 X51.033 Y102.670 F12000.000
G1 X77.329 Y128.967 E10.89521 F1200.000
G1 X78.212 Y129.231 E10.91251
G1 X50.769 Y101.788 E11.64144
G1 X50.516 Y100.918 E11.65847
G1 X79.082 Y129.484 E12.41724
G1 X79.949 Y129.734 E12.43419
G1 X50.266 Y100.051 E13.22263
G1 X50.089 Y99.256 E13.23794
G1 X80.745 Y129.912 E14.05222
G1 X81.540 Y130.089 E14.06753
G1 X49.911 Y98.460 E14.90767
G1 X49.733 Y97.665 E14.92297
G1 X82.335 Y130.267 E15.78896
G1 X83.076 Y130.390 E15.80306
G1 X49.610 Y96.924 E16.69199
G1 X49.494 Y96.191 E16.70594
G1 X83.810 Y130.506 E17.61744
G1 X84.543 Y130.623 E17.63139
G1 X49.378 Y95.457 E18.56547
G1 X49.283 Y94.745 E18.57895
G1 X85.255 Y130.717 E19.53443
G1 X85.937 Y130.781 E19.54730
G1 X49.219 Y94.063 E20.52261
G1 X49.155 Y93.381 E20.53548
G1 X86.619 Y130.846 E21.53062
G1 X87.301 Y130.910 E21.54348
G1 X49.090 Y92.699 E22.55845
G1 X49.056 Y92.047 E22.57071
G1 X87.953 Y130.945 E23.60391
G1 X88.591 Y130.965 E23.61589
G1 X49.036 Y91.410 E24.66656
G1 X49.237 Y90.993 E24.67524
G1 X89.228 Y130.985 E25.73750
G1 X89.866 Y131.005 E25.74948
G1 X49.854 Y90.993 E26.81226
G1 X50.472 Y90.993 E26.82386
G1 X90.477 Y130.999 E27.88648
G1 X91.074 Y130.978 E27.89770
G1 X51.090 Y90.993 E28.95978
G1 X51.707 Y90.993 E28.97137
G1 X91.671 Y130.957 E30.03290
G1 X92.268 Y130.937 E30.04412
G1 X52.325 Y90.993 E31.10511
G1 X52.942 Y90.993 E31.11670
G1 X92.861 Y130.912 E32.17704
G1 X93.425 Y130.859 E32.18768
G1 X53.560 Y90.993 E33.24659
G1 X54.177 Y90.993 E33.25819
G1 X93.990 Y130.806 E34.31569
G1 X94.554 Y130.752 E34.32633
G1 X54.795 Y90.993 E35.38241
G1 X55.412 Y90.993 E35.39401
G1 X95.118 Y130.699 E36.44867
G1 X95.657 Y130.620 E36.45890
G1 X56.030 Y90.993 E37.51147
G1 X56.647 Y90.993 E37.52307
G1 X96.190 Y130.536 E38.57340
G1 X96.723 Y130.451 E38.58354
G1 X57.265 Y90.993 E39.63162
G1 X57.882 Y90.993 E39.64322
G1 X97.256 Y130.367 E40.68906
G1 X97.787 Y130.281 E40.69918
G1 X58.500 Y90.993 E41.74273
G1 X59.118 Y90.993 E41.75433
G1 X98.292 Y130.168 E42.79489
G1 X98.797 Y130.055 E42.80461
G1 X59.735 Y90.993 E43.84217
G1 X60.353 Y90.993 E43.85377
G1 X99.302 Y129.943 E44.88834
G1 X99.806 Y129.830 E44.89806
G1 X60.970 Y90.993 E45.92963
G1 X61.588 Y90.993 E45.94123
G1 X100.309 Y129.715 E46.96975
G1 X100.787 Y129.576 E46.97910
G1 X62.205 Y90.993 E48.00393
G1 X62.823 Y90.993 E48.01553
G1 X101.266 Y129.437 E49.03666
G1 X101.744 Y129.298 E49.04602
G1 X63.440 Y90.993 E50.06346
G1 X64.058 Y90.993 E50.07506
G1 X102.223 Y129.159 E51.08880
G1 X102.701 Y129.019 E51.09816
G1 X64.675 Y90.993 E52.10821
G1 X65.293 Y90.993 E52.11981
G1 X103.157 Y128.858 E53.12557
G1 X103.611 Y128.694 E53.13463
G1 X65.910 Y90.993 E54.13605
G1 X66.528 Y90.993 E54.14765
G1 X104.066 Y128.531 E55.14472
G1 X104.520 Y128.368 E55.15379
G1 X67.146 Y90.993 E56.14652
G1 X67.763 Y90.993 E56.15812
G1 X104.974 Y128.204 E57.14652
G1 X105.414 Y128.027 E57.15543
G1 X68.381 Y90.993 E58.13911
G1 X68.998 Y90.993 E58.15071
G1 X105.845 Y127.840 E59.12944
G1 X106.276 Y127.654 E59.13826
G1 X69.616 Y90.993 E60.11204
G1 X70.233 Y90.993 E60.12364
G1 X106.707 Y127.467 E61.09246
G1 X107.138 Y127.281 E61.10128
G1 X70.851 Y90.993 E62.06514
G1 X71.468 Y90.993 E62.07674
G1 X107.566 Y127.091 E63.03558
G1 X107.975 Y126.883 E63.04420
G1 X72.086 Y90.993 E63.99750
G1 X72.703 Y90.993 E64.00910
G1 X73.220 Y91.510 E64.02283
G1 X75.657 Y93.947 F12000.000
G1 X108.384 Y126.674 E64.89214 F1200.000
G1 X108.794 Y126.466 E64.90077
G1 X76.478 Y94.151 E65.75912
G1 X77.137 Y94.192 E65.77152
G1 X109.203 Y126.258 E66.62325
G1 X109.612 Y126.049 E66.63187
G1 X77.704 Y94.142 E67.47941
G1 X78.213 Y94.033 E67.48919
G1 X110.010 Y125.830 E68.33376
G1 X110.398 Y125.600 E68.34223
G1 X78.679 Y93.882 E69.18474
G1 X79.099 Y93.684 E69.19345
G1 X110.786 Y125.371 E70.03511
G1 X111.174 Y125.141 E70.04358
G1 X79.480 Y93.448 E70.88543
G1 X79.831 Y93.181 E70.89371
G1 X111.562 Y124.912 E71.73655
G1 X111.950 Y124.682 E71.74501
G1 X80.154 Y92.887 E72.58957
G1 X80.439 Y92.554 E72.59780
G1 X112.321 Y124.436 E73.44465
G1 X112.689 Y124.186 E73.45300
G1 X80.694 Y92.191 E74.30286
G1 X80.919 Y91.799 E74.31135
G1 X113.057 Y123.936 E75.16500
G1 X113.424 Y123.686 E75.17335
G1 X81.101 Y91.363 E76.03192
G1 X81.349 Y90.993 E76.04028
G1 X113.792 Y123.437 E76.90204
G1 X114.159 Y123.186 E76.91038
G1 X81.966 Y90.993 E77.76548
G1 X82.584 Y90.993 E77.77708
G1 X114.507 Y122.916 E78.62501
G1 X114.854 Y122.646 E78.63328
G1 X83.202 Y90.993 E79.47404
G1 X83.819 Y90.993 E79.48564
G1 X115.202 Y122.376 E80.31924
G1 X115.550 Y122.107 E80.32751
G1 X84.437 Y90.993 E81.15394
G1 X85.054 Y90.993 E81.16554
G1 X115.898 Y121.837 E81.98481
G1 X116.241 Y121.563 E81.99306
G1 X85.672 Y90.993 E82.80506
G1 X86.289 Y90.993 E82.81666
G1 X116.570 Y121.274 E83.62097
G1 X116.898 Y120.985 E83.62919
G1 X86.907 Y90.993 E84.42582
G1 X87.524 Y90.993 E84.43742
G1 X117.226 Y120.695 E85.22636
G1 X117.554 Y120.406 E85.23458
G1 X88.142 Y90.993 E86.01584
G1 X88.759 Y90.993 E86.02743
G1 X117.882 Y120.116 E86.80098
G1 X118.190 Y119.807 E86.80918
G1 X89.377 Y90.993 E87.57453
G1 X89.994 Y90.993 E87.58613
G1 X118.499 Y119.498 E88.34327
G1 X118.808 Y119.189 E88.35147
G1 X90.612 Y90.993 E89.10041
G1 X91.230 Y90.993 E89.11201
G1 X119.117 Y118.881 E89.85275
G1 X119.425 Y118.572 E89.86095
G1 X91.847 Y90.993 E90.59349
G1 X92.465 Y90.993 E90.60509
