; generated by Slic3r 1.2.9 on 2016-01-04 at 13:06:06

; external perimeters extrusion width = 0.50mm
; perimeters extrusion width = 0.50mm
; infill extrusion width = 0.50mm
; solid infill extrusion width = 0.50mm
; top infill extrusion width = 0.50mm

M104 S190 ; set temperature
G28 ; home all axes
G1 Z15 F120 ; lift nozzle
M109 S190 ; wait for temperature to be reached
G21 ; set units to millimeters
G90 ; use absolute coordinates
M82 ; use absolute distances for extrusion
G92 E0
M106 S102
G1 E-2.00000 F1680.00000
G92 E0
G1 Z0.200 F12000.000
G1 X55.648 Y55.636 F12000.000
G1 E2.00000 F1680.00000
G1 X56.878 Y54.424 E2.04863 F1200.000
G1 X59.177 Y52.415 E2.13459
G1 X61.260 Y50.799 E2.20880
G1 X63.779 Y49.071 E2.29480
G1 X66.400 Y47.506 E2.38073
G1 X66.767 Y47.304 E2.39251
G1 X69.493 Y45.930 E2.47845
G1 X72.301 Y44.729 E2.56444
G1 X74.782 Y43.836 E2.63866
G1 X77.709 Y42.972 E2.72459
G1 X78.244 Y42.839 E2.74009
G1 X81.097 Y42.215 E2.82233
G1 X83.701 Y41.802 E2.89653
G1 X86.739 Y41.502 E2.98250
G1 X89.791 Y41.393 E3.06846
G1 X92.711 Y41.471 E3.15069
G1 X93.261 Y41.502 E3.16619 F1200.000
G1 X95.885 Y41.750 E3.24039
G1 X96.299 Y41.802 E3.25215
G1 X99.313 Y42.293 E3.33811
G1 X102.291 Y42.972 E3.42410
G1 X105.218 Y43.836 E3.51003
G1 X107.699 Y44.729 E3.58424
G1 X110.507 Y45.930 E3.67023
G1 X113.233 Y47.304 E3.75618
G1 X113.600 Y47.506 E3.76796
G1 X115.869 Y48.848 E3.84217
G1 X118.401 Y50.553 E3.92812
G1 X118.844 Y50.880 E3.94362
G1 X121.144 Y52.680 E4.02583
G1 X123.122 Y54.424 E4.10005
G1 X125.290 Y56.574 E4.18603
G1 X127.319 Y58.855 E4.27197
G1 X127.586 Y59.178 E4.28376
G1 X129.446 Y61.597 E4.36968
G1 X130.929 Y63.779 E4.44393
G1 X132.494 Y66.401 E4.52990
G1 X133.892 Y69.114 E4.61581
G1 X134.070 Y69.493 E4.62761
G1 X135.117 Y71.913 E4.70185
G1 X136.163 Y74.780 E4.78775
G1 X137.028 Y77.710 E4.87376
G1 X137.707 Y80.686 E4.95970
G1 X137.785 Y81.098 E4.97149
G1 X138.197 Y83.701 E5.04569
G1 X138.498 Y86.739 E5.13164
G1 X138.608 Y89.950 E5.22208
G1 X138.498 Y93.261 E5.31533
G1 X138.250 Y95.885 E5.38954
G1 X137.785 Y98.902 E5.47548
G1 X137.707 Y99.314 E5.48728
G1 X137.028 Y102.290 E5.57321
G1 X136.163 Y105.220 E5.65922
G1 X135.117 Y108.087 E5.74513
G1 X134.070 Y110.507 E5.81936
G1 X133.892 Y110.886 E5.83117
G1 X132.494 Y113.599 E5.91707
G1 X130.929 Y116.221 E6.00305
G1 X129.446 Y118.403 E6.07729
G1 X127.586 Y120.822 E6.16321
G1 X127.319 Y121.145 E6.17500
G1 X125.290 Y123.426 E6.26094
G1 X123.122 Y125.576 E6.34692
G1 X121.144 Y127.320 E6.42114
G1 X118.845 Y129.120 E6.50334
G1 X118.401 Y129.447 E6.51886
G1 X115.869 Y131.152 E6.60480
G1 X113.600 Y132.494 E6.67902
G1 X113.115 Y132.756 E6.69452
G1 X110.507 Y134.070 E6.77674
G1 X107.699 Y135.271 E6.86273
G1 X105.218 Y136.164 E6.93694
G1 X102.291 Y137.028 E7.02287
G1 X99.313 Y137.707 E7.10886
G1 X96.299 Y138.198 E7.19482
G1 X95.885 Y138.250 E7.20659
G1 X92.844 Y138.524 E7.29254
G1 X90.209 Y138.607 E7.36675
G1 X87.156 Y138.524 E7.45272
G1 X86.607 Y138.486 E7.46822
G1 X83.701 Y138.198 E7.55044
G1 X80.687 Y137.707 E7.63640
G1 X78.114 Y137.132 E7.71061
G1 X77.709 Y137.028 E7.72239
G1 X74.782 Y136.164 E7.80832
G1 X71.911 Y135.117 E7.89433
G1 X69.115 Y133.892 E7.98026
G1 X66.767 Y132.695 E8.05447
G1 X64.131 Y131.152 E8.14046
G1 X61.709 Y129.522 E8.22265
G1 X61.260 Y129.201 E8.23817
G1 X58.856 Y127.320 E8.32412
G1 X56.878 Y125.576 E8.39834
G1 X56.573 Y125.290 E8.41013
G1 X54.424 Y123.122 E8.49605
G1 X52.414 Y120.822 E8.58204
G1 X50.554 Y118.402 E8.66797
G1 X49.071 Y116.221 E8.74221
G1 X48.780 Y115.754 E8.75771
G1 X47.306 Y113.235 E8.83989
G1 X46.108 Y110.886 E8.91409
G1 X45.877 Y110.385 E8.92963
G1 X44.730 Y107.700 E9.01184
G1 X43.837 Y105.220 E9.08604
G1 X43.707 Y104.821 E9.09785
G1 X42.868 Y101.886 E9.18379
G1 X42.215 Y98.902 E9.26978
G1 X41.750 Y95.885 E9.35572
G1 X41.502 Y93.261 E9.42993
G1 X41.395 Y90.259 E9.51450
G1 X41.395 Y89.741 E9.52905
G1 X41.502 Y86.739 E9.61362
G1 X41.750 Y84.115 E9.68782
G1 X42.215 Y81.098 E9.77377
G1 X42.293 Y80.686 E9.78557
G1 X42.972 Y77.710 E9.87150
G1 X43.707 Y75.179 E9.94571
G1 X43.837 Y74.780 E9.95751
G1 X44.883 Y71.913 E10.04342
G1 X46.108 Y69.114 E10.12946
G1 X47.506 Y66.401 E10.21536
G1 X48.848 Y64.132 E10.28958
G1 X50.554 Y61.598 E10.37558
G1 X52.414 Y59.178 E10.46150
G1 X52.681 Y58.855 E10.47329
G1 X54.424 Y56.878 E10.54750
G1 X55.595 Y55.689 E10.59446
G1 E8.59446 F1680.00000
G92 E0
G1 X66.805 Y124.110 F12000.000
G1 E2.00000 F1680.00000
G1 X65.742 Y123.388 E2.02408 F900.000
G1 X63.694 Y121.799 E2.07266
G1 X61.749 Y120.085 E2.12124
G1 X59.916 Y118.251 E2.16981
G1 X58.201 Y116.306 E2.21840
G1 X56.612 Y114.258 E2.26697
G1 X55.155 Y112.114 E2.31555
G1 X53.835 Y109.882 E2.36413
G1 X52.658 Y107.572 E2.41271
G1 X51.629 Y105.192 E2.46129
G1 X50.750 Y102.753 E2.50987
G1 X50.027 Y100.263 E2.55844
G1 X49.461 Y97.733 E2.60702
G1 X49.056 Y95.173 E2.65560
G1 X48.812 Y92.591 E2.70418
G1 X48.754 Y90.736 E2.73897
G1 X73.307 Y90.736 E3.19903
G1 X73.354 Y90.979 E3.20368
G1 X73.503 Y91.439 E3.21273 F900.000
G1 X73.614 Y91.695 E3.21797
G1 X73.980 Y92.315 E3.23146
G1 X74.463 Y92.863 E3.24515
G1 X74.844 Y93.178 E3.25441
G1 X75.280 Y93.455 E3.26408
G1 X75.717 Y93.660 E3.27313
G1 X76.177 Y93.810 E3.28220
G1 X76.430 Y93.866 E3.28705
G1 X76.684 Y93.907 E3.29186
G1 X77.156 Y93.936 E3.30074
G1 X77.425 Y93.928 E3.30577
G1 X77.905 Y93.867 E3.31484
G1 X78.373 Y93.747 E3.32389
G1 X78.626 Y93.656 E3.32893
G1 X79.053 Y93.455 E3.33778
G1 X79.489 Y93.178 E3.34746
G1 X79.853 Y92.877 E3.35630
G1 X80.043 Y92.687 E3.36134
G1 X80.352 Y92.314 E3.37041
G1 X80.612 Y91.905 E3.37949
G1 X80.733 Y91.666 E3.38452
G1 X80.907 Y91.227 E3.39336
G1 X81.027 Y90.736 E3.40284
G1 X98.973 Y90.736 E3.73911
G1 X99.093 Y91.227 E3.74859
G1 X99.267 Y91.666 E3.75744
G1 X99.388 Y91.905 E3.76246
G1 X99.648 Y92.314 E3.77154
G1 X99.957 Y92.687 E3.78061
G1 X100.147 Y92.877 E3.78566
G1 X100.511 Y93.178 E3.79450
G1 X100.947 Y93.455 E3.80417
G1 X101.374 Y93.656 E3.81302
G1 X101.627 Y93.747 E3.81806
G1 X102.095 Y93.867 E3.82711
G1 X102.575 Y93.928 E3.83618
G1 X102.844 Y93.936 E3.84121
G1 X103.316 Y93.907 E3.85009
G1 X103.570 Y93.866 E3.85491
G1 X103.823 Y93.810 E3.85975
G1 X104.283 Y93.660 E3.86882
G1 X104.720 Y93.455 E3.87787
G1 X104.942 Y93.323 E3.88271
G1 X105.156 Y93.178 E3.88755
G1 X105.537 Y92.863 E3.89681
G1 X106.020 Y92.315 E3.91050
G1 X106.386 Y91.695 E3.92399
G1 X106.497 Y91.439 E3.92922
G1 X106.646 Y90.979 E3.93827
G1 X106.693 Y90.736 E3.94292
G1 X131.246 Y90.736 E4.40299
G1 X131.188 Y92.591 E4.43778
G1 X130.944 Y95.173 E4.48636
G1 X130.539 Y97.733 E4.53493
G1 X129.973 Y100.263 E4.58351
G1 X129.250 Y102.753 E4.63209
G1 X128.371 Y105.192 E4.68067
G1 X127.342 Y107.572 E4.72925
G1 X126.165 Y109.882 E4.77783
G1 X124.845 Y112.114 E4.82641
G1 X123.388 Y114.258 E4.87498
G1 X121.799 Y116.306 E4.92356
G1 X120.084 Y118.251 E4.97214
G1 X118.251 Y120.085 E5.02072
G1 X116.306 Y121.799 E5.06930
G1 X114.258 Y123.388 E5.11788
G1 X112.113 Y124.845 E5.16646
G1 X109.882 Y126.165 E5.21504
G1 X107.572 Y127.342 E5.26362
G1 X105.193 Y128.372 E5.31219
G1 X102.753 Y129.250 E5.36078
G1 X100.264 Y129.973 E5.40935
G1 X97.733 Y130.539 E5.45793
G1 X95.172 Y130.945 E5.50652
G1 X92.722 Y131.176 E5.55262
G1 X89.999 Y131.270 E5.60369
G1 X87.409 Y131.189 E5.65225
G1 X84.828 Y130.945 E5.70082
G1 X82.267 Y130.539 E5.74940
G1 X79.736 Y129.973 E5.79799
G1 X77.247 Y129.250 E5.84655
G1 X74.807 Y128.372 E5.89514
G1 X72.428 Y127.342 E5.94372
G1 X70.235 Y126.225 E5.98983
G1 X67.886 Y124.845 E6.04089
G1 X66.867 Y124.152 E6.06397
G1 X66.622 Y124.513 F12000.000
G1 X65.486 Y123.741 E6.08971 F720.000
G1 X63.416 Y122.135 E6.13880
G1 X61.450 Y120.402 E6.18790
G1 X59.598 Y118.550 E6.23698
G1 X57.865 Y116.584 E6.28608
G1 X56.259 Y114.514 E6.33517
G1 X54.787 Y112.347 E6.38426
G1 X53.453 Y110.092 E6.43335
G1 X52.263 Y107.757 E6.48245
G1 X51.223 Y105.353 E6.53153
G1 X50.335 Y102.888 E6.58063
G1 X49.605 Y100.372 E6.62972
G1 X49.033 Y97.815 E6.67881
G1 X48.623 Y95.227 E6.72790
G1 X48.377 Y92.619 E6.77699
G1 X48.304 Y90.300 E6.82046
G1 X73.682 Y90.300 E7.29598
G1 X73.694 Y90.441 E7.29864
G1 X73.776 Y90.871 E7.30683 F720.000
G1 X73.911 Y91.285 E7.31499
G1 X74.003 Y91.497 E7.31933
G1 X74.334 Y92.058 E7.33153
G1 X74.767 Y92.549 E7.34380
G1 X75.106 Y92.829 E7.35203
G1 X75.291 Y92.955 E7.35623
G1 X75.484 Y93.069 E7.36043
G1 X75.878 Y93.255 E7.36859
G1 X76.292 Y93.389 E7.37675
G1 X76.511 Y93.438 E7.38095
G1 X76.731 Y93.473 E7.38513
G1 X77.163 Y93.500 E7.39324
G1 X77.391 Y93.493 E7.39750
G1 X77.823 Y93.438 E7.40567
G1 X78.245 Y93.330 E7.41383
G1 X78.459 Y93.253 E7.41809
G1 X78.849 Y93.069 E7.42617
G1 X79.042 Y92.955 E7.43037
G1 X79.227 Y92.829 E7.43457
G1 X79.559 Y92.554 E7.44265
G1 X79.721 Y92.393 E7.44692
G1 X79.999 Y92.058 E7.45509
G1 X80.233 Y91.689 E7.46326
G1 X80.335 Y91.487 E7.46752
G1 X80.495 Y91.086 E7.47561
G1 X80.558 Y90.867 E7.47988
G1 X80.639 Y90.439 E7.48803
G1 X80.649 Y90.300 E7.49064
G1 X99.351 Y90.300 E7.84108
G1 X99.361 Y90.439 E7.84369
G1 X99.442 Y90.867 E7.85184
G1 X99.505 Y91.086 E7.85612
G1 X99.665 Y91.487 E7.86420
G1 X99.767 Y91.689 E7.86846
G1 X100.001 Y92.058 E7.87663
G1 X100.279 Y92.393 E7.88480
G1 X100.441 Y92.554 E7.88907
G1 X100.773 Y92.829 E7.89715
G1 X100.958 Y92.955 E7.90135
G1 X101.151 Y93.069 E7.90555
G1 X101.541 Y93.253 E7.91363
G1 X101.755 Y93.330 E7.91790
G1 X102.177 Y93.438 E7.92605
G1 X102.609 Y93.493 E7.93422
G1 X102.837 Y93.500 E7.93848
G1 X103.269 Y93.473 E7.94659
G1 X103.489 Y93.438 E7.95077
G1 X103.708 Y93.389 E7.95497
G1 X104.122 Y93.255 E7.96314
G1 X104.516 Y93.069 E7.97129
G1 X104.709 Y92.955 E7.97549
G1 X104.894 Y92.829 E7.97969
G1 X105.233 Y92.549 E7.98792
G1 X105.666 Y92.058 E8.00020
G1 X105.997 Y91.497 E8.01239
G1 X106.089 Y91.285 E8.01673
G1 X106.224 Y90.871 E8.02489
G1 X106.306 Y90.439 E8.03312
G1 X106.316 Y90.300 E8.03574
G1 X131.696 Y90.300 E8.51129
G1 X131.623 Y92.619 E8.55476
G1 X131.377 Y95.227 E8.60385
G1 X130.967 Y97.815 E8.65294
G1 X130.395 Y100.372 E8.70204
G1 X129.665 Y102.888 E8.75113
G1 X128.777 Y105.353 E8.80022
G1 X127.737 Y107.757 E8.84931
G1 X126.547 Y110.092 E8.89841
G1 X125.213 Y112.347 E8.94749
G1 X123.741 Y114.514 E8.99658
G1 X122.135 Y116.584 E9.04568
G1 X120.402 Y118.550 E9.09477
G1 X118.550 Y120.402 E9.14386
G1 X116.584 Y122.135 E9.19296
G1 X114.514 Y123.741 E9.24205
G1 X112.347 Y125.213 E9.29114
G1 X110.092 Y126.547 E9.34023
G1 X107.757 Y127.737 E9.38933
G1 X105.353 Y128.777 E9.43841
G1 X102.887 Y129.665 E9.48751
G1 X100.372 Y130.396 E9.53660
G1 X97.815 Y130.967 E9.58569
G1 X95.227 Y131.377 E9.63479
G1 X92.750 Y131.611 E9.68140
G1 X90.000 Y131.706 E9.73297
G1 X87.381 Y131.624 E9.78206
G1 X84.773 Y131.377 E9.83114
G1 X82.185 Y130.967 E9.88024
G1 X79.628 Y130.396 E9.92933
G1 X77.113 Y129.665 E9.97842
G1 X74.647 Y128.777 E10.02752
G1 X72.243 Y127.737 E10.07660
G1 X70.026 Y126.607 E10.12322
G1 X67.653 Y125.213 E10.17479
G1 X66.684 Y124.555 E10.19673
G1 X66.659 Y124.014 F12000.000
G1 X67.847 Y124.425 F12000.000
G1 X55.575 Y112.152 E10.52272 F1200.000
G1 X54.613 Y110.573 F12000.000
G1 X69.415 Y125.375 E10.91590 F1200.000
G1 X70.846 Y126.188 F12000.000
G1 X53.812 Y109.155 E11.36834 F1200.000
G1 X53.170 Y107.895 F12000.000
G1 X72.105 Y126.830 E11.87128 F1200.000
G1 X73.270 Y127.377 F12000.000
G1 X52.623 Y106.730 E12.41972 F1200.000
G1 X52.152 Y105.642 F12000.000
G1 X74.359 Y127.848 E13.00958 F1200.000
G1 X75.400 Y128.272 F12000.000
G1 X51.729 Y104.601 E13.63834 F1200.000
G1 X51.381 Y103.636 F12000.000
G1 X76.365 Y128.619 E14.30196 F1200.000
G1 X65.870 Y123.065 F12000.000
G1 X56.936 Y114.131 E14.53926 F1200.000
G1 X59.871 Y117.684 F12000.000
G1 X62.319 Y120.131 E14.60427 F1200.000
G1 X51.033 Y102.670 F12000.000
G1 X77.329 Y128.967 E15.30275 F1200.000
G1 X78.212 Y129.231 E15.32004
G1 X50.769 Y101.788 E16.04898
G1 X50.516 Y100.918 E16.06600
G1 X79.082 Y129.484 E16.82477
G1 X79.949 Y129.734 E16.84172
G1 X50.266 Y100.051 E17.63016
G1 X50.089 Y99.256 E17.64547
G1 X80.745 Y129.912 E18.45976
G1 X81.540 Y130.089 E18.47506
G1 X49.911 Y98.460 E19.31520
G1 X49.733 Y97.665 E19.33051
G1 X82.335 Y130.267 E20.19649
G1 X83.076 Y130.390 E20.21059
G1 X49.610 Y96.924 E21.09952
G1 X49.494 Y96.191 E21.11347
G1 X83.810 Y130.506 E22.02497
G1 X84.543 Y130.623 E22.03893
G1 X49.378 Y95.457 E22.97301
G1 X49.283 Y94.745 E22.98649
G1 X85.255 Y130.717 E23.94197
G1 X85.937 Y130.781 E23.95484
G1 X49.219 Y94.063 E24.93015
G1 X49.155 Y93.381 E24.94301
G1 X86.619 Y130.846 E25.93815
G1 X87.301 Y130.910 E25.95102
G1 X49.090 Y92.699 E26.96598
G1 X49.056 Y92.047 E26.97825
G1 X87.953 Y130.945 E28.01145
G1 X88.591 Y130.965 E28.02343
G1 X49.036 Y91.410 E29.07410
G1 X49.237 Y90.993 E29.08278
G1 X89.228 Y130.985 E30.14503
G1 X89.866 Y131.005 E30.15701
G1 X49.854 Y90.993 E31.21980
G1 X50.472 Y90.993 E31.23140
G1 X90.477 Y130.999 E32.29402
G1 X91.074 Y130.978 E32.30524
G1 X51.090 Y90.993 E33.36731
G1 X51.707 Y90.993 E33.37891
G1 X91.671 Y130.957 E34.44044
G1 X92.268 Y130.937 E34.45166
G1 X52.325 Y90.993 E35.51264
G1 X52.942 Y90.993 E35.52424
G1 X92.861 Y130.912 E36.58457
G1 X93.425 Y130.859 E36.59521
G1 X53.560 Y90.993 E37.65413
G1 X54.177 Y90.993 E37.66573
G1 X93.990 Y130.806 E38.72322
G1 X94.554 Y130.752 E38.73387
G1 X54.795 Y90.993 E39.78995
G1 X55.412 Y90.993 E39.80155
G1 X95.118 Y130.699 E40.85621
G1 X95.657 Y130.620 E40.86644
G1 X56.030 Y90.993 E41.91901
G1 X56.647 Y90.993 E41.93061
G1 X96.190 Y130.536 E42.98093
G1 X96.723 Y130.451 E42.99107
G1 X57.265 Y90.993 E44.03916
G1 X57.882 Y90.993 E44.05075
G1 X97.256 Y130.367 E45.09660
G1 X97.787 Y130.281 E45.10671
G1 X58.500 Y90.993 E46.15027
G1 X59.118 Y90.993 E46.16187
G1 X98.292 Y130.168 E47.20243
G1 X98.797 Y130.055 E47.21214
G1 X59.735 Y90.993 E48.24971
G1 X60.353 Y90.993 E48.26131
G1 X99.302 Y129.943 E49.29588
G1 X99.806 Y129.830 E49.30559
G1 X60.970 Y90.993 E50.33716
G1 X61.588 Y90.993 E50.34876
G1 X100.309 Y129.715 E51.37728
G1 X100.787 Y129.576 E51.38664
G1 X62.205 Y90.993 E52.41146
G1 X62.823 Y90.993 E52.42306
G1 X101.266 Y129.437 E53.44419
G1 X101.744 Y129.298 E53.45355
G1 X63.440 Y90.993 E54.47099
G1 X64.058 Y90.993 E54.48259
G1 X102.223 Y129.159 E55.49634
G1 X102.701 Y129.019 E55.50569
G1 X64.675 Y90.993 E56.51575
G1 X65.293 Y90.993 E56.52735
G1 X103.157 Y128.858 E57.53310
G1 X103.611 Y128.694 E57.54217
G1 X65.910 Y90.993 E58.54359
G1 X66.528 Y90.993 E58.55518
G1 X104.066 Y128.531 E59.55226
G1 X104.520 Y128.368 E59.56132
G1 X67.146 Y90.993 E60.55406
G1 X67.763 Y90.993 E60.56566
G1 X104.974 Y128.204 E61.55405
G1 X105.414 Y128.027 E61.56296
G1 X68.381 Y90.993 E62.54665
G1 X68.998 Y90.993 E62.55825
G1 X105.845 Y127.840 E63.53698
G1 X106.276 Y127.654 E63.54580
G1 X69.616 Y90.993 E64.51957
G1 X70.233 Y90.993 E64.53117
G1 X106.707 Y127.467 E65.49999
G1 X107.138 Y127.281 E65.50881
G1 X70.851 Y90.993 E66.47268
G1 X71.468 Y90.993 E66.48427
G1 X107.566 Y127.091 E67.44311
G1 X107.975 Y126.883 E67.45173
G1 X72.086 Y90.993 E68.40503
G1 X72.703 Y90.993 E68.41663
G1 X73.220 Y91.510 E68.43036
G1 X75.657 Y93.947 F12000.000
G1 X108.384 Y126.674 E69.29968 F1200.000
G1 X108.794 Y126.466 E69.30830
G1 X76.478 Y94.151 E70.16666
G1 X77.137 Y94.192 E70.17905
G1 X109.203 Y126.258 E71.03078
G1 X109.612 Y126.049 E71.03941
G1 X77.704 Y94.142 E71.88694
G1 X78.213 Y94.033 E71.89672
G1 X110.010 Y125.830 E72.74130
G1 X110.398 Y125.600 E72.74977
G1 X78.679 Y93.882 E73.59227
G1 X79.099 Y93.684 E73.60099
G1 X110.786 Y125.371 E74.44265
G1 X111.174 Y125.141 E74.45112
G1 X79.480 Y93.448 E75.29297
G1 X79.831 Y93.181 E75.30124
G1 X111.562 Y124.912 E76.14408
G1 X111.950 Y124.682 E76.15255
G1 X80.154 Y92.887 E76.99711
G1 X80.439 Y92.554 E77.00533
G1 X112.321 Y124.436 E77.85219
G1 X112.689 Y124.186 E77.86053
G1 X80.694 Y92.191 E78.71039
G1 X80.919 Y91.799 E78.71889
G1 X113.057 Y123.936 E79.57253
G1 X113.424 Y123.686 E79.58088
G1 X81.101 Y91.363 E80.43946
G1 X81.349 Y90.993 E80.44782
G1 X113.792 Y123.437 E81.30957
G1 X114.159 Y123.186 E81.31792
G1 X81.966 Y90.993 E82.17302
G1 X82.584 Y90.993 E82.18461
G1 X114.507 Y122.916 E83.03255
G1 X114.854 Y122.646 E83.04081
G1 X83.202 Y90.993 E83.88158
G1 X83.819 Y90.993 E83.89318
G1 X115.202 Y122.376 E84.72678
G1 X115.550 Y122.107 E84.73504
G1 X84.437 Y90.993 E85.56148
