; generated by Slic3r 1.2.9 on 2015-11-17 at 00:05:41

; external perimeters extrusion width = 0.50mm
; perimeters extrusion width = 0.50mm
; infill extrusion width = 0.50mm
; solid infill extrusion width = 0.50mm
; top infill extrusion width = 0.50mm
; support material extrusion width = 0.50mm

M104 S190 ; set temperature
G28 ; home all axes
G1 Z15 F120 ; lift nozzle
M109 S190 ; wait for temperature to be reached
G21 ; set units to millimeters
G90 ; use absolute coordinates
M82 ; use absolute distances for extrusion
G92 E0
M106 S147.9
G1 E-2.00000 F1680.00000
G92 E0
G1 Z0.400 F12000.000
G1 X71.400 Y66.806 F12000.000
G1 E2.00000 F1680.00000
G1 X71.824 Y66.385 E2.01790 F1200.000
G1 X72.235 Y66.027 E2.03421
G1 X72.544 Y65.783 E2.04600
G1 X73.046 Y65.443 E2.06415
G1 X80.012 Y61.452 E2.30455
G1 X82.459 Y60.649 E2.38168
G1 X83.391 Y60.541 E2.40979
G1 X84.129 Y60.498 E2.43192
G1 X86.320 Y60.513 E2.49754
G1 X87.170 Y60.570 E2.52304 F1200.000
G1 X89.570 Y61.215 E2.59745
G1 X90.275 Y61.562 E2.62097
G1 X90.673 Y61.776 E2.63450
G1 X96.953 Y65.443 E2.85228
G1 X97.455 Y65.782 E2.87039
G1 X97.884 Y66.127 E2.88689
G1 X98.449 Y66.650 E2.90994
G1 X98.709 Y66.927 E2.92132
G1 X98.944 Y67.198 E2.93205
G1 X99.324 Y67.689 E2.95066
G1 X99.632 Y68.141 E2.96701
G1 X99.838 Y68.483 E2.97899
G1 X108.577 Y83.983 E3.51181
G1 X109.323 Y86.113 E3.57939
G1 X109.393 Y87.520 E3.62156
G1 X109.273 Y89.512 E3.68131
G1 X108.604 Y92.002 E3.75853
G1 X104.623 Y99.945 E4.02458
G1 X103.665 Y101.353 E4.07559
G1 X99.679 Y105.799 E4.25437
G1 X97.901 Y107.189 E4.32195
G1 X94.886 Y107.933 E4.41495
G1 X84.985 Y107.910 E4.71143
G1 X83.758 Y107.853 E4.74821
G1 X82.718 Y107.722 E4.77958
G1 X81.656 Y107.507 E4.81203
G1 X72.585 Y105.030 E5.09359
G1 X70.547 Y104.061 E5.16117
G1 X69.490 Y103.113 E5.20369
G1 X63.865 Y96.809 E5.45669
G1 X63.253 Y96.005 E5.48694
G1 X61.773 Y93.700 E5.56896
G1 X60.906 Y91.616 E5.63655
G1 X60.757 Y90.051 E5.68362
G1 X60.809 Y88.194 E5.73924
G1 X61.487 Y85.499 E5.82247
G1 X66.629 Y75.239 E6.16612
G1 X70.004 Y68.768 E6.38464
G1 X70.324 Y68.211 E6.40388
G1 X70.598 Y67.797 E6.41876
G1 X71.055 Y67.198 E6.44133
G1 X71.350 Y66.862 E6.45471
G1 E4.45471 F1680.00000
G92 E0
G1 X81.946 Y100.569 F12000.000
G1 E2.00000 F1680.00000
G1 X81.668 Y100.422 E2.00886 F1500.000
G1 X81.279 Y100.164 E2.02200
G1 X80.875 Y99.808 E2.03714
G1 X80.569 Y99.482 E2.04972
G1 X81.274 Y99.403 E2.06969
G1 X82.311 Y99.210 E2.09937
G1 X83.083 Y99.124 E2.12126
G1 X83.521 Y99.146 E2.13359
G1 X86.300 Y99.409 E2.21216 F1500.000
G1 X87.335 Y99.465 E2.24135
G1 X89.393 Y99.494 E2.29929
G1 X89.084 Y99.844 E2.31243
G1 X88.766 Y100.128 E2.32444
G1 X88.571 Y100.270 E2.33122
G1 X88.045 Y100.573 E2.34830
G1 X87.702 Y100.731 E2.35895
G1 X87.291 Y100.879 E2.37124
G1 X86.628 Y101.063 E2.39062
G1 X86.087 Y101.162 E2.40610
G1 X85.750 Y101.200 E2.41565
G1 X85.000 Y101.242 E2.43680
G1 X84.249 Y101.200 E2.45796
G1 X83.912 Y101.162 E2.46750
G1 X83.371 Y101.063 E2.48299
G1 X82.708 Y100.879 E2.50237
G1 X82.297 Y100.731 E2.51466
G1 X82.014 Y100.600 E2.52344
G1 X82.722 Y100.603 F12000.000
G1 X81.668 Y99.550 E2.56546 F2400.000
G1 X82.138 Y99.463 E2.57892
G1 X83.511 Y100.836 E2.63371
G1 X84.182 Y100.951 E2.65292
G1 X82.629 Y99.398 E2.71486
G1 X83.151 Y99.363 E2.72960
G1 X84.782 Y100.994 E2.79469
G1 X85.341 Y100.997 E2.81046
G1 X83.752 Y99.407 E2.87386
G1 X84.367 Y99.466 E2.89128
G1 X85.865 Y100.964 E2.95107
G1 X86.351 Y100.893 E2.96491
G1 X84.981 Y99.524 E3.01955
G1 X85.596 Y99.582 E3.03696
G1 X86.808 Y100.794 E3.08531
G1 X87.243 Y100.673 E3.09806
G1 X86.210 Y99.639 E3.13930
G1 X86.799 Y99.672 E3.15593
G1 X87.655 Y100.527 E3.19008
G1 X88.033 Y100.349 E3.20188
G1 X87.381 Y99.698 E3.22787
G1 X87.946 Y99.706 E3.24379
G1 X88.386 Y100.146 E3.26136
G1 X88.510 Y99.713 E3.27405
G1 X88.697 Y99.900 E3.28150
G1 X81.572 Y100.010 F12000.000
G1 X81.215 Y99.653 E3.29574 F2400.000
G1 E1.29574 F1680.00000
G92 E0
G1 X76.030 Y73.613 F12000.000
G1 E2.00000 F1680.00000
G1 X75.944 Y73.590 E2.00250 F1500.000
G1 X75.751 Y73.439 E2.00939
G1 X75.697 Y73.341 E2.01253
G1 X75.663 Y73.179 E2.01720
G1 X75.659 Y72.796 E2.02800
G1 X75.695 Y72.499 E2.03641
G1 X75.761 Y72.224 E2.04439
G1 X75.892 Y71.902 E2.05416
G1 X76.025 Y71.671 E2.06166
G1 X76.315 Y71.314 E2.07462
G1 X76.516 Y71.139 E2.08212
G1 X76.738 Y71.006 E2.08941
G1 X76.967 Y70.916 E2.09632
G1 X77.207 Y70.868 E2.10323
G1 X77.379 Y70.860 E2.10808
G1 X77.785 Y70.890 E2.11953
G1 X78.056 Y70.959 E2.12741 F1500.000
G1 X78.358 Y71.112 E2.13693
G1 X78.633 Y71.350 E2.14716
G1 X78.712 Y71.456 E2.15090
G1 X78.766 Y71.570 E2.15445
G1 X78.794 Y71.695 E2.15805
G1 X78.794 Y71.841 E2.16216
G1 X78.766 Y72.003 E2.16678
G1 X78.696 Y72.177 E2.17208
G1 X78.563 Y72.381 E2.17892
G1 X78.371 Y72.613 E2.18740
G1 X78.000 Y73.004 E2.20256
G1 X77.831 Y73.139 E2.20866
G1 X77.516 Y73.321 E2.21891
G1 X77.051 Y73.505 E2.23299
G1 X76.445 Y73.639 E2.25046
G1 X76.102 Y73.632 E2.26011
G1 X76.183 Y73.390 F12000.000
G1 X75.903 Y73.111 E2.27161 F2400.000
G1 X75.912 Y72.546 E2.28804
G1 X76.724 Y73.358 E2.32145
G1 X77.175 Y73.235 E2.33503
G1 X76.035 Y72.095 E2.38192
G1 X76.236 Y71.722 E2.39423
G1 X77.572 Y73.058 E2.44916
G1 X77.893 Y72.805 E2.46104
G1 X76.512 Y71.424 E2.51783
G1 X76.846 Y71.185 E2.52978
G1 X78.179 Y72.518 E2.58463
G1 X78.440 Y72.206 E2.59647
G1 X77.329 Y71.094 E2.64219
G1 X78.101 Y71.293 E2.66538
G1 X78.538 Y71.730 E2.68335
G1 E0.68335 F1680.00000
G92 E0
G1 X94.279 Y72.411 F12000.000
G1 E2.00000 F1680.00000
G1 X94.340 Y72.793 E2.01089 F1500.000
G1 X94.335 Y73.190 E2.02206
G1 X94.302 Y73.341 E2.02641
G1 X94.248 Y73.439 E2.02957
G1 X94.055 Y73.590 E2.03646
G1 X93.857 Y73.642 E2.04224
G1 X93.554 Y73.640 E2.05077
G1 X92.900 Y73.499 E2.06960
G1 X92.578 Y73.371 E2.07935
G1 X92.196 Y73.156 E2.09170
G1 X92.000 Y73.004 E2.09867
G1 X91.628 Y72.613 E2.11386
G1 X91.436 Y72.381 E2.12235
G1 X91.303 Y72.177 E2.12919
G1 X91.233 Y72.003 E2.13449
G1 X91.205 Y71.841 E2.13911
G1 X91.205 Y71.695 E2.14322
G1 X91.233 Y71.570 E2.14682
G1 X91.287 Y71.456 E2.15037
G1 X91.367 Y71.350 E2.15411
G1 X91.641 Y71.111 E2.16434
G1 X91.942 Y70.960 E2.17382
G1 X92.245 Y70.886 E2.18260
G1 X92.718 Y70.862 E2.19593
G1 X92.914 Y70.886 E2.20150
G1 X93.151 Y70.956 E2.20846 F1500.000
G1 X93.290 Y71.021 E2.21278
G1 X93.486 Y71.141 E2.21926
G1 X93.684 Y71.314 E2.22665
G1 X93.841 Y71.490 E2.23331
G1 X94.011 Y71.730 E2.24158
G1 X94.172 Y72.041 E2.25145
G1 X94.263 Y72.338 E2.26017
G1 X93.708 Y71.811 F12000.000
G1 X93.197 Y71.300 E2.28244 F2400.000
G1 X92.395 Y71.105 E2.30783
G1 X94.101 Y72.811 E2.38210
G1 X94.028 Y73.345 E2.39869
G1 X91.893 Y71.210 E2.49160
G1 X91.550 Y71.474 E2.50492
G1 X93.434 Y73.358 E2.58693
G1 X92.422 Y72.953 F12000.000
G1 X91.731 Y72.262 E2.61701 F2400.000
G1 E0.61701 F1680.00000
G92 E0
G1 Z0.400 F12000.000
G1 X89.537 Y75.407 F12000.000
G1 E2.00000 F1680.00000
G1 X84.694 Y85.070 E2.30430 F1200.000
G1 X85.529 Y85.158 E2.32792
G1 X90.299 Y75.640 E2.62764
G1 X91.051 Y75.892 E2.64997
G1 X86.270 Y85.431 E2.95034
G1 X86.944 Y85.840 E2.97252
G1 X91.721 Y76.309 E3.27265
G1 X92.470 Y76.567 E3.29496
G1 X87.464 Y86.555 E3.60950
G1 X87.812 Y87.613 E3.64085
G1 X93.220 Y76.823 E3.98063
G1 X93.914 Y77.192 F12000.000
G1 X85.205 Y94.569 E4.52783 F1200.000
G1 X85.949 Y94.837 E4.55009
G1 X94.668 Y77.439 E5.09795
G1 X95.430 Y77.673 E5.12037
G1 X86.679 Y95.132 E5.67017
G1 X87.386 Y95.475 E5.69228
G1 X96.206 Y77.877 E6.24646
G1 X96.808 Y78.428 E6.26944
G1 X88.118 Y95.768 E6.81548
G1 X88.840 Y96.080 E6.83762
G1 X97.134 Y79.532 E7.35870
G1 X97.459 Y80.636 E7.39110
G1 X89.536 Y96.443 E7.88887
G1 X90.264 Y96.744 E7.91104
G1 X97.784 Y81.740 E8.38351
G1 X98.290 Y84.235 F12000.000
G1 X98.538 Y83.741 E8.39908 F1200.000
G1 X98.142 Y82.777 E8.42840
G1 X91.005 Y97.017 E8.87681
G1 X91.779 Y97.227 E8.89937
G1 X97.941 Y84.933 E9.28650
G1 X98.581 Y87.162 F12000.000
G1 X98.756 Y86.812 E9.29753 F1200.000
G1 X98.341 Y85.888 E9.32605
G1 X92.626 Y97.290 E9.68509
G1 X93.490 Y97.318 E9.70943
G1 X98.186 Y87.949 E10.00446
G1 X98.555 Y88.966 E10.03491
G1 X94.033 Y97.987 E10.31898
G1 X96.192 Y97.186 F12000.000
G1 X94.448 Y100.666 E10.42857 F1200.000
G1 X93.995 Y99.817 E10.45567
G1 X98.487 Y90.854 E10.73790
G1 X98.386 Y92.809 F12000.000
G1 X96.617 Y96.338 E10.84904 F1200.000
G1 X97.373 Y96.582 E10.87141
G1 X98.251 Y94.830 E10.92658
G1 X98.644 Y95.800 E10.95604
G1 X98.130 Y96.826 E10.98833
G1 X99.036 Y96.771 E11.01389
G1 X98.886 Y97.070 E11.02331
G1 E9.02331 F1680.00000
G92 E0
G1 X95.643 Y100.035 F12000.000
G1 E2.00000 F1680.00000
G1 X94.901 Y101.515 E2.04663 F1200.000
G1 E0.04663 F1680.00000
G92 E0
G1 X101.124 Y92.605 F12000.000
G1 E2.00000 F1680.00000
G1 X102.867 Y89.126 E2.10954 F1200.000
G1 X102.987 Y87.135 F12000.000
G1 X100.446 Y92.204 E2.26918 F1200.000
G1 X99.671 Y91.998 E2.29176
G1 X102.500 Y86.354 E2.46951
G1 X101.953 Y85.692 E2.49367
G1 X99.630 Y90.327 E2.63961
G1 X99.231 Y89.370 E2.66881
G1 X101.348 Y85.147 E2.80178
G1 X100.707 Y84.671 E2.82423
G1 X99.328 Y87.423 E2.91089
G1 E0.91089 F1680.00000
G92 E0
G1 X86.469 Y90.293 F12000.000
G1 E2.00000 F1680.00000
G1 X84.435 Y94.351 E2.12776 F1200.000
G1 X83.556 Y94.352 E2.15251
G1 X85.232 Y91.007 E2.25783
G1 X84.345 Y91.024 F12000.000
G1 X82.677 Y94.353 E2.36266 F1200.000
G1 X81.544 Y94.861 E2.39761
G1 X83.740 Y90.479 E2.53560
G1 X83.135 Y89.934 E2.55853
G1 X79.870 Y96.447 E2.76363
G1 X78.660 Y97.109 E2.80247
G1 X82.574 Y89.300 E3.04838
G1 X82.171 Y88.351 F12000.000
G1 X77.683 Y97.306 E3.33038 F1200.000
G1 X76.800 Y97.315 E3.35524
G1 X88.204 Y74.562 E4.07173
G1 X87.635 Y73.945 E4.09537
G1 X75.094 Y98.966 E4.88328
G1 X75.909 Y99.092 E4.90651
G1 X76.173 Y98.566 E4.92307
G1 X74.279 Y98.840 E4.97696
G1 X87.246 Y72.966 E5.79171
G1 X87.003 Y71.699 E5.82803
G1 X84.366 Y76.960 E5.99369
G1 X84.206 Y77.280 F12000.000
G1 X73.883 Y97.876 E6.64227 F1200.000
G1 E4.64227 F1680.00000
G92 E0
G1 X74.177 Y95.537 F12000.000
G1 E2.00000 F1680.00000
G1 X83.482 Y76.971 E2.58465 F1200.000
G1 X82.572 Y77.035 E2.61034
G1 X73.407 Y95.321 E3.18616
G1 X72.615 Y95.148 F12000.000
G1 X82.517 Y75.391 E3.80829 F1200.000
G1 X82.657 Y75.111 F12000.000
G1 X86.736 Y66.973 E4.06454 F1200.000
G1 X87.441 Y67.320 E4.08665
G1 X83.630 Y74.924 E4.32609
G1 X84.661 Y74.619 E4.35635
G1 X87.975 Y68.007 E4.56457
G1 X85.886 Y66.916 F12000.000
G1 X71.947 Y94.727 E5.44033 F1200.000
G1 X71.525 Y93.816 E5.46859
G1 X80.781 Y75.349 E6.05013
G1 X79.746 Y75.662 E6.08058
G1 X71.096 Y92.919 E6.62401
G1 X70.105 Y93.143 F12000.000
G1 X78.575 Y76.244 E7.15617 F1200.000
G1 X77.514 Y76.609 E7.18776
G1 X69.627 Y92.346 E7.68331
G1 X68.653 Y92.536 F12000.000
G1 X76.373 Y77.132 E8.16837 F1200.000
G1 X75.323 Y77.475 E8.19947
G1 X70.777 Y86.546 E8.48512
G1 X70.640 Y86.819 F12000.000
G1 X68.159 Y91.768 E8.64095 F1200.000
G1 X67.666 Y90.999 E8.66665
G1 X74.204 Y77.954 E9.07744
G1 X73.239 Y78.127 E9.10505
G1 X70.595 Y83.402 E9.27113
G1 X70.676 Y81.488 F12000.000
G1 X72.367 Y78.114 E9.37736 F1200.000
G1 E7.37736 F1680.00000
G92 E0
G1 X69.705 Y85.179 F12000.000
G1 E2.00000 F1680.00000
G1 X67.172 Y90.231 E2.15910 F1200.000
G1 X67.224 Y88.374 F12000.000
G1 X68.975 Y84.881 E2.26909 F1200.000
G1 E0.26909 F1680.00000
G92 E0
G1 X83.659 Y85.383 F12000.000
G1 E2.00000 F1680.00000
G1 X88.848 Y75.029 E2.32604 F1200.000
G1 X83.012 Y70.898 F12000.000
G1 X85.008 Y66.916 E2.45144 F1200.000
G1 X84.129 Y66.916 E2.47617
G1 X82.614 Y69.939 E2.57136
G1 X82.120 Y69.173 E2.59703
G1 X83.197 Y67.024 E2.66469
M106 S255
M104 S188 ; set temperature
G1 E0.66469 F1680.00000
G92 E0
G1 Z0.600 F12000.000
G1 X84.243 Y67.048 F12000.000
G1 E2.00000 F1680.00000
G1 X83.552 Y67.060 E2.00907 F1122.234
G1 X83.375 Y67.081 E2.01140
G1 X82.953 Y67.203 E2.01716
G1 X82.422 Y67.588 E2.02575
G1 X82.079 Y68.148 E2.03436
G1 X81.973 Y68.621 E2.04071
G1 X81.881 Y68.779 E2.04311
G1 X82.244 Y69.115 E2.04959
G1 X82.406 Y69.321 E2.05303
G1 X82.551 Y69.554 E2.05662
G1 X82.770 Y70.017 E2.06334
G1 X83.020 Y70.678 E2.07260
G1 X83.087 Y70.789 E2.07429
G1 X83.246 Y71.178 E2.07980
G1 X83.187 Y71.590 E2.08526
G1 X83.001 Y71.958 E2.09066
G1 X82.909 Y72.642 E2.09971
G1 X82.812 Y73.128 E2.10621
G1 X82.683 Y73.532 E2.11176
G1 X82.515 Y73.913 E2.11723
G1 X82.308 Y74.241 E2.12230
G1 X82.029 Y74.544 E2.12770
G1 X81.690 Y74.800 E2.13327
G1 X81.253 Y75.030 E2.13975
G1 X81.164 Y75.355 E2.14416
G1 X80.216 Y75.619 E2.15706
G1 X78.885 Y76.057 E2.17541
G1 X78.773 Y76.288 E2.17877
G1 X76.569 Y77.034 E2.20928
G1 X76.504 Y77.201 E2.21162
G1 X74.732 Y77.767 E2.23601
G1 X74.665 Y77.940 E2.23844
G1 X73.664 Y78.201 E2.25201
G1 X73.382 Y78.246 E2.25574
G1 X73.147 Y78.252 E2.25883
G1 X73.000 Y78.662 E2.26453
G1 X72.742 Y78.418 E2.26920
G1 X71.903 Y78.064 E2.28113
G1 X71.159 Y80.059 E2.30904
G1 X70.214 Y83.118 E2.35101
G1 X71.137 Y83.451 E2.36387
G1 X70.761 Y84.448 E2.37783
G1 X70.233 Y85.735 E2.39606
G1 X69.062 Y84.877 E2.41509
G1 X67.999 Y85.924 E2.43465
G1 X67.736 Y86.235 E2.43999
G1 X67.542 Y86.507 E2.44437
G1 X66.768 Y87.760 E2.46367
G1 X67.435 Y88.391 E2.47571
G1 X67.253 Y88.967 E2.48363
G1 X67.088 Y89.875 E2.49573
G1 X68.789 Y92.524 E2.53699
G1 X69.192 Y91.832 E2.54749
G1 X69.802 Y92.312 E2.55767
G1 X70.029 Y93.113 E2.56858
G1 X70.829 Y92.493 E2.58185
G1 X71.188 Y92.822 E2.58824
G1 X72.070 Y94.724 E2.61571
G1 X72.070 Y94.640 E2.61682
G1 X72.463 Y94.552 E2.62210
G1 X72.701 Y95.065 E2.62951
G1 X72.747 Y94.942 E2.63124
G1 X72.827 Y94.815 E2.63320
G1 X73.058 Y94.537 E2.63794
G1 X73.604 Y95.407 E2.65140
G1 X73.805 Y95.281 E2.65453
G1 X74.148 Y95.141 E2.65938
G1 X74.428 Y95.937 E2.67043
G1 X74.120 Y96.195 E2.67571
G1 X73.939 Y96.712 E2.68289
G1 X73.876 Y97.024 E2.68706
G1 X73.881 Y97.287 E2.69050
G1 X73.917 Y97.561 E2.69413
G1 X74.126 Y98.682 E2.70908
G1 X76.232 Y99.008 E2.73702
G1 X76.025 Y98.458 E2.74471
G1 X75.893 Y97.905 E2.75216
G1 X75.890 Y97.718 E2.75462
G1 X75.943 Y97.560 E2.75679
G1 X76.059 Y97.342 E2.76004
G1 X76.298 Y97.225 E2.76352
G1 X76.468 Y97.191 E2.76580
G1 X77.491 Y97.195 E2.77920
G1 X78.010 Y97.157 E2.78603
G1 X78.378 Y97.088 E2.79093
G1 X78.752 Y96.971 E2.79606
G1 X79.034 Y96.835 E2.80017
G1 X79.628 Y96.620 E2.80846
G1 X80.249 Y95.974 E2.82019
G1 X81.051 Y95.023 E2.83649
G1 X82.546 Y94.228 E2.85870
G1 X84.656 Y94.225 E2.88635
G1 X86.542 Y94.905 E2.91263
G1 X87.235 Y95.267 E2.92287
G1 X88.715 Y95.859 E2.94377
G1 X89.853 Y96.454 E2.96060
G1 X90.037 Y96.508 E2.96312
G1 X90.819 Y96.814 E2.97412
G1 X91.660 Y97.075 E2.98566
G1 X92.186 Y97.155 E2.99264
G1 X93.532 Y97.191 E3.01028
G1 X93.701 Y97.225 E3.01254
G1 X93.940 Y97.342 E3.01603
G1 X94.056 Y97.561 E3.01927
G1 X94.109 Y97.718 E3.02144
G1 X94.106 Y97.905 E3.02391
G1 X93.974 Y98.458 E3.03136
G1 X93.734 Y99.082 E3.04011
G1 X95.224 Y101.875 E3.08160
G1 X96.081 Y97.571 E3.13912
G1 X96.120 Y97.287 E3.14287
G1 X96.124 Y97.004 E3.14659
G1 X96.082 Y96.813 E3.14915
G1 X96.457 Y96.144 E3.15921
G1 X98.996 Y96.962 E3.19417
G1 X97.741 Y93.857 E3.23807
G1 X98.521 Y93.378 E3.25007
G1 X97.894 Y91.997 E3.26995
G1 X98.667 Y91.521 E3.28185
G1 X98.044 Y90.149 E3.30160
G1 X98.728 Y89.769 E3.31184
G1 X98.180 Y88.220 E3.33338
G1 X97.845 Y87.443 E3.34446
G1 X98.715 Y86.992 E3.35731
G1 X98.019 Y85.444 E3.37955
G1 X97.637 Y84.429 E3.39376
G1 X98.535 Y84.020 E3.40669
G1 X97.878 Y82.421 E3.42936
G1 X96.598 Y78.068 E3.48883
G1 X96.220 Y78.017 E3.49382
G1 X95.657 Y77.881 E3.50141
G1 X93.147 Y77.094 E3.53589
G1 X93.192 Y76.957 E3.53777
G1 X91.553 Y76.396 E3.56049
G1 X91.080 Y76.046 E3.56819
G1 X89.897 Y75.653 E3.58453
G1 X88.835 Y75.355 E3.59899
G1 X88.746 Y75.030 E3.60340
G1 X88.309 Y74.800 E3.60988
G1 X87.970 Y74.544 E3.61545
G1 X87.691 Y74.241 E3.62084
G1 X87.482 Y73.921 E3.62586
G1 X87.316 Y73.532 E3.63140
G1 X87.187 Y73.128 E3.63695
G1 X87.090 Y72.642 E3.64345
G1 X86.998 Y71.958 E3.65249
G1 X86.812 Y71.590 E3.65791
G1 X86.753 Y71.178 E3.66336
G1 X86.912 Y70.789 E3.66886
G1 X86.978 Y70.679 E3.67055
G1 X87.229 Y70.017 E3.67983
G1 X87.448 Y69.554 E3.68653
G1 X87.593 Y69.321 E3.69013
G1 X87.755 Y69.115 E3.69357
G1 X88.118 Y68.779 E3.70005
G1 X88.026 Y68.620 E3.70245
G1 X87.920 Y68.148 E3.70880
G1 X87.577 Y67.588 E3.71741
G1 X87.046 Y67.203 E3.72600
G1 X86.624 Y67.081 E3.73176
G1 X86.324 Y67.050 E3.73572
