; generated by Slic3r 1.2.9 on 2015-11-03 at 19:13:06

; external perimeters extrusion width = 0.50mm
; perimeters extrusion width = 0.50mm
; infill extrusion width = 0.50mm
; solid infill extrusion width = 0.50mm
; top infill extrusion width = 0.50mm

M104 S190 ; set temperature
G28 ; home all axes
G1 Z15 F120 ; lift nozzle
M109 S190 ; wait for temperature to be reached
G21 ; set units to millimeters
G90 ; use absolute coordinates
M82 ; use absolute distances for extrusion
G92 E0
M106 S102
G1 E-2.00000 F1680.00000
G92 E0
G1 Z0.350 F12000.000
G1 X58.290 Y58.290 F12000.000
G1 E2.00000 F1680.00000
G1 X60.597 Y55.983 E2.09183 F1200.000
G1 X61.612 Y55.563 E2.12278
G1 X70.633 Y55.565 E2.37673
G1 X135.271 Y61.342 E4.20366 F1200.000
G1 X136.212 Y61.814 E4.23330
G1 X136.579 Y62.773 E4.26220
G1 X136.579 Y112.773 E5.66980
G1 X136.193 Y113.753 E5.69944
G1 X135.148 Y114.209 E5.73155
G1 X70.638 Y114.437 E7.54763
G1 X61.709 Y114.435 E7.79899
G1 X60.696 Y114.015 E7.82989
G1 X33.842 Y87.161 E8.89901
G1 X33.421 Y86.145 E8.92996
G1 X33.421 Y83.754 E8.99729
G1 X33.842 Y82.738 E9.02823
G1 X58.237 Y58.343 E9.99947
G1 E7.99947 F1680.00000
G92 E0
G1 X60.829 Y60.950 F12000.000
G1 E2.00000 F1680.00000
G1 X62.012 Y59.774 E2.04341 F900.000
G1 X62.012 Y110.226 E3.35662
G1 X36.643 Y85.000 E4.28783
G1 X39.784 Y81.877 E4.40312
G1 X60.776 Y61.003 E5.17368 F900.000
G1 X61.060 Y61.289 F12000.000
G1 X61.608 Y60.744 E5.19379 F720.000
G1 X61.608 Y109.256 E6.45650
G1 X37.215 Y85.000 E7.35190 F720.000
G1 X61.007 Y61.342 E8.22524
G1 X60.932 Y60.805 F12000.000
G1 E6.22524 F1680.00000
G92 E0
G1 X36.988 Y87.352 F12000.000
G1 E2.00000 F1680.00000
G1 X35.511 Y85.875 E2.05438 F900.000
G1 X35.511 Y84.024 E2.10254
G1 X61.882 Y57.653 E3.07329
G1 X62.858 Y57.655 E3.09868
G1 X69.979 Y57.655 E3.28404 F900.000
G1 X69.979 Y59.547 E3.33330
G1 X63.704 Y59.547 E3.49664
G1 X63.704 Y110.453 E4.82167
G1 X69.979 Y110.453 E4.98499
G1 X69.979 Y112.347 E5.03431
G1 X61.982 Y112.346 E5.24247
G1 X37.041 Y87.405 E6.16055
G1 X36.756 Y87.690 F12000.000
G1 X35.107 Y86.042 E6.22124 F720.000
G1 X35.107 Y83.857 E6.27810
G1 X61.716 Y57.249 E7.25756
G1 X62.858 Y57.251 E7.28729
G1 X70.383 Y57.251 E7.48315 F720.000
G1 X70.383 Y59.950 E7.55341
G1 X64.107 Y59.951 E7.71675
G1 X64.108 Y110.049 E9.02078
G1 X70.383 Y110.049 E9.18410
G1 X70.383 Y112.751 E9.25442
G1 X61.815 Y112.749 E9.47744
G1 X36.809 Y87.743 E10.39791
G1 X36.885 Y87.207 F12000.000
G1 X35.748 Y85.627 F12000.000
G1 X62.230 Y112.108 E11.38022 F1200.000
G1 X62.805 Y112.109 E11.39531
G1 X35.748 Y85.052 E12.39895
G1 X36.314 Y85.043 E12.41378
G1 X35.748 Y84.477 E12.43476
G1 X35.847 Y84.002 E12.44750
G1 X36.602 Y84.756 E12.47549
G1 X36.890 Y84.469 E12.48615
G1 X36.135 Y83.714 E12.51417
G1 X36.422 Y83.427 E12.52483
G1 X37.179 Y84.183 E12.55288
G1 X37.467 Y83.896 E12.56354
G1 X36.710 Y83.139 E12.59162
G1 X36.997 Y82.852 E12.60228
G1 X37.755 Y83.609 E12.63039
G1 X38.043 Y83.323 E12.64106
G1 X37.285 Y82.564 E12.66919
G1 X37.572 Y82.277 E12.67986
G1 X38.332 Y83.036 E12.70802
G1 X38.620 Y82.749 E12.71869
G1 X37.860 Y81.989 E12.74688
G1 X38.147 Y81.702 E12.75755
G1 X38.908 Y82.463 E12.78577
G1 X39.196 Y82.176 E12.79644
G1 X38.435 Y81.414 E12.82469
G1 X38.722 Y81.127 E12.83536
G1 X39.485 Y81.890 E12.86364
G1 X39.773 Y81.603 E12.87431
G1 X39.010 Y80.839 E12.90263
G1 X39.297 Y80.552 E12.91329
G1 X40.061 Y81.316 E12.94164
G1 X40.350 Y81.030 E12.95230
G1 X39.585 Y80.265 E12.98068
G1 X39.872 Y79.977 E12.99134
G1 X40.638 Y80.743 E13.01975
G1 X40.926 Y80.456 E13.03041
G1 X40.159 Y79.690 E13.05885
G1 X40.447 Y79.402 E13.06951
G1 X41.214 Y80.170 E13.09798
G1 X41.503 Y79.883 E13.10864
G1 X40.734 Y79.115 E13.13714
G1 X41.022 Y78.827 E13.14780
G1 X41.791 Y79.596 E13.17633
G1 X42.079 Y79.310 E13.18700
G1 X41.309 Y78.540 E13.21555
G1 X41.597 Y78.252 E13.22622
G1 X42.367 Y79.023 E13.25480
G1 X42.656 Y78.736 E13.26547
G1 X41.884 Y77.965 E13.29409
G1 X42.172 Y77.677 E13.30475
G1 X42.944 Y78.450 E13.33340
G1 X43.232 Y78.163 E13.34406
G1 X42.459 Y77.390 E13.37274
G1 X42.747 Y77.102 E13.38340
G1 X43.521 Y77.876 E13.41211
G1 X43.809 Y77.590 E13.42277
G1 X43.034 Y76.815 E13.45151
G1 X43.322 Y76.527 E13.46218
G1 X44.097 Y77.303 E13.49094
G1 X44.385 Y77.016 E13.50161
G1 X43.609 Y76.240 E13.53041
G1 X43.897 Y75.953 E13.54107
G1 X44.674 Y76.730 E13.56990
G1 X44.962 Y76.443 E13.58056
G1 X44.184 Y75.665 E13.60942
G1 X44.471 Y75.378 E13.62008
G1 X45.250 Y76.156 E13.64897
G1 X45.539 Y75.870 E13.65964
G1 X44.759 Y75.090 E13.68855
G1 X45.046 Y74.803 E13.69922
G1 X45.827 Y75.583 E13.72817
G1 X46.115 Y75.296 E13.73883
G1 X45.334 Y74.515 E13.76781
G1 X45.621 Y74.228 E13.77847
G1 X46.403 Y75.010 E13.80748
G1 X46.692 Y74.723 E13.81814
G1 X45.909 Y73.940 E13.84718
G1 X46.196 Y73.653 E13.85785
G1 X46.980 Y74.436 E13.88692
G1 X47.268 Y74.150 E13.89758
G1 X46.484 Y73.365 E13.92668
G1 X46.771 Y73.078 E13.93734
G1 X47.556 Y73.863 E13.96647
G1 X47.845 Y73.576 E13.97713
G1 X47.059 Y72.790 E14.00629
G1 X47.346 Y72.503 E14.01696
G1 X48.133 Y73.290 E14.04615
G1 X48.421 Y73.003 E14.05681
G1 X47.634 Y72.215 E14.08603
G1 X47.921 Y71.928 E14.09669
G1 X48.710 Y72.717 E14.12594
G1 X48.998 Y72.430 E14.13661
G1 X48.209 Y71.641 E14.16589
G1 X48.496 Y71.353 E14.17655
G1 X49.286 Y72.143 E14.20586
G1 X49.574 Y71.857 E14.21652
G1 X48.783 Y71.066 E14.24586
G1 X49.071 Y70.778 E14.25652
G1 X49.863 Y71.570 E14.28589
G1 X50.151 Y71.283 E14.29656
G1 X49.358 Y70.491 E14.32596
G1 X49.646 Y70.203 E14.33662
G1 X50.439 Y70.997 E14.36605
G1 X50.728 Y70.710 E14.37671
G1 X49.933 Y69.916 E14.40617
G1 X50.221 Y69.628 E14.41684
G1 X51.016 Y70.423 E14.44633
G1 X51.304 Y70.137 E14.45699
G1 X50.508 Y69.341 E14.48651
G1 X50.796 Y69.053 E14.49717
G1 X51.592 Y69.850 E14.52672
G1 X51.881 Y69.563 E14.53739
G1 X51.083 Y68.766 E14.56697
G1 X51.371 Y68.478 E14.57763
G1 X52.169 Y69.277 E14.60724
G1 X52.457 Y68.990 E14.61791
G1 X51.658 Y68.191 E14.64755
G1 X51.946 Y67.903 E14.65821
G1 X52.745 Y68.703 E14.68788
G1 X53.034 Y68.417 E14.69854
G1 X52.233 Y67.616 E14.72824
G1 X52.521 Y67.329 E14.73891
G1 X53.322 Y68.130 E14.76864
G1 X53.610 Y67.843 E14.77930
G1 X52.808 Y67.041 E14.80906
G1 X53.095 Y66.754 E14.81973
G1 X53.899 Y67.557 E14.84952
G1 X54.187 Y67.270 E14.86018
G1 X53.383 Y66.466 E14.89000
G1 X53.670 Y66.179 E14.90066
G1 X54.475 Y66.983 E14.93051
G1 X54.763 Y66.697 E14.94118
G1 X53.958 Y65.891 E14.97106
G1 X54.245 Y65.604 E14.98172
G1 X55.052 Y66.410 E15.01163
G1 X55.340 Y66.123 E15.02230
G1 X54.533 Y65.316 E15.05224
G1 X54.820 Y65.029 E15.06290
G1 X55.628 Y65.837 E15.09287
G1 X55.917 Y65.550 E15.10354
G1 X55.108 Y64.741 E15.13354
G1 X55.395 Y64.454 E15.14420
G1 X56.205 Y65.263 E15.17423
G1 X56.493 Y64.977 E15.18489
G1 X55.683 Y64.166 E15.21496
G1 X55.970 Y63.879 E15.22562
G1 X56.781 Y64.690 E15.25571
G1 X57.070 Y64.404 E15.26637
G1 X56.258 Y63.591 E15.29650
G1 X56.545 Y63.304 E15.30716
G1 X57.358 Y64.117 E15.33731
G1 X57.646 Y63.830 E15.34797
G1 X56.833 Y63.017 E15.37816
G1 X57.120 Y62.729 E15.38882
G1 X57.934 Y63.544 E15.41903
G1 X58.223 Y63.257 E15.42969
G1 X57.407 Y62.442 E15.45994
G1 X57.695 Y62.154 E15.47060
G1 X58.511 Y62.970 E15.50087
G1 X58.799 Y62.684 E15.51153
G1 X57.982 Y61.867 E15.54184
G1 X58.270 Y61.579 E15.55250
G1 X59.088 Y62.397 E15.58283
G1 X59.376 Y62.110 E15.59350
G1 X58.557 Y61.292 E15.62386
G1 X58.845 Y61.004 E15.63452
G1 X59.664 Y61.824 E15.66491
G1 X59.952 Y61.537 E15.67558
G1 X59.132 Y60.717 E15.70600
G1 X59.420 Y60.429 E15.71666
G1 X60.241 Y61.250 E15.74711
G1 X60.529 Y60.964 E15.75778
G1 X59.707 Y60.142 E15.78826
G1 X59.995 Y59.854 E15.79892
G1 X60.817 Y60.677 E15.82944
G1 X61.105 Y60.390 E15.84010
G1 X60.282 Y59.567 E15.87064
G1 X60.570 Y59.280 E15.88131
G1 X61.394 Y60.104 E15.91188
G1 X61.682 Y59.817 E15.92254
G1 X60.857 Y58.992 E15.95314
G1 X61.145 Y58.705 E15.96381
G1 X61.970 Y59.530 E15.99444
G1 X62.249 Y59.809 F12000.000
G1 X63.466 Y61.027 E16.03960 F1200.000
G1 X63.466 Y60.452 E16.05468
G1 X61.432 Y58.417 E16.13015
G1 X61.719 Y58.130 E16.14081
G1 X63.466 Y59.877 E16.20561
G1 X63.475 Y59.310 E16.22048
G1 X62.055 Y57.891 E16.27313
G1 X62.631 Y57.892 E16.28823
G1 X64.050 Y59.310 E16.34084
G1 X64.624 Y59.310 E16.35592
G1 X63.206 Y57.892 E16.40852
G1 X63.781 Y57.892 E16.42360
G1 X65.199 Y59.310 E16.47619
G1 X65.774 Y59.310 E16.49127
G1 X64.356 Y57.892 E16.54387
G1 X64.931 Y57.892 E16.55895
G1 X66.349 Y59.310 E16.61154
G1 X66.924 Y59.310 E16.62662
G1 X65.506 Y57.892 E16.67922
G1 X66.081 Y57.892 E16.69430
G1 X67.499 Y59.310 E16.74689
G1 X68.074 Y59.310 E16.76197
G1 X66.656 Y57.892 E16.81456
G1 X67.231 Y57.892 E16.82964
G1 X68.649 Y59.310 E16.88223
G1 X69.224 Y59.310 E16.89731
G1 X67.806 Y57.892 E16.94991
G1 X68.381 Y57.892 E16.96499
G1 X69.742 Y59.253 E17.01547
G1 X69.742 Y58.678 E17.03055
G1 X68.956 Y57.892 E17.05971
G1 X69.531 Y57.892 E17.07479
G1 X69.742 Y58.103 E17.08262
G1 E15.08262 F1680.00000
G92 E0
G1 X63.466 Y61.601 F12000.000
G1 E2.00000 F1680.00000
G1 X62.249 Y60.384 E2.04516 F1200.000
G1 X62.249 Y60.959 E2.06024
G1 X63.466 Y62.176 E2.10540
G1 X63.466 Y62.751 E2.12048
G1 X62.249 Y61.534 E2.16564
G1 X62.249 Y62.109 E2.18072
G1 X63.467 Y63.326 E2.22588
G1 X63.467 Y63.901 E2.24096
G1 X62.249 Y62.684 E2.28612
G1 X62.249 Y63.259 E2.30120
G1 X63.467 Y64.476 E2.34636
G1 X63.467 Y65.051 E2.36144
G1 X62.249 Y63.834 E2.40660
G1 X62.249 Y64.409 E2.42168
G1 X63.467 Y65.626 E2.46684
G1 X63.467 Y66.201 E2.48192
G1 X62.249 Y64.984 E2.52708
G1 X62.249 Y65.558 E2.54216
G1 X63.467 Y66.776 E2.58732
G1 X63.467 Y67.351 E2.60240
G1 X62.249 Y66.133 E2.64756
G1 X62.249 Y66.708 E2.66264
G1 X63.467 Y67.926 E2.70780
G1 X63.467 Y68.501 E2.72289
G1 X62.249 Y67.283 E2.76805
G1 X62.249 Y67.858 E2.78313
G1 X63.467 Y69.076 E2.82829
G1 X63.467 Y69.651 E2.84337
G1 X62.249 Y68.433 E2.88853
G1 X62.249 Y69.008 E2.90361
G1 X63.467 Y70.226 E2.94878
G1 X63.467 Y70.801 E2.96386
G1 X62.249 Y69.583 E3.00902
G1 X62.249 Y70.158 E3.02410
G1 X63.467 Y71.375 E3.06926
G1 X63.467 Y71.950 E3.08434
G1 X62.249 Y70.733 E3.12951
G1 X62.249 Y71.308 E3.14459
G1 X63.467 Y72.525 E3.18975
G1 X63.467 Y73.100 E3.20483
G1 X62.249 Y71.883 E3.25000
G1 X62.249 Y72.458 E3.26508
G1 X63.467 Y73.675 E3.31024
G1 X63.467 Y74.250 E3.32532
G1 X62.249 Y73.033 E3.37049
G1 X62.249 Y73.608 E3.38557
G1 X63.467 Y74.825 E3.43073
G1 X63.467 Y75.400 E3.44581
G1 X62.249 Y74.182 E3.49098
G1 X62.249 Y74.757 E3.50606
G1 X63.467 Y75.975 E3.55122
G1 X63.467 Y76.550 E3.56630
G1 X62.249 Y75.332 E3.61147
G1 X62.249 Y75.907 E3.62655
G1 X63.467 Y77.125 E3.67172
G1 X63.467 Y77.700 E3.68680
G1 X62.249 Y76.482 E3.73196
G1 X62.249 Y77.057 E3.74704
G1 X63.467 Y78.275 E3.79221
G1 X63.467 Y78.850 E3.80729
G1 X62.249 Y77.632 E3.85246
G1 X62.249 Y78.207 E3.86754
G1 X63.467 Y79.425 E3.91271
G1 X63.467 Y80.000 E3.92779
G1 X62.249 Y78.782 E3.97295
G1 X62.249 Y79.357 E3.98803
G1 X63.467 Y80.575 E4.03320
G1 X63.467 Y81.149 E4.04828
G1 X62.249 Y79.932 E4.09345
G1 X62.249 Y80.507 E4.10853
G1 X63.467 Y81.724 E4.15370
G1 X63.467 Y82.299 E4.16878
G1 X62.249 Y81.082 E4.21395
G1 X62.249 Y81.657 E4.22903
G1 X63.467 Y82.874 E4.27420
G1 X63.467 Y83.449 E4.28928
G1 X62.249 Y82.232 E4.33445
G1 X62.249 Y82.806 E4.34953
G1 X63.467 Y84.024 E4.39470
G1 X63.467 Y84.599 E4.40978
G1 X62.249 Y83.381 E4.45495
G1 X62.249 Y83.956 E4.47003
G1 X63.467 Y85.174 E4.51520
G1 X63.467 Y85.749 E4.53028
G1 X62.249 Y84.531 E4.57545
G1 X62.249 Y85.106 E4.59053
G1 X63.467 Y86.324 E4.63570
G1 X63.467 Y86.899 E4.65078
G1 X62.249 Y85.681 E4.69595
G1 X62.249 Y86.256 E4.71103
G1 X63.467 Y87.474 E4.75621
G1 X63.467 Y88.049 E4.77129
G1 X62.249 Y86.831 E4.81646
G1 X62.249 Y87.406 E4.83154
G1 X63.467 Y88.624 E4.87671
G1 X63.467 Y89.199 E4.89179
G1 X62.249 Y87.981 E4.93696
G1 X62.249 Y88.556 E4.95204
G1 X63.467 Y89.774 E4.99722
G1 X63.467 Y90.348 E5.01230
G1 X62.249 Y89.131 E5.05747
G1 X62.249 Y89.706 E5.07255
G1 X63.467 Y90.923 E5.11772
G1 X63.467 Y91.498 E5.13280
G1 X62.249 Y90.281 E5.17798
G1 X62.249 Y90.855 E5.19306
G1 X63.467 Y92.073 E5.23823
G1 X63.467 Y92.648 E5.25331
G1 X62.249 Y91.430 E5.29849
G1 X62.249 Y92.005 E5.31357
G1 X63.467 Y93.223 E5.35874
G1 X63.467 Y93.798 E5.37382
G1 X62.249 Y92.580 E5.41900
G1 X62.249 Y93.155 E5.43408
G1 X63.467 Y94.373 E5.47925
G1 X63.467 Y94.948 E5.49433
G1 X62.249 Y93.730 E5.53951
G1 X62.249 Y94.305 E5.55459
G1 X63.467 Y95.523 E5.59976
G1 X63.467 Y96.098 E5.61484
G1 X62.249 Y94.880 E5.66002
G1 X62.249 Y95.455 E5.67510
G1 X63.467 Y96.673 E5.72028
G1 X63.467 Y97.248 E5.73536
G1 X62.249 Y96.030 E5.78053
G1 X62.249 Y96.605 E5.79561
G1 X63.467 Y97.823 E5.84079
G1 X63.467 Y98.398 E5.85587
G1 X62.249 Y97.180 E5.90105
G1 X62.249 Y97.755 E5.91613
G1 X63.467 Y98.973 E5.96130
G1 X63.467 Y99.548 E5.97638
G1 X62.249 Y98.330 E6.02156
G1 X62.249 Y98.905 E6.03664
G1 X63.467 Y100.122 E6.08182
G1 X63.467 Y100.697 E6.09690
G1 X62.249 Y99.479 E6.14208
G1 X62.249 Y100.054 E6.15716
G1 X63.467 Y101.272 E6.20234
G1 X63.467 Y101.847 E6.21742
G1 X62.249 Y100.629 E6.26260
G1 X62.249 Y101.204 E6.27768
G1 X63.467 Y102.422 E6.32286
G1 X63.467 Y102.997 E6.33794
G1 X62.249 Y101.779 E6.38312
G1 X62.249 Y102.354 E6.39820
G1 X63.467 Y103.572 E6.44338
G1 X63.467 Y104.147 E6.45846
G1 X62.249 Y102.929 E6.50364
G1 X62.249 Y103.504 E6.51872
G1 X63.467 Y104.722 E6.56390
G1 X63.467 Y105.297 E6.57898
G1 X62.249 Y104.079 E6.62416
G1 X62.249 Y104.654 E6.63924
G1 X63.467 Y105.872 E6.68442
G1 X63.467 Y106.447 E6.69950
G1 X62.249 Y105.229 E6.74468
G1 X62.249 Y105.804 E6.75976
G1 X63.467 Y107.022 E6.80494
G1 X63.467 Y107.597 E6.82002
G1 X62.249 Y106.379 E6.86520
G1 X62.249 Y106.954 E6.88028
G1 X63.467 Y108.172 E6.92547
G1 X63.467 Y108.747 E6.94055
G1 X62.249 Y107.529 E6.98573
G1 X62.249 Y108.103 E7.00081
G1 X63.467 Y109.322 E7.04599
G1 X63.467 Y109.896 E7.06107
G1 X62.249 Y108.678 E7.10625
G1 X62.249 Y109.253 E7.12133
G1 X63.467 Y110.471 E7.16652
G1 X63.686 Y110.690 F12000.000
G1 X65.105 Y112.109 E7.21915 F1200.000
G1 X64.530 Y112.109 E7.23423
G1 X62.249 Y109.828 E7.31883
G1 X62.249 Y110.403 E7.33391
G1 X63.955 Y112.109 E7.39718
G1 X63.380 Y112.109 E7.41227
G1 X51.301 Y100.030 E7.86033
G1 E5.86033 F1680.00000
G92 E0
G1 X64.261 Y110.690 F12000.000
G1 E2.00000 F1680.00000
G1 X65.680 Y112.109 E2.05264 F1200.000
G1 X66.255 Y112.109 E2.06772
G1 X64.836 Y110.690 E2.12036
G1 X65.411 Y110.690 E2.13544
G1 X66.830 Y112.109 E2.18809
G1 X67.405 Y112.110 E2.20317
G1 X65.986 Y110.690 E2.25583
G1 X66.561 Y110.690 E2.27091
G1 X67.980 Y112.110 E2.32356
G1 X68.555 Y112.110 E2.33865
G1 X67.135 Y110.690 E2.39131
G1 X67.710 Y110.690 E2.40639
G1 X69.130 Y112.110 E2.45905
G1 X69.704 Y112.108 E2.47409
G1 X68.285 Y110.690 E2.52670
G1 X68.860 Y110.690 E2.54178
G1 X69.742 Y111.572 E2.57449
G1 X69.742 Y110.997 E2.58957
G1 X69.435 Y110.690 E2.60095
G1 E0.60095 F1680.00000
G92 E0
G1 Z0.350 F12000.000
G1 X123.876 Y86.726 F12000.000
G1 E2.00000 F1680.00000
G1 X124.109 Y88.573 E2.04845 F900.000
G1 X123.876 Y90.419 E2.09689
G1 X113.159 Y90.419 E2.37585
G1 X113.159 Y91.206 E2.39632
G1 X114.534 Y97.084 E2.55346
G1 X117.200 Y102.409 E2.70845
G1 X120.996 Y106.845 E2.86043
G1 X125.686 Y110.113 E3.00922
G1 X130.750 Y111.919 E3.14914
G1 X130.715 Y112.119 E3.15445
G1 X93.862 Y112.119 E4.11368
G1 X93.840 Y111.902 E4.11936
G1 X97.007 Y111.239 E4.20359
G1 X102.039 Y108.640 E4.35099
G1 X106.315 Y104.757 E4.50135
G1 X109.571 Y99.838 E4.65490
G1 X111.608 Y94.192 E4.81111
G1 X112.042 Y90.419 E4.90996
G1 X101.372 Y90.419 E5.18769
G1 X101.267 Y90.010 E5.19869
G1 X101.267 Y87.136 E5.27351
G1 X101.372 Y86.726 E5.28451
G1 X112.134 Y86.726 E5.56464
G1 X111.608 Y82.154 E5.68445
G1 X109.571 Y76.508 E5.84066
G1 X106.315 Y71.589 E5.99421
G1 X102.039 Y67.705 E6.14457
G1 X97.007 Y65.107 E6.29197
G1 X91.538 Y63.961 E6.43742
G1 X90.796 Y64.013 E6.45678
G1 X90.796 Y63.426 E6.47204
G1 X134.489 Y63.426 E7.60933
G1 X134.489 Y64.103 E7.62694
G1 X130.979 Y64.345 E7.71852 F900.000
G1 X125.686 Y66.233 E7.86478
G1 X120.996 Y69.500 E8.01358
G1 X117.200 Y73.937 E8.16555
G1 X114.534 Y79.261 E8.32055
G1 X113.159 Y85.140 E8.47768
G1 X113.159 Y86.726 E8.51898
G1 X123.801 Y86.726 E8.79598
G1 X123.801 Y86.323 F12000.000
G1 X124.231 Y86.323 E8.80719 F720.000
G1 X124.516 Y88.573 E8.86622
