; generated by Slic3r 1.2.9 on 2016-01-04 at 16:04:42

; external perimeters extrusion width = 0.50mm
; perimeters extrusion width = 0.50mm
; infill extrusion width = 0.50mm
; solid infill extrusion width = 0.50mm
; top infill extrusion width = 0.50mm

M104 S190 ; set temperature
G28 ; home all axes
G1 Z15 F120 ; lift nozzle
M109 S190 ; wait for temperature to be reached
G21 ; set units to millimeters
G90 ; use absolute coordinates
M82 ; use absolute distances for extrusion
G92 E0
M106 S102
G1 E-2.00000 F1680.00000
G92 E0
G1 Z0.350 F12000.000
G1 X51.778 Y56.013 F12000.000
G1 E2.00000 F1680.00000
G1 X53.663 Y54.352 E2.07074 F1200.000
G1 X55.960 Y52.554 E2.15286
G1 X56.287 Y52.316 E2.16425
G1 X58.707 Y50.687 E2.24637
G1 X60.870 Y49.408 E2.31712
G1 X63.463 Y48.072 E2.39923
G1 X66.109 Y46.913 E2.48055
G1 X66.511 Y46.753 E2.49273
G1 X68.875 Y45.902 E2.56348
G1 X71.673 Y45.076 E2.64560
G1 X74.517 Y44.427 E2.72771
G1 X74.914 Y44.351 E2.73910
G1 X77.396 Y43.958 E2.80984
G1 X80.299 Y43.671 E2.89196
G1 X80.702 Y43.646 E2.90334
G1 X83.618 Y43.567 E2.98546
G1 X86.534 Y43.671 E3.06758 F1200.000
G1 X89.035 Y43.908 E3.13833
G1 X91.918 Y44.351 E3.22044
G1 X92.316 Y44.427 E3.23183
G1 X95.159 Y45.076 E3.31394
G1 X97.572 Y45.777 E3.38468
G1 X100.321 Y46.753 E3.46681
G1 X103.079 Y47.933 E3.55126
G1 X139.216 Y64.126 E4.66604
G1 X141.084 Y65.399 E4.72967
G1 X142.398 Y67.238 E4.79330
G1 X143.020 Y70.000 E4.87301
G1 X143.020 Y110.000 E5.99908
G1 X142.623 Y112.225 E6.06271
G1 X141.482 Y114.176 E6.12635
G1 X139.216 Y115.874 E6.20605
G1 X103.004 Y132.100 E7.32316
G1 X100.321 Y133.247 E7.40528
G1 X97.573 Y134.223 E7.48739
G1 X94.768 Y135.025 E7.56952
G1 X91.919 Y135.649 E7.65163
G1 X89.036 Y136.092 E7.73374
G1 X86.534 Y136.329 E7.80450
G1 X86.130 Y136.354 E7.81589
G1 X83.214 Y136.433 E7.89800
G1 X80.702 Y136.354 E7.96874
G1 X77.797 Y136.092 E8.05087
G1 X74.914 Y135.649 E8.13299
G1 X74.517 Y135.573 E8.14437
G1 X72.064 Y135.025 E8.21511
G1 X69.260 Y134.223 E8.29723
G1 X68.875 Y134.098 E8.30861
G1 X66.136 Y133.098 E8.39072
G1 X63.463 Y131.928 E8.47284
G1 X61.224 Y130.787 E8.54360
G1 X60.870 Y130.592 E8.55498
G1 X58.366 Y129.097 E8.63706
G1 X55.960 Y127.447 E8.71921
G1 X53.974 Y125.906 E8.78996
G1 X51.778 Y123.987 E8.87208
G1 X49.706 Y121.933 E8.95420
G1 X47.768 Y119.753 E9.03632
G1 X47.493 Y119.420 E9.04849
G1 X45.732 Y117.129 E9.12982
G1 X44.103 Y114.710 E9.21194
G1 X42.629 Y112.192 E9.29406
G1 X41.316 Y109.588 E9.37618
G1 X40.169 Y106.906 E9.45828
G1 X39.318 Y104.541 E9.52904
G1 X38.492 Y101.743 E9.61117
G1 X37.843 Y98.899 E9.69328
G1 X37.374 Y96.020 E9.77540
G1 X37.087 Y93.117 E9.85752
G1 X36.983 Y90.202 E9.93965
G1 X37.059 Y87.367 E10.01949
G1 X37.087 Y86.883 E10.03315
G1 X37.374 Y83.980 E10.11527
G1 X37.843 Y81.101 E10.19739
G1 X38.492 Y78.257 E10.27950
G1 X39.193 Y75.844 E10.35024
G1 X40.169 Y73.095 E10.43237
G1 X40.318 Y72.719 E10.44375
G1 X41.488 Y70.047 E10.52587
G1 X42.824 Y67.454 E10.60799
G1 X44.320 Y64.949 E10.69011
G1 X45.970 Y62.544 E10.77222
G1 X47.768 Y60.247 E10.85435
G1 X49.706 Y58.067 E10.93647
G1 X51.723 Y56.065 E11.01648
G1 E9.01648 F1680.00000
G92 E0
G1 X60.731 Y65.843 F12000.000
G1 E2.00000 F1680.00000
G1 X62.293 Y64.466 E2.05419 F900.000
G1 X63.938 Y63.190 E2.10838
G1 X65.659 Y62.020 E2.16256
G1 X67.451 Y60.960 E2.21675
G1 X69.306 Y60.015 E2.27094
G1 X71.217 Y59.188 E2.32513
G1 X73.176 Y58.483 E2.37931
G1 X75.175 Y57.902 E2.43350
G1 X77.207 Y57.448 E2.48769
G1 X79.263 Y57.123 E2.54188
G1 X81.335 Y56.927 E2.59607
G1 X82.449 Y56.892 E2.62506
G1 X83.416 Y56.861 E2.65025 F900.000
G1 X85.497 Y56.927 E2.70444
G1 X87.570 Y57.123 E2.75863
G1 X89.626 Y57.448 E2.81282
G1 X91.661 Y57.903 E2.86711
G1 X93.657 Y58.483 E2.92120
G1 X95.615 Y59.188 E2.97538
G1 X97.530 Y60.017 E3.02967
G1 X99.381 Y60.960 E3.08376
G1 X101.173 Y62.020 E3.13794
G1 X102.895 Y63.190 E3.19213
G1 X104.540 Y64.466 E3.24632
G1 X106.101 Y65.843 E3.30051
G1 X107.573 Y67.315 E3.35470
G1 X108.950 Y68.877 E3.40888
G1 X110.226 Y70.522 E3.46307
G1 X111.396 Y72.243 E3.51726
G1 X112.456 Y74.035 E3.57145
G1 X113.401 Y75.890 E3.62564
G1 X114.228 Y77.801 E3.67983
G1 X114.933 Y79.759 E3.73401
G1 X115.514 Y81.759 E3.78820
G1 X115.968 Y83.790 E3.84239
G1 X116.294 Y85.847 E3.89657
G1 X116.490 Y87.919 E3.95076
G1 X116.555 Y90.000 E4.00495
G1 X116.490 Y92.081 E4.05914
G1 X116.294 Y94.153 E4.11333
G1 X115.968 Y96.210 E4.16751
G1 X115.514 Y98.241 E4.22170
G1 X114.933 Y100.240 E4.27589
G1 X114.228 Y102.199 E4.33008
G1 X113.401 Y104.110 E4.38426
G1 X112.456 Y105.965 E4.43845
G1 X111.396 Y107.757 E4.49264
G1 X110.226 Y109.478 E4.54683
G1 X108.950 Y111.123 E4.60102
G1 X107.573 Y112.685 E4.65521
G1 X106.117 Y114.141 E4.70881
G1 X104.540 Y115.534 E4.76357
G1 X102.895 Y116.810 E4.81777
G1 X101.173 Y117.980 E4.87196
G1 X99.381 Y119.040 E4.92614
G1 X97.542 Y119.977 E4.97986
G1 X95.615 Y120.812 E5.03451
G1 X93.657 Y121.517 E5.08870
G1 X91.657 Y122.098 E5.14289
G1 X89.626 Y122.552 E5.19708
G1 X87.570 Y122.877 E5.25127
G1 X85.497 Y123.073 E5.30546
G1 X83.416 Y123.139 E5.35965
G1 X81.335 Y123.073 E5.41383
G1 X79.263 Y122.877 E5.46802
G1 X77.207 Y122.552 E5.52221
G1 X75.175 Y122.098 E5.57640
G1 X73.176 Y121.517 E5.63059
G1 X71.217 Y120.812 E5.68477
G1 X70.211 Y120.376 E5.71330
G1 X69.306 Y119.985 E5.73896
G1 X67.451 Y119.040 E5.79315
G1 X65.659 Y117.980 E5.84734
G1 X63.938 Y116.810 E5.90152
G1 X62.290 Y115.531 E5.95582
G1 X60.731 Y114.157 E6.00990
G1 X59.259 Y112.685 E6.06409
G1 X57.882 Y111.123 E6.11828
G1 X56.606 Y109.478 E6.17246
G1 X55.436 Y107.757 E6.22665
G1 X54.376 Y105.965 E6.28084
G1 X53.431 Y104.110 E6.33503
G1 X52.605 Y102.199 E6.38922
G1 X51.899 Y100.240 E6.44340
G1 X51.318 Y98.241 E6.49759
G1 X50.864 Y96.210 E6.55178
G1 X50.539 Y94.153 E6.60597
G1 X50.343 Y92.081 E6.66015
G1 X50.277 Y90.000 E6.71434
G1 X50.343 Y87.919 E6.76853
G1 X50.539 Y85.847 E6.82272
G1 X50.864 Y83.790 E6.87691
G1 X51.318 Y81.759 E6.93109
G1 X51.899 Y79.759 E6.98528
G1 X52.605 Y77.801 E7.03947
G1 X53.431 Y75.890 E7.09366
G1 X54.376 Y74.035 E7.14784
G1 X55.436 Y72.243 E7.20203
G1 X56.606 Y70.522 E7.25622
G1 X57.882 Y68.877 E7.31041
G1 X59.259 Y67.315 E7.36460
G1 X60.678 Y65.896 E7.41683
G1 X60.963 Y66.181 F12000.000
G1 X62.550 Y64.777 E7.47198 F720.000
G1 X64.175 Y63.517 E7.52551
G1 X65.876 Y62.361 E7.57904
G1 X67.646 Y61.314 E7.63256
G1 X69.478 Y60.380 E7.68609
G1 X71.366 Y59.564 E7.73962
G1 X73.300 Y58.867 E7.79314
G1 X75.275 Y58.293 E7.84667
G1 X77.282 Y57.845 E7.90020
G1 X79.313 Y57.523 E7.95373
G1 X81.361 Y57.329 E8.00726
G1 X82.462 Y57.295 E8.03593
G1 X83.416 Y57.265 E8.06079 F720.000
G1 X85.472 Y57.329 E8.11431
G1 X87.519 Y57.523 E8.16784
G1 X89.550 Y57.845 E8.22137
G1 X91.561 Y58.294 E8.27500
G1 X93.532 Y58.867 E8.32843
G1 X95.467 Y59.564 E8.38195
G1 X97.358 Y60.382 E8.43559
G1 X99.186 Y61.314 E8.48901
G1 X100.957 Y62.361 E8.54254
G1 X102.657 Y63.517 E8.59606
G1 X104.282 Y64.777 E8.64959
G1 X105.825 Y66.137 E8.70312
G1 X107.279 Y67.591 E8.75665
G1 X108.639 Y69.134 E8.81018
G1 X109.899 Y70.759 E8.86370
G1 X111.055 Y72.460 E8.91723
G1 X112.102 Y74.230 E8.97076
G1 X113.036 Y76.062 E9.02429
G1 X113.852 Y77.949 E9.07782
G1 X114.549 Y79.884 E9.13134
G1 X115.123 Y81.859 E9.18487
G1 X115.571 Y83.866 E9.23840
G1 X115.893 Y85.897 E9.29193
G1 X116.087 Y87.945 E9.34545
G1 X116.151 Y90.000 E9.39898
G1 X116.087 Y92.055 E9.45251
G1 X115.893 Y94.103 E9.50604
G1 X115.571 Y96.134 E9.55957
G1 X115.123 Y98.141 E9.61309
G1 X114.549 Y100.116 E9.66662
G1 X113.852 Y102.051 E9.72015
G1 X113.036 Y103.938 E9.77368
G1 X112.102 Y105.770 E9.82720
G1 X111.055 Y107.540 E9.88073
G1 X109.899 Y109.241 E9.93426
G1 X108.639 Y110.866 E9.98779
G1 X107.279 Y112.409 E10.04132
G1 X105.841 Y113.847 E10.09427
G1 X104.282 Y115.223 E10.14837
G1 X102.657 Y116.483 E10.20190
G1 X100.957 Y117.639 E10.25543
G1 X99.186 Y118.686 E10.30896
G1 X97.370 Y119.611 E10.36201
G1 X95.467 Y120.436 E10.41601
G1 X93.532 Y121.133 E10.46954
G1 X91.557 Y121.707 E10.52307
G1 X89.550 Y122.155 E10.57659
G1 X87.519 Y122.477 E10.63012
G1 X85.472 Y122.671 E10.68365
G1 X83.416 Y122.735 E10.73718
G1 X81.361 Y122.671 E10.79070
G1 X79.313 Y122.477 E10.84423
G1 X77.282 Y122.155 E10.89776
G1 X75.275 Y121.707 E10.95129
G1 X73.300 Y121.133 E11.00482
G1 X71.366 Y120.436 E11.05834
G1 X70.371 Y120.006 E11.08654
G1 X69.478 Y119.620 E11.11187
G1 X67.646 Y118.686 E11.16540
G1 X65.876 Y117.639 E11.21893
G1 X64.175 Y116.483 E11.27245
G1 X62.547 Y115.220 E11.32609
G1 X61.007 Y113.863 E11.37951
G1 X59.553 Y112.409 E11.43304
G1 X58.193 Y110.866 E11.48657
G1 X56.933 Y109.241 E11.54010
G1 X55.777 Y107.540 E11.59362
G1 X54.730 Y105.770 E11.64715
G1 X53.796 Y103.938 E11.70068
G1 X52.980 Y102.051 E11.75421
G1 X52.283 Y100.116 E11.80773
G1 X51.709 Y98.141 E11.86126
G1 X51.261 Y96.134 E11.91479
G1 X50.939 Y94.103 E11.96832
G1 X50.746 Y92.055 E12.02185
G1 X50.681 Y90.000 E12.07537
G1 X50.746 Y87.945 E12.12890
G1 X50.939 Y85.897 E12.18243
G1 X51.261 Y83.866 E12.23596
G1 X51.709 Y81.859 E12.28948
G1 X52.283 Y79.884 E12.34301
G1 X52.980 Y77.949 E12.39654
G1 X53.796 Y76.062 E12.45007
G1 X54.730 Y74.230 E12.50360
G1 X55.777 Y72.460 E12.55712
G1 X56.933 Y70.759 E12.61065
G1 X58.193 Y69.134 E12.66418
G1 X59.553 Y67.591 E12.71771
G1 X60.910 Y66.234 E12.76766
G1 X60.854 Y65.693 F12000.000
G1 E10.76766 F1680.00000
G92 E0
G1 X113.650 Y115.175 F12000.000
G1 E2.00000 F1680.00000
G1 X112.098 Y116.934 E2.06106 F900.000
G1 X110.351 Y118.682 E2.12539
G1 X108.496 Y120.317 E2.18973
G1 X106.543 Y121.832 E2.25407
G1 X104.499 Y123.221 E2.31841
G1 X102.371 Y124.479 E2.38275
G1 X100.169 Y125.602 E2.44708
G1 X97.901 Y126.583 E2.51142
G1 X95.548 Y127.428 E2.57649
G1 X93.201 Y128.110 E2.64010
G1 X90.789 Y128.649 E2.70444
G1 X88.348 Y129.036 E2.76877
G1 X85.887 Y129.269 E2.83311
G1 X83.416 Y129.346 E2.89745
G1 X80.946 Y129.269 E2.96179
G1 X78.485 Y129.036 E3.02613
G1 X76.043 Y128.649 E3.09047
G1 X73.631 Y128.110 E3.15480
G1 X71.257 Y127.421 E3.21914
G1 X68.932 Y126.583 E3.28347
G1 X66.638 Y125.589 E3.34855
G1 X64.461 Y124.479 E3.41215
G1 X62.333 Y123.221 E3.47649
G1 X60.289 Y121.832 E3.54083
G1 X58.336 Y120.317 E3.60517
G1 X56.482 Y118.682 E3.66951
G1 X54.734 Y116.934 E3.73385
G1 X53.099 Y115.080 E3.79818
G1 X51.584 Y113.127 E3.86252
G1 X50.195 Y111.083 E3.92686
G1 X48.937 Y108.955 E3.99120
G1 X47.815 Y106.753 E4.05554
G1 X46.833 Y104.484 E4.11988
G1 X45.996 Y102.159 E4.18421
G1 X45.306 Y99.785 E4.24855
G1 X44.767 Y97.373 E4.31289
G1 X44.380 Y94.931 E4.37723
G1 X44.148 Y92.471 E4.44157
G1 X44.070 Y90.000 E4.50591
G1 X44.148 Y87.529 E4.57024
G1 X44.380 Y85.069 E4.63458
G1 X44.767 Y82.627 E4.69892
G1 X45.306 Y80.215 E4.76326
G1 X45.996 Y77.841 E4.82760
G1 X46.833 Y75.516 E4.89194
G1 X47.815 Y73.247 E4.95627
G1 X48.937 Y71.045 E5.02061
G1 X50.166 Y68.966 E5.08349
G1 X51.585 Y66.873 E5.14930
G1 X53.099 Y64.920 E5.21362
G1 X54.734 Y63.066 E5.27796
G1 X56.482 Y61.318 E5.34230
G1 X58.336 Y59.683 E5.40664
G1 X60.289 Y58.168 E5.47098
G1 X62.333 Y56.779 E5.53531
G1 X64.461 Y55.521 E5.59965
G1 X66.568 Y54.447 E5.66121
G1 X68.933 Y53.416 E5.72835
G1 X71.257 Y52.579 E5.79266
G1 X73.631 Y51.890 E5.85700
G1 X76.043 Y51.351 E5.92134
G1 X78.485 Y50.964 E5.98568
G1 X80.946 Y50.731 E6.05002
G1 X83.416 Y50.654 E6.11435
G1 X85.859 Y50.730 E6.17796
G1 X88.348 Y50.964 E6.24303 F900.000
G1 X90.789 Y51.351 E6.30737
G1 X93.201 Y51.890 E6.37171
G1 X95.575 Y52.579 E6.43604
G1 X97.900 Y53.417 E6.50038
G1 X100.169 Y54.398 E6.56472
G1 X102.371 Y55.521 E6.62906
G1 X104.499 Y56.779 E6.69340
G1 X106.543 Y58.168 E6.75773
G1 X108.496 Y59.683 E6.82207
G1 X110.351 Y61.318 E6.88641
G1 X112.098 Y63.066 E6.95075
G1 X113.733 Y64.920 E7.01509
G1 X115.248 Y66.873 E7.07943
G1 X116.637 Y68.917 E7.14376
G1 X117.664 Y70.653 E7.19627
G1 X135.250 Y70.653 E7.65401
G1 X134.903 Y71.101 E7.66874
G1 X133.768 Y72.771 E7.72132
G1 X132.740 Y74.510 E7.77390
G1 X131.818 Y76.320 E7.82677
G1 X131.020 Y78.163 E7.87905
G1 X130.336 Y80.064 E7.93163
G1 X129.773 Y82.004 E7.98420
G1 X129.332 Y83.975 E8.03678
G1 X129.016 Y85.970 E8.08936
G1 X128.826 Y87.981 E8.14194
G1 X128.762 Y90.000 E8.19451
G1 X128.826 Y92.019 E8.24709
G1 X129.016 Y94.030 E8.29967
G1 X129.332 Y96.025 E8.35224
G1 X129.773 Y97.996 E8.40482
G1 X130.336 Y99.936 E8.45740
G1 X131.020 Y101.837 E8.50997
G1 X131.818 Y103.680 E8.56226
G1 X132.740 Y105.490 E8.61513
G1 X133.768 Y107.229 E8.66771
G1 X134.903 Y108.899 E8.72028
G1 X135.250 Y109.347 E8.73501
G1 X117.664 Y109.347 E9.19276
G1 X116.637 Y111.083 E9.24526
G1 X115.248 Y113.127 E9.30960
G1 X113.699 Y115.119 E9.37527
G1 X114.002 Y115.385 F12000.000
G1 X112.393 Y117.211 E9.43860 F720.000
G1 X110.627 Y118.976 E9.50360
G1 X108.754 Y120.628 E9.56860
G1 X106.781 Y122.158 E9.63360
G1 X104.715 Y123.562 E9.69860
G1 X102.566 Y124.833 E9.76360
G1 X100.341 Y125.967 E9.82859
G1 X98.049 Y126.959 E9.89359
G1 X95.672 Y127.812 E9.95932
G1 X93.302 Y128.501 E10.02359
G1 X90.865 Y129.046 E10.08858
G1 X88.398 Y129.436 E10.15358
G1 X85.912 Y129.671 E10.21858
G1 X83.416 Y129.750 E10.28358
G1 X80.920 Y129.671 E10.34858
G1 X78.434 Y129.436 E10.41358
G1 X75.968 Y129.046 E10.47857
G1 X73.531 Y128.501 E10.54357
G1 X71.133 Y127.804 E10.60857
G1 X68.783 Y126.959 E10.67357
G1 X66.466 Y125.954 E10.73930
G1 X64.267 Y124.833 E10.80356
G1 X62.117 Y123.562 E10.86856
G1 X60.052 Y122.158 E10.93356
G1 X58.079 Y120.628 E10.99856
G1 X56.205 Y118.976 E11.06356
G1 X54.440 Y117.211 E11.12855
G1 X52.788 Y115.338 E11.19355
G1 X51.258 Y113.364 E11.25855
G1 X49.854 Y111.299 E11.32355
G1 X48.583 Y109.150 E11.38855
G1 X47.449 Y106.925 E11.45355
G1 X46.458 Y104.633 E11.51854
G1 X45.612 Y102.283 E11.58354
G1 X44.915 Y99.885 E11.64854
G1 X44.370 Y97.448 E11.71354
G1 X43.980 Y94.982 E11.77854
G1 X43.745 Y92.496 E11.84354
G1 X43.666 Y90.000 E11.90853
G1 X43.745 Y87.504 E11.97353
G1 X43.980 Y85.018 E12.03853
G1 X44.370 Y82.552 E12.10353
G1 X44.915 Y80.115 E12.16853
G1 X45.612 Y77.717 E12.23353
G1 X46.458 Y75.367 E12.29852
G1 X47.449 Y73.075 E12.36352
G1 X48.583 Y70.850 E12.42852
G1 X49.825 Y68.750 E12.49205
G1 X51.258 Y66.635 E12.55852
G1 X52.788 Y64.662 E12.62351
G1 X54.440 Y62.789 E12.68851
G1 X56.205 Y61.024 E12.75351
G1 X58.079 Y59.372 E12.81851
G1 X60.052 Y57.842 E12.88351
G1 X62.117 Y56.438 E12.94850
G1 X64.267 Y55.167 E13.01350
G1 X66.396 Y54.082 E13.07570
G1 X68.784 Y53.041 E13.14350
G1 X71.133 Y52.196 E13.20849
G1 X73.531 Y51.499 E13.27349
G1 X75.968 Y50.954 E13.33849
G1 X78.434 Y50.564 E13.40349
G1 X80.920 Y50.329 E13.46848
G1 X83.416 Y50.250 E13.53348
G1 X85.884 Y50.328 E13.59775
G1 X88.398 Y50.564 E13.66348 F720.000
G1 X90.865 Y50.954 E13.72848
G1 X93.302 Y51.499 E13.79347
G1 X95.700 Y52.196 E13.85847
G1 X98.049 Y53.041 E13.92347
G1 X100.341 Y54.033 E13.98847
G1 X102.566 Y55.167 E14.05347
G1 X104.715 Y56.438 E14.11847
G1 X106.781 Y57.842 E14.18346
G1 X108.754 Y59.372 E14.24846
G1 X110.627 Y61.024 E14.31346
G1 X112.393 Y62.789 E14.37846
G1 X114.044 Y64.662 E14.44346
G1 X115.575 Y66.636 E14.50846
G1 X116.978 Y68.701 E14.57345
G1 X117.894 Y70.250 E14.62030
G1 X136.074 Y70.250 E15.09349
G1 X135.230 Y71.338 E15.12932
G1 X134.109 Y72.987 E15.18124
G1 X133.093 Y74.704 E15.23316
G1 X132.183 Y76.492 E15.28536
G1 X131.396 Y78.312 E15.33699
G1 X130.720 Y80.189 E15.38891
G1 X130.163 Y82.104 E15.44082
G1 X129.728 Y84.051 E15.49274
G1 X129.416 Y86.021 E15.54466
G1 X129.229 Y88.006 E15.59657
G1 X129.166 Y90.000 E15.64849
G1 X129.229 Y91.994 E15.70041
G1 X129.416 Y93.979 E15.75233
G1 X129.728 Y95.949 E15.80424
G1 X130.163 Y97.896 E15.85616
G1 X130.720 Y99.811 E15.90808
G1 X131.396 Y101.688 E15.95999
G1 X132.183 Y103.508 E16.01162
G1 X133.093 Y105.296 E16.06383
G1 X134.109 Y107.013 E16.11575
G1 X135.230 Y108.662 E16.16766
G1 X136.074 Y109.750 E16.20350
G1 X117.894 Y109.750 E16.67669
G1 X116.978 Y111.299 E16.72353
G1 X115.574 Y113.364 E16.78853
G1 X114.051 Y115.329 E16.85324
G1 X113.510 Y115.297 F12000.000
G1 X117.424 Y109.349 F12000.000
G1 X113.145 Y105.070 E17.01116 F1200.000
G1 X112.952 Y105.449 E17.02226
G1 X117.211 Y109.709 E17.17946
G1 X116.998 Y110.068 E17.19036
G1 X112.759 Y105.828 E17.34685
G1 X112.557 Y106.198 E17.35785
G1 X116.786 Y110.428 E17.51394
G1 X116.573 Y110.787 E17.52484
G1 X112.344 Y106.558 E17.68094
