; generated by Slic3r 1.2.9 on 2015-11-23 at 20:20:19

; external perimeters extrusion width = 0.50mm
; perimeters extrusion width = 0.50mm
; infill extrusion width = 0.50mm
; solid infill extrusion width = 0.50mm
; top infill extrusion width = 0.50mm

M104 S190 ; set temperature
G28 ; home all axes
G1 Z15 F120 ; lift nozzle
M109 S190 ; wait for temperature to be reached
G21 ; set units to millimeters
G90 ; use absolute coordinates
M82 ; use absolute distances for extrusion
G92 E0
M106 S102
G1 E-2.00000 F1680.00000
G92 E0
G1 Z0.350 F12000.000
G1 X56.486 Y57.165 F12000.000
G1 E2.00000 F1680.00000
G1 X71.614 Y46.976 E2.51346 F1200.000
G1 X73.681 Y46.062 E2.57710
G1 X75.209 Y45.878 E2.62042
G1 X94.791 Y45.878 E3.17167
G1 X97.016 Y46.275 E3.23530
G1 X98.386 Y46.976 E3.27863 F1200.000
G1 X113.514 Y57.165 E3.79209
G1 X115.138 Y58.737 E3.85573
G1 X116.253 Y61.365 E3.93609
G1 X117.456 Y68.164 E4.13048
G1 X117.993 Y71.480 E4.22505
G1 X118.450 Y74.703 E4.31667
G1 X118.765 Y77.494 E4.39576
G1 X118.958 Y79.839 E4.46200
G1 X119.007 Y80.521 E4.48125
G1 X119.120 Y82.981 E4.55057
G1 X119.155 Y85.758 E4.62874
G1 X119.105 Y88.268 E4.69941
G1 X118.984 Y90.689 E4.76768
G1 X118.815 Y92.845 E4.82856
G1 X118.575 Y95.064 E4.89138
G1 X118.212 Y97.553 E4.96219
G1 X117.836 Y99.372 E5.01449
G1 X117.701 Y99.908 E5.03005
G1 X117.150 Y101.742 E5.08395
G1 X116.940 Y102.334 E5.10163
G1 X116.158 Y104.238 E5.15958
G1 X115.913 Y104.766 E5.17597
G1 X114.825 Y106.842 E5.24197
G1 X114.560 Y107.300 E5.25687
G1 X113.209 Y109.429 E5.32785
G1 X112.911 Y109.858 E5.34254
G1 X111.311 Y111.976 E5.41727
G1 X110.953 Y112.409 E5.43309
G1 X109.134 Y114.422 E5.50947
G1 X108.683 Y114.875 E5.52746
G1 X106.668 Y116.702 E5.60404
G1 X106.231 Y117.065 E5.62001
G1 X104.087 Y118.690 E5.69577
G1 X103.657 Y118.989 E5.71051
G1 X101.448 Y120.397 E5.78425
G1 X101.009 Y120.652 E5.79853
G1 X98.798 Y121.827 E5.86903
G1 X98.327 Y122.053 E5.88373
G1 X96.186 Y122.975 E5.94937
G1 X95.766 Y123.139 E5.96205
G1 X93.752 Y123.843 E6.02211
G1 X91.599 Y124.464 E6.08519
G1 X89.751 Y124.892 E6.13859
G1 X88.324 Y125.153 E6.17945
G1 X87.048 Y125.314 E6.21565
G1 X86.626 Y125.348 E6.22757
G1 X85.612 Y125.390 E6.25614
G1 X84.075 Y125.383 E6.29939
G1 X82.952 Y125.314 E6.33108
G1 X82.062 Y125.210 E6.35631
G1 X80.528 Y124.949 E6.40011
G1 X78.727 Y124.547 E6.45205
G1 X76.610 Y123.957 E6.51392
G1 X74.234 Y123.139 E6.58467
G1 X73.814 Y122.975 E6.59735
G1 X71.673 Y122.053 E6.66299
G1 X71.202 Y121.827 E6.67769
G1 X68.991 Y120.652 E6.74819
G1 X68.552 Y120.397 E6.76247
G1 X66.343 Y118.989 E6.83621
G1 X65.913 Y118.690 E6.85095
G1 X63.769 Y117.065 E6.92671
G1 X63.332 Y116.702 E6.94268
G1 X61.317 Y114.875 E7.01927
G1 X60.866 Y114.422 E7.03725
G1 X59.047 Y112.409 E7.11363
G1 X58.689 Y111.976 E7.12945
G1 X57.089 Y109.858 E7.20418
G1 X56.791 Y109.429 E7.21887
G1 X55.440 Y107.300 E7.28985
G1 X55.175 Y106.842 E7.30475
G1 X54.263 Y105.103 E7.36006
G1 X53.842 Y104.238 E7.38713
G1 X53.060 Y102.334 E7.44508
G1 X52.850 Y101.742 E7.46277
G1 X52.299 Y99.908 E7.51667
G1 X52.164 Y99.372 E7.53223
G1 X51.718 Y97.153 E7.59595
G1 X51.425 Y95.064 E7.65534
G1 X51.203 Y93.038 E7.71271
G1 X51.004 Y90.508 E7.78416
G1 X50.888 Y88.075 E7.85273
G1 X50.845 Y85.758 E7.91797
G1 X50.880 Y82.981 E7.99615
G1 X51.005 Y80.336 E8.07070
G1 X51.216 Y77.694 E8.14529
G1 X51.569 Y74.548 E8.23443
G1 X52.007 Y71.480 E8.32167
G1 X52.544 Y68.164 E8.41623
G1 X53.747 Y61.365 E8.61062
G1 X54.531 Y59.245 E8.67425
G1 X56.435 Y57.219 E8.75251
G1 E6.75251 F1680.00000
G92 E0
G1 X77.419 Y74.932 F12000.000
G1 E2.00000 F1680.00000
G1 X78.639 Y73.712 E2.04490 F720.000
G1 X80.052 Y72.723 E2.08981
G1 X81.615 Y71.994 E2.13471
G1 X83.281 Y71.547 E2.17961 F720.000
G1 X85.000 Y71.397 E2.22451
G1 X86.719 Y71.547 E2.26941
G1 X88.385 Y71.994 E2.31432
G1 X89.948 Y72.723 E2.35922
G1 X91.361 Y73.712 E2.40412
G1 X92.581 Y74.932 E2.44902
G1 X93.571 Y76.345 E2.49393
G1 X94.300 Y77.909 E2.53883
G1 X94.746 Y79.575 E2.58373
G1 X94.897 Y81.294 E2.62864
G1 X94.746 Y83.012 E2.67354
G1 X94.300 Y84.679 E2.71844
G1 X93.571 Y86.242 E2.76334
G1 X92.581 Y87.655 E2.80825
G1 X91.361 Y88.875 E2.85315
G1 X89.948 Y89.864 E2.89805
G1 X88.385 Y90.593 E2.94295
G1 X86.719 Y91.040 E2.98785
G1 X85.000 Y91.190 E3.03276
G1 X83.281 Y91.040 E3.07766
G1 X81.615 Y90.593 E3.12256
G1 X80.052 Y89.864 E3.16746
G1 X78.639 Y88.875 E3.21237
G1 X77.419 Y87.655 E3.25727
G1 X76.429 Y86.242 E3.30217
G1 X75.700 Y84.679 E3.34707
G1 X75.254 Y83.012 E3.39198
G1 X75.103 Y81.294 E3.43688
G1 X75.254 Y79.575 E3.48178
G1 X75.700 Y77.909 E3.52668
G1 X76.429 Y76.345 E3.57159
G1 X77.376 Y74.994 E3.61454
G1 E1.61454 F1680.00000
G92 E0
G1 X99.297 Y113.839 F12000.000
G1 E2.00000 F1680.00000
G1 X97.863 Y114.752 E2.04424 F720.000
G1 X95.673 Y115.916 E2.10880
G1 X93.549 Y116.831 E2.16900
G1 X91.562 Y117.526 E2.22379
G1 X89.785 Y118.028 E2.27185
G1 X88.291 Y118.367 E2.31172
G1 X87.156 Y118.570 E2.34173
G1 X86.292 Y118.670 E2.36438
G1 X85.606 Y118.704 E2.38227
G1 X84.394 Y118.704 E2.41379
G1 X83.708 Y118.670 E2.43169
G1 X82.844 Y118.570 E2.45433
G1 X81.709 Y118.367 E2.48434
G1 X80.215 Y118.028 E2.52421
G1 X78.438 Y117.526 E2.57228
G1 X76.451 Y116.831 E2.62706
G1 X74.327 Y115.916 E2.68726
G1 X72.137 Y114.752 E2.75182
G1 X69.944 Y113.356 E2.81948
G1 X67.816 Y111.743 E2.88898
G1 X65.819 Y109.931 E2.95917
G1 X64.016 Y107.935 E3.02918
G1 X62.432 Y105.838 E3.09759
G1 X61.092 Y103.727 E3.16268
G1 X60.023 Y101.687 E3.22262
G1 X59.250 Y99.805 E3.27558
G1 X58.709 Y98.004 E3.32453
G1 X58.337 Y96.206 E3.37233
G1 X58.071 Y94.333 E3.42155
G1 X57.850 Y92.315 E3.47440
G1 X57.682 Y90.178 E3.53020
G1 X57.573 Y87.945 E3.58838
G1 X57.530 Y85.640 E3.64841
G1 X57.559 Y83.285 E3.70969
G1 X57.707 Y80.376 E3.78550
G1 X57.880 Y78.239 E3.84132
G1 X58.194 Y75.455 E3.91424
G1 X58.625 Y72.435 E3.99366
G1 X59.144 Y69.237 E4.07798
G1 X60.305 Y62.677 E4.25138
G1 X60.853 Y62.430 E4.26705
G1 X62.704 Y63.433 E4.32183
G1 X62.699 Y64.796 E4.35731
G1 X70.590 Y64.810 E4.56271
G1 X75.380 Y52.565 E4.90496
G1 X85.000 Y52.579 E5.15536
G1 X94.620 Y52.565 E5.40576
G1 X95.426 Y54.625 E5.46334
G1 X99.410 Y64.810 E5.74801 F720.000
G1 X107.301 Y64.796 E5.95341
G1 X107.296 Y63.433 E5.98889
G1 X109.147 Y62.430 E6.04367
G1 X109.695 Y62.677 E6.05934
G1 X110.856 Y69.237 E6.23274
G1 X111.375 Y72.435 E6.31706
G1 X111.806 Y75.455 E6.39647
G1 X112.120 Y78.239 E6.46940
G1 X112.293 Y80.376 E6.52521
G1 X112.441 Y83.285 E6.60102
G1 X112.470 Y85.640 E6.66231
G1 X112.427 Y87.945 E6.72232
G1 X112.291 Y90.518 E6.78939
G1 X112.150 Y92.315 E6.83632
G1 X111.929 Y94.333 E6.88916
G1 X111.663 Y96.206 E6.93839
G1 X111.291 Y98.004 E6.98618
G1 X110.750 Y99.805 E7.03513
G1 X109.977 Y101.687 E7.08809
G1 X108.908 Y103.727 E7.14803
G1 X107.568 Y105.838 E7.21312
G1 X105.984 Y107.935 E7.28153
G1 X104.181 Y109.931 E7.35154
G1 X102.184 Y111.743 E7.42173
G1 X100.056 Y113.356 E7.49123
G1 X99.360 Y113.799 E7.51270
G1 X78.078 Y117.113 F12000.000
G1 X58.994 Y98.029 E8.21934 F1200.000
G1 X58.822 Y97.283 E8.23939
G1 X78.929 Y117.390 E8.98391
G1 X79.730 Y117.617 E9.00569
G1 X58.672 Y96.559 E9.78539
G1 X58.539 Y95.853 E9.80420
G1 X80.519 Y117.832 E10.61804
G1 X81.261 Y118.001 E10.63797
G1 X58.444 Y95.184 E11.48280
G1 X58.350 Y94.515 E11.50049
G1 X81.995 Y118.161 E12.37601
G1 X82.694 Y118.285 E12.39458
G1 X58.268 Y93.860 E13.29899
G1 X58.197 Y93.215 E13.31596
G1 X83.363 Y118.381 E14.24776
G1 X83.999 Y118.443 E14.26448
G1 X58.127 Y92.571 E15.22243
G1 X58.066 Y91.936 E15.23914
G1 X84.596 Y118.466 E16.22148
G1 X85.170 Y118.466 E16.23651
G1 X58.017 Y91.313 E17.24192
G1 X57.968 Y90.690 E17.25828
G1 X85.741 Y118.464 E18.28665
G1 X86.289 Y118.437 E18.30100
G1 X57.919 Y90.067 E19.35144
G1 X57.889 Y89.464 E19.36726
G1 X86.806 Y118.381 E20.43797
G1 X87.314 Y118.315 E20.45137
G1 X57.860 Y88.860 E21.54195
G1 X57.830 Y88.257 E21.55777
G1 X87.801 Y118.228 E22.66748
G1 X88.288 Y118.141 E22.68043
G1 X57.807 Y87.660 E23.80904
G1 X57.796 Y87.075 E23.82436
G1 X88.757 Y118.036 E24.97073
G1 X89.224 Y117.929 E24.98329
G1 X57.785 Y86.490 E26.14739
G1 X57.774 Y85.905 E26.16271
G1 X89.692 Y117.823 E27.34453
G1 X90.144 Y117.701 E27.35678
G1 X57.770 Y85.328 E28.55547
G1 X57.777 Y84.761 E28.57031
G1 X90.591 Y117.575 E29.78530
G1 X91.038 Y117.448 E29.79747
G1 X57.784 Y84.194 E31.02876
G1 X57.791 Y83.627 E31.04360
G1 X91.486 Y117.321 E32.29120
G1 X91.914 Y117.176 E32.30304
G1 X57.804 Y83.066 E33.56603
G1 X57.832 Y82.519 E33.58035
G1 X92.339 Y117.027 E34.85806
G1 X92.764 Y116.878 E34.86985
G1 X57.859 Y81.973 E36.16228
G1 X57.887 Y81.427 E36.17660
G1 X93.190 Y116.730 E37.48375
G1 X93.609 Y116.576 E37.49546
G1 X57.915 Y80.881 E38.81712
G1 X57.942 Y80.335 E38.83144
G1 X94.010 Y116.403 E40.16693
G1 X94.412 Y116.230 E40.17837
G1 X57.985 Y79.803 E41.52714
G1 X58.028 Y79.272 E41.54108
G1 X94.813 Y116.057 E42.90311
G1 X95.214 Y115.885 E42.91455
G1 X58.071 Y78.742 E44.28983
G1 X58.114 Y78.211 E44.30378
G1 X95.615 Y115.712 E45.69232
G1 X95.990 Y115.513 E45.70344
G1 X58.171 Y77.694 E47.10374
G1 X58.229 Y77.178 E47.11733
G1 X96.365 Y115.314 E48.52936
G1 X96.740 Y115.115 E48.54048
G1 X58.288 Y76.663 E49.96423
G1 X58.346 Y76.147 E49.97782
G1 X97.114 Y114.916 E51.41330
G1 X97.489 Y114.717 E51.42441
G1 X58.404 Y75.631 E52.87162
G1 X58.470 Y75.123 E52.88503
G1 X97.859 Y114.512 E54.34349
G1 X98.209 Y114.289 E54.35438
G1 X58.541 Y74.621 E55.82316
G1 X58.613 Y74.119 E55.83644
G1 X98.560 Y114.066 E57.31556
G1 X98.911 Y113.842 E57.32644
G1 X58.685 Y73.616 E58.81588
G1 X58.756 Y73.114 E58.82916
G1 X99.261 Y113.619 E60.32893
G1 X99.612 Y113.396 E60.33981
G1 X58.828 Y72.612 E61.84990
G1 X58.904 Y72.115 E61.86307
G1 X99.962 Y113.172 E63.38330
G1 X100.288 Y112.925 E63.39402
G1 X58.985 Y71.621 E64.92337
G1 X59.065 Y71.127 E64.93647
G1 X100.615 Y112.677 E66.47493
G1 X100.941 Y112.430 E66.48566
G1 X59.145 Y70.633 E68.03324
G1 X62.727 Y65.034 F12000.000
G1 X75.512 Y77.818 E68.50661 F1200.000
G1 X75.694 Y77.427 E68.51792
G1 X63.302 Y65.035 E68.97675
G1 X63.877 Y65.036 E68.99181
G1 X75.877 Y77.035 E69.43611
G1 X76.059 Y76.644 E69.44742
G1 X64.452 Y65.037 E69.87720
G1 X65.027 Y65.038 E69.89225
G1 X76.244 Y76.255 E70.30758
G1 X76.480 Y75.917 E70.31837
G1 X65.602 Y65.039 E70.72116
G1 X66.177 Y65.040 E70.73622
G1 X76.717 Y75.580 E71.12647
G1 X76.953 Y75.242 E71.13726
G1 X66.752 Y65.041 E71.51498
G1 X67.327 Y65.042 E71.53004
G1 X77.189 Y74.905 E71.89522
G1 X77.462 Y74.603 E71.90586
G1 X67.902 Y65.043 E72.25985
G1 X68.477 Y65.044 E72.27491
G1 X77.749 Y74.316 E72.61824
G1 X78.036 Y74.030 E72.62886
G1 X69.051 Y65.045 E72.96153
G1 X69.626 Y65.046 E72.97658
G1 X78.323 Y73.743 E73.29859
G1 X78.626 Y73.472 E73.30923
G1 X70.201 Y65.047 E73.62119
G1 X70.739 Y65.011 E73.63530
G1 X78.964 Y73.236 E73.93984
G1 X79.302 Y73.000 E73.95063
G1 X70.901 Y64.599 E74.26169
G1 X71.062 Y64.186 E74.27328
G1 X79.639 Y72.763 E74.59087
G1 X79.977 Y72.527 E74.60165
G1 X71.223 Y63.774 E74.92577
G1 X71.385 Y63.361 E74.93737
G1 X80.368 Y72.345 E75.27000
G1 X80.760 Y72.162 E75.28130
G1 X71.546 Y62.949 E75.62245
G1 X71.707 Y62.536 E75.63405
G1 X81.151 Y71.980 E75.98371
G1 X81.542 Y71.797 E75.99502
G1 X71.869 Y62.123 E76.35320
G1 X72.030 Y61.711 E76.36480
G1 X81.988 Y71.668 E76.73349
G1 X82.440 Y71.547 E76.74576
G1 X72.192 Y61.298 E77.12523
G1 X72.353 Y60.886 E77.13683
G1 X82.893 Y71.426 E77.52709
G1 X83.351 Y71.310 E77.53946
G1 X72.514 Y60.473 E77.94072
G1 X72.676 Y60.061 E77.95232
G1 X83.879 Y71.264 E78.36714
G1 X84.407 Y71.218 E78.38101
G1 X72.837 Y59.648 E78.80939
G1 X72.998 Y59.236 E78.82099
G1 X84.934 Y71.172 E79.26294
G1 X85.534 Y71.198 E79.27866
G1 X73.160 Y58.823 E79.73685
G1 X73.321 Y58.411 E79.74845
G1 X86.163 Y71.253 E80.22394
G1 X86.792 Y71.308 E80.24047
G1 X73.482 Y57.998 E80.73329
G1 X73.644 Y57.586 E80.74488
G1 X87.559 Y71.501 E81.26012
G1 X88.343 Y71.711 E81.28137
G1 X73.805 Y57.173 E81.81966
G1 X73.966 Y56.761 E81.83126
G1 X89.330 Y72.124 E82.40011
G1 X90.568 Y72.789 F12000.000
G1 X74.128 Y56.348 E83.00885 F1200.000
G1 X86.090 Y52.815 F12000.000
G1 X111.906 Y78.632 E83.96476 F1200.000
G1 X111.957 Y79.256 E83.98117
G1 X85.517 Y52.816 E84.96018
G1 X84.944 Y52.817 E84.97518
G1 X112.008 Y79.881 E85.97728
G1 X112.058 Y80.505 E85.99367
G1 X84.369 Y52.816 E87.01890
G1 X83.794 Y52.815 E87.03394
G1 X112.088 Y81.109 E88.08159
G1 X112.119 Y81.714 E88.09744
G1 X83.219 Y52.814 E89.16749
G1 X82.645 Y52.813 E89.18254
G1 X112.150 Y82.318 E90.27501
G1 X112.180 Y82.923 E90.29086
G1 X82.070 Y52.812 E91.40575
G1 X81.495 Y52.812 E91.42080
G1 X112.205 Y83.522 E92.55789
G1 X112.212 Y84.103 E92.57310
G1 X80.920 Y52.811 E93.73174
G1 X80.346 Y52.810 E93.74679
G1 X112.220 Y84.684 E94.92698
G1 X112.227 Y85.265 E94.94220
G1 X79.771 Y52.809 E96.14394
G1 X79.196 Y52.808 E96.15898
G1 X112.230 Y85.842 E97.38213
G1 X112.220 Y86.406 E97.39689
G1 X78.621 Y52.807 E98.64093
G1 X78.047 Y52.806 E98.65597
G1 X112.209 Y86.969 E99.92090
G1 X112.199 Y87.532 E99.93566
G1 X77.472 Y52.806 E101.22148
G1 X76.897 Y52.805 E101.23652
G1 X112.186 Y88.093 E102.54314
G1 X112.157 Y88.638 E102.55744
G1 X76.322 Y52.804 E103.88428
G1 X75.748 Y52.803 E103.89932
G1 X112.128 Y89.184 E105.24638
G1 X112.100 Y89.729 E105.26068
G1 X75.419 Y53.048 E106.61885
G1 X75.257 Y53.460 E106.63045
G1 X112.071 Y90.274 E107.99354
G1 X112.037 Y90.813 E108.00769
G1 X75.096 Y53.873 E109.37548
G1 X74.935 Y54.286 E109.38708
G1 X111.995 Y91.345 E110.75929
G1 X111.953 Y91.877 E110.77326
G1 X74.773 Y54.698 E112.14989
G1 X74.612 Y55.111 E112.16148
G1 X111.909 Y92.408 E113.54249
G1 X111.853 Y92.925 E113.55612
G1 X74.451 Y55.523 E114.94101
G1 X74.289 Y55.936 E114.95261
G1 X111.796 Y93.443 E116.34138
G1 X111.740 Y93.960 E116.35500
G1 X93.505 Y75.725 E117.03017
G1 X94.170 Y76.964 F12000.000
G1 X111.680 Y94.475 E117.67854 F1200.000
G1 X111.609 Y94.977 E117.69183
G1 X94.583 Y77.951 E118.32227
G1 X94.793 Y78.735 E118.34352
G1 X111.538 Y95.480 E118.96354
G1 X111.467 Y95.982 E118.97683
G1 X94.986 Y79.502 E119.58705
G1 X95.041 Y80.131 E119.60358
G1 X111.382 Y96.472 E120.20864
G1 X111.283 Y96.947 E120.22135
G1 X95.096 Y80.760 E120.82072
G1 X95.122 Y81.359 E120.83644
G1 X111.185 Y97.422 E121.43120
G1 X111.087 Y97.898 E121.44391
G1 X95.076 Y81.887 E122.03674
G1 X95.030 Y82.415 E122.05061
G1 X110.962 Y98.347 E122.64054
G1 X110.830 Y98.789 E122.65261
G1 X94.983 Y82.943 E123.23934
G1 X94.868 Y83.401 E123.25171
G1 X110.697 Y99.230 E123.83781
G1 X110.564 Y99.671 E123.84988
G1 X94.747 Y83.854 E124.43556
G1 X94.625 Y84.306 E124.44783
G1 X110.406 Y100.087 E125.03214
G1 X110.239 Y100.494 E125.04365
G1 X94.497 Y84.751 E125.62654
G1 X94.314 Y85.143 E125.63785
G1 X110.072 Y100.901 E126.22131
G1 X109.905 Y101.307 E126.23282
G1 X94.132 Y85.534 E126.81686
G1 X93.949 Y85.925 E126.82816
G1 X109.732 Y101.708 E127.41255
G1 X109.535 Y102.085 E127.42368
G1 X93.767 Y86.317 E128.00752
G1 X93.530 Y86.655 E128.01831
G1 X109.337 Y102.461 E128.60359
G1 X109.140 Y102.838 E128.61472
G1 X93.294 Y86.992 E129.20144
G1 X93.058 Y87.330 E129.21223
G1 X108.943 Y103.215 E129.80040
G1 X108.745 Y103.591 E129.81153
G1 X92.821 Y87.667 E130.40114
G1 X92.551 Y87.971 E130.41178
G1 X108.527 Y103.946 E131.00330
G1 X108.304 Y104.297 E131.01419
G1 X92.264 Y88.258 E131.60808
G1 X91.977 Y88.545 E131.61871
G1 X108.081 Y104.648 E132.21498
G1 X107.858 Y105.000 E132.22587
G1 X91.690 Y88.832 E132.82451
G1 X91.389 Y89.104 E132.83515
G1 X107.635 Y105.351 E133.43670
G1 X107.413 Y105.702 E133.44759
G1 X91.052 Y89.341 E134.05339
G1 X90.714 Y89.577 E134.06418
G1 X107.168 Y106.031 E134.67342
G1 X106.921 Y106.358 E134.68415
G1 X90.376 Y89.813 E135.29675
G1 X90.039 Y90.050 E135.30754
G1 X106.674 Y106.685 E135.92349
G1 X106.427 Y107.012 E135.93421
G1 X89.650 Y90.234 E136.55542
G1 X89.258 Y90.417 E136.56673
G1 X106.180 Y107.339 E137.19329
G1 X105.933 Y107.665 E137.20401
G1 X88.867 Y90.599 E137.83591
G1 X88.476 Y90.782 E137.84722
G1 X105.672 Y107.979 E138.48395
G1 X105.400 Y108.280 E138.49459
G1 X88.033 Y90.913 E139.13762
G1 X87.581 Y91.035 E139.14989
G1 X105.127 Y108.582 E139.79959
G1 X104.855 Y108.883 E139.81023
G1 X87.128 Y91.156 E140.46661
G1 X86.673 Y91.275 E140.47892
G1 X104.583 Y109.185 E141.14205
G1 X104.310 Y109.486 E141.15269
