; generated by Slic3r 1.2.9 on 2016-10-13 at 14:26:36

; external perimeters extrusion width = 0.50mm
; perimeters extrusion width = 0.50mm
; infill extrusion width = 0.50mm
; solid infill extrusion width = 0.50mm
; top infill extrusion width = 0.50mm

M104 S190 ; set temperature
G28 ; home all axes
G1 Z15 F120 ; lift nozzle
M109 S190 ; wait for temperature to be reached
G21 ; set units to millimeters
G90 ; use absolute coordinates
M82 ; use absolute distances for extrusion
G92 E0
M106 S102
G1 E-2.00000 F1680.00000
G92 E0
G1 Z0.500 F12000.000
G1 X23.878 Y17.093 F12000.000
G1 E2.00000 F1680.00000
G1 X24.196 Y16.679 E2.01564 F1200.000
G1 X25.380 Y15.494 E2.06580
G1 X25.794 Y15.176 E2.08144
G1 X27.245 Y14.339 E2.13160
G1 X27.728 Y14.139 E2.14724
G1 X29.346 Y13.705 E2.19740
G1 X29.864 Y13.637 E2.21304
G1 X30.701 Y13.582 E2.23818
G1 X126.701 Y13.582 E5.11281
G1 X127.539 Y13.637 E5.13794
G1 X128.057 Y13.705 E5.15358 F1200.000
G1 X129.675 Y14.139 E5.20375
G1 X130.157 Y14.339 E5.21938
G1 X131.608 Y15.176 E5.26955
G1 X132.022 Y15.494 E5.28518
G1 X133.207 Y16.679 E5.33535
G1 X133.525 Y17.093 E5.35099
G1 X134.362 Y18.544 E5.40115
G1 X134.562 Y19.026 E5.41678
G1 X134.996 Y20.645 E5.46695
G1 X135.064 Y21.162 E5.48259
G1 X135.119 Y22.000 E5.50772
G1 X135.119 Y98.000 E7.78347
G1 X135.064 Y98.838 E7.80861
G1 X134.996 Y99.355 E7.82424
G1 X134.562 Y100.974 E7.87441
G1 X134.362 Y101.456 E7.89005
G1 X133.525 Y102.907 E7.94021
G1 X133.207 Y103.321 E7.95584
G1 X132.022 Y104.506 E8.00602
G1 X131.608 Y104.824 E8.02165
G1 X130.157 Y105.661 E8.07181
G1 X129.675 Y105.861 E8.08745
G1 X128.057 Y106.295 E8.13762
G1 X127.539 Y106.363 E8.15325
G1 X126.701 Y106.418 E8.17839
G1 X30.701 Y106.418 E11.05302
G1 X29.864 Y106.363 E11.07815
G1 X29.346 Y106.295 E11.09379
G1 X27.728 Y105.861 E11.14396
G1 X27.245 Y105.661 E11.15959
G1 X25.795 Y104.824 E11.20976
G1 X25.380 Y104.506 E11.22539
G1 X24.196 Y103.321 E11.27556
G1 X23.878 Y102.907 E11.29119
G1 X23.040 Y101.456 E11.34136
G1 X22.840 Y100.974 E11.35699
G1 X22.407 Y99.355 E11.40716
G1 X22.338 Y98.838 E11.42280
G1 X22.284 Y98.000 E11.44793
G1 X22.284 Y22.000 E13.72368
G1 X22.339 Y21.162 E13.74882
G1 X22.407 Y20.645 E13.76446
G1 X22.840 Y19.026 E13.81462
G1 X23.040 Y18.544 E13.83026
G1 X23.840 Y17.158 E13.87817
G1 E11.87817 F1680.00000
G92 E0
G1 X52.924 Y20.252 F12000.000
G1 E2.00000 F1680.00000
G1 X126.750 Y20.259 E4.07832 F1200.000
G1 X127.154 Y20.312 E4.08979 F1200.000
G1 X127.575 Y20.486 E4.10264
G1 X127.937 Y20.764 E4.11548
G1 X128.215 Y21.126 E4.12833
G1 X128.390 Y21.548 E4.14117
G1 X128.451 Y22.016 E4.15448
G1 X128.451 Y97.984 E6.29310
G1 X128.390 Y98.452 E6.30641
G1 X128.215 Y98.874 E6.31926
G1 X127.937 Y99.236 E6.33210
G1 X127.575 Y99.514 E6.34495
G1 X127.154 Y99.688 E6.35779
G1 X126.685 Y99.750 E6.37111
G1 X30.718 Y99.750 E9.07276
G1 X30.249 Y99.688 E9.08607
G1 X29.827 Y99.514 E9.09892
G1 X29.465 Y99.236 E9.11176
G1 X29.188 Y98.874 E9.12461
G1 X29.013 Y98.452 E9.13745
G1 X28.951 Y97.984 E9.15076
G1 X28.951 Y22.016 E11.28939
G1 X29.013 Y21.548 E11.30270
G1 X29.188 Y21.126 E11.31554
G1 X29.465 Y20.764 E11.32839
G1 X29.827 Y20.486 E11.34123
G1 X30.249 Y20.312 E11.35408
G1 X30.718 Y20.250 E11.36739
G1 X52.849 Y20.252 E11.99044
G1 X126.629 Y20.489 F12000.000
G1 X128.215 Y22.075 E12.05375 F2400.000
G1 X128.221 Y22.638 E12.06964
G1 X126.072 Y20.489 E12.15543
G1 X125.515 Y20.489 E12.17116
G1 X128.221 Y23.195 E12.27918
G1 X128.221 Y23.752 E12.29491
G1 X124.958 Y20.489 E12.42517
G1 X124.401 Y20.489 E12.44090
G1 X128.221 Y24.308 E12.59340
G1 X128.221 Y24.865 E12.60913
G1 X123.844 Y20.489 E12.78387
G1 X123.287 Y20.489 E12.79959
G1 X128.221 Y25.422 E12.99657
G1 X128.221 Y25.979 E13.01229
G1 X122.730 Y20.489 E13.23151
G1 X122.173 Y20.489 E13.24724
G1 X128.221 Y26.536 E13.48869
G1 X128.221 Y27.093 E13.50442
G1 X121.616 Y20.489 E13.76811
G1 X121.059 Y20.488 E13.78383
G1 X128.221 Y27.650 E14.06977
G1 X128.221 Y28.207 E14.08549
G1 X120.502 Y20.488 E14.39366
G1 X119.945 Y20.488 E14.40938
G1 X128.221 Y28.764 E14.73979
G1 X128.221 Y29.321 E14.75551
G1 X119.388 Y20.488 E15.10816
G1 X118.831 Y20.488 E15.12389
G1 X128.221 Y29.878 E15.49877
G1 X128.221 Y30.435 E15.51449
G1 X118.274 Y20.488 E15.91161
G1 X117.717 Y20.488 E15.92734
G1 X128.221 Y30.992 E16.34670
G1 X128.221 Y31.549 E16.36242
G1 X117.160 Y20.488 E16.80402
G1 X116.603 Y20.488 E16.81974
G1 X128.221 Y32.106 E17.28358
G1 X128.221 Y32.663 E17.29930
G1 X116.046 Y20.488 E17.78538
G1 X115.489 Y20.488 E17.80110
G1 X128.221 Y33.219 E18.30941
G1 X128.221 Y33.776 E18.32514
G1 X114.932 Y20.488 E18.85568
G1 X114.375 Y20.488 E18.87141
G1 X128.221 Y34.333 E19.42420
G1 X128.221 Y34.890 E19.43992
G1 X113.818 Y20.488 E20.01495
G1 X113.261 Y20.488 E20.03067
G1 X128.221 Y35.447 E20.62793
G1 X128.221 Y36.004 E20.64366
G1 X112.704 Y20.488 E21.26316
G1 X112.147 Y20.488 E21.27888
G1 X128.221 Y36.561 E21.92062
G1 X128.221 Y37.118 E21.93635
G1 X111.590 Y20.488 E22.60032
G1 X111.034 Y20.488 E22.61605
G1 X128.221 Y37.675 E23.30226
G1 X128.221 Y38.232 E23.31799
G1 X110.477 Y20.488 E24.02644
G1 X109.920 Y20.488 E24.04216
G1 X128.221 Y38.789 E24.77286
G1 X128.221 Y39.346 E24.78858
G1 X109.363 Y20.487 E25.54151
G1 X108.806 Y20.487 E25.55723
G1 X128.221 Y39.903 E26.33240
G1 X128.221 Y40.460 E26.34812
G1 X108.249 Y20.487 E27.14553
G1 X107.692 Y20.487 E27.16125
G1 X128.221 Y41.017 E27.98090
G1 X128.221 Y41.573 E27.99662
G1 X107.135 Y20.487 E28.83850
G1 X106.578 Y20.487 E28.85423
G1 X128.221 Y42.130 E29.71834
G1 X128.221 Y42.687 E29.73407
G1 X106.021 Y20.487 E30.62042
G1 X105.464 Y20.487 E30.63615
G1 X128.221 Y43.244 E31.54474
G1 X128.221 Y43.801 E31.56047
G1 X104.907 Y20.487 E32.49130
G1 X104.350 Y20.487 E32.50703
G1 X128.221 Y44.358 E33.46010
G1 X128.221 Y44.915 E33.47582
G1 X103.793 Y20.487 E34.45113
G1 X103.236 Y20.487 E34.46685
G1 X128.221 Y45.472 E35.46440
G1 X128.221 Y46.029 E35.48012
G1 X102.679 Y20.487 E36.49991
G1 X102.122 Y20.487 E36.51563
G1 X128.221 Y46.586 E37.55766
G1 X128.221 Y47.143 E37.57338
G1 X101.565 Y20.487 E38.63764
G1 X101.008 Y20.487 E38.65337
G1 X128.221 Y47.700 E39.73986
G1 X128.221 Y48.257 E39.75559
G1 X100.451 Y20.487 E40.86432
G1 X99.894 Y20.487 E40.88005
G1 X128.221 Y48.814 E42.01102
G1 X128.221 Y49.371 E42.02675
G1 X99.337 Y20.487 E43.17996
G1 X98.780 Y20.487 E43.19569
G1 X128.221 Y49.927 E44.37114
G1 X128.221 Y50.484 E44.38686
G1 X98.223 Y20.486 E45.58455
G1 X97.666 Y20.486 E45.60027
G1 X128.221 Y51.041 E46.82020
G1 X128.221 Y51.598 E46.83592
G1 X97.109 Y20.486 E48.07809
G1 X96.552 Y20.486 E48.09381
G1 X128.221 Y52.155 E49.35822
G1 X128.221 Y52.712 E49.37394
G1 X95.995 Y20.486 E50.66058
G1 X95.438 Y20.486 E50.67630
G1 X128.221 Y53.269 E51.98518
G1 X128.221 Y53.826 E52.00091
G1 X94.881 Y20.486 E53.33202
G1 X94.324 Y20.486 E53.34775
G1 X128.221 Y54.383 E54.70110
G1 X128.221 Y54.940 E54.71683
G1 X93.767 Y20.486 E56.09242
G1 X93.210 Y20.486 E56.10814
G1 X128.221 Y55.497 E57.50597
G1 X128.221 Y56.054 E57.52170
G1 X92.653 Y20.486 E58.94177
G1 X92.096 Y20.486 E58.95749
G1 X128.221 Y56.611 E60.39980
G1 X128.221 Y57.168 E60.41552
G1 X91.539 Y20.486 E61.88006
G1 X90.982 Y20.486 E61.89579
G1 X128.221 Y57.725 E63.38257
G1 X128.221 Y58.282 E63.39830
G1 X90.425 Y20.486 E64.90732
G1 X89.868 Y20.486 E64.92304
G1 X128.221 Y58.838 E66.45430
G1 X128.221 Y59.395 E66.47002
G1 X89.311 Y20.486 E68.02352
G1 X88.754 Y20.486 E68.03924
G1 X128.221 Y59.952 E69.61498
G1 X128.221 Y60.509 E69.63070
G1 X88.197 Y20.486 E71.22867
G1 X87.640 Y20.486 E71.24440
G1 X128.221 Y61.066 E72.86461
G1 X128.221 Y61.623 E72.88033
G1 X87.083 Y20.485 E74.52278
G1 X86.526 Y20.485 E74.53851
G1 X128.221 Y62.180 E76.20319
G1 X128.221 Y62.737 E76.21892
G1 X85.969 Y20.485 E77.90584
G1 X85.412 Y20.485 E77.92156
G1 X128.221 Y63.294 E79.63073
G1 X128.221 Y63.851 E79.64645
G1 X84.855 Y20.485 E81.37785
G1 X84.298 Y20.485 E81.39358
G1 X128.221 Y64.408 E83.14721
G1 X128.221 Y64.965 E83.16294
G1 X83.741 Y20.485 E84.93881
G1 X83.184 Y20.485 E84.95454
G1 X128.221 Y65.522 E86.75265
G1 X128.221 Y66.079 E86.76838
G1 X82.627 Y20.485 E88.58873
G1 X82.070 Y20.485 E88.60445
G1 X128.221 Y66.636 E90.44704
G1 X128.221 Y67.192 E90.46277
G1 X81.513 Y20.485 E92.32759
G1 X80.956 Y20.485 E92.34332
G1 X128.221 Y67.749 E94.23039
G1 X128.221 Y68.306 E94.24611
G1 X80.399 Y20.485 E96.15541
G1 X79.842 Y20.485 E96.17114
G1 X128.221 Y68.863 E98.10268
G1 X128.221 Y69.420 E98.11840
G1 X79.285 Y20.485 E100.07218
G1 X78.728 Y20.485 E100.08791
G1 X128.221 Y69.977 E102.06393
G1 X128.221 Y70.534 E102.07965
G1 X78.171 Y20.485 E104.07791
G1 X77.614 Y20.485 E104.09363
G1 X128.221 Y71.091 E106.11412
G1 X128.221 Y71.648 E106.12985
G1 X77.057 Y20.485 E108.17258
G1 X76.500 Y20.485 E108.18830
G1 X128.221 Y72.205 E110.25328
G1 X128.221 Y72.762 E110.26900
G1 X75.943 Y20.484 E112.35621
G1 X75.386 Y20.484 E112.37193
G1 X128.221 Y73.319 E114.48138
G1 X128.221 Y73.876 E114.49710
G1 X74.830 Y20.484 E116.62878
G1 X74.273 Y20.484 E116.64451
G1 X128.221 Y74.433 E118.79843
G1 X128.221 Y74.990 E118.81415
G1 X73.716 Y20.484 E120.99031
G1 X73.159 Y20.484 E121.00604
G1 X128.221 Y75.547 E123.20444
G1 X128.221 Y76.103 E123.22016
G1 X72.602 Y20.484 E125.44080
G1 X72.045 Y20.484 E125.45652
G1 X128.221 Y76.660 E127.69940
G1 X128.221 Y77.217 E127.71512
G1 X71.488 Y20.484 E129.98023
G1 X70.931 Y20.484 E129.99595
G1 X128.221 Y77.774 E132.28330
G1 X128.221 Y78.331 E132.29903
G1 X70.374 Y20.484 E134.60862
G1 X69.817 Y20.484 E134.62434
G1 X128.221 Y78.888 E136.95617
G1 X128.221 Y79.445 E136.97189
G1 X69.260 Y20.484 E139.32595
G1 X68.703 Y20.484 E139.34168
G1 X128.221 Y80.002 E141.71798
G1 X128.221 Y80.559 E141.73370
G1 X68.146 Y20.484 E144.13224
G1 X67.589 Y20.484 E144.14797
G1 X128.221 Y81.116 E146.56875
G1 X128.221 Y81.673 E146.58447
G1 X67.032 Y20.484 E149.02748
G1 X66.475 Y20.484 E149.04321
G1 X128.221 Y82.230 E151.50846
G1 X128.221 Y82.787 E151.52419
G1 X65.918 Y20.484 E154.01168
G1 X65.361 Y20.484 E154.02740
G1 X128.221 Y83.344 E156.53713
G1 X128.221 Y83.901 E156.55286
G1 X64.804 Y20.483 E159.08482
G1 X64.247 Y20.483 E159.10055
G1 X128.221 Y84.457 E161.65475
G1 X128.221 Y85.014 E161.67048
G1 X63.690 Y20.483 E164.24692
G1 X63.133 Y20.483 E164.26265
G1 X128.221 Y85.571 E166.86133
G1 X128.221 Y86.128 E166.87705
G1 X62.576 Y20.483 E169.49797
G1 X62.019 Y20.483 E169.51369
G1 X128.221 Y86.685 E172.15685
G1 X128.221 Y87.242 E172.17258
G1 X61.462 Y20.483 E174.83797
G1 X60.905 Y20.483 E174.85370
G1 X128.221 Y87.799 E177.54133
G1 X128.221 Y88.356 E177.55705
G1 X60.348 Y20.483 E180.26692
G1 X59.791 Y20.483 E180.28265
G1 X128.221 Y88.913 E183.01476
G1 X128.221 Y89.470 E183.03048
G1 X59.234 Y20.483 E185.78483
G1 X58.677 Y20.483 E185.80055
G1 X128.221 Y90.027 E188.57714
G1 X128.221 Y90.584 E188.59286
G1 X58.120 Y20.483 E191.39169
G1 X57.563 Y20.483 E191.40741
G1 X128.221 Y91.141 E194.22847
G1 X128.221 Y91.698 E194.24420
G1 X57.006 Y20.483 E197.08749
G1 X56.449 Y20.483 E197.10322
G1 X128.221 Y92.255 E199.96876
G1 X128.221 Y92.811 E199.98448
G1 X55.892 Y20.483 E202.87226
G1 X55.335 Y20.483 E202.88798
G1 X128.221 Y93.368 E205.79799
G1 X128.221 Y93.925 E205.81372
G1 X54.778 Y20.483 E208.74597
G1 X54.221 Y20.483 E208.76169
G1 X128.221 Y94.482 E211.71618
G1 X128.221 Y95.039 E211.73191
G1 X53.664 Y20.483 E214.70863
G1 X53.107 Y20.482 E214.72436
G1 X128.221 Y95.596 E217.72332
G1 X128.221 Y96.153 E217.73905
G1 X52.550 Y20.482 E220.76025
G1 X51.993 Y20.482 E220.77597
G1 X128.221 Y96.710 E223.81942
G1 X128.221 Y97.267 E223.83514
G1 X51.436 Y20.482 E226.90082
G1 X50.879 Y20.482 E226.91654
G1 X128.221 Y97.824 E230.00446
G1 X128.182 Y98.342 E230.01913
G1 X50.322 Y20.482 E233.12773
G1 X49.765 Y20.482 E233.14345
G1 X128.041 Y98.758 E236.26867
G1 X127.795 Y99.069 E236.27986
G1 X49.208 Y20.482 E239.41749
G1 X48.651 Y20.482 E239.43321
G1 X127.494 Y99.325 E242.58108
G1 X127.087 Y99.475 E242.59333
G1 X48.094 Y20.482 E245.74717
G1 X47.537 Y20.482 E245.76290
G1 X126.575 Y99.520 E248.91853
G1 X126.018 Y99.520 E248.93425
G1 X46.980 Y20.482 E252.08988
G1 X46.423 Y20.482 E252.10560
G1 X125.461 Y99.520 E255.26124
G1 X124.904 Y99.520 E255.27696
G1 X45.866 Y20.482 E258.43259
G1 X45.309 Y20.482 E258.44832
G1 X124.347 Y99.520 E261.60395
G1 X123.790 Y99.520 E261.61968
G1 X44.752 Y20.482 E264.77531
G1 X44.195 Y20.482 E264.79104
G1 X123.233 Y99.520 E267.94668
G1 X122.676 Y99.520 E267.96240
G1 X43.638 Y20.482 E271.11804
G1 X43.081 Y20.482 E271.13377
G1 X122.119 Y99.520 E274.28941
G1 X121.562 Y99.520 E274.30513
G1 X42.524 Y20.482 E277.46078
G1 X41.967 Y20.481 E277.47650
G1 X121.005 Y99.520 E280.63215
G1 X120.449 Y99.520 E280.64787
G1 X41.410 Y20.481 E283.80352
G1 X40.853 Y20.481 E283.81925
G1 X119.892 Y99.520 E286.97490
G1 X119.335 Y99.520 E286.99062
G1 X40.296 Y20.481 E290.14628
G1 X39.739 Y20.481 E290.16200
G1 X118.778 Y99.520 E293.31766
G1 X118.221 Y99.520 E293.33338
G1 X39.183 Y20.481 E296.48904
G1 X38.626 Y20.481 E296.50476
G1 X117.664 Y99.520 E299.66042
G1 X117.107 Y99.520 E299.67614
G1 X38.069 Y20.481 E302.83180
G1 X37.512 Y20.481 E302.84753
G1 X116.550 Y99.520 E306.00319
G1 X115.993 Y99.520 E306.01891
G1 X36.955 Y20.481 E309.17458
G1 X36.398 Y20.481 E309.19030
G1 X115.436 Y99.520 E312.34597
G1 X114.879 Y99.520 E312.36169
G1 X35.841 Y20.481 E315.51736
G1 X35.284 Y20.481 E315.53309
G1 X114.322 Y99.520 E318.68876
G1 X113.765 Y99.520 E318.70448
G1 X34.727 Y20.481 E321.86016
G1 X34.170 Y20.481 E321.87588
G1 X113.208 Y99.520 E325.03156
G1 X112.651 Y99.520 E325.04728
G1 X33.613 Y20.481 E328.20296
G1 X33.056 Y20.481 E328.21868
G1 X112.095 Y99.520 E331.37436
G1 X111.538 Y99.520 E331.39008
G1 X32.499 Y20.481 E334.54576
G1 X31.942 Y20.481 E334.56149
G1 X110.981 Y99.520 E337.71717
G1 X110.424 Y99.520 E337.73289
G1 X31.385 Y20.481 E340.88858
G1 X30.828 Y20.480 E340.90430
G1 X109.867 Y99.520 E344.05999
G1 X109.310 Y99.520 E344.07571
G1 X30.315 Y20.525 E347.22962
G1 X29.908 Y20.675 E347.24187
G1 X108.753 Y99.520 E350.38980
G1 X108.196 Y99.520 E350.40552
G1 X29.608 Y20.931 E353.54321
G1 X29.361 Y21.242 E353.55441
G1 X107.639 Y99.520 E356.67969
G1 X107.082 Y99.520 E356.69541
G1 X29.221 Y21.658 E359.80408
G1 X29.182 Y22.176 E359.81875
G1 X106.525 Y99.520 E362.90674
G1 X105.968 Y99.520 E362.92246
G1 X29.182 Y22.733 E365.98821
G1 X29.182 Y23.290 E366.00393
G1 X105.411 Y99.520 E369.04745
G1 X104.854 Y99.520 E369.06317
G1 X29.182 Y23.847 E372.08445
G1 X29.182 Y24.404 E372.10018
G1 X104.297 Y99.520 E375.09922
G1 X103.740 Y99.520 E375.11494
G1 X29.182 Y24.961 E378.09175
G1 X29.182 Y25.518 E378.10747
G1 X103.184 Y99.520 E381.06204
G1 X102.627 Y99.520 E381.07777
G1 X29.182 Y26.075 E384.01010
G1 X29.182 Y26.632 E384.02582
G1 X102.070 Y99.520 E386.93592
G1 X101.513 Y99.520 E386.95165
G1 X29.182 Y27.189 E389.83951
G1 X29.182 Y27.745 E389.85523
G1 X100.956 Y99.520 E392.72086
G1 X100.399 Y99.520 E392.73658
G1 X29.182 Y28.302 E395.57998
G1 X29.182 Y28.859 E395.59570
G1 X99.842 Y99.520 E398.41685
G1 X99.285 Y99.520 E398.43258
G1 X29.182 Y29.416 E401.23150
G1 X29.182 Y29.973 E401.24722
G1 X98.728 Y99.520 E404.02390
G1 X98.171 Y99.520 E404.03963
G1 X29.182 Y30.530 E406.79407
G1 X29.182 Y31.087 E406.80980
G1 X97.614 Y99.520 E409.54201
G1 X97.057 Y99.520 E409.55773
G1 X29.182 Y31.644 E412.26770
G1 X29.182 Y32.201 E412.28343
G1 X96.500 Y99.520 E414.97117
G1 X95.943 Y99.520 E414.98689
G1 X29.182 Y32.758 E417.65239
G1 X29.182 Y33.315 E417.66812
G1 X95.386 Y99.520 E420.31138
G1 X94.830 Y99.520 E420.32711
G1 X29.182 Y33.872 E422.94814
G1 X29.182 Y34.429 E422.96386
G1 X94.273 Y99.520 E425.56266
G1 X93.716 Y99.520 E425.57838
G1 X29.182 Y34.986 E428.15494
G1 X29.182 Y35.543 E428.17066
G1 X93.159 Y99.520 E430.72498
G1 X92.602 Y99.520 E430.74071
G1 X29.182 Y36.100 E433.27279
G1 X29.182 Y36.656 E433.28852
G1 X92.045 Y99.520 E435.79837
G1 X91.488 Y99.520 E435.81409
G1 X29.182 Y37.213 E438.30171
G1 X29.182 Y37.770 E438.31743
G1 X90.931 Y99.520 E440.78281
G1 X90.374 Y99.520 E440.79853
G1 X29.182 Y38.327 E443.24168
G1 X29.182 Y38.884 E443.25740
G1 X89.817 Y99.520 E445.67831
G1 X89.260 Y99.520 E445.69403
G1 X29.182 Y39.441 E448.09270
G1 X29.182 Y39.998 E448.10842
G1 X88.703 Y99.520 E450.48486
G1 X88.146 Y99.520 E450.50058
G1 X29.182 Y40.555 E452.85478
