; generated by Slic3r 1.2.9 on 2016-09-28 at 20:50:52

; external perimeters extrusion width = 0.50mm
; perimeters extrusion width = 0.50mm
; infill extrusion width = 0.50mm
; solid infill extrusion width = 0.50mm
; top infill extrusion width = 0.50mm

M104 S190 ; set temperature
G28 ; home all axes
G1 Z15 F120 ; lift nozzle
M109 S190 ; wait for temperature to be reached
G21 ; set units to millimeters
G90 ; use absolute coordinates
M82 ; use absolute distances for extrusion
G92 E0
M106 S102
G1 E-2.00000 F1680.00000
G92 E0
G1 Z0.400 F12000.000
G1 X35.121 Y35.831 F12000.000
G1 E2.00000 F1680.00000
G1 X36.866 Y34.400 E2.06758 F1200.000
G1 X40.000 Y33.582 E2.16457
G1 X140.000 Y33.582 E5.15898
G1 X142.222 Y33.979 E5.22657
G1 X144.169 Y35.121 E5.29415 F1200.000
G1 X145.600 Y36.866 E5.36174
G1 X146.418 Y40.000 E5.45873
G1 X146.418 Y140.000 E8.45314
G1 X146.021 Y142.222 E8.52072
G1 X144.879 Y144.169 E8.58830
G1 X143.134 Y145.600 E8.65589
G1 X140.000 Y146.418 E8.75288
G1 X40.000 Y146.418 E11.74729
G1 X37.778 Y146.021 E11.81487
G1 X35.831 Y144.879 E11.88246
G1 X34.400 Y143.134 E11.95004
G1 X33.582 Y140.000 E12.04703
G1 X33.582 Y40.000 E15.04144
G1 X33.979 Y37.778 E15.10902
G1 X35.083 Y35.896 E15.17436
G1 E13.17436 F1680.00000
G92 E0
G1 X85.328 Y100.476 F12000.000
G1 E2.00000 F1680.00000
G1 X85.494 Y100.389 E2.00527 F1200.000
G1 X86.220 Y100.145 E2.02681
G1 X87.506 Y99.852 E2.06397
G1 X88.373 Y99.717 E2.08866
G1 X88.788 Y99.673 E2.10041
G1 X89.484 Y99.639 E2.12004 F1200.000
G1 X90.565 Y99.695 E2.15050
G1 X91.472 Y99.869 E2.17649
G1 X92.267 Y100.163 E2.20035
G1 X92.946 Y100.579 E2.22278
G1 X93.492 Y101.104 E2.24411
G1 X93.886 Y101.722 E2.26474
G1 X94.121 Y102.426 E2.28564
G1 X94.197 Y103.197 E2.30744
G1 X94.197 Y107.516 E2.42904
G1 X94.751 Y107.530 E2.44463
G1 X95.121 Y107.595 E2.45522
G1 X95.437 Y107.711 E2.46468
G1 X95.691 Y107.881 E2.47328
G1 X95.880 Y108.091 E2.48124
G1 X96.013 Y108.330 E2.48894
G1 X96.093 Y108.595 E2.49672
G1 X96.118 Y108.880 E2.50478
G1 X96.093 Y109.165 E2.51285
G1 X96.013 Y109.430 E2.52063
G1 X95.880 Y109.669 E2.52834
G1 X95.691 Y109.880 E2.53632
G1 X95.437 Y110.050 E2.54492
G1 X95.121 Y110.165 E2.55437
G1 X94.754 Y110.230 E2.56487
G1 X94.338 Y110.250 E2.57661
G1 X91.457 Y110.250 E2.65769
G1 X91.457 Y109.883 E2.66801
G1 X90.912 Y110.089 E2.68443
G1 X90.426 Y110.236 E2.69872
G1 X89.920 Y110.357 E2.71335
G1 X89.414 Y110.450 E2.72785
G1 X88.481 Y110.557 E2.75428
G1 X88.036 Y110.570 E2.76682
G1 X87.153 Y110.509 E2.79173
G1 X86.345 Y110.324 E2.81507
G1 X85.619 Y110.011 E2.83732
G1 X84.981 Y109.573 E2.85909
G1 X84.461 Y109.058 E2.87971
G1 X84.084 Y108.507 E2.89851
G1 X83.853 Y107.919 E2.91630
G1 X83.775 Y107.298 E2.93390
G1 X83.873 Y106.554 E2.95504
G1 X84.162 Y105.841 E2.97669
G1 X84.636 Y105.168 E2.99989
G1 X85.291 Y104.529 E3.02565
G1 X86.111 Y103.982 E3.05338
G1 X87.070 Y103.593 E3.08253
G1 X88.161 Y103.362 E3.11391
G1 X89.377 Y103.286 E3.14820
G1 X89.919 Y103.300 E3.16346
G1 X90.989 Y103.398 E3.19371
G1 X91.457 Y103.465 E3.20704
G1 X91.436 Y103.060 E3.21845
G1 X91.378 Y102.909 E3.22300
G1 X91.278 Y102.771 E3.22781
G1 X91.134 Y102.645 E3.23319
G1 X90.921 Y102.536 E3.23992
G1 X90.601 Y102.451 E3.24925
G1 X90.169 Y102.397 E3.26150
G1 X89.633 Y102.378 E3.27661
G1 X89.117 Y102.401 E3.29113
G1 X88.526 Y102.470 E3.30790
G1 X87.856 Y102.585 E3.32704
G1 X86.565 Y102.854 E3.36414
G1 X86.133 Y102.891 E3.37637
G1 X85.868 Y102.867 E3.38385
G1 X85.658 Y102.804 E3.39002
G1 X85.393 Y102.671 E3.39837
G1 X85.186 Y102.497 E3.40599
G1 X85.017 Y102.286 E3.41360
G1 X84.895 Y102.047 E3.42115
G1 X84.824 Y101.784 E3.42882
G1 X84.801 Y101.506 E3.43667
G1 X84.810 Y101.332 E3.44156
G1 X84.874 Y101.044 E3.44988
G1 X84.942 Y100.891 E3.45460
G1 X85.108 Y100.658 E3.46265
G1 X85.270 Y100.523 E3.46859
G1 X82.916 Y101.457 F12000.000
G1 X82.969 Y101.804 E3.47848 F1200.000
G1 X82.943 Y102.089 E3.48655
G1 X82.868 Y102.350 E3.49419
G1 X82.742 Y102.589 E3.50180
G1 X82.568 Y102.803 E3.50955
G1 X82.359 Y102.980 E3.51726
G1 X82.125 Y103.108 E3.52478
G1 X81.870 Y103.186 E3.53228
G1 X81.595 Y103.211 E3.54006
G1 X81.332 Y103.178 E3.54751
G1 X81.071 Y103.083 E3.55534
G1 X80.817 Y102.931 E3.56367
G1 X80.372 Y102.565 E3.57989
G1 X80.197 Y102.456 E3.58570
G1 X80.050 Y102.397 E3.59016
G1 X79.931 Y102.380 E3.59354
G1 X79.730 Y102.409 E3.59925
G1 X79.450 Y102.505 E3.60758
G1 X79.099 Y102.676 E3.61858
G1 X78.682 Y102.922 E3.63220
G1 X78.206 Y103.241 E3.64833
G1 X77.068 Y104.107 E3.68858
G1 X76.503 Y104.575 E3.70924
G1 X76.503 Y107.510 E3.79188
G1 X79.395 Y107.510 E3.87330
G1 X79.811 Y107.530 E3.88504
G1 X80.179 Y107.595 E3.89554
G1 X80.495 Y107.711 E3.90500
G1 X80.748 Y107.881 E3.91360
G1 X80.937 Y108.091 E3.92156
G1 X81.071 Y108.330 E3.92927
G1 X81.150 Y108.595 E3.93705
G1 X81.176 Y108.880 E3.94511
G1 X81.150 Y109.165 E3.95317
G1 X81.071 Y109.430 E3.96096
G1 X80.937 Y109.669 E3.96866
G1 X80.748 Y109.880 E3.97664
G1 X80.494 Y110.050 E3.98524
G1 X80.179 Y110.165 E3.99470
G1 X79.811 Y110.230 E4.00520
G1 X79.395 Y110.250 E4.01693
G1 X72.663 Y110.250 E4.20646
G1 X72.247 Y110.230 E4.21819
G1 X71.879 Y110.165 E4.22870
G1 X71.563 Y110.050 E4.23816
G1 X71.309 Y109.880 E4.24678
G1 X71.120 Y109.669 E4.25475
G1 X70.987 Y109.430 E4.26245
G1 X70.907 Y109.165 E4.27023
G1 X70.882 Y108.880 E4.27829
G1 X70.907 Y108.595 E4.28635
G1 X70.987 Y108.330 E4.29412
G1 X71.120 Y108.092 E4.30182
G1 X71.309 Y107.881 E4.30978
G1 X71.563 Y107.710 E4.31840
G1 X71.879 Y107.595 E4.32786
G1 X72.246 Y107.530 E4.33838
G1 X72.663 Y107.510 E4.35011
G1 X73.763 Y107.510 E4.38108
G1 X73.763 Y102.634 E4.51835
G1 X72.758 Y102.614 E4.54664
G1 X72.391 Y102.549 E4.55714
G1 X72.075 Y102.434 E4.56660
G1 X71.821 Y102.264 E4.57522
G1 X71.632 Y102.053 E4.58320
G1 X71.499 Y101.814 E4.59090
G1 X71.419 Y101.549 E4.59867
G1 X71.394 Y101.264 E4.60673
G1 X71.419 Y100.979 E4.61479
G1 X71.499 Y100.714 E4.62257
G1 X71.632 Y100.476 E4.63026
G1 X71.821 Y100.265 E4.63823
G1 X72.075 Y100.094 E4.64685
G1 X72.391 Y99.979 E4.65631
G1 X72.758 Y99.915 E4.66682
G1 X73.175 Y99.894 E4.67855
G1 X76.503 Y99.894 E4.77225
G1 X76.503 Y101.089 E4.80589
G1 X77.363 Y100.516 E4.83498
G1 X77.887 Y100.214 E4.85201
G1 X78.343 Y99.995 E4.86625
G1 X78.758 Y99.840 E4.87874
G1 X79.163 Y99.728 E4.89055
G1 X79.557 Y99.660 E4.90182
G1 X79.881 Y99.641 E4.91094 F1200.000
G1 X80.521 Y99.691 E4.92901
G1 X81.092 Y99.856 E4.94574
G1 X81.646 Y100.127 E4.96311
G1 X82.185 Y100.501 E4.98159
G1 X82.514 Y100.802 E4.99413
G1 X82.760 Y101.119 E5.00543
G1 X82.884 Y101.389 E5.01379
G1 E3.01379 F1680.00000
G92 E0
G1 X64.824 Y98.538 F12000.000
G1 E2.00000 F1680.00000
G1 X61.701 Y98.538 E2.08794 F1500.000
G1 X61.701 Y95.670 E2.16868
G1 X64.824 Y95.670 E2.25663 F1500.000
G1 X64.824 Y98.463 E2.33525
G1 X64.824 Y99.894 F12000.000
G1 X65.080 Y99.894 E2.34246 F1200.000
G1 X65.080 Y107.510 E2.55687
G1 X67.525 Y107.510 E2.62567
G1 X67.941 Y107.530 E2.63741
G1 X68.309 Y107.595 E2.64792
G1 X68.624 Y107.711 E2.65737
G1 X68.878 Y107.881 E2.66597
G1 X69.067 Y108.091 E2.67394
G1 X69.200 Y108.330 E2.68164
G1 X69.280 Y108.595 E2.68942
G1 X69.305 Y108.880 E2.69748
G1 X69.280 Y109.165 E2.70555
G1 X69.200 Y109.430 E2.71333
G1 X69.067 Y109.669 E2.72104
G1 X68.878 Y109.880 E2.72902
G1 X68.624 Y110.050 E2.73762
G1 X68.308 Y110.165 E2.74707
G1 X67.941 Y110.230 E2.75757
G1 X67.525 Y110.250 E2.76931
G1 X59.896 Y110.250 E2.98405
G1 X59.480 Y110.230 E2.99579
G1 X59.112 Y110.165 E3.00630
G1 X58.797 Y110.050 E3.01575
G1 X58.542 Y109.880 E3.02437
G1 X58.353 Y109.669 E3.03235
G1 X58.220 Y109.430 E3.04005
G1 X58.141 Y109.165 E3.04783
G1 X58.116 Y108.880 E3.05589
G1 X58.141 Y108.595 E3.06394
G1 X58.220 Y108.330 E3.07172
G1 X58.354 Y108.092 E3.07942
G1 X58.542 Y107.881 E3.08738
G1 X58.796 Y107.710 E3.09599
G1 X59.112 Y107.595 E3.10546
G1 X59.480 Y107.530 E3.11597
G1 X59.896 Y107.510 E3.12771
G1 X62.341 Y107.510 E3.19652
G1 X62.341 Y102.634 E3.33378
G1 X60.792 Y102.634 E3.37737
G1 X60.376 Y102.614 E3.38910
G1 X60.008 Y102.549 E3.39961
G1 X59.693 Y102.434 E3.40907
G1 X59.435 Y102.262 E3.41780
G1 X59.228 Y102.015 E3.42686
G1 X59.116 Y101.814 E3.43334
G1 X59.037 Y101.549 E3.44112
G1 X59.012 Y101.264 E3.44918
G1 X59.037 Y100.979 E3.45724
G1 X59.116 Y100.714 E3.46501
G1 X59.250 Y100.476 E3.47271
G1 X59.438 Y100.265 E3.48067
G1 X59.692 Y100.094 E3.48929
G1 X60.008 Y99.979 E3.49875
G1 X60.376 Y99.915 E3.50926
G1 X60.792 Y99.894 E3.52100
G1 X64.749 Y99.894 E3.63240 F1200.000
G1 E1.63240 F1680.00000
G92 E0
G1 X56.948 Y100.642 F12000.000
G1 E2.00000 F1680.00000
G1 X56.987 Y101.045 E2.01141 F1200.000
G1 X56.957 Y101.561 E2.02595
G1 X56.870 Y102.058 E2.04016
G1 X56.723 Y102.541 E2.05436
G1 X56.519 Y103.010 E2.06876
G1 X56.309 Y103.361 E2.08028
G1 X56.042 Y103.706 E2.09256
G1 X55.721 Y104.044 E2.10569
G1 X55.345 Y104.375 E2.11981
G1 X54.940 Y104.684 E2.13414
G1 X54.530 Y104.953 E2.14794
G1 X54.113 Y105.181 E2.16132
G1 X53.688 Y105.371 E2.17442
G1 X53.224 Y105.519 E2.18814
G1 X52.696 Y105.624 E2.20328
G1 X52.108 Y105.686 E2.21993
G1 X51.462 Y105.706 E2.23813
G1 X49.626 Y105.706 E2.28981
G1 X49.626 Y107.510 E2.34060
G1 X51.622 Y107.510 E2.39680
G1 X52.038 Y107.530 E2.40853
G1 X52.406 Y107.595 E2.41904
G1 X52.722 Y107.711 E2.42850
G1 X52.975 Y107.881 E2.43710
G1 X53.164 Y108.091 E2.44506
G1 X53.298 Y108.330 E2.45276
G1 X53.377 Y108.595 E2.46054
G1 X53.403 Y108.880 E2.46860
G1 X53.377 Y109.165 E2.47667
G1 X53.298 Y109.430 E2.48445
G1 X53.164 Y109.669 E2.49216
G1 X52.975 Y109.880 E2.50014
G1 X52.721 Y110.050 E2.50874
G1 X52.406 Y110.165 E2.51819
G1 X52.038 Y110.230 E2.52869
G1 X51.622 Y110.250 E2.54043
G1 X46.810 Y110.250 E2.67590
G1 X46.394 Y110.230 E2.68764
G1 X46.026 Y110.165 E2.69814
G1 X45.710 Y110.050 E2.70760
G1 X45.456 Y109.880 E2.71622
G1 X45.267 Y109.669 E2.72420
G1 X45.134 Y109.430 E2.73190
G1 X45.055 Y109.165 E2.73968
G1 X45.029 Y108.880 E2.74774
G1 X45.055 Y108.595 E2.75579
G1 X45.134 Y108.330 E2.76357
G1 X45.267 Y108.092 E2.77127
G1 X45.456 Y107.881 E2.77923
G1 X45.710 Y107.710 E2.78784
G1 X46.026 Y107.595 E2.79731
G1 X46.396 Y107.530 E2.80790
G1 X46.886 Y107.517 E2.82169
G1 X46.886 Y99.299 E3.05303
G1 X46.396 Y99.286 E3.06682
G1 X46.026 Y99.221 E3.07741
G1 X45.710 Y99.106 E3.08686
G1 X45.456 Y98.936 E3.09548
G1 X45.267 Y98.725 E3.10346
G1 X45.134 Y98.486 E3.11116
G1 X45.055 Y98.221 E3.11894
G1 X45.029 Y97.936 E3.12700
G1 X45.055 Y97.651 E3.13505
G1 X45.134 Y97.386 E3.14283
G1 X45.267 Y97.148 E3.15053
G1 X45.456 Y96.937 E3.15849
G1 X45.710 Y96.766 E3.16711
G1 X46.026 Y96.651 E3.17657
G1 X46.393 Y96.587 E3.18708
G1 X46.810 Y96.566 E3.19882
G1 X51.898 Y96.566 E3.34206 F1200.000
G1 X52.987 Y96.645 E3.37281
G1 X53.975 Y96.887 E3.40143
G1 X54.849 Y97.294 E3.42856
G1 X55.601 Y97.864 E3.45514
G1 X56.206 Y98.552 E3.48093
G1 X56.640 Y99.314 E3.50563
G1 X56.901 Y100.149 E3.53024
G1 X56.941 Y100.567 E3.54207
G1 X53.228 Y80.396 F12000.000
G1 X52.649 Y80.493 E3.55859 F1200.000
G1 X52.050 Y80.551 E3.57553
G1 X51.430 Y80.570 E3.59299
G1 X50.574 Y80.538 E3.61712
G1 X49.747 Y80.439 E3.64056
G1 X48.950 Y80.276 E3.66344
G1 X48.187 Y80.047 E3.68588
G1 X47.628 Y79.831 E3.70276
G1 X47.127 Y79.587 E3.71845
G1 X46.684 Y79.312 E3.73311
G1 X46.300 Y79.007 E3.74691
G1 X45.957 Y78.650 E3.76086
G1 X45.632 Y78.224 E3.77596
G1 X45.324 Y77.728 E3.79238
G1 X45.031 Y77.161 E3.81035
G1 X44.778 Y76.536 E3.82934
G1 X44.598 Y75.872 E3.84870
G1 X44.490 Y75.175 E3.86856
G1 X44.454 Y74.451 E3.88896
G1 X44.454 Y72.828 E3.93465
G1 X44.541 Y71.715 E3.96610
G1 X44.806 Y70.650 E3.99697
G1 X45.246 Y69.648 E4.02781
G1 X45.864 Y68.707 E4.05949
G1 X46.893 Y67.633 E4.10137
G1 X48.101 Y66.861 E4.14174
G1 X49.479 Y66.398 E4.18264
G1 X50.682 Y66.278 E4.21668
G1 X51.008 Y66.246 E4.22590 F1200.000
G1 X51.480 Y66.258 E4.23920
G1 X51.933 Y66.295 E4.25198
G1 X52.374 Y66.357 E4.26453
G1 X52.804 Y66.444 E4.27688
G1 X53.223 Y66.556 E4.28910
G1 X53.632 Y66.693 E4.30124
G1 X54.275 Y66.973 E4.32097
G1 X54.392 Y66.885 E4.32507
G1 X54.648 Y66.746 E4.33329
G1 X54.912 Y66.658 E4.34112
G1 X55.178 Y66.629 E4.34867
G1 X55.464 Y66.655 E4.35674
G1 X55.727 Y66.734 E4.36446
G1 X55.963 Y66.869 E4.37212
G1 X56.172 Y67.057 E4.38004
G1 X56.340 Y67.308 E4.38854
G1 X56.453 Y67.617 E4.39780
G1 X56.518 Y67.974 E4.40800
G1 X56.538 Y68.375 E4.41931
G1 X56.538 Y69.854 E4.46096
G1 X56.517 Y70.256 E4.47229
G1 X56.452 Y70.614 E4.48254
G1 X56.336 Y70.925 E4.49186
G1 X56.167 Y71.177 E4.50043
G1 X55.957 Y71.368 E4.50841
G1 X55.720 Y71.504 E4.51611
G1 X55.456 Y71.585 E4.52387
G1 X55.174 Y71.611 E4.53184
G1 X54.941 Y71.592 E4.53844
G1 X54.720 Y71.533 E4.54486
G1 X54.516 Y71.435 E4.55124
G1 X54.330 Y71.299 E4.55773
G1 X54.191 Y71.152 E4.56344
G1 X54.072 Y70.950 E4.57004
G1 X53.975 Y70.709 E4.57734
G1 X53.744 Y69.964 E4.59929
G1 X53.615 Y69.740 E4.60659
G1 X53.475 Y69.612 E4.61192
G1 X53.274 Y69.481 E4.61867
G1 X53.011 Y69.352 E4.62692
G1 X52.688 Y69.228 E4.63666
G1 X52.327 Y69.123 E4.64726
G1 X51.943 Y69.047 E4.65826
G1 X51.536 Y69.001 E4.66980
G1 X51.107 Y68.986 E4.68187
G1 X50.493 Y69.019 E4.69918
G1 X49.927 Y69.115 E4.71534
G1 X49.407 Y69.274 E4.73066
G1 X48.933 Y69.494 E4.74537
G1 X48.627 Y69.709 E4.75590
G1 X48.325 Y69.997 E4.76763
G1 X48.031 Y70.360 E4.78080
G1 X47.746 Y70.799 E4.79552
G1 X47.504 Y71.280 E4.81069
G1 X47.332 Y71.779 E4.82554
G1 X47.229 Y72.298 E4.84045
G1 X47.194 Y72.848 E4.85595
G1 X47.194 Y74.432 E4.90056
G1 X47.256 Y75.240 E4.92336
G1 X47.437 Y75.923 E4.94326
G1 X47.734 Y76.496 E4.96143
G1 X48.145 Y76.966 E4.97901
G1 X48.688 Y77.337 E4.99753
G1 X49.386 Y77.608 E5.01859
G1 X50.245 Y77.774 E5.04323
G1 X51.266 Y77.830 E5.07200
G1 X51.987 Y77.795 E5.09233
G1 X52.674 Y77.692 E5.11187
G1 X53.326 Y77.520 E5.13086
G1 X53.798 Y77.336 E5.14513
G1 X53.798 Y76.154 E5.17840
G1 X51.802 Y76.154 E5.23460
G1 X51.386 Y76.134 E5.24633
G1 X51.018 Y76.069 E5.25684
G1 X50.702 Y75.954 E5.26630
G1 X50.448 Y75.784 E5.27491
G1 X50.259 Y75.573 E5.28289
G1 X50.126 Y75.334 E5.29059
G1 X50.047 Y75.069 E5.29837
G1 X50.021 Y74.784 E5.30643
G1 X50.047 Y74.499 E5.31449
G1 X50.126 Y74.234 E5.32226
G1 X50.259 Y73.996 E5.32996
G1 X50.448 Y73.785 E5.33792
G1 X50.702 Y73.614 E5.34654
G1 X51.018 Y73.499 E5.35600
G1 X51.385 Y73.434 E5.36651
G1 X51.802 Y73.414 E5.37825
G1 X56.300 Y73.414 E5.50489
G1 X56.536 Y73.437 E5.51155
G1 X56.773 Y73.510 E5.51854
G1 X56.996 Y73.628 E5.52565
G1 X57.208 Y73.794 E5.53323
G1 X57.409 Y74.033 E5.54202
G1 X57.522 Y74.234 E5.54851
G1 X57.605 Y74.510 E5.55661
G1 X57.788 Y74.502 E5.56177
G1 X57.924 Y73.853 E5.58044
G1 X58.162 Y73.175 E5.60067
G1 X58.496 Y72.505 E5.62173
G1 X58.920 Y71.872 E5.64318
G1 X59.429 Y71.309 E5.66455
G1 X60.020 Y70.818 E5.68619
G1 X60.692 Y70.401 E5.70846
G1 X61.412 Y70.067 E5.73080
G1 X62.149 Y69.829 E5.75261
G1 X62.903 Y69.685 E5.77422
G1 X63.674 Y69.638 E5.79594
G1 X64.449 Y69.686 E5.81783
G1 X65.211 Y69.833 E5.83965
G1 X65.956 Y70.076 E5.86173
G1 X66.686 Y70.417 E5.88440
G1 X67.366 Y70.841 E5.90696
G1 X67.960 Y71.335 E5.92872
G1 X68.467 Y71.899 E5.95006
G1 X68.883 Y72.529 E5.97132
G1 X69.207 Y73.195 E5.99216
G1 X69.439 Y73.871 E6.01228
G1 X69.578 Y74.558 E6.03203
G1 X69.625 Y75.255 E6.05170
G1 X69.579 Y75.921 E6.07048
G1 X69.439 Y76.575 E6.08932
G1 X69.208 Y77.217 E6.10852
G1 X68.885 Y77.847 E6.12846
G1 X68.470 Y78.441 E6.14886
G1 X67.964 Y78.973 E6.16951
G1 X67.371 Y79.438 E6.19074
G1 X66.692 Y79.837 E6.21292
G1 X65.962 Y80.158 E6.23535
G1 X65.215 Y80.387 E6.25734
G1 X64.452 Y80.525 E6.27917
G1 X63.673 Y80.570 E6.30113
G1 X62.900 Y80.525 E6.32294
G1 X62.143 Y80.390 E6.34459
G1 X61.404 Y80.164 E6.36635
G1 X60.682 Y79.848 E6.38854
G1 X60.008 Y79.453 E6.41051
G1 X59.417 Y78.991 E6.43165
G1 X58.909 Y78.460 E6.45233
G1 X58.487 Y77.864 E6.47287
G1 X58.158 Y77.230 E6.49302
G1 X57.921 Y76.579 E6.51249
G1 X57.779 Y75.913 E6.53167
G1 X57.736 Y75.296 E6.54909
G1 X57.565 Y75.258 E6.55403
G1 X57.388 Y75.573 E6.56421
G1 X57.205 Y75.778 E6.57193
G1 X56.996 Y75.940 E6.57940
G1 X56.773 Y76.059 E6.58650
G1 X56.538 Y76.130 E6.59342
G1 X56.538 Y79.055 E6.67576
G1 X55.671 Y79.504 E6.70323
G1 X54.990 Y79.821 E6.72439
G1 X54.362 Y80.073 E6.74345
G1 X53.786 Y80.261 E6.76048
G1 X53.301 Y80.379 E6.77456
G1 E4.77456 F1680.00000
G92 E0
