;Generated with Cura_SteamEngine 13.10
M109 T0 S185.000000
T0
;Sliced ?filename? at: Thu 31-10-2013 20:27:36
;Basic settings: Layer height: 0.3 Walls: 1 Fill: 50
;Print time: #P_TIME#
;Filament used: #F_AMNT#m #F_WGHT#g
;Filament cost: #F_COST#
G21        ;metric values
G90        ;absolute positioning
M107       ;start with the fan off
G28 X0 Y0  ;move X/Y to min endstops
G28 Z0     ;move Z to min endstops
G92 X0 Y0 Z0 E0         ;reset software position to front/left/z=0.0
G1 Z15.0 F?max_z_speed? ;move the platform down 15mm
G92 E0                  ;zero the extruded length
G1 F200 E3              ;extrude 3mm of feed stock
G92 E0                  ;zero the extruded length again
G1 F9000

;total_layers=33
;LAYER:0
M107
G0 F5940 X88.90 Y83.17 Z0.30
;TYPE:SKIRT
G1 F1800 E0.00000
G1 F1140 X89.06 Y83.00 E0.00526
G1 X90.33 Y81.81 E0.04427
G1 X91.07 Y81.62 E0.06126
G1 X91.41 Y81.01 E0.07699
G1 X93.04 Y80.11 E0.11861
G1 X93.25 Y80.01 E0.12388
G1 X94.64 Y79.46 E0.15718
G1 X94.86 Y79.39 E0.16246
G1 X96.31 Y79.02 E0.19579
G1 X96.54 Y78.97 E0.20101
G1 X98.27 Y78.75 E0.24001
G1 X99.00 Y79.05 E0.25760
G1 X99.73 Y78.75 E0.27518
G1 X101.46 Y78.97 E0.31417
G1 X101.69 Y79.02 E0.31940
G1 X103.14 Y79.39 E0.35273
G1 X103.36 Y79.46 E0.35801
G1 X104.75 Y80.01 E0.39131
G1 X104.96 Y80.11 E0.39658
G1 X106.59 Y81.00 E0.43811
G1 X106.93 Y81.62 E0.45391
G1 X107.67 Y81.81 E0.47092
G1 X108.94 Y83.00 E0.50993
G1 X109.10 Y83.17 E0.51519
G1 X110.05 Y84.32 E0.54854
G1 X110.19 Y84.51 E0.55380
G1 X110.99 Y85.77 E0.58714
G1 X111.11 Y85.98 E0.59247
G1 X111.84 Y87.56 E0.63128
G1 X111.79 Y88.34 E0.64893
G1 X112.30 Y88.94 E0.66650
G1 X112.63 Y90.66 E0.70547
G1 X112.66 Y90.89 E0.71076
G1 X112.75 Y92.38 E0.74415
G1 X112.75 Y92.63 E0.74956
G1 X112.65 Y94.15 E0.78374
G1 X112.62 Y94.39 E0.78897
G1 X112.30 Y96.05 E0.82691
G1 X111.80 Y96.64 E0.84415
G1 X111.89 Y97.39 E0.86083
G1 X111.05 Y99.11 E0.90374
G1 X110.94 Y99.32 E0.90891
G1 X110.13 Y100.56 E0.94205
G1 X110.00 Y100.75 E0.94714
G1 X109.07 Y101.86 E0.97951
G1 X108.91 Y102.03 E0.98462
G1 X107.67 Y103.19 E1.02273
G1 X106.92 Y103.38 E1.03984
G1 X106.56 Y104.03 E1.05643
G1 X104.86 Y104.93 E1.09958
G1 X104.67 Y105.02 E1.10428
G1 X103.36 Y105.54 E1.13570
G1 X103.14 Y105.61 E1.14101
G1 X101.69 Y105.98 E1.17434
G1 X101.46 Y106.03 E1.17957
G1 X99.73 Y106.25 E1.21847
G1 X99.02 Y105.96 E1.23567
G1 X98.37 Y106.26 E1.25161
G1 X96.53 Y106.03 E1.29305
G1 X96.29 Y105.98 E1.29858
G1 X94.78 Y105.58 E1.33355
G1 X94.56 Y105.51 E1.33870
G1 X93.21 Y104.97 E1.37108
G1 X93.00 Y104.87 E1.37624
G1 X91.42 Y104.00 E1.41656
G1 X91.08 Y103.39 E1.43211
G1 X90.37 Y103.25 E1.44828
G1 X88.98 Y101.91 E1.49137
G1 X88.83 Y101.75 E1.49646
G1 X87.89 Y100.60 E1.52954
G1 X87.77 Y100.42 E1.53445
G1 X87.01 Y99.23 E1.56600
G1 X86.89 Y99.02 E1.57135
G1 X86.15 Y97.44 E1.61033
G1 X86.21 Y96.67 E1.62751
G1 X85.72 Y96.14 E1.64362
G1 X85.37 Y94.34 E1.68456
G1 X85.34 Y94.11 E1.68985
G1 X85.25 Y92.62 E1.72318
G1 X85.25 Y92.38 E1.72847
G1 X85.34 Y90.89 E1.76180
G1 X85.37 Y90.66 E1.76709
G1 X85.70 Y88.94 E1.80605
G1 X86.21 Y88.34 E1.82357
G1 X86.15 Y87.56 E1.84104
G1 X86.89 Y85.98 E1.88010
G1 X87.01 Y85.77 E1.88543
G1 X87.81 Y84.51 E1.91877
G1 X87.94 Y84.32 E1.92403
G1 X88.90 Y83.17 E1.95738
G0 F5940 X89.27 Y83.50
G1 F1140 X89.41 Y83.36 E1.96195
G1 X90.58 Y82.26 E1.99766
G1 X91.41 Y82.06 E2.01669
G1 X91.78 Y81.37 E2.03410
G1 X93.27 Y80.55 E2.07208
G1 X93.45 Y80.47 E2.07664
G1 X94.81 Y79.93 E2.10924
G1 X95.00 Y79.87 E2.11380
G1 X96.42 Y79.50 E2.14643
G1 X96.62 Y79.47 E2.15096
G1 X98.20 Y79.27 E2.18669
G1 X99.00 Y79.59 E2.20587
G1 X99.80 Y79.27 E2.22508
G1 X101.38 Y79.47 E2.26081
G1 X101.58 Y79.50 E2.26534
G1 X103.00 Y79.87 E2.29797
G1 X103.19 Y79.93 E2.30252
G1 X104.55 Y80.47 E2.33512
G1 X104.73 Y80.55 E2.33969
G1 X106.22 Y81.37 E2.37762
G1 X106.59 Y82.06 E2.39507
G1 X107.42 Y82.26 E2.41409
G1 X108.59 Y83.36 E2.44981
G1 X108.73 Y83.50 E2.45438
G1 X109.66 Y84.63 E2.48701
G1 X109.78 Y84.79 E2.49157
G1 X110.56 Y86.03 E2.52421
G1 X110.66 Y86.21 E2.52882
G1 X111.34 Y87.65 E2.56437
G1 X111.28 Y88.51 E2.58366
G1 X111.83 Y89.17 E2.60285
G1 X112.13 Y90.73 E2.63851
G1 X112.16 Y90.94 E2.64311
G1 X112.25 Y92.40 E2.67579
G1 X112.25 Y92.61 E2.68048
G1 X112.15 Y94.10 E2.71394
G1 X112.12 Y94.31 E2.71849
G1 X111.83 Y95.83 E2.75317
G1 X111.28 Y96.49 E2.77232
G1 X111.37 Y97.30 E2.79058
G1 X110.61 Y98.88 E2.82990
G1 X110.51 Y99.06 E2.83436
G1 X109.72 Y100.28 E2.86684
G1 X109.60 Y100.44 E2.87125
G1 X108.69 Y101.53 E2.90295
G1 X108.56 Y101.67 E2.90736
G1 X107.42 Y102.74 E2.94219
G1 X106.59 Y102.94 E2.96125
G1 X106.20 Y103.65 E2.97945
G1 X104.64 Y104.48 E3.01897
G1 X104.47 Y104.56 E3.02303
G1 X103.19 Y105.07 E3.05378
G1 X103.00 Y105.13 E3.05839
G1 X101.58 Y105.50 E3.09102
G1 X101.38 Y105.53 E3.09554
G1 X99.80 Y105.73 E3.13119
G1 X99.00 Y105.41 E3.15034
G1 X98.29 Y105.75 E3.16792
G1 X96.61 Y105.53 E3.20575
G1 X96.40 Y105.49 E3.21050
G1 X94.92 Y105.10 E3.24478
G1 X94.73 Y105.04 E3.24926
G1 X93.41 Y104.51 E3.28097
G1 X93.23 Y104.43 E3.28543
G1 X91.79 Y103.63 E3.32220
G1 X91.41 Y102.94 E3.33974
G1 X90.61 Y102.79 E3.35779
G1 X89.34 Y101.56 E3.39726
G1 X89.21 Y101.42 E3.40168
G1 X88.29 Y100.29 E3.43407
G1 X88.18 Y100.14 E3.43833
G1 X87.44 Y98.97 E3.46922
G1 X87.34 Y98.79 E3.47385
G1 X86.66 Y97.34 E3.50956
G1 X86.72 Y96.49 E3.52859
G1 X86.18 Y95.91 E3.54641
G1 X85.87 Y94.26 E3.58378
G1 X85.84 Y94.06 E3.58837
G1 X85.75 Y92.60 E3.62100
G1 X85.75 Y92.40 E3.62558
G1 X85.84 Y90.94 E3.65822
G1 X85.87 Y90.73 E3.66281
G1 X86.17 Y89.17 E3.69848
G1 X86.72 Y88.51 E3.71766
G1 X86.66 Y87.66 E3.73674
G1 X87.34 Y86.21 E3.77251
G1 X87.44 Y86.03 E3.77712
G1 X88.22 Y84.79 E3.80977
G1 X88.34 Y84.63 E3.81433
G1 X89.27 Y83.50 E3.84696
G1 F1800 E1.84696
G0 F5940 X92.26 Y86.17
;TYPE:WALL-INNER
G1 F1800 E3.84696
G1 F1140 X92.40 Y86.03 E3.85140
G1 X92.52 Y86.05 E3.85392
G1 X92.80 Y86.05 E3.86025
G1 X93.08 Y86.02 E3.86659
G1 X93.40 Y85.94 E3.87390
G1 X93.66 Y85.83 E3.88021
G1 X93.91 Y85.69 E3.88658
G1 X94.13 Y85.52 E3.89288
G1 X94.34 Y85.33 E3.89920
G1 X94.52 Y85.11 E3.90549
G1 X94.68 Y84.84 E3.91256
G1 X94.86 Y84.35 E3.92415
G1 X94.89 Y84.23 E3.92695
G1 X95.06 Y84.13 E3.93141
G1 X96.14 Y83.71 E3.95719
G1 X97.27 Y83.42 E3.98338
G1 X97.47 Y83.39 E3.98773
G1 X97.58 Y83.50 E3.99130
G1 X97.81 Y83.66 E3.99761
G1 X98.06 Y83.80 E4.00396
G1 X98.33 Y83.90 E4.01022
G1 X98.60 Y83.97 E4.01653
G1 X98.88 Y84.00 E4.02287
G1 X99.17 Y84.00 E4.02919
G1 X99.45 Y83.95 E4.03553
G1 X99.72 Y83.88 E4.04178
G1 X99.98 Y83.78 E4.04810
G1 X100.22 Y83.64 E4.05441
G1 X100.53 Y83.39 E4.06325
G1 X100.73 Y83.42 E4.06762
G1 X101.86 Y83.71 E4.09381
G1 X102.94 Y84.13 E4.11959
G1 X103.11 Y84.23 E4.12413
G1 X103.14 Y84.38 E4.12747
G1 X103.25 Y84.69 E4.13481
G1 X103.50 Y85.14 E4.14631
G1 X103.69 Y85.36 E4.15289
G1 X103.90 Y85.55 E4.15918
G1 X104.13 Y85.72 E4.16550
G1 X104.38 Y85.85 E4.17188
G1 X104.64 Y85.95 E4.17812
G1 X104.92 Y86.02 E4.18443
G1 X105.20 Y86.05 E4.19077
G1 X105.60 Y86.03 E4.19962
G1 X105.74 Y86.17 E4.20407
G1 X106.48 Y87.07 E4.23007
G1 X107.10 Y88.04 E4.25590
G1 X107.19 Y88.23 E4.26053
G1 X107.04 Y88.64 E4.27036
G1 X106.99 Y88.92 E4.27666
G1 X106.97 Y89.17 E4.28217
G1 X106.97 Y89.24 E4.28376
G1 X107.05 Y89.75 E4.29537
G1 X107.16 Y90.06 E4.30271
G1 X107.41 Y90.51 E4.31422
G1 X107.60 Y90.73 E4.32080
G1 X107.81 Y90.93 E4.32710
G1 X108.04 Y91.09 E4.33341
G1 X108.14 Y91.15 E4.33599
G1 X108.17 Y91.34 E4.34043
G1 X108.25 Y92.51 E4.36650
G1 X108.17 Y93.69 E4.39303
G1 X108.14 Y93.85 E4.39669
G1 X107.99 Y93.94 E4.40043
G1 X107.76 Y94.11 E4.40689
G1 X107.56 Y94.30 E4.41309
G1 X107.38 Y94.53 E4.41959
G1 X107.23 Y94.77 E4.42591
G1 X107.12 Y95.03 E4.43216
G1 X106.99 Y95.52 E4.44346
G1 X106.97 Y95.81 E4.45000
G1 X106.97 Y95.88 E4.45158
G1 X107.05 Y96.39 E4.46317
G1 X107.16 Y96.70 E4.47056
G1 X107.19 Y96.77 E4.47209
G1 X107.07 Y97.01 E4.47817
G1 X106.44 Y97.99 E4.50418
G1 X105.72 Y98.85 E4.52936
G1 X105.60 Y98.97 E4.53301
G1 X105.43 Y98.95 E4.53672
G1 X105.10 Y98.96 E4.54407
G1 X104.59 Y99.06 E4.55567
G1 X104.33 Y99.17 E4.56210
G1 X104.09 Y99.31 E4.56832
G1 X103.66 Y99.68 E4.58090
G1 X103.48 Y99.91 E4.58740
G1 X103.33 Y100.15 E4.59372
G1 X103.21 Y100.40 E4.59997
G1 X103.11 Y100.77 E4.60843
G1 X102.87 Y100.89 E4.61455
G1 X101.86 Y101.29 E4.63874
G1 X100.73 Y101.58 E4.66492
G1 X100.53 Y101.61 E4.66926
G1 X100.17 Y101.33 E4.67957
G1 X99.89 Y101.19 E4.68654
G1 X99.41 Y101.04 E4.69780
G1 X99.16 Y101.00 E4.70334
G1 X99.11 Y101.00 E4.70446
G1 X98.78 Y101.01 E4.71181
G1 X98.28 Y101.12 E4.72341
G1 X98.01 Y101.23 E4.72987
G1 X97.77 Y101.36 E4.73600
G1 X97.54 Y101.54 E4.74246
G1 X97.46 Y101.61 E4.74478
G1 X97.27 Y101.58 E4.74918
G1 X96.08 Y101.27 E4.77666
G1 X95.03 Y100.85 E4.80178
G1 X94.89 Y100.77 E4.80553
G1 X94.85 Y100.60 E4.80955
G1 X94.76 Y100.33 E4.81580
G1 X94.64 Y100.08 E4.82206
G1 X94.49 Y99.85 E4.82815
G1 X94.13 Y99.48 E4.83965
G1 X93.85 Y99.27 E4.84739
G1 X93.57 Y99.13 E4.85438
G1 X93.09 Y98.98 E4.86563
G1 X92.85 Y98.95 E4.87117
G1 X92.80 Y98.95 E4.87229
G1 X92.47 Y98.96 E4.87960
G1 X92.41 Y98.97 E4.88087
G1 X92.22 Y98.78 E4.88688
G1 X91.48 Y97.87 E4.91311
G1 X90.90 Y96.96 E4.93730
G1 X90.81 Y96.77 E4.94197
G1 X90.96 Y96.37 E4.95152
G1 X91.01 Y96.08 E4.95813
G1 X91.03 Y95.83 E4.96366
G1 X91.00 Y95.50 E4.97102
G1 X90.94 Y95.22 E4.97741
G1 X90.85 Y94.96 E4.98366
G1 X90.73 Y94.70 E4.98992
G1 X90.58 Y94.48 E4.99600
G1 X90.39 Y94.26 E5.00250
G1 X90.19 Y94.07 E5.00863
G1 X89.86 Y93.86 E5.01736
G1 X89.83 Y93.66 E5.02184
G1 X89.75 Y92.50 E5.04778
G1 X89.83 Y91.34 E5.07373
G1 X89.86 Y91.14 E5.07818
G1 X90.00 Y91.06 E5.08175
G1 X90.23 Y90.90 E5.08809
G1 X90.43 Y90.70 E5.09441
G1 X90.61 Y90.48 E5.10070
G1 X90.78 Y90.21 E5.10776
G1 X90.96 Y89.73 E5.11936
G1 X91.01 Y89.44 E5.12596
G1 X91.03 Y89.19 E5.13149
G1 X91.01 Y88.89 E5.13816
G1 X91.00 Y88.82 E5.13968
G1 X90.88 Y88.39 E5.14963
G1 X90.81 Y88.22 E5.15370
G1 X90.90 Y88.04 E5.15821
G1 X91.52 Y87.07 E5.18404
G1 X92.26 Y86.17 E5.21004
G0 F5940 X96.85 Y89.18
G1 F1140 X95.05 Y92.30 E5.29052
G1 X95.05 Y92.70 E5.29947
G1 X96.85 Y95.82 E5.37994
G1 X97.20 Y96.02 E5.38894
G1 X100.80 Y96.02 E5.46938
G1 X101.15 Y95.82 E5.47837
G1 X102.95 Y92.70 E5.55885
G1 X102.95 Y92.30 E5.56780
G1 X101.15 Y89.18 E5.64827
G1 X100.80 Y88.98 E5.65726
G1 X97.20 Y88.98 E5.73770
G1 X96.85 Y89.18 E5.74668
G0 F5940 X97.22 Y89.55
;TYPE:WALL-OUTER
G1 F1140 X95.55 Y92.43 E5.82117
G1 X95.55 Y92.57 E5.82414
G1 X97.22 Y95.45 E5.89862
G1 X97.33 Y95.52 E5.90164
G1 X100.67 Y95.52 E5.97609
G1 X100.78 Y95.45 E5.97910
G1 X102.45 Y92.57 E6.05359
G1 X102.45 Y92.43 E6.05656
G1 X100.78 Y89.55 E6.13104
G1 X100.67 Y89.48 E6.13404
G1 X97.33 Y89.48 E6.20849
G1 X97.22 Y89.55 E6.21150
G0 F5940 X97.04 Y89.24
G0 X94.03 Y85.42
G0 X93.80 Y85.15
G1 F1140 X93.96 Y84.99 E6.21642
G1 X94.10 Y84.83 E6.22130
G1 X94.22 Y84.63 E6.22646
G1 X94.37 Y84.26 E6.23538
G1 X94.38 Y84.23 E6.23594
G1 X94.42 Y84.02 E6.24091
G1 X94.43 Y83.91 E6.24324
G1 X94.85 Y83.68 E6.25407
G1 X95.98 Y83.23 E6.28131
G1 X97.17 Y82.92 E6.30871
G1 X97.66 Y82.86 E6.31958
G1 X97.73 Y82.95 E6.32216
G1 X97.89 Y83.10 E6.32709
G1 X98.07 Y83.23 E6.33201
G1 X98.26 Y83.34 E6.33693
G1 X98.47 Y83.42 E6.34182
G1 X98.68 Y83.47 E6.34673
G1 X98.90 Y83.50 E6.35166
G1 X99.12 Y83.50 E6.35657
G1 X99.34 Y83.47 E6.36149
G1 X99.55 Y83.41 E6.36636
G1 X99.75 Y83.33 E6.37127
G1 X100.12 Y83.09 E6.38108
G1 X100.34 Y82.86 E6.38822
G1 X100.83 Y82.92 E6.39912
G1 X102.02 Y83.23 E6.42652
G1 X103.15 Y83.68 E6.45376
G1 X103.58 Y83.91 E6.46474
G1 X103.62 Y84.24 E6.47215
G1 X103.70 Y84.47 E6.47741
G1 X103.90 Y84.83 E6.48682
G1 X104.05 Y85.01 E6.49183
G1 X104.21 Y85.16 E6.49673
G1 X104.58 Y85.39 E6.50656
G1 X104.78 Y85.47 E6.51144
G1 X105.00 Y85.52 E6.51635
G1 X105.22 Y85.55 E6.52128
G1 X105.44 Y85.55 E6.52620
G1 X105.66 Y85.52 E6.53120
G1 X105.75 Y85.49 E6.53338
G1 X106.11 Y85.83 E6.54419
G1 X106.89 Y86.77 E6.57162
G1 X107.55 Y87.81 E6.59900
G1 X107.75 Y88.24 E6.60980
G1 X107.68 Y88.36 E6.61290
G1 X107.52 Y88.76 E6.62239
G1 X107.49 Y88.95 E6.62680
G1 X107.47 Y89.20 E6.63231
G1 X107.53 Y89.62 E6.64177
G1 X107.60 Y89.84 E6.64703
G1 X107.81 Y90.21 E6.65644
G1 X107.95 Y90.38 E6.66145
G1 X108.11 Y90.53 E6.66635
G1 X108.29 Y90.66 E6.67128
G1 X108.49 Y90.77 E6.67627
G1 X108.58 Y90.80 E6.67844
G1 X108.67 Y91.28 E6.68932
G1 X108.75 Y92.51 E6.71682
G1 X108.67 Y93.76 E6.74481
G1 X108.58 Y94.20 E6.75486
G1 X108.46 Y94.25 E6.75773
G1 X108.28 Y94.35 E6.76245
G1 X108.09 Y94.48 E6.76756
G1 X107.94 Y94.63 E6.77227
G1 X107.80 Y94.81 E6.77740
G1 X107.68 Y95.00 E6.78230
G1 X107.52 Y95.40 E6.79209
G1 X107.49 Y95.59 E6.79641
G1 X107.47 Y95.84 E6.80192
G1 X107.53 Y96.26 E6.81138
G1 X107.60 Y96.48 E6.81666
G1 X107.75 Y96.75 E6.82347
G1 X107.51 Y97.25 E6.83596
G1 X106.84 Y98.28 E6.86338
G1 X106.08 Y99.20 E6.88996
G1 X105.75 Y99.51 E6.89996
G1 X105.44 Y99.45 E6.90718
G1 X105.42 Y99.45 E6.90753
G1 X105.18 Y99.45 E6.91296
G1 X104.78 Y99.53 E6.92189
G1 X104.56 Y99.62 E6.92735
G1 X104.37 Y99.72 E6.93209
G1 X104.04 Y100.00 E6.94187
G1 X103.89 Y100.18 E6.94701
G1 X103.78 Y100.37 E6.95190
G1 X103.62 Y100.78 E6.96170
G1 X103.58 Y100.97 E6.96602
G1 X103.58 Y101.08 E6.96861
G1 X103.08 Y101.35 E6.98121
G1 X102.01 Y101.77 E7.00675
G1 X100.83 Y102.08 E7.03413
G1 X100.34 Y102.14 E7.04500
G1 X100.11 Y101.89 E7.05255
G1 X99.92 Y101.76 E7.05773
G1 X99.72 Y101.65 E7.06287
G1 X99.32 Y101.53 E7.07204
G1 X99.10 Y101.50 E7.07706
G1 X98.86 Y101.50 E7.08249
G1 X98.47 Y101.58 E7.09142
G1 X98.24 Y101.67 E7.09690
G1 X97.87 Y101.91 E7.10669
G1 X97.65 Y102.14 E7.11367
G1 X97.18 Y102.08 E7.12436
G1 X95.92 Y101.75 E7.15345
G1 X94.82 Y101.31 E7.17989
G1 X94.42 Y101.09 E7.18996
G1 X94.37 Y100.74 E7.19783
G1 X94.30 Y100.53 E7.20271
G1 X94.10 Y100.17 E7.21191
G1 X93.94 Y99.99 E7.21736
G1 X93.79 Y99.84 E7.22207
G1 X93.60 Y99.71 E7.22724
G1 X93.40 Y99.60 E7.23239
G1 X93.01 Y99.48 E7.24156
G1 X92.78 Y99.45 E7.24658
G1 X92.54 Y99.45 E7.25199
G1 X92.25 Y99.51 E7.25854
G1 X91.85 Y99.12 E7.27095
G1 X91.07 Y98.17 E7.29848
G1 X90.45 Y97.19 E7.32426
G1 X90.25 Y96.76 E7.33506
G1 X90.32 Y96.65 E7.33791
G1 X90.47 Y96.27 E7.34690
G1 X90.47 Y96.25 E7.34743
G1 X90.51 Y96.03 E7.35243
G1 X90.53 Y95.82 E7.35722
G1 X90.51 Y95.58 E7.36249
G1 X90.47 Y95.36 E7.36743
G1 X90.40 Y95.16 E7.37231
G1 X90.20 Y94.80 E7.38151
G1 X90.04 Y94.61 E7.38696
G1 X89.89 Y94.47 E7.39167
G1 X89.70 Y94.33 E7.39685
G1 X89.42 Y94.20 E7.40374
G1 X89.33 Y93.72 E7.41454
G1 X89.25 Y92.50 E7.44189
G1 X89.33 Y91.28 E7.46924
G1 X89.42 Y90.80 E7.48012
G1 X89.53 Y90.76 E7.48268
G1 X89.72 Y90.65 E7.48762
G1 X89.90 Y90.52 E7.49254
G1 X90.06 Y90.37 E7.49747
G1 X90.20 Y90.20 E7.50234
G1 X90.32 Y90.00 E7.50750
G1 X90.47 Y89.63 E7.51642
G1 X90.47 Y89.61 E7.51698
G1 X90.51 Y89.39 E7.52198
G1 X90.53 Y89.17 E7.52677
G1 X90.51 Y88.93 E7.53230
G1 X90.40 Y88.52 E7.54176
G1 X90.25 Y88.24 E7.54877
G1 X90.45 Y87.81 E7.55954
G1 X91.11 Y86.77 E7.58692
G1 X91.89 Y85.83 E7.61435
G1 X92.25 Y85.49 E7.62516
G1 X92.56 Y85.55 E7.63231
G1 X92.78 Y85.55 E7.63722
G1 X93.02 Y85.52 E7.64252
G1 X93.23 Y85.47 E7.64739
G1 X93.63 Y85.28 E7.65721
G1 X93.80 Y85.15 E7.66211
G0 F5940 X94.37 Y85.53
;TYPE:FILL
G1 F1140 X97.64 Y88.80 E7.76543
G0 F5940 X97.01 Y88.88
G1 F1140 X93.98 Y85.85 E7.86121
G0 F5940 X93.51 Y86.08
G1 F1140 X96.63 Y89.20 E7.95990
G0 F5940 X96.37 Y89.65
G1 F1140 X92.93 Y86.21 E8.06868
G0 F5940 X92.35 Y86.33
G1 F1140 X96.11 Y90.10 E8.18769
G0 F5940 X95.85 Y90.55
G1 F1140 X92.03 Y86.72 E8.30865
G0 F5940 X91.71 Y87.11
G1 F1140 X95.59 Y91.00 E8.43152
G0 F5940 X95.34 Y91.45
G1 F1140 X91.42 Y87.53 E8.55512
G0 F5940 X91.15 Y87.97
G1 F1140 X95.08 Y91.90 E8.67920
G0 F5940 X94.87 Y92.40
