; generated by Slic3r 1.2.6 on 2015-03-13 at 18:53:10

; external perimeters extrusion width = 0.50mm
; perimeters extrusion width = 0.50mm
; infill extrusion width = 0.50mm
; solid infill extrusion width = 0.50mm
; top infill extrusion width = 0.50mm

M104 S190 ; set temperature
G28 ; home all axes
G1 Z15 F120 ; lift nozzle
M109 S190 ; wait for temperature to be reached
G21 ; set units to millimeters
G90 ; use absolute coordinates
M82 ; use absolute distances for extrusion
G92 E0
M106 S102
G1 E-2.00000 F1680.00000
G92 E0
G1 Z0.350 F12000.000
G1 X68.005 Y36.919 F12000.000
G1 E2.00000 F1680.00000
G1 X69.873 Y34.850 E2.07846 F1200.000
G1 X70.163 Y34.604 E2.08917
G1 X72.091 Y33.367 E2.15365
G1 X72.438 Y33.205 E2.16444
G1 X72.589 Y33.158 E2.16888
G1 X73.017 Y33.092 E2.18109
G1 X76.003 Y33.092 E2.26514
G1 X76.432 Y33.158 E2.27736
G1 X76.582 Y33.205 E2.28180 F1200.000
G1 X76.930 Y33.367 E2.29258
G1 X78.857 Y34.604 E2.35707
G1 X79.147 Y34.850 E2.36777
G1 X81.015 Y36.919 E2.44624
G1 X105.663 Y65.820 E3.51558
G1 X106.670 Y67.247 E3.56472
G1 X106.795 Y67.463 E3.57177
G1 X107.475 Y68.922 E3.61706
G1 X107.561 Y69.157 E3.62411
G1 X107.949 Y70.604 E3.66630
G1 X108.021 Y70.957 E3.67644
G1 X108.161 Y72.560 E3.72173
G1 X108.162 Y72.798 E3.72843
G1 X105.969 Y100.652 E4.51499
G1 X105.845 Y102.060 E4.55478
G1 X105.802 Y102.306 E4.56183
G1 X105.422 Y103.720 E4.60304
G1 X95.365 Y135.608 E5.54433
G1 X94.595 Y136.481 E5.57708
G1 X93.904 Y136.799 E5.59850
G1 X93.295 Y136.930 E5.61604
G1 X76.572 Y136.830 E6.08683
G1 X75.984 Y136.700 E6.10379
G1 X75.369 Y136.419 E6.12283
G1 X74.596 Y135.544 E6.15570
G1 X64.578 Y103.719 E7.09498
G1 X64.198 Y102.306 E7.13616
G1 X64.155 Y102.060 E7.14321
G1 X64.031 Y100.652 E7.18300
G1 X61.838 Y72.798 E7.96956
G1 X61.839 Y72.560 E7.97626
G1 X61.992 Y70.853 E8.02451
G1 X66.393 Y43.669 E8.79974
G1 X66.787 Y41.610 E8.85876
G1 X67.668 Y37.575 E8.97504
G1 X67.971 Y36.986 E8.99370
G1 E6.99370 F1680.00000
G92 E0
G1 X73.270 Y97.558 F12000.000
G1 E2.00000 F1680.00000
G1 X73.460 Y97.542 E2.00497 F900.000
G1 X74.017 Y97.583 E2.01950
G1 X74.526 Y97.719 E2.03323
G1 X75.000 Y97.940 E2.04685
G1 X75.429 Y98.240 E2.06046
G1 X75.799 Y98.610 E2.07408
G1 X76.099 Y99.039 E2.08769
G1 X76.320 Y99.513 E2.10131
G1 X76.455 Y100.018 E2.11492
G1 X76.501 Y100.539 E2.12854
G1 X76.455 Y101.060 E2.14216
G1 X76.320 Y101.565 E2.15577
G1 X76.099 Y102.040 E2.16939
G1 X75.799 Y102.468 E2.18300
G1 X75.429 Y102.838 E2.19662
G1 X75.000 Y103.138 E2.21023
G1 X74.526 Y103.359 E2.22385
G1 X74.021 Y103.494 E2.23747
G1 X73.500 Y103.540 E2.25108
G1 X72.979 Y103.494 E2.26470
G1 X72.474 Y103.359 E2.27831
G1 X72.000 Y103.138 E2.29193
G1 X71.571 Y102.838 E2.30554
G1 X71.201 Y102.468 E2.31916
G1 X70.901 Y102.040 E2.33277
G1 X70.680 Y101.565 E2.34639
G1 X70.545 Y101.060 E2.36001
G1 X70.499 Y100.539 E2.37362
G1 X70.545 Y100.018 E2.38724
G1 X70.680 Y99.513 E2.40085
G1 X70.901 Y99.039 E2.41447
G1 X71.201 Y98.610 E2.42808
G1 X71.571 Y98.240 E2.44170
G1 X72.000 Y97.940 E2.45531
G1 X72.474 Y97.719 E2.46893
G1 X72.979 Y97.584 E2.48255
G1 X73.195 Y97.565 E2.48820 F900.000
G1 X73.230 Y97.967 F12000.000
G1 X73.463 Y97.946 E2.49427 F900.000
G1 X73.949 Y97.982 E2.50696
G1 X74.388 Y98.100 E2.51879
G1 X74.798 Y98.291 E2.53056
G1 X75.169 Y98.551 E2.54234
G1 X75.489 Y98.870 E2.55412
G1 X75.748 Y99.241 E2.56590
G1 X75.939 Y99.651 E2.57768
G1 X76.056 Y100.088 E2.58945
G1 X76.096 Y100.539 E2.60123
G1 X76.056 Y100.990 E2.61301
G1 X75.939 Y101.427 E2.62479
G1 X75.748 Y101.837 E2.63657
G1 X75.489 Y102.208 E2.64835
G1 X75.169 Y102.528 E2.66012
G1 X74.798 Y102.787 E2.67190
G1 X74.388 Y102.978 E2.68368
G1 X73.951 Y103.096 E2.69546
G1 X73.500 Y103.135 E2.70724
G1 X73.049 Y103.096 E2.71901
G1 X72.612 Y102.978 E2.73079
G1 X72.202 Y102.787 E2.74257
G1 X71.831 Y102.528 E2.75435
G1 X71.511 Y102.208 E2.76613
G1 X71.252 Y101.837 E2.77791
G1 X71.061 Y101.427 E2.78968
G1 X70.943 Y100.990 E2.80146
G1 X70.904 Y100.539 E2.81324
G1 X70.943 Y100.088 E2.82502
G1 X71.061 Y99.651 E2.83680
G1 X71.252 Y99.241 E2.84857
G1 X71.511 Y98.870 E2.86035
G1 X71.831 Y98.551 E2.87213
G1 X72.202 Y98.291 E2.88391
G1 X72.612 Y98.100 E2.89569
G1 X73.049 Y97.983 E2.90746
G1 X73.156 Y97.973 E2.91024 F900.000
G1 X73.329 Y97.755 F12000.000
G1 X80.012 Y97.106 F12000.000
G1 X80.436 Y98.015 E2.93634 F900.000
G1 X80.769 Y99.257 E2.96983
G1 X80.881 Y100.539 E3.00331
G1 X80.769 Y101.821 E3.03680
G1 X80.436 Y103.063 E3.07029
G1 X79.892 Y104.230 E3.10378
G1 X79.154 Y105.283 E3.13727
G1 X78.244 Y106.193 E3.17075
G1 X77.190 Y106.931 E3.20424
G1 X76.024 Y107.475 E3.23773
G1 X74.782 Y107.808 E3.27122
G1 X73.500 Y107.920 E3.30470
G1 X72.218 Y107.808 E3.33819
G1 X70.976 Y107.475 E3.37168
G1 X69.810 Y106.931 E3.40517
G1 X68.756 Y106.193 E3.43866
G1 X67.846 Y105.283 E3.47214
G1 X67.108 Y104.230 E3.50563
G1 X66.564 Y103.063 E3.53912
G1 X66.231 Y101.821 E3.57261
G1 X66.119 Y100.539 E3.60609
G1 X66.231 Y99.257 E3.63958
G1 X66.564 Y98.015 E3.67307
G1 X67.108 Y96.849 E3.70656
G1 X67.846 Y95.795 E3.74005
G1 X68.756 Y94.885 E3.77353
G1 X69.810 Y94.147 E3.80702
G1 X70.976 Y93.603 E3.84051
G1 X72.218 Y93.270 E3.87400
G1 X73.500 Y93.158 E3.90748
G1 X74.740 Y93.267 E3.93987
G1 X76.024 Y93.603 E3.97444 F900.000
G1 X77.190 Y94.147 E4.00793
G1 X78.244 Y94.885 E4.04142
G1 X79.154 Y95.795 E4.07491
G1 X79.892 Y96.849 E4.10839
G1 X79.980 Y97.038 E4.11384
G1 X80.346 Y96.868 F12000.000
G1 X80.816 Y97.876 E4.14280 F720.000
G1 X81.167 Y99.187 E4.17813
G1 X81.286 Y100.539 E4.21345
G1 X81.167 Y101.891 E4.24878
G1 X80.816 Y103.202 E4.28410
G1 X80.243 Y104.432 E4.31943
G1 X79.464 Y105.544 E4.35475
G1 X78.505 Y106.503 E4.39008
G1 X77.393 Y107.282 E4.42540
G1 X76.163 Y107.855 E4.46073
G1 X74.852 Y108.207 E4.49605
G1 X73.500 Y108.325 E4.53138
G1 X72.148 Y108.207 E4.56670
G1 X70.837 Y107.855 E4.60203
G1 X69.607 Y107.282 E4.63735
G1 X68.495 Y106.503 E4.67268
G1 X67.536 Y105.544 E4.70800
G1 X66.757 Y104.432 E4.74333
G1 X66.184 Y103.202 E4.77865
G1 X65.833 Y101.891 E4.81398
G1 X65.714 Y100.539 E4.84931
G1 X65.833 Y99.187 E4.88463
G1 X66.184 Y97.876 E4.91996
G1 X66.757 Y96.646 E4.95528
G1 X67.536 Y95.535 E4.99061
G1 X68.495 Y94.575 E5.02593
G1 X69.607 Y93.796 E5.06126
G1 X70.837 Y93.223 E5.09658
G1 X72.148 Y92.872 E5.13191
G1 X73.500 Y92.753 E5.16723
G1 X74.775 Y92.865 E5.20054
G1 X74.852 Y92.872 E5.20256 F720.000
G1 X76.163 Y93.223 E5.23788
G1 X77.393 Y93.796 E5.27321
G1 X78.505 Y94.575 E5.30853
G1 X79.464 Y95.535 E5.34386
G1 X80.243 Y96.646 E5.37918
G1 X80.314 Y96.800 E5.38359
G1 X80.059 Y97.277 F12000.000
G1 X79.980 Y97.670 F12000.000
G1 X76.369 Y94.059 E5.51973 F1200.000
G1 X77.865 Y94.971 F12000.000
G1 X79.068 Y96.174 E5.56509 F1200.000
G1 X80.339 Y98.613 F12000.000
G1 X75.429 Y93.703 E5.75021 F1200.000
G1 X74.637 Y93.496 E5.77204
G1 X80.550 Y99.409 E5.99497
G1 X80.606 Y100.049 E6.01211
G1 X73.990 Y93.433 E6.26155
G1 X73.360 Y93.387 E6.27839
G1 X80.652 Y100.679 E6.55331
G1 X80.605 Y101.216 E6.56769
G1 X72.823 Y93.434 E6.86109
G1 X72.285 Y93.481 E6.87547
G1 X80.558 Y101.754 E7.18736
G1 X80.449 Y102.229 E7.20035
G1 X71.810 Y93.591 E7.52602
G1 X71.350 Y93.714 E7.53874
G1 X80.325 Y102.689 E7.87713
G1 X80.187 Y103.136 E7.88959
G1 X76.581 Y99.530 E8.02554
G1 X76.706 Y100.239 E8.04474
G1 X80.001 Y103.534 E8.16897
G1 X79.815 Y103.933 E8.18070
G1 X76.694 Y100.811 E8.29839
G1 X76.601 Y101.303 E8.31173
G1 X79.606 Y104.308 E8.42503
G1 X79.365 Y104.652 E8.43621
G1 X76.454 Y101.740 E8.54600
G1 X76.264 Y102.134 E8.55767
G1 X79.125 Y104.995 E8.66554
G1 X78.845 Y105.299 E8.67656
G1 X76.023 Y102.478 E8.78294
G1 X75.746 Y102.785 E8.79398
G1 X78.552 Y105.592 E8.89977
G1 X78.260 Y105.884 E8.91079
G1 X75.439 Y103.062 E9.01717
G1 X75.095 Y103.303 E9.02835
G1 X77.956 Y106.164 E9.13622
G1 X77.612 Y106.405 E9.14741
G1 X74.700 Y103.493 E9.25719
G1 X74.264 Y103.640 E9.26948
G1 X77.269 Y106.645 E9.38278
G1 X76.894 Y106.855 E9.39423
G1 X73.772 Y103.733 E9.51192
G1 X73.200 Y103.745 E9.52717
G1 X76.495 Y107.040 E9.65140
G1 X76.097 Y107.226 E9.66313
G1 X72.491 Y103.620 E9.79908
G1 X70.419 Y101.548 F12000.000
G1 X66.813 Y97.942 E9.93503 F1200.000
G1 X66.999 Y97.544 E9.94675
G1 X70.294 Y100.839 E10.07098
G1 X70.306 Y100.267 E10.08623
G1 X67.185 Y97.145 E10.20393
G1 X67.394 Y96.770 E10.21538
G1 X70.399 Y99.775 E10.32867
G1 X70.546 Y99.339 E10.34096
G1 X67.635 Y96.427 E10.45075
G1 X67.875 Y96.083 E10.46193
G1 X70.736 Y98.944 E10.56980
G1 X70.977 Y98.600 E10.58099
G1 X68.155 Y95.779 E10.68737
G1 X68.447 Y95.487 E10.69839
G1 X71.254 Y98.293 E10.80418
G1 X71.561 Y98.016 E10.81521
G1 X68.740 Y95.194 E10.92159
G1 X69.044 Y94.914 E10.93262
G1 X71.905 Y97.775 E11.04049
G1 X72.299 Y97.586 E11.05216
G1 X69.388 Y94.674 E11.16194
G1 X69.731 Y94.433 E11.17313
G1 X72.736 Y97.438 E11.28642
G1 X73.228 Y97.345 E11.29976
G1 X70.106 Y94.224 E11.41746
G1 X70.505 Y94.038 E11.42918
G1 X73.804 Y97.337 E11.55357
G1 X74.509 Y97.458 E11.57265
G1 X70.903 Y93.852 E11.70860
G1 X66.675 Y98.389 F12000.000
G1 X75.650 Y107.364 E12.04699 F1200.000
G1 X75.189 Y107.488 E12.05971
G1 X66.551 Y98.850 E12.38538
G1 X66.443 Y99.325 E12.39838
G1 X74.709 Y107.591 E12.71002
G1 X74.174 Y107.641 E12.72434
G1 X66.398 Y99.865 E13.01749
G1 X66.354 Y100.405 E13.03194
G1 X73.639 Y107.691 E13.30661
G1 X73.010 Y107.646 E13.32343
G1 X66.394 Y101.029 E13.57288
G1 X66.450 Y101.670 E13.59002
G1 X72.370 Y107.590 E13.81321
G1 X71.574 Y107.379 E13.83514
G1 X66.661 Y102.465 E14.02040
G1 X67.020 Y103.408 F12000.000
G1 X70.631 Y107.019 E14.15654 F1200.000
G1 X69.135 Y106.108 F12000.000
G1 X67.932 Y104.905 E14.20189 F1200.000
G1 E12.20189 F1680.00000
G92 E0
G1 X93.545 Y101.060 F12000.000
G1 E2.00000 F1680.00000
G1 X93.499 Y100.537 E2.01368 F900.000
G1 X93.550 Y99.997 E2.02778
G1 X93.680 Y99.513 E2.04084
G1 X93.901 Y99.039 E2.05446
G1 X94.201 Y98.610 E2.06807
G1 X94.571 Y98.240 E2.08169
G1 X95.000 Y97.940 E2.09530
G1 X95.482 Y97.715 E2.10914
G1 X96.061 Y97.577 E2.12465
G1 X96.500 Y97.538 E2.13613 F900.000
G1 X97.021 Y97.584 E2.14974
G1 X97.526 Y97.719 E2.16336
G1 X98.000 Y97.940 E2.17697
G1 X98.429 Y98.240 E2.19059
G1 X98.799 Y98.610 E2.20420
G1 X99.099 Y99.039 E2.21782
G1 X99.320 Y99.513 E2.23143
G1 X99.455 Y100.018 E2.24505
G1 X99.501 Y100.539 E2.25866
G1 X99.455 Y101.060 E2.27228
G1 X99.319 Y101.568 E2.28596
G1 X99.087 Y102.057 E2.30006
G1 X98.799 Y102.468 E2.31312
G1 X98.429 Y102.838 E2.32674
G1 X98.000 Y103.138 E2.34035
G1 X97.526 Y103.359 E2.35397
G1 X97.021 Y103.494 E2.36758
G1 X96.500 Y103.540 E2.38120
G1 X95.979 Y103.494 E2.39481
G1 X95.471 Y103.358 E2.40850
G1 X94.982 Y103.126 E2.42260
G1 X94.571 Y102.838 E2.43565
G1 X94.201 Y102.468 E2.44927
G1 X93.901 Y102.040 E2.46288
G1 X93.680 Y101.565 E2.47650
G1 X93.564 Y101.133 E2.48816
G1 X93.954 Y101.028 F12000.000
G1 X93.904 Y100.538 E2.50099 F900.000
G1 X93.949 Y100.069 E2.51325
G1 X94.061 Y99.651 E2.52451
G1 X94.252 Y99.241 E2.53629
G1 X94.511 Y98.870 E2.54807
G1 X94.831 Y98.551 E2.55984
G1 X95.202 Y98.291 E2.57162
G1 X95.615 Y98.098 E2.58349
G1 X96.126 Y97.976 E2.59715
G1 X96.500 Y97.943 E2.60693 F900.000
G1 X96.951 Y97.983 E2.61871
G1 X97.388 Y98.100 E2.63049
G1 X97.798 Y98.291 E2.64227
G1 X98.169 Y98.551 E2.65405
G1 X98.489 Y98.870 E2.66582
G1 X98.748 Y99.241 E2.67760
G1 X98.939 Y99.651 E2.68938
G1 X99.056 Y100.088 E2.70116
G1 X99.096 Y100.539 E2.71294
G1 X99.056 Y100.990 E2.72471
G1 X98.939 Y101.428 E2.73652
G1 X98.737 Y101.853 E2.74878
G1 X98.489 Y102.208 E2.76004
G1 X98.169 Y102.528 E2.77182
G1 X97.798 Y102.787 E2.78360
G1 X97.388 Y102.978 E2.79538
G1 X96.951 Y103.096 E2.80715
G1 X96.500 Y103.135 E2.81893
G1 X96.049 Y103.096 E2.83071
G1 X95.611 Y102.978 E2.84251
G1 X95.186 Y102.776 E2.85478
G1 X94.831 Y102.528 E2.86604
G1 X94.511 Y102.208 E2.87782
G1 X94.252 Y101.837 E2.88959
G1 X94.061 Y101.427 E2.90137
G1 X93.973 Y101.101 E2.91017
G1 X93.494 Y100.851 F12000.000
G1 X91.002 Y105.439 F12000.000
G1 X90.846 Y105.283 E2.91590 F900.000
G1 X90.108 Y104.230 E2.94939
G1 X89.564 Y103.063 E2.98288
G1 X89.231 Y101.821 E3.01637
G1 X89.119 Y100.539 E3.04985
G1 X89.231 Y99.257 E3.08334
G1 X89.564 Y98.015 E3.11683
G1 X90.108 Y96.849 E3.15032
G1 X90.846 Y95.795 E3.18381
G1 X91.756 Y94.885 E3.21729
G1 X92.810 Y94.147 E3.25078
G1 X93.976 Y93.603 E3.28427
G1 X95.218 Y93.270 E3.31776
G1 X96.500 Y93.158 E3.35124
G1 X97.740 Y93.267 E3.38363
G1 X99.024 Y93.603 E3.41820 F900.000
G1 X100.190 Y94.147 E3.45169
G1 X101.244 Y94.885 E3.48518
G1 X102.154 Y95.795 E3.51867
G1 X102.892 Y96.849 E3.55215
G1 X103.436 Y98.015 E3.58564
G1 X103.769 Y99.257 E3.61913
G1 X103.881 Y100.539 E3.65262
G1 X103.769 Y101.821 E3.68611
G1 X103.436 Y103.063 E3.71959
G1 X102.892 Y104.230 E3.75308
G1 X102.154 Y105.283 E3.78657
G1 X101.244 Y106.193 E3.82006
G1 X100.190 Y106.931 E3.85355
G1 X99.024 Y107.475 E3.88703
G1 X97.782 Y107.808 E3.92052
G1 X96.500 Y107.920 E3.95401
G1 X95.218 Y107.808 E3.98750
G1 X93.976 Y107.475 E4.02098
G1 X92.810 Y106.931 E4.05447
G1 X91.756 Y106.193 E4.08796
G1 X91.055 Y105.492 E4.11376
G1 X90.770 Y105.778 F12000.000
G1 X90.536 Y105.544 E4.12237 F720.000
G1 X89.757 Y104.432 E4.15769
G1 X89.184 Y103.202 E4.19302
G1 X88.833 Y101.891 E4.22834
G1 X88.714 Y100.539 E4.26367
G1 X88.833 Y99.187 E4.29899
G1 X89.184 Y97.876 E4.33432
G1 X89.757 Y96.646 E4.36964
G1 X90.536 Y95.535 E4.40497
G1 X91.495 Y94.575 E4.44029
G1 X92.607 Y93.796 E4.47562
G1 X93.837 Y93.223 E4.51094
G1 X95.148 Y92.872 E4.54627
G1 X96.500 Y92.753 E4.58159
G1 X97.775 Y92.865 E4.61490
G1 X97.852 Y92.872 E4.61692 F720.000
G1 X99.163 Y93.223 E4.65224
G1 X100.393 Y93.796 E4.68757
G1 X101.505 Y94.575 E4.72289
G1 X102.464 Y95.535 E4.75822
G1 X103.243 Y96.646 E4.79354
G1 X103.816 Y97.876 E4.82887
G1 X104.167 Y99.187 E4.86420
G1 X104.286 Y100.539 E4.89952
G1 X104.167 Y101.891 E4.93485
G1 X103.816 Y103.202 E4.97017
G1 X103.243 Y104.432 E5.00550
G1 X102.464 Y105.544 E5.04082
G1 X101.505 Y106.503 E5.07615
G1 X100.393 Y107.282 E5.11147
G1 X99.163 Y107.855 E5.14680
G1 X97.852 Y108.207 E5.18212
G1 X96.500 Y108.325 E5.21745
G1 X95.148 Y108.207 E5.25277
G1 X93.837 Y107.855 E5.28810
G1 X92.607 Y107.282 E5.32342
G1 X91.495 Y106.503 E5.35875
G1 X90.823 Y105.831 E5.38351
G1 X90.855 Y105.458 F12000.000
G1 X90.932 Y104.904 F12000.000
G1 X92.135 Y106.108 E5.42887 F1200.000
G1 X93.631 Y107.019 F12000.000
G1 X90.020 Y103.408 E5.56501 F1200.000
G1 X89.661 Y102.465 F12000.000
G1 X94.574 Y107.379 E5.75026 F1200.000
G1 X95.370 Y107.590 E5.77220
G1 X89.450 Y101.670 E5.99539
G1 X89.394 Y101.029 E6.01253
G1 X96.010 Y107.646 E6.26197
G1 X96.640 Y107.691 E6.27881
G1 X89.348 Y100.399 E6.55373
G1 X89.395 Y99.862 E6.56811
G1 X97.177 Y107.644 E6.86151
G1 X97.715 Y107.597 E6.87589
G1 X89.442 Y99.325 E7.18778
G1 X89.551 Y98.850 E7.20077
G1 X98.189 Y107.488 E7.52644
G1 X98.650 Y107.364 E7.53916
G1 X89.675 Y98.389 E7.87755
G1 X93.419 Y101.548 F12000.000
G1 X89.813 Y97.942 E8.01350 F1200.000
G1 X89.999 Y97.544 E8.02523
G1 X93.294 Y100.839 E8.14946
G1 X93.308 Y100.269 E8.16466
G1 X90.185 Y97.145 E8.28243
G1 X90.394 Y96.770 E8.29388
G1 X93.399 Y99.775 E8.40717
G1 X93.546 Y99.339 E8.41946
G1 X90.635 Y96.427 E8.52925
G1 X90.875 Y96.083 E8.54043
G1 X93.736 Y98.944 E8.64830
G1 X93.977 Y98.600 E8.65948
G1 X91.155 Y95.779 E8.76587
G1 X91.447 Y95.487 E8.77688
G1 X94.254 Y98.293 E8.88268
G1 X94.561 Y98.016 E8.89371
G1 X91.740 Y95.194 E9.00009
G1 X92.044 Y94.914 E9.01111
G1 X94.905 Y97.775 E9.11898
G1 X95.299 Y97.586 E9.13065
G1 X92.388 Y94.674 E9.24044
G1 X92.731 Y94.433 E9.25162
G1 X95.741 Y97.442 E9.36508
G1 X96.228 Y97.345 E9.37833
G1 X93.106 Y94.224 E9.49603
G1 X93.505 Y94.038 E9.50775
G1 X96.800 Y97.333 E9.63198
G1 X97.509 Y97.458 E9.65118
G1 X93.903 Y93.852 E9.78714
