; generated by Slic3r 0.9.9 on 2013-04-11 at 01:42:03

; layer_height = 0.3
; perimeters = 2
; top_solid_layers = 3
; bottom_solid_layers = 3
; fill_density = 0.5
; perimeter_speed = 30
; infill_speed = 30
; travel_speed = 130
; nozzle_diameter = 0.5
; filament_diameter = 3
; extrusion_multiplier = 0.85
; perimeters extrusion width = 0.70mm
; infill extrusion width = 0.70mm
; solid infill extrusion width = 0.70mm
; top infill extrusion width = 0.70mm
; support material extrusion width = 0.70mm
; first layer extrusion width = 1.00mm

G21 ; set units to millimeters
M107
M190 S85 ; wait for bed temperature to be reached
M104 S225 ; set temperature
G28 ; home all axes
G1 Z5 F1000 ; lift nozzle
M109 S225 ; wait for temperature to be reached
G90 ; use absolute coordinates
G92 E0
M82 ; use absolute distances for extrusion
G1 F1800.000 E-2.00000
G92 E0
G1 Z0.500 F7800.000
G1 X82.643 Y87.791
G1 F1800.000 E2.00000
G1 X83.303 Y87.271 F600.000 E2.04510
G1 X83.773 Y86.971 E2.07503
G1 X84.273 Y86.711 E2.10527
G1 X84.783 Y86.491 E2.13509
G1 X85.313 Y86.311 E2.16513
G1 X85.853 Y86.181 E2.19494
G1 X86.403 Y86.091 E2.22485
G1 X86.963 Y86.041 E2.25503
G1 X112.943 Y86.041 E3.64947
G1 X113.753 Y86.121 E3.69316
G1 X114.553 Y86.301 E3.73717
G1 X115.323 Y86.571 E3.78097
G1 X115.813 Y86.791 E3.80980
G1 X116.053 Y86.921 E3.82445
G1 X116.743 Y87.361 E3.86837
G1 X117.163 Y87.701 E3.89738
G1 X117.563 Y88.071 E3.92662
G1 X118.103 Y88.681 E3.97035
G1 X118.423 Y89.121 E3.99955
G1 X118.703 Y89.591 E4.02892
G1 X118.833 Y89.831 E4.04357
G1 X121.383 Y95.431 E4.37383
G1 X121.613 Y95.991 E4.40633
G1 X122.243 Y97.771 E4.50767
G1 X122.433 Y98.411 E4.54351
G1 X122.503 Y98.731 E4.56109
G1 X122.603 Y99.391 E4.59692
G1 X122.723 Y101.841 E4.72858
G1 X122.723 Y102.161 E4.74575
G1 X122.663 Y102.811 E4.78079
G1 X122.613 Y103.131 E4.79817
G1 X122.123 Y105.221 E4.91339
G1 X121.963 Y105.801 E4.94568
G1 X121.753 Y106.351 E4.97728
G1 X120.633 Y108.681 E5.11604
G1 X120.333 Y109.191 E5.14780
G1 X119.983 Y109.671 E5.17969
G1 X119.603 Y110.121 E5.21130
G1 X119.183 Y110.541 E5.24318
G1 X118.723 Y110.921 E5.27520
G1 X115.923 Y112.871 E5.45834
G1 X115.423 Y113.191 E5.49021
G1 X115.163 Y113.331 E5.50606
G1 X114.343 Y113.691 E5.55412
G1 X114.053 Y113.791 E5.57059
G1 X113.473 Y113.941 E5.60274
G1 X113.183 Y114.001 E5.61864
G1 X112.593 Y114.081 E5.65060
G1 X112.293 Y114.101 E5.66673
G1 X92.743 Y114.101 E6.71605
G1 X92.103 Y114.041 E6.75056
G1 X91.473 Y113.921 E6.78498
G1 X83.953 Y112.141 E7.19976
G1 X83.413 Y111.991 E7.22984
G1 X82.893 Y111.791 E7.25974
G1 X82.383 Y111.561 E7.28977
G1 X81.893 Y111.281 E7.32006
G1 X81.433 Y110.971 E7.34984
G1 X81.003 Y110.611 E7.37994
G1 X80.593 Y110.231 E7.40994
G1 X80.223 Y109.811 E7.43998
G1 X79.883 Y109.361 E7.47026
G1 X79.583 Y108.891 E7.50018
G1 X78.383 Y106.811 E7.62907
G1 X78.103 Y106.211 E7.66461
G1 X77.893 Y105.581 E7.70025
G1 X77.373 Y103.481 E7.81637
G1 X77.303 Y103.171 E7.83343
G1 X77.213 Y102.541 E7.86759
G1 X77.183 Y101.591 E7.91860
G1 X77.273 Y99.471 E8.03249
G1 X77.363 Y98.801 E8.06878
G1 X77.523 Y98.151 E8.10471
G1 X78.233 Y96.061 E8.22318
G1 X78.503 Y95.391 E8.26195
G1 X81.113 Y89.771 E8.59454
G1 X81.543 Y89.051 E8.63955
G1 X81.703 Y88.831 E8.65416
G1 X82.053 Y88.391 E8.68433
G1 X82.548 Y87.886 E8.72231
G1 F1800.000 E6.72231
G92 E0
G1 X106.177 Y92.935 F7800.000
G1 F1800.000 E2.00000
G1 X112.677 Y92.935 F646.502 E2.34889
G1 X113.026 Y94.721 E2.44653
G1 X105.829 Y94.721 E2.83281
G1 X105.106 Y96.506 E2.93619
G1 X113.765 Y96.506 E3.40093
G1 X115.122 Y98.292 E3.52129
G1 X111.967 Y98.292 E3.69059
G1 X113.130 Y100.077 E3.80497
G1 X115.746 Y100.077 E3.94535
G1 X115.840 Y101.862 E4.04131
G1 X113.284 Y101.862 E4.17849
G1 X112.519 Y103.648 E4.28274
G1 X115.422 Y103.648 E4.43852
G1 X114.562 Y105.433 E4.54488
G1 X111.998 Y105.433 E4.68247
G1 X111.999 Y107.219 E4.77830
G1 F1800.000 E2.77830
G92 E0
G1 X104.479 Y105.433 F7800.000
G1 F1800.000 E2.00000
G1 X106.856 Y105.433 F646.502 E2.12761
G1 X106.283 Y103.648 E2.22825
G1 X103.431 Y103.648 E2.38135
G1 X103.000 Y101.862 E2.47993
G1 X105.544 Y101.862 E2.61646
G1 X105.673 Y100.077 E2.71254
G1 X103.073 Y100.077 E2.85214
G1 X103.687 Y98.292 E2.95348
G1 X106.922 Y98.292 E3.12714
G1 F1800.000 E1.12714
G92 E0
G1 X99.960 Y99.782 F7800.000
G1 X99.644 Y104.032
G1 X98.253 Y106.848
G1 X94.379 Y109.976
G1 X93.393 Y110.236
G1 X93.071 Y107.219
G1 F1800.000 E2.00000
G1 X93.071 Y105.433 F600.000 E2.09583
G1 X95.635 Y105.433 E2.23342
G1 X96.494 Y103.648 E2.33978
G1 X93.592 Y103.648 E2.49556
G1 X94.357 Y101.862 E2.59981
G1 X96.913 Y101.862 E2.73699
G1 X96.819 Y100.077 E2.83295
G1 X94.203 Y100.077 E2.97334
G1 X93.040 Y98.292 E3.08771
G1 X96.194 Y98.292 E3.25702
G1 X94.837 Y96.506 E3.37737
G1 X86.179 Y96.506 E3.84211
G1 X86.902 Y94.721 E3.94549
G1 X94.098 Y94.721 E4.33178
G1 X93.750 Y92.935 E4.42941
G1 X87.250 Y92.935 E4.77830
G1 F1800.000 E2.77830
G92 E0
G1 X87.995 Y98.292 F7800.000
G1 F1800.000 E2.00000
G1 X84.759 Y98.292 F600.000 E2.17367
G1 X84.145 Y100.077 E2.27500
G1 X86.746 Y100.077 E2.41460
G1 X86.616 Y101.862 E2.51068
G1 X84.073 Y101.862 E2.64721
G1 X84.504 Y103.648 E2.74579
G1 X87.356 Y103.648 E2.89889
G1 X87.929 Y105.433 E2.99953
G1 X85.551 Y105.433 E3.12714
M106 S255
M104 S220 ; set temperature
M140 S80 ; set bed temperature
G1 F1800.000 E1.12714
G92 E0
G1 Z0.600 F7800.000
G1 X81.817 Y105.368
G1 X85.892 Y109.759
G1 X93.393 Y110.236
G1 X94.379 Y109.976
G1 X100.744 Y105.368
G1 X103.348 Y102.198
G1 F1800.000 E2.00000
G1 X103.348 Y100.365 F600.000 E2.01443
G1 X105.848 Y98.994 E2.03687
G1 X105.848 Y96.360 E2.05760
G1 X108.348 Y97.149 E2.07823
G1 X108.348 Y93.130 E2.10987
G1 X110.848 Y93.130 E2.12954
G1 X110.848 Y97.294 E2.16232
G1 X113.348 Y96.570 E2.18280
G1 X113.348 Y99.505 E2.20591
G1 F1800.000 E0.20591
G92 E0
G1 X113.348 Y103.057 F7800.000
G1 F1800.000 E2.00000
G1 X113.348 Y106.199 F600.000 E2.02473
G1 F1800.000 E0.02473
G92 E0
G1 X105.848 Y106.203 F7800.000
G1 F1800.000 E2.00000
G1 X105.848 Y103.569 F600.000 E2.02073
G1 F1800.000 E0.02073
G92 E0
G1 Z0.800 F7800.000
G1 X105.848 Y103.569
G1 F1800.000 E2.00000
G1 X105.848 Y106.203 F600.000 E2.06219
G1 F1800.000 E0.06219
G92 E0
G1 X103.348 Y102.198 F7800.000
G1 F1800.000 E2.00000
G1 X103.348 Y100.365 F600.000 E2.04328
G1 X105.848 Y98.994 E2.11060
G1 X105.848 Y96.360 E2.17279
G1 X108.348 Y97.149 E2.23469
G1 X108.348 Y93.130 E2.32960
G1 X110.848 Y93.130 E2.38863
G1 X110.848 Y97.294 E2.48695
G1 X113.348 Y96.570 E2.54841
G1 X113.348 Y99.505 E2.61773
G1 F1800.000 E0.61773
G92 E0
G1 X113.348 Y103.057 F7800.000
G1 F1800.000 E2.00000
G1 X113.348 Y106.199 F600.000 E2.07419
M104 S220 ; set temperature
M140 S80 ; set bed temperature
G1 F1800.000 E0.07419
G92 E0
G1 Z0.600 F7800.000
G1 X113.306 Y109.976
G1 X112.321 Y110.236
G1 X94.379 Y109.976
G1 X94.421 Y106.199
G1 F1800.000 E2.00000
G1 X94.421 Y103.057 F600.000 E2.02473
G1 F1800.000 E0.02473
G92 E0
G1 X94.421 Y99.505 F7800.000
G1 F1800.000 E2.00000
G1 X94.421 Y96.570 F600.000 E2.02311
G1 X91.921 Y97.294 E2.04359
G1 X91.921 Y93.130 E2.07637
G1 X89.421 Y93.130 E2.09604
G1 X89.421 Y97.149 E2.12768
G1 X86.921 Y96.360 E2.14831
G1 X86.921 Y98.994 E2.16904
G1 X84.421 Y100.365 E2.19148
G1 X84.421 Y102.198 E2.20591
G1 F1800.000 E0.20591
G92 E0
G1 X86.921 Y103.569 F7800.000
G1 F1800.000 E2.00000
G1 X86.921 Y106.203 F600.000 E2.02073
G1 F1800.000 E0.02073
G92 E0
G1 Z0.800 F7800.000
G1 X86.921 Y106.203
G1 F1800.000 E2.00000
G1 X86.921 Y103.569 F600.000 E2.06219
G1 F1800.000 E0.06219
G92 E0
G1 X84.421 Y102.198 F7800.000
G1 F1800.000 E2.00000
G1 X84.421 Y100.365 F600.000 E2.04328
G1 X86.921 Y98.994 E2.11060
G1 X86.921 Y96.360 E2.17279
G1 X89.421 Y97.149 E2.23469
G1 X89.421 Y93.130 E2.32960
G1 X91.921 Y93.130 E2.38863
G1 X91.921 Y97.294 E2.48695
G1 X94.421 Y96.570 E2.54841
G1 X94.421 Y99.505 E2.61773
G1 F1800.000 E0.61773
G92 E0
G1 X94.421 Y103.057 F7800.000
G1 F1800.000 E2.00000
G1 X94.421 Y106.199 F600.000 E2.07419
G1 F1800.000 E0.07419
G92 E0
G1 Z1.100 F7800.000
G1 X94.379 Y109.976
G1 X98.253 Y106.848
G1 X99.644 Y104.032
G1 X99.960 Y99.782
G1 X106.622 Y97.305
G1 F1800.000 E2.00000
G1 X106.271 Y96.833 F600.000 E2.01390
G1 X107.159 Y96.125 E2.04071
G1 X107.159 Y93.763 E2.09647
G1 X111.696 Y93.763 E2.20358
G1 X111.696 Y96.938 E2.27854
G1 X110.031 Y96.307 E2.32057
G1 X107.650 Y96.596 E2.37720
G1 X106.703 Y97.250 E2.40438
G1 X107.794 Y97.292 F7800.000
G1 X106.181 Y98.405 F600.000 E2.45064
G1 X105.216 Y100.243 E2.49965
G1 X105.216 Y102.319 E2.54866
G1 X106.181 Y104.157 E2.59768
G1 X106.529 Y104.398 E2.60766
G1 X106.529 Y106.772 E2.66373
G1 X104.905 Y105.477 E2.71277
G1 X103.869 Y103.958 E2.75619
G1 X103.327 Y102.201 E2.79961
G1 X103.327 Y100.362 E2.84303
G1 X103.869 Y98.605 E2.88644
G1 X104.905 Y97.085 E2.92986
G1 X106.505 Y95.810 E2.97817
G1 X106.505 Y93.109 E3.04194
G1 X112.350 Y93.109 E3.17996
G1 X112.350 Y95.925 E3.24646
G1 X113.274 Y96.458 E3.27164
G1 X114.525 Y97.806 E3.31506
G1 X115.322 Y99.463 E3.35848
G1 X115.596 Y101.281 E3.40190
G1 X115.322 Y103.100 E3.44531
G1 X114.525 Y104.757 E3.48873
G1 X113.274 Y106.105 E3.53215
G1 X112.326 Y106.652 E3.55800
G1 X112.326 Y104.360 E3.61211
G1 X113.268 Y103.297 E3.64564
G1 X113.764 Y101.281 E3.69466
G1 X113.268 Y99.266 E3.74367
G1 X111.891 Y97.712 E3.79268
G1 X109.950 Y96.976 E3.84170
G1 X107.874 Y97.237 E3.89109
G1 X107.252 Y96.925 F7800.000
G1 X107.634 Y96.120
M106 S255
G1 X108.129 Y96.060 F3600.000 E3.90287
G1 X107.634 Y95.564 E3.91941
G1 X107.634 Y95.009 E3.93253
G1 X108.624 Y96.000 E3.96561
G1 X109.119 Y95.940 E3.97739
G1 X107.634 Y94.454 E4.02700
G1 X107.973 Y94.238 E4.03650
G1 X109.615 Y95.880 E4.09132
G1 X110.126 Y95.835 E4.10344
G1 X108.528 Y94.238 E4.15678
G1 X109.083 Y94.238 E4.16990
G1 X111.020 Y96.174 E4.23457
G1 X111.221 Y95.820 E4.24419
G1 X109.639 Y94.238 E4.29703
G1 X110.194 Y94.238 E4.31015
G1 X111.221 Y95.265 E4.34445
G1 X111.221 Y94.709 E4.35756
G1 X110.749 Y94.238 E4.37331
G1 X112.177 Y93.281 F7800.000
M106 S255
G1 X103.517 Y100.391
G1 X106.356 Y104.376
G1 X105.536 Y104.893
G1 X104.367 Y102.212 F600.000 E4.48615
G1 X104.177 Y102.022 E4.49650
G1 X104.367 Y100.700 E4.54803
G1 X104.177 Y100.510 E4.55839
G1 X104.658 Y99.479 E4.60228
G1 X104.529 Y99.350 E4.60933
G1 X105.178 Y98.487 E4.65099
G1 X105.059 Y98.368 E4.65750
G1 X105.723 Y97.520 E4.69905
G1 X105.064 Y97.180 F7800.000
G1 X109.972 Y96.799
G1 X112.054 Y97.589
G1 X115.404 Y101.281
G1 X112.499 Y104.350
G1 X113.176 Y104.961
G1 X113.864 Y104.170 F600.000 E4.73858
G1 X113.739 Y104.046 E4.74522
G1 X114.344 Y103.172 E4.78530
G1 X114.207 Y103.035 E4.79261
G1 X114.632 Y101.981 E4.83548
G1 X114.500 Y101.849 E4.84252
G1 X114.618 Y100.488 E4.89404
G1 X114.387 Y100.258 E4.90632
G1 X112.738 Y97.130 E5.03972
G1 F1800.000 E3.03972
G92 E0
G1 X118.579 Y98.590 F7800.000
G1 X114.786 Y90.156
G1 X104.634 Y89.727
G1 X99.652 Y98.590
G1 X92.768 Y96.938
G1 F1800.000 E2.00000
G1 X91.104 Y96.307 F600.000 E2.04203
G1 X88.723 Y96.596 E2.09866
G1 X87.695 Y97.305 E2.12815
G1 X87.344 Y96.833 E2.14205
G1 X88.232 Y96.125 E2.16886
G1 X88.232 Y93.763 E2.22462
G1 X92.768 Y93.763 E2.33173
G1 X92.768 Y96.840 E2.40438
G1 X92.855 Y97.671 F7800.000
G1 X91.023 Y96.976 F600.000 E2.45064
G1 X88.962 Y97.226 E2.49965
G1 X87.254 Y98.405 E2.54866
G1 X86.289 Y100.243 E2.59768
G1 X86.289 Y102.319 E2.64669
G1 X87.254 Y104.157 E2.69570
G1 X87.602 Y104.398 E2.70568
G1 X87.602 Y106.772 E2.76176
G1 X85.978 Y105.477 E2.81080
G1 X84.942 Y103.958 E2.85421
G1 X84.400 Y102.201 E2.89763
G1 X84.400 Y100.362 E2.94105
G1 X84.942 Y98.605 E2.98447
G1 X85.978 Y97.085 E3.02789
G1 X87.577 Y95.810 E3.07619
G1 X87.577 Y93.109 E3.13997
G1 X93.423 Y93.109 E3.27799
G1 X93.423 Y95.925 E3.34449
G1 X94.346 Y96.458 E3.36967
G1 X95.597 Y97.806 E3.41309
G1 X96.395 Y99.463 E3.45650
G1 X96.669 Y101.281 E3.49992
G1 X96.395 Y103.100 E3.54334
G1 X95.597 Y104.757 E3.58676
G1 X94.346 Y106.105 E3.63018
G1 X93.398 Y106.652 E3.65602
G1 X93.398 Y104.360 E3.71013
G1 X94.340 Y103.297 E3.74367
G1 X94.837 Y101.281 E3.79268
G1 X94.340 Y99.266 E3.84170
G1 X92.947 Y97.706 E3.89109
G1 X92.849 Y97.016 F7800.000
G1 X91.822 Y94.238
M106 S255
G1 X92.294 Y94.709 F3600.000 E3.90685
G1 X92.294 Y95.265 E3.91996
G1 X91.267 Y94.238 E3.95426
G1 X90.711 Y94.238 E3.96737
G1 X92.294 Y95.820 E4.02021
G1 X92.093 Y96.174 E4.02983
G1 X90.156 Y94.238 E4.09451
G1 X89.601 Y94.238 E4.10762
G1 X91.198 Y95.835 E4.16097
G1 X90.687 Y95.880 E4.17308
G1 X89.045 Y94.238 E4.22791
G1 X88.706 Y94.454 E4.23741
G1 X90.192 Y95.940 E4.28702
G1 X89.697 Y96.000 E4.29880
G1 X88.706 Y95.009 E4.33188
G1 X88.706 Y95.564 E4.34499
G1 X89.202 Y96.060 E4.36153
G1 X88.706 Y96.120 E4.37331
G1 X88.833 Y97.068 F7800.000
M106 S255
G1 X84.590 Y100.391
G1 X87.429 Y104.376
G1 X86.608 Y104.893
G1 X85.439 Y102.212 F600.000 E4.48615
G1 X85.250 Y102.022 E4.49650
G1 X85.439 Y100.700 E4.54803
G1 X85.250 Y100.510 E4.55839
G1 X85.731 Y99.479 E4.60228
G1 X85.601 Y99.350 E4.60933
G1 X86.251 Y98.487 E4.65099
G1 X86.132 Y98.368 E4.65750
G1 X86.796 Y97.520 E4.69905
G1 X86.136 Y97.180 F7800.000
G1 X91.044 Y96.799
G1 X93.127 Y97.589
G1 X96.477 Y101.281
G1 X93.571 Y104.350
G1 X94.248 Y104.961
G1 X94.936 Y104.170 F600.000 E4.73858
G1 X94.812 Y104.046 E4.74522
G1 X95.417 Y103.172 E4.78530
G1 X95.280 Y103.035 E4.79261
G1 X95.704 Y101.981 E4.83548
G1 X95.572 Y101.849 E4.84252
G1 X95.690 Y100.488 E4.89404
G1 X95.460 Y100.258 E4.90632
G1 X93.810 Y97.130 E5.03972
G1 F1800.000 E3.03972
G92 E0
G1 Z1.400 F7800.000
G1 X99.652 Y98.590
G1 X99.960 Y99.782
G1 X106.272 Y96.833
G1 F1800.000 E2.00000
G1 X107.159 Y96.125 F600.000 E2.02680
G1 X107.159 Y93.763 E2.08257
G1 X111.696 Y93.763 E2.18968
G1 X111.696 Y96.938 E2.26464
G1 X110.031 Y96.307 E2.30667
G1 X107.650 Y96.596 E2.36330
G1 X106.622 Y97.305 E2.39279
G1 X106.330 Y96.912 E2.40437
G1 X106.296 Y95.976 F7800.000
G1 X106.505 Y95.810 F600.000 E2.41067
G1 X106.505 Y93.109 E2.47445
G1 X112.350 Y93.109 E2.61246
G1 X112.350 Y95.925 E2.67896
G1 X113.274 Y96.458 E2.70414
G1 X114.525 Y97.806 E2.74756
G1 X115.322 Y99.463 E2.79098
G1 X115.596 Y101.281 E2.83440
G1 X115.322 Y103.100 E2.87782
G1 X114.525 Y104.757 E2.92123
G1 X113.274 Y106.105 E2.96465
G1 X112.326 Y106.652 E2.99050
G1 X112.326 Y104.360 E3.04461
G1 X113.268 Y103.297 E3.07814
G1 X113.764 Y101.281 E3.12716
G1 X113.268 Y99.266 E3.17617
G1 X111.891 Y97.712 E3.22518
G1 X109.950 Y96.976 E3.27420
G1 X107.889 Y97.226 E3.32321
G1 X106.181 Y98.405 E3.37222
G1 X105.216 Y100.243 E3.42124
G1 X105.216 Y102.319 E3.47025
G1 X106.181 Y104.157 E3.51926
G1 X106.529 Y104.398 E3.52924
G1 X106.529 Y106.772 E3.58532
G1 X104.905 Y105.477 E3.63436
G1 X103.869 Y103.958 E3.67777
G1 X103.852 Y103.901 E3.67918
G1 X103.327 Y102.201 E3.72119
G1 X103.327 Y100.362 E3.76461
G1 X103.869 Y98.605 E3.80803
G1 X104.905 Y97.085 E3.85145
G1 X106.219 Y96.037 E3.89114
G1 X106.544 Y96.073 F7800.000
G1 X107.634 Y94.238
G1 X108.567 Y94.238 F600.000 E3.91337
G1 X107.634 Y95.171 E3.94481
G1 X107.634 Y96.105 E3.96703
G1 X109.501 Y94.238 E4.02990
G1 X110.434 Y94.238 E4.05212
G1 X108.678 Y95.993 E4.11124
G1 X109.741 Y95.864 E4.13672
G1 X111.221 Y94.384 E4.18658
G1 X111.221 Y95.317 E4.20880
G1 X110.544 Y95.994 E4.23160
G1 X111.221 Y96.250 E4.24883
G1 X112.177 Y95.961 F7800.000
G1 X115.404 Y101.281
G1 X112.499 Y104.350
G1 X113.177 Y104.959
G1 X114.382 Y102.326 F600.000 E4.35437
G1 X114.615 Y102.093 E4.36636
G1 X114.513 Y100.766 E4.41485
G1 X114.640 Y100.639 E4.42143
G1 X114.230 Y99.620 E4.46145
G1 X114.382 Y99.469 E4.46927
G1 X113.817 Y98.605 E4.50689
G1 X113.918 Y98.504 E4.51206
G1 X113.146 Y97.847 E4.54900
G1 X113.279 Y97.714 E4.55588
G1 X112.545 Y97.019 E4.59271
