; generated by Slic3r 1.2.6 on 2015-02-08 at 20:04:02

; external perimeters extrusion width = 0.50mm
; perimeters extrusion width = 0.50mm
; infill extrusion width = 0.50mm
; solid infill extrusion width = 0.50mm
; top infill extrusion width = 0.50mm

M104 S190 ; set temperature
G28 ; home all axes
G1 Z15 F120 ; lift nozzle
M109 S190 ; wait for temperature to be reached
G21 ; set units to millimeters
G90 ; use absolute coordinates
M82 ; use absolute distances for extrusion
G92 E0
M106 S102
G1 E-2.00000 F1680.00000
G92 E0
G1 Z0.350 F12000.000
G1 X31.628 Y5.641 F12000.000
G1 E2.00000 F1680.00000
G1 X31.961 Y3.775 E2.05337 F1200.000
G1 X33.102 Y1.824 E2.11700
G1 X34.848 Y0.388 E2.18064
G1 X38.000 Y-0.436 E2.27236
G1 X132.000 Y-0.436 E4.91863
G1 X134.225 Y-0.039 E4.98227
G1 X136.176 Y1.102 E5.04590 F1200.000
G1 X137.612 Y2.848 E5.10953
G1 X138.436 Y6.000 E5.20125
G1 X138.436 Y164.000 E9.64925
G1 X138.039 Y166.225 E9.71288
G1 X136.898 Y168.176 E9.77651
G1 X135.152 Y169.612 E9.84014
G1 X132.000 Y170.436 E9.93186
G1 X38.000 Y170.436 E12.57814
G1 X35.775 Y170.039 E12.64177
G1 X33.824 Y168.898 E12.70541
G1 X32.388 Y167.152 E12.76904
G1 X31.564 Y164.000 E12.86076
G1 X31.564 Y6.000 E17.30876
G1 X31.614 Y5.715 E17.31691
G1 E15.31691 F1680.00000
G92 E0
G1 X85.000 Y142.498 F12000.000
G1 E2.00000 F1680.00000
G1 X86.760 Y144.258 E2.06480 F900.000
G1 X89.250 Y144.258 E2.12960
G1 X89.250 Y146.748 E2.19441
G1 X91.010 Y148.508 E2.25921
G1 X89.250 Y150.269 E2.32401
G1 X89.250 Y152.758 E2.38881
G1 X86.760 Y152.758 E2.45361
G1 X85.000 Y154.519 E2.51841
G1 X83.240 Y152.758 E2.58322
G1 X80.750 Y152.758 E2.64802
G1 X80.750 Y150.269 E2.71282
G1 X78.990 Y148.508 E2.77762
G1 X80.750 Y146.748 E2.84242
G1 X80.750 Y144.258 E2.90722
G1 X83.240 Y144.258 E2.97202
G1 X84.646 Y142.852 E3.02378
G1 X84.947 Y142.551 E3.03487 F900.000
G1 X79.250 Y141.212 F12000.000
G1 X76.760 Y141.212 E3.09967 F900.000
G1 X75.000 Y142.972 E3.16448
G1 X73.240 Y141.212 E3.22928
G1 X70.750 Y141.212 E3.29408
G1 X70.750 Y138.722 E3.35888
G1 X68.990 Y136.961 E3.42369
G1 X70.750 Y135.201 E3.48849
G1 X70.750 Y132.712 E3.55329
G1 X73.240 Y132.712 E3.61809
G1 X74.646 Y131.305 E3.66985
G1 X75.000 Y130.951 E3.68289 F900.000
G1 X76.760 Y132.712 E3.74769
G1 X79.250 Y132.712 E3.81249
G1 X79.250 Y135.201 E3.87730
G1 X81.010 Y136.961 E3.94210
G1 X79.250 Y138.722 E4.00690
G1 X79.250 Y141.137 E4.06975
G1 E2.06975 F1680.00000
G92 E0
G1 X69.250 Y129.665 F12000.000
G1 E2.00000 F1680.00000
G1 X66.760 Y129.665 E2.06480 F900.000
G1 X65.000 Y131.425 E2.12960
G1 X63.240 Y129.665 E2.19441
G1 X60.750 Y129.665 E2.25921
G1 X60.750 Y127.175 E2.32401
G1 X58.990 Y125.414 E2.38881
G1 X60.750 Y123.654 E2.45361
G1 X60.750 Y121.165 E2.51842
G1 X63.240 Y121.165 E2.58322
G1 X64.646 Y119.758 E2.63498
G1 X65.000 Y119.404 E2.64802 F900.000
G1 X66.760 Y121.165 E2.71282
G1 X69.250 Y121.165 E2.77762
G1 X69.250 Y123.654 E2.84242
G1 X71.010 Y125.414 E2.90722
G1 X69.250 Y127.175 E2.97203
G1 X69.250 Y129.590 E3.03487
G1 E1.03487 F1680.00000
G92 E0
G1 X59.250 Y118.118 F12000.000
G1 E2.00000 F1680.00000
G1 X56.760 Y118.118 E2.06480 F900.000
G1 X55.000 Y119.878 E2.12960
G1 X53.240 Y118.118 E2.19441
G1 X50.750 Y118.118 E2.25921
G1 X50.750 Y115.628 E2.32401
G1 X48.990 Y113.867 E2.38881
G1 X50.750 Y112.107 E2.45361
G1 X50.750 Y109.618 E2.51842
G1 X53.240 Y109.618 E2.58322
G1 X54.646 Y108.211 E2.63498
G1 X55.000 Y107.857 E2.64802 F900.000
G1 X56.760 Y109.618 E2.71282
G1 X59.250 Y109.618 E2.77762
G1 X59.250 Y112.107 E2.84242
G1 X61.010 Y113.867 E2.90722
G1 X59.250 Y115.628 E2.97203
G1 X59.250 Y118.043 E3.03487
G1 X65.000 Y108.331 F12000.000
G1 X63.240 Y106.570 E3.09968 F900.000
G1 X60.750 Y106.570 E3.16448
G1 X60.750 Y104.081 E3.22928
G1 X58.990 Y102.320 E3.29408
G1 X60.750 Y100.560 E3.35888
G1 X60.750 Y98.071 E3.42369
G1 X63.240 Y98.071 E3.48849
G1 X64.646 Y96.664 E3.54025
G1 X65.000 Y96.310 E3.55329 F900.000
G1 X66.760 Y98.071 E3.61809
G1 X69.250 Y98.071 E3.68289
G1 X69.250 Y100.560 E3.74769
G1 X71.010 Y102.320 E3.81249
G1 X69.250 Y104.081 E3.87730
G1 X69.250 Y106.570 E3.94210
G1 X66.760 Y106.570 E4.00690
G1 X65.053 Y108.278 E4.06975
G1 X70.750 Y109.618 F12000.000
G1 X73.240 Y109.618 E4.13455 F900.000
G1 X74.646 Y108.211 E4.18631
G1 X75.000 Y107.857 E4.19935 F900.000
G1 X76.760 Y109.618 E4.26415
G1 X79.250 Y109.618 E4.32895
G1 X79.250 Y112.107 E4.39376
G1 X81.010 Y113.867 E4.45856
G1 X79.250 Y115.628 E4.52336
G1 X79.250 Y118.118 E4.58816
G1 X76.760 Y118.118 E4.65296
G1 X75.000 Y119.878 E4.71776
G1 X73.240 Y118.118 E4.78257
G1 X70.750 Y118.118 E4.84737
G1 X70.750 Y115.628 E4.91217
G1 X68.990 Y113.867 E4.97697
G1 X70.750 Y112.107 E5.04177
G1 X70.750 Y109.693 E5.10462
G1 E3.10462 F1680.00000
G92 E0
G1 X80.750 Y121.165 F12000.000
G1 E2.00000 F1680.00000
G1 X83.240 Y121.165 E2.06480 F900.000
G1 X84.646 Y119.758 E2.11656
G1 X85.000 Y119.404 E2.12960 F900.000
G1 X86.760 Y121.165 E2.19440
G1 X89.250 Y121.165 E2.25920
G1 X89.250 Y123.654 E2.32401
G1 X91.010 Y125.414 E2.38881
G1 X89.250 Y127.175 E2.45361
G1 X89.250 Y129.665 E2.51841
G1 X86.760 Y129.665 E2.58321
G1 X85.000 Y131.425 E2.64801
G1 X83.240 Y129.665 E2.71282
G1 X80.750 Y129.665 E2.77762
G1 X80.750 Y127.175 E2.84242
G1 X78.990 Y125.414 E2.90722
G1 X80.750 Y123.654 E2.97202
G1 X80.750 Y121.240 E3.03487
G1 E1.03487 F1680.00000
G92 E0
G1 X90.750 Y118.118 F12000.000
G1 E2.00000 F1680.00000
G1 X90.750 Y115.628 E2.06480 F900.000
G1 X88.990 Y113.867 E2.12960
G1 X90.750 Y112.107 E2.19440
G1 X90.750 Y109.618 E2.25921
G1 X93.240 Y109.618 E2.32401
G1 X94.646 Y108.211 E2.37577
G1 X95.000 Y107.857 E2.38881 F900.000
G1 X96.760 Y109.618 E2.45361
G1 X99.250 Y109.618 E2.51841
G1 X99.250 Y112.107 E2.58321
G1 X101.010 Y113.867 E2.64801
G1 X99.250 Y115.628 E2.71282
G1 X99.250 Y118.118 E2.77762
G1 X96.760 Y118.118 E2.84242
G1 X95.000 Y119.878 E2.90722
G1 X93.240 Y118.118 E2.97202
G1 X90.825 Y118.118 E3.03487
G1 E1.03487 F1680.00000
G92 E0
G1 X100.750 Y121.165 F12000.000
G1 E2.00000 F1680.00000
G1 X103.240 Y121.165 E2.06480 F900.000
G1 X104.646 Y119.758 E2.11656
G1 X105.000 Y119.404 E2.12960 F900.000
G1 X106.760 Y121.165 E2.19440
G1 X109.250 Y121.165 E2.25920
G1 X109.250 Y123.654 E2.32401
G1 X111.010 Y125.414 E2.38881
G1 X109.250 Y127.175 E2.45361
G1 X109.250 Y129.665 E2.51841
G1 X106.760 Y129.665 E2.58321
G1 X105.000 Y131.425 E2.64801
G1 X103.240 Y129.665 E2.71282
G1 X100.750 Y129.665 E2.77762
G1 X100.750 Y127.175 E2.84242
G1 X98.990 Y125.414 E2.90722
G1 X100.750 Y123.654 E2.97202
G1 X100.750 Y121.240 E3.03487
G1 E1.03487 F1680.00000
G92 E0
G1 X110.750 Y132.712 F12000.000
G1 E2.00000 F1680.00000
G1 X113.240 Y132.712 E2.06480 F900.000
G1 X114.646 Y131.305 E2.11656
G1 X115.000 Y130.951 E2.12960 F900.000
G1 X116.760 Y132.712 E2.19440
G1 X119.250 Y132.712 E2.25920
G1 X119.250 Y135.201 E2.32401
G1 X121.010 Y136.961 E2.38881
G1 X119.250 Y138.722 E2.45361
G1 X119.250 Y141.212 E2.51841
G1 X116.760 Y141.212 E2.58321
G1 X115.000 Y142.972 E2.64802
G1 X113.240 Y141.212 E2.71282
G1 X110.750 Y141.212 E2.77762
G1 X110.750 Y138.722 E2.84242
G1 X108.990 Y136.961 E2.90722
G1 X110.750 Y135.201 E2.97202
G1 X110.750 Y132.787 E3.03488
G1 X105.000 Y142.498 F12000.000
G1 X106.760 Y144.258 E3.09968 F900.000
G1 X109.250 Y144.258 E3.16448
G1 X109.250 Y146.748 E3.22928
G1 X111.010 Y148.508 E3.29408
G1 X109.250 Y150.269 E3.35888
G1 X109.250 Y152.758 E3.42368
G1 X106.760 Y152.758 E3.48849
G1 X105.000 Y154.519 E3.55329
G1 X103.240 Y152.758 E3.61809
G1 X100.750 Y152.758 E3.68289
G1 X100.750 Y150.269 E3.74769
G1 X98.990 Y148.508 E3.81250
G1 X100.750 Y146.748 E3.87730
G1 X100.750 Y144.258 E3.94210
G1 X103.240 Y144.258 E4.00690
G1 X104.646 Y142.852 E4.05866
G1 X104.947 Y142.551 E4.06975 F900.000
G1 X99.250 Y141.212 F12000.000
G1 X96.760 Y141.212 E4.13455 F900.000
G1 X95.000 Y142.972 E4.19935
G1 X93.240 Y141.212 E4.26416
G1 X90.750 Y141.212 E4.32896
G1 X90.750 Y138.722 E4.39376
G1 X88.990 Y136.961 E4.45856
G1 X90.750 Y135.201 E4.52336
G1 X90.750 Y132.712 E4.58816
G1 X93.240 Y132.712 E4.65297
G1 X94.646 Y131.305 E4.70473
G1 X95.000 Y130.951 E4.71777 F900.000
G1 X96.760 Y132.712 E4.78257
G1 X99.250 Y132.712 E4.84737
G1 X99.250 Y135.201 E4.91217
G1 X101.010 Y136.961 E4.97697
G1 X99.250 Y138.722 E5.04178
G1 X99.250 Y141.137 E5.10462
G1 E3.10462 F1680.00000
G92 E0
G1 X110.750 Y118.118 F12000.000
G1 E2.00000 F1680.00000
G1 X110.750 Y115.628 E2.06480 F900.000
G1 X108.990 Y113.867 E2.12960
G1 X110.750 Y112.107 E2.19441
G1 X110.750 Y109.618 E2.25921
G1 X113.240 Y109.618 E2.32401
G1 X114.646 Y108.211 E2.37577
G1 X115.000 Y107.857 E2.38881 F900.000
G1 X116.760 Y109.618 E2.45361
G1 X119.250 Y109.618 E2.51841
G1 X119.250 Y112.107 E2.58321
G1 X121.010 Y113.867 E2.64802
G1 X119.250 Y115.628 E2.71282
G1 X119.250 Y118.118 E2.77762
G1 X116.760 Y118.118 E2.84242
G1 X115.000 Y119.878 E2.90722
G1 X113.240 Y118.118 E2.97203
G1 X110.825 Y118.118 E3.03487
G1 X105.000 Y108.331 F12000.000
G1 X103.240 Y106.570 E3.09968 F900.000
G1 X100.750 Y106.570 E3.16448
G1 X100.750 Y104.081 E3.22928
G1 X98.990 Y102.320 E3.29408
G1 X100.750 Y100.560 E3.35888
G1 X100.750 Y98.071 E3.42369
G1 X103.240 Y98.071 E3.48849
G1 X104.646 Y96.664 E3.54025
G1 X105.000 Y96.310 E3.55329 F900.000
G1 X106.760 Y98.071 E3.61809
G1 X109.250 Y98.071 E3.68289
G1 X109.250 Y100.560 E3.74769
G1 X111.010 Y102.320 E3.81249
G1 X109.250 Y104.081 E3.87730
G1 X109.250 Y106.570 E3.94210
G1 X106.760 Y106.570 E4.00690
G1 X105.053 Y108.278 E4.06975
G1 E2.06975 F1680.00000
G92 E0
G1 X99.250 Y95.023 F12000.000
G1 E2.00000 F1680.00000
G1 X96.760 Y95.023 E2.06480 F900.000
G1 X95.000 Y96.784 E2.12960
G1 X93.240 Y95.023 E2.19441
G1 X90.750 Y95.023 E2.25921
G1 X90.750 Y92.534 E2.32401
G1 X88.990 Y90.773 E2.38881
G1 X90.750 Y89.013 E2.45361
G1 X90.750 Y86.523 E2.51841
G1 X93.240 Y86.523 E2.58322
G1 X95.000 Y84.763 E2.64802 F900.000
G1 X96.760 Y86.523 E2.71282
G1 X99.250 Y86.523 E2.77762
G1 X99.250 Y89.013 E2.84242
G1 X101.010 Y90.773 E2.90722
G1 X99.250 Y92.534 E2.97203
G1 X99.250 Y94.948 E3.03488
G1 E1.03488 F1680.00000
G92 E0
G1 X89.250 Y98.071 F12000.000
G1 E2.00000 F1680.00000
G1 X89.250 Y100.560 E2.06480 F900.000
G1 X91.010 Y102.320 E2.12960
G1 X89.250 Y104.081 E2.19441
G1 X89.250 Y106.570 E2.25921
G1 X86.760 Y106.570 E2.32401
G1 X85.000 Y108.331 E2.38881
G1 X83.240 Y106.570 E2.45361
G1 X80.750 Y106.570 E2.51841
G1 X80.750 Y104.081 E2.58321
G1 X78.990 Y102.320 E2.64802
G1 X80.750 Y100.560 E2.71282
G1 X80.750 Y98.071 E2.77762
G1 X83.240 Y98.071 E2.84242
G1 X84.646 Y96.664 E2.89418
G1 X85.000 Y96.310 E2.90722 F900.000
G1 X86.760 Y98.071 E2.97202
G1 X89.175 Y98.071 E3.03487
G1 E1.03487 F1680.00000
G92 E0
G1 X79.250 Y95.023 F12000.000
G1 E2.00000 F1680.00000
G1 X76.760 Y95.023 E2.06480 F900.000
G1 X75.000 Y96.784 E2.12960
G1 X73.240 Y95.023 E2.19441
G1 X70.750 Y95.023 E2.25921
G1 X70.750 Y92.534 E2.32401
G1 X68.990 Y90.773 E2.38881
G1 X70.750 Y89.013 E2.45361
G1 X70.750 Y86.523 E2.51842
G1 X73.240 Y86.523 E2.58322
G1 X74.646 Y85.117 E2.63498
G1 X75.000 Y84.763 E2.64802 F900.000
G1 X76.760 Y86.523 E2.71282
G1 X79.250 Y86.523 E2.77762
G1 X79.250 Y89.013 E2.84242
G1 X81.010 Y90.773 E2.90722
G1 X79.250 Y92.534 E2.97203
G1 X79.250 Y94.948 E3.03488
G1 X85.000 Y85.237 F12000.000
G1 X83.240 Y83.477 E3.09968 F900.000
G1 X80.750 Y83.477 E3.16448
G1 X80.750 Y80.987 E3.22928
G1 X78.990 Y79.227 E3.29408
G1 X80.750 Y77.466 E3.35888
G1 X80.750 Y74.977 E3.42369
G1 X83.240 Y74.977 E3.48849
G1 X84.646 Y73.570 E3.54025
G1 X85.000 Y73.216 E3.55329 F900.000
G1 X86.760 Y74.977 E3.61809
G1 X89.250 Y74.977 E3.68289
G1 X89.250 Y77.466 E3.74770
G1 X91.010 Y79.227 E3.81250
G1 X89.250 Y80.987 E3.87730
G1 X89.250 Y83.477 E3.94210
G1 X86.760 Y83.477 E4.00690
G1 X85.053 Y85.184 E4.06975
G1 E2.06975 F1680.00000
G92 E0
G1 X79.250 Y71.929 F12000.000
G1 E2.00000 F1680.00000
G1 X76.760 Y71.929 E2.06480 F900.000
G1 X75.000 Y73.690 E2.12960
G1 X73.240 Y71.929 E2.19440
G1 X70.750 Y71.929 E2.25920
G1 X70.750 Y69.440 E2.32401
G1 X68.990 Y67.680 E2.38881
G1 X70.750 Y65.919 E2.45361
G1 X70.750 Y63.429 E2.51841
G1 X73.240 Y63.429 E2.58321
G1 X75.000 Y61.669 E2.64802 F900.000
G1 X76.760 Y63.429 E2.71282
G1 X79.250 Y63.429 E2.77762
G1 X79.250 Y65.919 E2.84242
G1 X81.010 Y67.680 E2.90722
G1 X79.250 Y69.440 E2.97202
G1 X79.250 Y71.854 E3.03487
G1 E1.03487 F1680.00000
G92 E0
G1 X69.250 Y74.977 F12000.000
G1 E2.00000 F1680.00000
G1 X69.250 Y77.466 E2.06480 F900.000
G1 X71.010 Y79.227 E2.12960
G1 X69.250 Y80.987 E2.19441
G1 X69.250 Y83.477 E2.25921
G1 X66.760 Y83.477 E2.32401
G1 X65.000 Y85.237 E2.38881
G1 X63.240 Y83.477 E2.45361
G1 X60.750 Y83.477 E2.51841
G1 X60.750 Y80.987 E2.58322
G1 X58.990 Y79.227 E2.64802
G1 X60.750 Y77.466 E2.71282
G1 X60.750 Y74.977 E2.77762
G1 X63.240 Y74.977 E2.84242
G1 X64.646 Y73.570 E2.89418
G1 X65.000 Y73.216 E2.90723 F900.000
G1 X66.760 Y74.977 E2.97203
G1 X69.175 Y74.977 E3.03488
G1 E1.03488 F1680.00000
G92 E0
G1 X59.250 Y71.929 F12000.000
G1 E2.00000 F1680.00000
G1 X56.760 Y71.929 E2.06480 F900.000
G1 X55.000 Y73.690 E2.12960
G1 X53.240 Y71.929 E2.19440
G1 X50.750 Y71.929 E2.25920
G1 X50.750 Y69.440 E2.32401
G1 X48.990 Y67.680 E2.38881
G1 X50.750 Y65.919 E2.45361
G1 X50.750 Y63.429 E2.51841
G1 X53.240 Y63.429 E2.58321
G1 X55.000 Y61.669 E2.64802 F900.000
G1 X56.760 Y63.429 E2.71282
G1 X59.250 Y63.429 E2.77762
G1 X59.250 Y65.919 E2.84242
G1 X61.010 Y67.680 E2.90722
G1 X59.250 Y69.440 E2.97202
G1 X59.250 Y71.854 E3.03487
G1 X65.000 Y62.143 F12000.000
G1 X63.240 Y60.382 E3.09968 F900.000
G1 X60.750 Y60.382 E3.16448
G1 X60.750 Y57.893 E3.22928
G1 X58.990 Y56.133 E3.29408
G1 X60.750 Y54.372 E3.35888
G1 X60.750 Y51.883 E3.42368
G1 X63.240 Y51.883 E3.48849
G1 X65.000 Y50.122 E3.55329 F900.000
G1 X66.760 Y51.883 E3.61809
G1 X69.250 Y51.883 E3.68289
G1 X69.250 Y54.372 E3.74769
G1 X71.010 Y56.133 E3.81250
G1 X69.250 Y57.893 E3.87730
G1 X69.250 Y60.382 E3.94210
G1 X66.760 Y60.382 E4.00690
G1 X65.053 Y62.090 E4.06975
G1 E2.06975 F1680.00000
G92 E0
G1 X59.250 Y48.835 F12000.000
G1 E2.00000 F1680.00000
G1 X56.760 Y48.835 E2.06480 F900.000
G1 X55.000 Y50.596 E2.12960
G1 X53.240 Y48.835 E2.19440
G1 X50.750 Y48.835 E2.25920
G1 X50.750 Y46.346 E2.32401
G1 X48.990 Y44.586 E2.38881
G1 X50.750 Y42.825 E2.45361
G1 X50.750 Y40.335 E2.51841
G1 X53.240 Y40.335 E2.58321
G1 X55.000 Y38.575 E2.64802 F900.000
G1 X56.760 Y40.335 E2.71282
G1 X59.250 Y40.335 E2.77762
G1 X59.250 Y42.825 E2.84242
G1 X61.010 Y44.586 E2.90722
G1 X59.250 Y46.346 E2.97202
G1 X59.250 Y48.760 E3.03487
G1 X65.000 Y39.049 F12000.000
G1 X63.240 Y37.289 E3.09968 F900.000
G1 X60.750 Y37.289 E3.16448
G1 X60.750 Y34.799 E3.22928
G1 X58.990 Y33.039 E3.29408
G1 X60.750 Y31.278 E3.35888
G1 X60.750 Y28.789 E3.42368
G1 X63.240 Y28.789 E3.48849
G1 X64.646 Y27.382 E3.54025
G1 X65.000 Y27.028 E3.55329 F900.000
G1 X66.760 Y28.789 E3.61809
G1 X69.250 Y28.789 E3.68289
G1 X69.250 Y31.278 E3.74769
G1 X71.010 Y33.039 E3.81250
G1 X69.250 Y34.799 E3.87730
G1 X69.250 Y37.289 E3.94210
G1 X66.760 Y37.289 E4.00690
G1 X65.053 Y38.996 E4.06975
G1 E2.06975 F1680.00000
G92 E0
G1 X59.250 Y25.741 F12000.000
G1 E2.00000 F1680.00000
G1 X56.760 Y25.741 E2.06480 F900.000
G1 X55.000 Y27.502 E2.12960
G1 X53.240 Y25.741 E2.19440
G1 X50.750 Y25.741 E2.25920
G1 X50.750 Y23.252 E2.32401
G1 X48.990 Y21.492 E2.38881
G1 X50.750 Y19.731 E2.45361
G1 X50.750 Y17.242 E2.51841
G1 X53.240 Y17.242 E2.58321
G1 X54.646 Y15.835 E2.63497
G1 X55.000 Y15.481 E2.64802 F900.000
G1 X56.760 Y17.242 E2.71282
G1 X59.250 Y17.242 E2.77762
G1 X59.250 Y19.731 E2.84242
G1 X61.010 Y21.492 E2.90722
G1 X59.250 Y23.252 E2.97202
G1 X59.250 Y25.666 E3.03487
G1 X68.990 Y21.492 F12000.000
G1 X70.750 Y19.731 E3.09968 F900.000
G1 X70.750 Y17.242 E3.16448
G1 X73.240 Y17.242 E3.22928
G1 X74.646 Y15.835 E3.28104
G1 X75.000 Y15.481 E3.29408 F900.000
G1 X76.760 Y17.242 E3.35888
G1 X79.250 Y17.242 E3.42369
G1 X79.250 Y19.731 E3.48849
G1 X81.010 Y21.492 E3.55329
G1 X79.250 Y23.252 E3.61809
G1 X79.250 Y25.741 E3.68289
G1 X76.760 Y25.741 E3.74769
G1 X75.000 Y27.502 E3.81249
G1 X73.240 Y25.741 E3.87730
G1 X70.750 Y25.741 E3.94210
G1 X70.750 Y23.252 E4.00690
G1 X69.043 Y21.545 E4.06975
G1 E2.06975 F1680.00000
G92 E0
G1 X80.750 Y28.789 F12000.000
