; generated by Slic3r 1.2.6 on 2015-02-08 at 17:45:20

; external perimeters extrusion width = 0.50mm
; perimeters extrusion width = 0.50mm
; infill extrusion width = 0.50mm
; solid infill extrusion width = 0.50mm
; top infill extrusion width = 0.50mm

M104 S190 ; set temperature
G28 ; home all axes
G1 Z15 F120 ; lift nozzle
M109 S190 ; wait for temperature to be reached
G21 ; set units to millimeters
G90 ; use absolute coordinates
M82 ; use absolute distances for extrusion
G92 E0
M106 S102
G1 E-2.00000 F1680.00000
G92 E0
G1 Z0.350 F12000.000
G1 X16.461 Y3.775 F12000.000
G1 E2.00000 F1680.00000
G1 X17.602 Y1.824 E2.06363 F1200.000
G1 X19.348 Y0.388 E2.12726
G1 X22.500 Y-0.436 E2.21898
G1 X147.500 Y-0.436 E5.73797
G1 X149.725 Y-0.039 E5.80160
G1 X151.676 Y1.102 E5.86523 F1200.000
G1 X153.112 Y2.848 E5.92887
G1 X153.936 Y6.000 E6.02059
G1 X153.936 Y164.000 E10.46858
G1 X153.539 Y166.225 E10.53222
G1 X152.398 Y168.176 E10.59585
G1 X150.652 Y169.612 E10.65948
G1 X147.500 Y170.436 E10.75120
G1 X22.500 Y170.436 E14.27019
G1 X20.275 Y170.039 E14.33382
G1 X18.324 Y168.898 E14.39745
G1 X16.888 Y167.152 E14.46108
G1 X16.064 Y164.000 E14.55280
G1 X16.064 Y6.000 E19.00080
G1 X16.447 Y3.849 E19.06232
G1 E17.06232 F1680.00000
G92 E0
G1 X80.750 Y144.259 F12000.000
G1 E2.00000 F1680.00000
G1 X83.240 Y144.259 E2.06480 F900.000
G1 X84.674 Y142.824 E2.11761
G1 X85.000 Y142.498 E2.12960 F900.000
G1 X86.760 Y144.259 E2.19440
G1 X89.250 Y144.259 E2.25920
G1 X89.250 Y146.748 E2.32401
G1 X91.010 Y148.508 E2.38881
G1 X89.250 Y150.269 E2.45361
G1 X89.250 Y152.758 E2.51841
G1 X86.760 Y152.758 E2.58321
G1 X85.000 Y154.519 E2.64801
G1 X83.240 Y152.758 E2.71282
G1 X80.750 Y152.758 E2.77762
G1 X80.750 Y150.269 E2.84242
G1 X78.990 Y148.508 E2.90722
G1 X80.750 Y146.748 E2.97202
G1 X80.750 Y144.334 E3.03487
G1 X79.250 Y141.211 F12000.000
G1 X76.760 Y141.211 E3.09967 F900.000
G1 X75.000 Y142.972 E3.16447
G1 X73.240 Y141.211 E3.22928
G1 X70.750 Y141.211 E3.29408
G1 X70.750 Y138.722 E3.35888
G1 X68.990 Y136.961 E3.42368
G1 X70.750 Y135.201 E3.48848
G1 X70.750 Y132.712 E3.55329
G1 X73.240 Y132.712 E3.61809
G1 X75.000 Y130.951 E3.68289 F900.000
G1 X76.760 Y132.712 E3.74769
G1 X79.250 Y132.712 E3.81249
G1 X79.250 Y135.201 E3.87729
G1 X81.010 Y136.961 E3.94209
G1 X79.250 Y138.722 E4.00689
G1 X79.250 Y141.136 E4.06974
G1 E2.06974 F1680.00000
G92 E0
G1 X69.250 Y144.259 F12000.000
G1 E2.00000 F1680.00000
G1 X69.250 Y146.748 E2.06480 F900.000
G1 X71.010 Y148.508 E2.12960
G1 X69.250 Y150.269 E2.19441
G1 X69.250 Y152.758 E2.25921
G1 X66.760 Y152.758 E2.32401
G1 X65.000 Y154.519 E2.38881
G1 X63.240 Y152.758 E2.45361
G1 X60.750 Y152.758 E2.51841
G1 X60.750 Y150.269 E2.58321
G1 X58.990 Y148.508 E2.64802
G1 X60.750 Y146.748 E2.71282
G1 X60.750 Y144.259 E2.77762
G1 X63.240 Y144.259 E2.84242
G1 X64.674 Y142.824 E2.89523
G1 X65.000 Y142.498 E2.90722 F900.000
G1 X66.760 Y144.259 E2.97202
G1 X69.175 Y144.259 E3.03487
G1 E1.03487 F1680.00000
G92 E0
G1 X59.250 Y141.211 F12000.000
G1 E2.00000 F1680.00000
G1 X56.760 Y141.211 E2.06480 F900.000
G1 X55.000 Y142.972 E2.12960
G1 X53.240 Y141.211 E2.19441
G1 X50.750 Y141.211 E2.25921
G1 X50.750 Y138.722 E2.32401
G1 X48.990 Y136.961 E2.38881
G1 X50.750 Y135.201 E2.45361
G1 X50.750 Y132.712 E2.51841
G1 X53.240 Y132.712 E2.58322
G1 X55.000 Y130.951 E2.64802 F900.000
G1 X56.760 Y132.712 E2.71282
G1 X59.250 Y132.712 E2.77762
G1 X59.250 Y135.201 E2.84242
G1 X61.010 Y136.961 E2.90722
G1 X59.250 Y138.722 E2.97202
G1 X59.250 Y141.136 E3.03487
G1 E1.03487 F1680.00000
G92 E0
G1 X49.250 Y144.259 F12000.000
G1 E2.00000 F1680.00000
G1 X49.250 Y146.748 E2.06480 F900.000
G1 X51.010 Y148.508 E2.12960
G1 X49.250 Y150.269 E2.19441
G1 X49.250 Y152.758 E2.25921
G1 X46.760 Y152.758 E2.32401
G1 X45.000 Y154.519 E2.38881
G1 X43.240 Y152.758 E2.45361
G1 X40.750 Y152.758 E2.51841
G1 X40.750 Y150.269 E2.58321
G1 X38.990 Y148.508 E2.64802
G1 X40.750 Y146.748 E2.71282
G1 X40.750 Y144.259 E2.77762
G1 X43.240 Y144.259 E2.84242
G1 X44.674 Y142.824 E2.89523
G1 X45.000 Y142.498 E2.90722 F900.000
G1 X46.760 Y144.259 E2.97202
G1 X49.175 Y144.259 E3.03487
G1 E1.03487 F1680.00000
G92 E0
G1 X39.250 Y141.211 F12000.000
G1 E2.00000 F1680.00000
G1 X36.760 Y141.211 E2.06480 F900.000
G1 X35.000 Y142.972 E2.12960
G1 X33.240 Y141.211 E2.19441
G1 X30.750 Y141.211 E2.25921
G1 X30.750 Y138.722 E2.32401
G1 X28.990 Y136.961 E2.38881
G1 X30.750 Y135.201 E2.45361
G1 X30.750 Y132.712 E2.51842
G1 X33.240 Y132.712 E2.58322
G1 X34.674 Y131.277 E2.63602
G1 X35.000 Y130.951 E2.64802 F900.000
G1 X36.760 Y132.712 E2.71282
G1 X39.250 Y132.712 E2.77762
G1 X39.250 Y135.201 E2.84242
G1 X41.010 Y136.961 E2.90722
G1 X39.250 Y138.722 E2.97203
G1 X39.250 Y141.136 E3.03487
G1 X45.000 Y131.425 F12000.000
G1 X43.240 Y129.664 E3.09968 F900.000
G1 X40.750 Y129.664 E3.16448
G1 X40.750 Y127.175 E3.22928
G1 X38.990 Y125.414 E3.29408
G1 X40.750 Y123.654 E3.35888
G1 X40.750 Y121.165 E3.42368
G1 X43.240 Y121.165 E3.48848
G1 X44.674 Y119.730 E3.54129
G1 X45.000 Y119.404 E3.55329 F900.000
G1 X46.760 Y121.165 E3.61809
G1 X49.250 Y121.165 E3.68289
G1 X49.250 Y123.654 E3.74769
G1 X51.010 Y125.414 E3.81249
G1 X49.250 Y127.175 E3.87729
G1 X49.250 Y129.664 E3.94209
G1 X46.760 Y129.664 E4.00689
G1 X45.053 Y131.372 E4.06975
G1 E2.06975 F1680.00000
G92 E0
G1 X50.750 Y118.117 F12000.000
G1 E2.00000 F1680.00000
G1 X50.750 Y115.628 E2.06480 F900.000
G1 X48.990 Y113.867 E2.12960
G1 X50.750 Y112.107 E2.19440
G1 X50.750 Y109.618 E2.25921
G1 X53.240 Y109.618 E2.32401
G1 X55.000 Y107.857 E2.38881 F900.000
G1 X56.760 Y109.618 E2.45361
G1 X59.250 Y109.618 E2.51841
G1 X59.250 Y112.107 E2.58321
G1 X61.010 Y113.867 E2.64801
G1 X59.250 Y115.628 E2.71282
G1 X59.250 Y118.117 E2.77762
G1 X56.760 Y118.117 E2.84242
G1 X55.000 Y119.878 E2.90722
G1 X53.240 Y118.117 E2.97202
G1 X50.825 Y118.117 E3.03487
G1 E1.03487 F1680.00000
G92 E0
G1 X60.750 Y121.165 F12000.000
G1 E2.00000 F1680.00000
G1 X63.240 Y121.165 E2.06480 F900.000
G1 X65.000 Y119.404 E2.12960 F900.000
G1 X66.760 Y121.165 E2.19440
G1 X69.250 Y121.165 E2.25920
G1 X69.250 Y123.654 E2.32401
G1 X71.010 Y125.414 E2.38881
G1 X69.250 Y127.175 E2.45361
G1 X69.250 Y129.664 E2.51841
G1 X66.760 Y129.664 E2.58321
G1 X65.000 Y131.425 E2.64801
G1 X63.240 Y129.664 E2.71282
G1 X60.750 Y129.664 E2.77762
G1 X60.750 Y127.175 E2.84242
G1 X58.990 Y125.414 E2.90722
G1 X60.750 Y123.654 E2.97202
G1 X60.750 Y121.240 E3.03487
G1 E1.03487 F1680.00000
G92 E0
G1 X70.750 Y118.117 F12000.000
G1 E2.00000 F1680.00000
G1 X70.750 Y115.628 E2.06480 F900.000
G1 X68.990 Y113.867 E2.12960
G1 X70.750 Y112.107 E2.19440
G1 X70.750 Y109.618 E2.25921
G1 X73.240 Y109.618 E2.32401
G1 X75.000 Y107.857 E2.38881 F900.000
G1 X76.760 Y109.618 E2.45361
G1 X79.250 Y109.618 E2.51841
G1 X79.250 Y112.107 E2.58321
G1 X81.010 Y113.867 E2.64801
G1 X79.250 Y115.628 E2.71282
G1 X79.250 Y118.117 E2.77762
G1 X76.760 Y118.117 E2.84242
G1 X75.000 Y119.878 E2.90722
G1 X73.240 Y118.117 E2.97202
G1 X70.825 Y118.117 E3.03487
G1 E1.03487 F1680.00000
G92 E0
G1 X80.750 Y121.165 F12000.000
G1 E2.00000 F1680.00000
G1 X83.240 Y121.165 E2.06480 F900.000
G1 X84.674 Y119.730 E2.11761
G1 X85.000 Y119.404 E2.12960 F900.000
G1 X86.760 Y121.165 E2.19440
G1 X89.250 Y121.165 E2.25920
G1 X89.250 Y123.654 E2.32401
G1 X91.010 Y125.414 E2.38881
G1 X89.250 Y127.175 E2.45361
G1 X89.250 Y129.664 E2.51841
G1 X86.760 Y129.664 E2.58321
G1 X85.000 Y131.425 E2.64801
G1 X83.240 Y129.664 E2.71282
G1 X80.750 Y129.664 E2.77762
G1 X80.750 Y127.175 E2.84242
G1 X78.990 Y125.414 E2.90722
G1 X80.750 Y123.654 E2.97202
G1 X80.750 Y121.240 E3.03487
G1 E1.03487 F1680.00000
G92 E0
G1 X90.750 Y118.117 F12000.000
G1 E2.00000 F1680.00000
G1 X90.750 Y115.628 E2.06480 F900.000
G1 X88.990 Y113.867 E2.12960
G1 X90.750 Y112.107 E2.19440
G1 X90.750 Y109.618 E2.25921
G1 X93.240 Y109.618 E2.32401
G1 X94.674 Y108.183 E2.37681
G1 X95.000 Y107.857 E2.38881 F900.000
G1 X96.760 Y109.618 E2.45361
G1 X99.250 Y109.618 E2.51841
G1 X99.250 Y112.107 E2.58321
G1 X101.010 Y113.867 E2.64801
G1 X99.250 Y115.628 E2.71282
G1 X99.250 Y118.117 E2.77762
G1 X96.760 Y118.117 E2.84242
G1 X95.000 Y119.878 E2.90722
G1 X93.240 Y118.117 E2.97202
G1 X90.825 Y118.117 E3.03487
G1 E1.03487 F1680.00000
G92 E0
G1 X100.750 Y121.165 F12000.000
G1 E2.00000 F1680.00000
G1 X103.240 Y121.165 E2.06480 F900.000
G1 X104.674 Y119.730 E2.11761
G1 X105.000 Y119.404 E2.12960 F900.000
G1 X106.760 Y121.165 E2.19440
G1 X109.250 Y121.165 E2.25920
G1 X109.250 Y123.654 E2.32401
G1 X111.010 Y125.414 E2.38881
G1 X109.250 Y127.175 E2.45361
G1 X109.250 Y129.664 E2.51841
G1 X106.760 Y129.664 E2.58321
G1 X105.000 Y131.425 E2.64801
G1 X103.240 Y129.664 E2.71282
G1 X100.750 Y129.664 E2.77762
G1 X100.750 Y127.175 E2.84242
G1 X98.990 Y125.414 E2.90722
G1 X100.750 Y123.654 E2.97202
G1 X100.750 Y121.240 E3.03487
G1 E1.03487 F1680.00000
G92 E0
G1 X110.750 Y118.117 F12000.000
G1 E2.00000 F1680.00000
G1 X110.750 Y115.628 E2.06480 F900.000
G1 X108.990 Y113.867 E2.12960
G1 X110.750 Y112.107 E2.19440
G1 X110.750 Y109.618 E2.25921
G1 X113.240 Y109.618 E2.32401
G1 X114.674 Y108.183 E2.37681
G1 X115.000 Y107.857 E2.38881 F900.000
G1 X116.760 Y109.618 E2.45361
G1 X119.250 Y109.618 E2.51841
G1 X119.250 Y112.107 E2.58321
G1 X121.010 Y113.867 E2.64801
G1 X119.250 Y115.628 E2.71282
G1 X119.250 Y118.117 E2.77762
G1 X116.760 Y118.117 E2.84242
G1 X115.000 Y119.878 E2.90722
G1 X113.240 Y118.117 E2.97202
G1 X110.825 Y118.117 E3.03487
G1 E1.03487 F1680.00000
G92 E0
G1 X120.750 Y121.165 F12000.000
G1 E2.00000 F1680.00000
G1 X123.240 Y121.165 E2.06480 F900.000
G1 X124.674 Y119.730 E2.11761
G1 X125.000 Y119.404 E2.12960 F900.000
G1 X126.760 Y121.165 E2.19440
G1 X129.250 Y121.165 E2.25920
G1 X129.250 Y123.654 E2.32401
G1 X131.010 Y125.414 E2.38881
G1 X129.250 Y127.175 E2.45361
G1 X129.250 Y129.664 E2.51841
G1 X126.760 Y129.664 E2.58321
G1 X125.000 Y131.425 E2.64801
G1 X123.240 Y129.664 E2.71282
G1 X120.750 Y129.664 E2.77762
G1 X120.750 Y127.175 E2.84242
G1 X118.990 Y125.414 E2.90722
G1 X120.750 Y123.654 E2.97202
G1 X120.750 Y121.240 E3.03487
G1 E1.03487 F1680.00000
G92 E0
G1 X130.750 Y118.117 F12000.000
G1 E2.00000 F1680.00000
G1 X130.750 Y115.628 E2.06480 F900.000
G1 X128.990 Y113.867 E2.12960
G1 X130.750 Y112.107 E2.19440
G1 X130.750 Y109.618 E2.25921
G1 X133.240 Y109.618 E2.32401
G1 X134.674 Y108.183 E2.37681
G1 X135.000 Y107.857 E2.38881 F900.000
G1 X136.760 Y109.618 E2.45361
G1 X139.250 Y109.618 E2.51841
G1 X139.250 Y112.107 E2.58321
G1 X141.010 Y113.867 E2.64801
G1 X139.250 Y115.628 E2.71282
G1 X139.250 Y118.117 E2.77762
G1 X136.760 Y118.117 E2.84242
G1 X135.000 Y119.878 E2.90722
G1 X133.240 Y118.117 E2.97202
G1 X130.825 Y118.117 E3.03487
G1 X125.000 Y108.331 F12000.000
G1 X123.240 Y106.570 E3.09968 F900.000
G1 X120.750 Y106.570 E3.16448
G1 X120.750 Y104.081 E3.22928
G1 X118.990 Y102.320 E3.29408
G1 X120.750 Y100.560 E3.35888
G1 X120.750 Y98.071 E3.42368
G1 X123.240 Y98.071 E3.48848
G1 X124.709 Y96.601 E3.54259
G1 X125.000 Y96.310 E3.55328 F900.000
G1 X126.760 Y98.071 E3.61809
G1 X129.250 Y98.071 E3.68289
G1 X129.250 Y100.560 E3.74769
G1 X131.010 Y102.320 E3.81249
G1 X129.250 Y104.081 E3.87729
G1 X129.250 Y106.570 E3.94209
G1 X126.760 Y106.570 E4.00689
G1 X125.053 Y108.278 E4.06974
G1 E2.06974 F1680.00000
G92 E0
G1 X130.750 Y95.023 F12000.000
G1 E2.00000 F1680.00000
G1 X130.750 Y92.534 E2.06480 F900.000
G1 X128.990 Y90.773 E2.12960
G1 X130.750 Y89.013 E2.19441
G1 X130.750 Y86.524 E2.25921
G1 X133.240 Y86.524 E2.32401
G1 X134.674 Y85.089 E2.37681
G1 X135.000 Y84.763 E2.38881 F900.000
G1 X136.760 Y86.524 E2.45361
G1 X139.250 Y86.524 E2.51841
G1 X139.250 Y89.013 E2.58321
G1 X141.010 Y90.773 E2.64802
G1 X139.250 Y92.534 E2.71282
G1 X139.250 Y95.023 E2.77762
G1 X136.760 Y95.023 E2.84242
G1 X135.000 Y96.784 E2.90722
G1 X133.240 Y95.023 E2.97203
G1 X130.825 Y95.023 E3.03487
G1 X125.000 Y85.237 F12000.000
G1 X123.240 Y83.476 E3.09968 F900.000
G1 X120.750 Y83.476 E3.16448
G1 X120.750 Y80.987 E3.22928
G1 X118.990 Y79.227 E3.29408
G1 X120.750 Y77.466 E3.35888
G1 X120.750 Y74.977 E3.42368
G1 X123.240 Y74.977 E3.48848
G1 X124.674 Y73.542 E3.54129
G1 X125.000 Y73.216 E3.55329 F900.000
G1 X126.760 Y74.977 E3.61809
G1 X129.250 Y74.977 E3.68289
G1 X129.250 Y77.466 E3.74769
G1 X131.010 Y79.227 E3.81249
G1 X129.250 Y80.987 E3.87730
G1 X129.250 Y83.476 E3.94210
G1 X126.760 Y83.476 E4.00690
G1 X125.053 Y85.184 E4.06975
G1 E2.06975 F1680.00000
G92 E0
G1 X119.250 Y71.929 F12000.000
G1 E2.00000 F1680.00000
G1 X116.760 Y71.929 E2.06480 F900.000
G1 X115.000 Y73.690 E2.12960
G1 X113.240 Y71.929 E2.19440
G1 X110.750 Y71.929 E2.25920
G1 X110.750 Y69.440 E2.32401
G1 X108.990 Y67.680 E2.38881
G1 X110.750 Y65.919 E2.45361
G1 X110.750 Y63.430 E2.51841
G1 X113.240 Y63.430 E2.58321
G1 X114.674 Y61.995 E2.63602
G1 X115.000 Y61.669 E2.64801 F900.000
G1 X116.760 Y63.430 E2.71282
G1 X119.250 Y63.430 E2.77762
G1 X119.250 Y65.919 E2.84242
G1 X121.010 Y67.680 E2.90722
G1 X119.250 Y69.440 E2.97202
G1 X119.250 Y71.854 E3.03487
G1 X125.000 Y62.143 F12000.000
G1 X123.240 Y60.382 E3.09967 F900.000
G1 X120.750 Y60.382 E3.16447
G1 X120.750 Y57.893 E3.22928
G1 X118.990 Y56.133 E3.29408
G1 X120.750 Y54.372 E3.35888
G1 X120.750 Y51.883 E3.42368
G1 X123.240 Y51.883 E3.48848
G1 X124.674 Y50.448 E3.54129
G1 X125.000 Y50.122 E3.55328 F900.000
G1 X126.760 Y51.883 E3.61809
G1 X129.250 Y51.883 E3.68289
G1 X129.250 Y54.372 E3.74769
G1 X131.010 Y56.133 E3.81249
G1 X129.250 Y57.893 E3.87729
G1 X129.250 Y60.382 E3.94210
G1 X126.760 Y60.382 E4.00690
G1 X125.053 Y62.090 E4.06974
G1 E2.06974 F1680.00000
G92 E0
G1 X130.750 Y48.835 F12000.000
G1 E2.00000 F1680.00000
G1 X130.750 Y46.346 E2.06480 F900.000
G1 X128.990 Y44.586 E2.12960
G1 X130.750 Y42.825 E2.19441
G1 X130.750 Y40.336 E2.25921
G1 X133.240 Y40.336 E2.32401
G1 X134.674 Y38.901 E2.37681
G1 X135.000 Y38.575 E2.38881 F900.000
G1 X136.760 Y40.336 E2.45361
G1 X139.250 Y40.336 E2.51841
G1 X139.250 Y42.825 E2.58321
G1 X141.010 Y44.586 E2.64802
G1 X139.250 Y46.346 E2.71282
G1 X139.250 Y48.835 E2.77762
G1 X136.760 Y48.835 E2.84242
G1 X135.000 Y50.596 E2.90722
G1 X133.240 Y48.835 E2.97202
G1 X130.825 Y48.835 E3.03487
G1 X125.000 Y39.049 F12000.000
G1 X123.240 Y37.288 E3.09967 F900.000
G1 X120.750 Y37.288 E3.16447
G1 X120.750 Y34.799 E3.22928
G1 X118.990 Y33.039 E3.29408
G1 X120.750 Y31.278 E3.35888
G1 X120.750 Y28.789 E3.42368
G1 X123.240 Y28.789 E3.48848
G1 X124.674 Y27.354 E3.54129
G1 X125.000 Y27.028 E3.55328 F900.000
G1 X126.760 Y28.789 E3.61809
G1 X129.250 Y28.789 E3.68289
G1 X129.250 Y31.278 E3.74769
G1 X131.010 Y33.039 E3.81249
G1 X129.250 Y34.799 E3.87729
G1 X129.250 Y37.288 E3.94210
G1 X126.760 Y37.288 E4.00690
G1 X125.053 Y38.996 E4.06974
G1 E2.06974 F1680.00000
G92 E0
G1 X130.750 Y25.741 F12000.000
G1 E2.00000 F1680.00000
G1 X130.750 Y23.252 E2.06480 F900.000
G1 X128.990 Y21.492 E2.12960
G1 X130.750 Y19.731 E2.19441
G1 X130.750 Y17.242 E2.25921
G1 X133.240 Y17.242 E2.32401
G1 X134.674 Y15.807 E2.37681
G1 X135.000 Y15.481 E2.38881 F900.000
G1 X136.760 Y17.242 E2.45361
G1 X139.250 Y17.242 E2.51841
G1 X139.250 Y19.731 E2.58321
G1 X141.010 Y21.492 E2.64802
G1 X139.250 Y23.252 E2.71282
G1 X139.250 Y25.741 E2.77762
G1 X136.760 Y25.741 E2.84242
G1 X135.000 Y27.502 E2.90722
G1 X133.240 Y25.741 E2.97202
G1 X130.825 Y25.741 E3.03487
G1 X121.010 Y21.492 F12000.000
G1 X119.250 Y23.252 E3.09967 F900.000
G1 X119.250 Y25.741 E3.16448
G1 X116.760 Y25.741 E3.22928
G1 X115.000 Y27.502 E3.29408
G1 X113.240 Y25.741 E3.35888
G1 X110.750 Y25.741 E3.42368
G1 X110.750 Y23.252 E3.48848
G1 X108.990 Y21.492 E3.55328
G1 X110.750 Y19.731 E3.61809
G1 X110.750 Y17.242 E3.68289
G1 X113.240 Y17.242 E3.74769
G1 X114.674 Y15.807 E3.80049
G1 X115.000 Y15.481 E3.81249 F900.000
G1 X116.760 Y17.242 E3.87729
G1 X119.250 Y17.242 E3.94209
G1 X119.250 Y19.731 E4.00689
G1 X120.957 Y21.438 E4.06974
G1 E2.06974 F1680.00000
G92 E0
G1 X109.250 Y28.789 F12000.000
G1 E2.00000 F1680.00000
G1 X109.250 Y31.278 E2.06480 F900.000
G1 X111.010 Y33.039 E2.12960
G1 X109.250 Y34.799 E2.19440
G1 X109.250 Y37.288 E2.25921
G1 X106.760 Y37.288 E2.32401
G1 X105.000 Y39.049 E2.38881
G1 X103.240 Y37.288 E2.45361
