; generated by Slic3r 1.2.1 on 2014-12-07 at 10:43:58

; external perimeters extrusion width = 0.50mm
; perimeters extrusion width = 0.50mm
; infill extrusion width = 0.50mm
; solid infill extrusion width = 0.50mm
; top infill extrusion width = 0.50mm

M104 S190 ; set temperature
G28 ; home all axes
G1 Z15 F120 ; lift nozzle
M109 S190 ; wait for temperature to be reached
G21 ; set units to millimeters
G90 ; use absolute coordinates
M82 ; use absolute distances for extrusion
G92 E0
M106 S102
G1 E-2.00000 F1680.000
G92 E0
G1 Z0.350 F12000.000
G1 X57.196 Y46.407 F12000.000
G1 E2.00000 F1680.000
G1 X57.677 Y45.856 E2.02059 F1200.000
G1 X60.031 Y43.453 E2.11529
G1 X60.902 Y42.710 E2.14753
G1 X63.100 Y41.149 E2.22343
G1 X64.960 Y39.928 E2.28606
G1 X66.303 Y39.259 E2.32829
G1 X68.375 Y38.514 E2.39027
G1 X68.972 Y38.332 E2.40786
G1 X70.887 Y37.847 E2.46347
G1 X72.071 Y37.662 E2.49721
G1 X73.821 Y37.568 E2.54655
G1 X98.210 Y37.656 E3.23315
G1 X98.719 Y37.678 E3.24747 F1200.000
G1 X100.687 Y37.841 E3.30308
G1 X103.158 Y38.183 E3.37329
G1 X104.832 Y38.660 E3.42230
G1 X106.824 Y39.537 E3.48357
G1 X108.755 Y40.457 E3.54379
G1 X110.207 Y41.409 E3.59267
G1 X113.278 Y44.079 E3.70723
G1 X114.731 Y45.417 E3.76283
G1 X115.382 Y46.112 E3.78966
G1 X118.461 Y49.931 E3.92776
G1 X118.909 Y50.561 E3.94952
G1 X121.757 Y55.120 E4.10085
G1 X123.063 Y57.528 E4.17798
G1 X125.305 Y62.296 E4.32630
G1 X125.770 Y63.469 E4.36183
G1 X126.218 Y64.728 E4.39942
G1 X126.399 Y65.350 E4.41768
G1 X126.529 Y65.951 E4.43498
G1 X126.854 Y67.899 E4.49058
G1 X126.930 Y69.358 E4.53169
G1 X125.121 Y98.479 E5.35309
G1 X125.045 Y99.139 E5.37180
G1 X124.720 Y101.087 E5.42740
G1 X124.032 Y103.091 E5.48705
G1 X123.092 Y104.828 E5.54265
G1 X122.828 Y105.272 E5.55719
G1 X108.572 Y127.209 E6.29370
G1 X107.535 Y128.437 E6.33896
G1 X106.082 Y129.775 E6.39457
G1 X104.308 Y130.934 E6.45422
G1 X102.499 Y131.727 E6.50982
G1 X100.445 Y132.247 E6.56947
G1 X98.477 Y132.410 E6.62507
G1 X97.442 Y132.432 E6.65420
G1 X96.407 Y132.349 E6.68344
G1 X94.707 Y132.072 E6.73193
G1 X94.162 Y131.958 E6.74760
G1 X92.247 Y131.473 E6.80320
G1 X91.785 Y131.338 E6.81678
G1 X89.580 Y130.600 E6.88224
G1 X88.979 Y130.365 E6.90039
G1 X86.621 Y129.303 E6.97319
G1 X86.049 Y129.010 E6.99128
G1 X60.294 Y114.134 E7.82859
G1 X57.019 Y112.042 E7.93801
G1 X55.320 Y110.932 E7.99514
G1 X54.339 Y110.145 E8.03055
G1 X51.801 Y107.662 E8.13050
G1 X51.223 Y107.014 E8.15494
G1 X49.764 Y105.118 E8.22227
G1 X47.698 Y102.076 E8.32579
G1 X47.141 Y101.073 E8.35811
G1 X45.537 Y97.462 E8.46934
G1 X45.331 Y96.939 E8.48515
G1 X44.690 Y95.071 E8.54076
G1 X44.023 Y92.855 E8.60589
G1 X43.872 Y92.236 E8.62384
G1 X43.471 Y90.159 E8.68340
G1 X43.386 Y89.580 E8.69986
G1 X43.158 Y87.303 E8.76429
G1 X43.128 Y86.833 E8.77756
G1 X43.060 Y84.268 E8.84980
G1 X43.061 Y81.939 E8.91536
G1 X43.129 Y79.551 E8.98262
G1 X43.341 Y76.939 E9.05639
G1 X43.711 Y74.382 E9.12912
G1 X44.245 Y71.860 E9.20169
G1 X44.354 Y71.431 E9.21414
G1 X45.771 Y66.583 E9.35635
G1 X46.509 Y64.452 E9.41983
G1 X48.098 Y60.406 E9.54220
G1 X48.378 Y59.790 E9.56124
G1 X50.347 Y56.002 E9.68143
G1 X50.665 Y55.457 E9.69919
G1 X53.127 Y51.678 E9.82616
G1 X53.437 Y51.244 E9.84118
G1 X57.150 Y46.466 E10.01153
G1 E8.01153 F1680.000
G92 E0
G1 X66.356 Y55.244 F12000.000
G1 E2.00000 F1680.000
G1 X68.736 Y52.815 E2.08851 F720.000
G1 X70.980 Y51.221 E2.16016
G1 X73.118 Y50.452 E2.21929
G1 X74.508 Y50.366 E2.25556
G1 X75.928 Y50.554 E2.29282
G1 X76.161 Y50.585 E2.29895 F720.000
G1 X78.194 Y51.117 E2.35366
G1 X81.062 Y52.066 E2.43228
G1 X84.056 Y52.928 E2.51337
G1 X86.724 Y53.167 E2.58309
G1 X89.565 Y52.777 E2.65774
G1 X96.314 Y50.783 E2.84092
G1 X98.890 Y50.453 E2.90853
G1 X100.714 Y50.714 E2.95648
G1 X102.304 Y51.471 E3.00231
G1 X105.278 Y54.055 E3.10486
G1 X108.380 Y57.903 E3.23352
G1 X111.244 Y62.488 E3.37422
G1 X113.497 Y67.278 E3.51200
G1 X114.072 Y68.842 E3.55539
G1 X113.653 Y69.151 E3.56895
G1 X111.789 Y70.334 E3.62641
G1 X110.968 Y70.951 E3.65313
G1 X110.127 Y71.662 E3.68181
G1 X109.317 Y72.425 E3.71077
G1 X107.449 Y74.577 E3.78493
G1 X106.097 Y76.831 E3.85334
G1 X105.207 Y79.285 E3.92129
G1 X104.734 Y82.042 E3.99412
G1 X104.672 Y85.956 E4.09599
G1 X105.101 Y88.847 E4.17206
G1 X106.012 Y91.475 E4.24447
G1 X107.403 Y93.834 E4.31575
G1 X108.266 Y94.854 E4.35052
G1 X109.426 Y96.031 E4.39354
G1 X110.607 Y97.100 E4.43499
G1 X111.540 Y97.803 E4.46541
G1 X112.110 Y98.151 E4.48280
G1 X111.731 Y98.629 E4.49867
G1 X110.751 Y99.711 E4.53666
G1 X109.520 Y100.851 E4.58035
G1 X108.221 Y101.889 E4.62361
G1 X107.037 Y102.670 E4.66053
G1 X104.821 Y103.722 E4.72440
G1 X103.095 Y104.248 E4.77136
G1 X100.568 Y104.624 E4.83786
G1 X97.837 Y104.666 E4.90896
G1 X96.324 Y104.557 E4.94844
G1 X94.980 Y104.351 E4.98383
G1 X93.685 Y104.024 E5.01859
G1 X92.372 Y103.570 E5.05477
G1 X92.193 Y103.571 E5.05941
G1 X91.657 Y103.745 E5.07407
G1 X91.657 Y104.312 E5.08881
G1 X91.742 Y104.600 E5.09665
G1 X92.198 Y105.295 E5.11829
G1 X93.064 Y106.421 E5.15526
G1 X95.201 Y109.395 E5.25057
G1 X96.683 Y112.229 E5.33383
G1 X97.592 Y115.135 E5.41308
G1 X98.018 Y118.318 E5.49666
G1 X98.102 Y119.629 E5.53086
G1 X96.383 Y119.349 E5.57618
G1 X94.147 Y118.601 E5.63755
G1 X91.767 Y117.528 E5.70552
G1 X89.578 Y116.266 E5.77128
G1 X86.881 Y114.017 E5.86270
G1 X84.853 Y111.562 E5.94556
G1 X83.171 Y108.624 E6.03369
G1 X82.037 Y105.342 E6.12408
G1 X81.807 Y104.392 E6.14951
G1 X81.625 Y103.809 E6.16541
G1 X81.470 Y103.516 E6.17404
G1 X81.027 Y102.908 E6.19362
G1 X80.357 Y103.069 E6.21157
G1 X76.944 Y104.118 E6.30450
G1 X75.158 Y104.487 E6.35199
G1 X73.536 Y104.615 E6.39434
G1 X71.977 Y104.516 E6.43500
G1 X70.324 Y104.251 E6.47857
G1 X68.913 Y103.893 E6.51646
G1 X67.542 Y103.381 E6.55455
G1 X66.008 Y102.651 E6.59877
G1 X62.953 Y100.692 E6.69323
G1 X60.468 Y98.261 E6.78371
G1 X58.747 Y95.726 E6.86347
G1 X57.127 Y92.080 E6.96731
G1 X56.533 Y90.088 E7.02143
G1 X56.128 Y87.988 E7.07711
G1 X55.898 Y85.690 E7.13720
G1 X55.829 Y83.109 E7.20441
G1 X55.898 Y80.707 E7.26696
G1 X56.091 Y78.445 E7.32605
G1 X56.415 Y76.276 E7.38313
G1 X56.877 Y74.154 E7.43967
G1 X58.206 Y69.580 E7.56366
G1 X59.804 Y65.511 E7.67744
G1 X61.785 Y61.700 E7.78922
G1 X64.094 Y58.156 E7.89932
G1 X66.310 Y55.303 E7.99335
G1 E5.99335 F1680.000
G92 E0
G1 X104.507 Y45.839 F12000.000
G1 E2.00000 F1680.000
G1 X105.848 Y46.479 E2.03868 F720.000
G1 X108.752 Y49.001 E2.13879
G1 X110.188 Y50.324 E2.18962
G1 X113.246 Y54.116 E2.31643
G1 X116.082 Y58.656 E2.45576
G1 X117.015 Y60.380 E2.50678
G1 X119.250 Y65.133 E2.64349
G1 X119.740 Y66.447 E2.68000
G1 X119.936 Y67.063 E2.69682
G1 X120.252 Y68.958 E2.74684
G1 X119.941 Y70.824 E2.79607
G1 X119.035 Y72.498 E2.84559
G1 X117.506 Y73.921 E2.89998
G1 X117.189 Y74.155 E2.91023
G1 X116.703 Y74.471 E2.92531
G1 X115.323 Y75.338 E2.96774
G1 X114.477 Y75.975 E2.99530
G1 X114.137 Y76.263 E3.00691
G1 X112.317 Y78.359 E3.07916
G1 X111.701 Y79.386 E3.11032
G1 X110.936 Y81.496 E3.16876
G1 X110.773 Y82.447 E3.19385
G1 X110.711 Y85.599 E3.27591
G1 X110.891 Y86.808 E3.30773
G1 X111.651 Y89.001 E3.36814
G1 X112.268 Y90.048 E3.39977
G1 X113.171 Y91.114 E3.43614
G1 X114.127 Y92.084 E3.47159
G1 X115.080 Y92.803 E3.50265
G1 X115.827 Y93.257 E3.52543
G1 X117.231 Y94.550 E3.57511
G1 X118.132 Y96.214 E3.62435
G1 X118.443 Y98.079 E3.67359
G1 X118.132 Y99.945 E3.72282
G1 X117.222 Y101.627 E3.77259
G1 X116.623 Y102.383 E3.79769
G1 X115.670 Y103.436 E3.83467
G1 X113.014 Y105.887 E3.92872
G1 X111.748 Y106.899 E3.97092
G1 X110.612 Y107.648 E4.00633
G1 X108.359 Y108.717 E4.07124
G1 X106.568 Y109.503 E4.12217
G1 X104.251 Y110.209 E4.18520
G1 X102.553 Y110.462 E4.22990
G1 X103.318 Y112.907 E4.29659
G1 X103.639 Y114.835 E4.34744
G1 X104.060 Y117.975 E4.42991
G1 X104.189 Y120.004 E4.48283
G1 X103.876 Y121.882 E4.53240
G1 X102.975 Y123.546 E4.58164
G1 X101.584 Y124.827 E4.63088
G1 X99.851 Y125.587 E4.68012
G1 X97.935 Y125.746 E4.73017
G1 X97.462 Y125.746 E4.74247
G1 X95.793 Y125.474 E4.78650
G1 X93.898 Y124.994 E4.83738
G1 X91.714 Y124.263 E4.89733
G1 X89.378 Y123.211 E4.96400
G1 X87.236 Y121.976 E5.02836
G1 X85.601 Y120.907 E5.07921
G1 X82.967 Y118.711 E5.16849
G1 X80.667 Y115.926 E5.26249
G1 X79.467 Y114.385 E5.31334
G1 X77.684 Y111.272 E5.40670
G1 X77.328 Y110.240 E5.43511
G1 X76.354 Y110.442 E5.46101
G1 X72.830 Y110.727 E5.55302
G1 X71.331 Y110.632 E5.59213
G1 X69.724 Y110.374 E5.63450
G1 X66.446 Y109.544 E5.72250
G1 X65.121 Y109.049 E5.75932
G1 X63.635 Y108.342 E5.80215
G1 X58.997 Y105.348 E5.94584
G1 X56.489 Y102.894 E6.03718
G1 X55.291 Y101.355 E6.08794
G1 X53.242 Y98.338 E6.18286
G1 X51.652 Y94.758 E6.28484
G1 X51.016 Y92.905 E6.33584
G1 X50.435 Y90.957 E6.38875
G1 X50.038 Y88.903 E6.44320
G1 X49.812 Y86.646 E6.50223
G1 X49.744 Y84.094 E6.56869
G1 X49.744 Y82.125 E6.61992
G1 X49.812 Y79.748 E6.68183
G1 X50.003 Y77.516 E6.74014
G1 X50.322 Y75.379 E6.79638
G1 X50.777 Y73.289 E6.85204
G1 X52.097 Y68.748 E6.97513
G1 X52.734 Y66.891 E7.02624
G1 X54.317 Y62.862 E7.13890
G1 X56.274 Y59.097 E7.24936
G1 X58.724 Y55.337 E7.36617
G1 X61.259 Y52.072 E7.47377
G1 X62.463 Y50.525 E7.52480
G1 X64.792 Y48.148 E7.61141
G1 X66.968 Y46.603 E7.68087
G1 X68.593 Y45.541 E7.73140
G1 X70.626 Y44.810 E7.78763
G1 X72.506 Y44.334 E7.83811
G1 X73.795 Y44.255 E7.87175
G1 X75.628 Y44.406 E7.91961
G1 X77.331 Y44.626 E7.96431 F720.000
G1 X79.405 Y45.169 E8.02011
G1 X82.181 Y46.094 E8.09628
G1 X85.230 Y46.971 E8.17886
G1 X86.093 Y47.048 E8.20141
G1 X88.447 Y46.726 E8.26325
G1 X93.815 Y45.141 E8.40894
G1 X95.711 Y44.661 E8.45984
G1 X98.193 Y44.343 E8.52496
G1 X100.127 Y44.504 E8.57550
G1 X102.177 Y44.797 E8.62939
G1 X103.951 Y45.575 E8.67982
G1 X104.439 Y45.807 E8.69388
G1 X104.390 Y46.086 F12000.000
G1 X113.765 Y55.460 E9.03897 F1200.000
G1 X114.719 Y56.987 F12000.000
G1 X103.332 Y45.601 E9.45812 F1200.000
G1 X102.311 Y45.153 F12000.000
G1 X115.672 Y58.514 E9.94996 F1200.000
G1 X116.399 Y59.814 F12000.000
G1 X101.570 Y44.985 E10.49582 F1200.000
G1 X100.902 Y44.890 E10.51340
G1 X117.000 Y60.988 E11.10599
G1 X117.509 Y62.070 F12000.000
G1 X100.233 Y44.794 E11.74192 F1200.000
G1 X99.599 Y44.733 E11.75849
G1 X118.017 Y63.151 E12.43647
G1 X118.526 Y64.233 F12000.000
G1 X98.974 Y44.681 E13.15618 F1200.000
G1 X98.350 Y44.630 E13.17250
G1 X119.022 Y65.302 E13.93345
G1 X119.351 Y66.204 F12000.000
G1 X97.813 Y44.667 E14.72626 F1200.000
G1 X97.305 Y44.732 E14.73959
G1 X119.660 Y67.086 E15.56248
G1 X119.779 Y67.778 E15.58075
G1 X96.797 Y44.797 E16.42672
G1 X96.289 Y44.862 E16.44005
G1 X104.089 Y52.662 E16.72717
G1 X101.770 Y50.915 F12000.000
G1 X95.781 Y44.927 E16.94761 F1200.000
G1 X95.322 Y45.041 E16.95993
G1 X100.721 Y50.440 E17.15868
G1 X100.053 Y50.344 E17.17626
G1 X94.865 Y45.156 E17.36722
G1 X94.408 Y45.272 E17.37950
G1 X99.384 Y50.249 E17.56269
G1 X98.758 Y50.196 E17.57904
G1 X93.950 Y45.388 E17.75601
G1 X93.506 Y45.517 E17.76805
G1 X98.250 Y50.261 E17.94268
G1 X97.742 Y50.326 E17.95601
G1 X93.063 Y45.647 E18.12823
G1 X92.621 Y45.778 E18.14024
G1 X97.234 Y50.391 E18.31004
G1 X96.726 Y50.456 E18.32337
G1 X92.178 Y45.908 E18.49076
G1 X91.736 Y46.039 E18.50277
G1 X96.223 Y50.526 E18.66794
G1 X95.781 Y50.657 E18.67994
G1 X91.294 Y46.170 E18.84511
G1 X90.851 Y46.300 E18.85712
G1 X95.338 Y50.787 E19.02230
G1 X94.896 Y50.918 E19.03430
G1 X90.409 Y46.431 E19.19948
G1 X89.966 Y46.561 E19.21149
G1 X94.454 Y51.049 E19.37667
G1 X94.011 Y51.179 E19.38868
G1 X89.524 Y46.692 E19.55387
G1 X89.081 Y46.822 E19.56587
G1 X93.569 Y51.310 E19.73107
G1 X93.127 Y51.441 E19.74307
G1 X88.639 Y46.953 E19.90827
G1 X88.154 Y47.041 E19.92110
G1 X92.684 Y51.572 E20.08788
G1 X92.242 Y51.702 E20.09989
G1 X87.650 Y47.110 E20.26893
G1 X87.146 Y47.179 E20.28217
G1 X91.800 Y51.833 E20.45348
G1 X91.357 Y51.964 E20.46549
G1 X86.642 Y47.248 E20.63907
G1 X86.138 Y47.317 E20.65231
G1 X90.915 Y52.094 E20.82816
G1 X90.472 Y52.225 E20.84016
G1 X85.518 Y47.270 E21.02255
G1 X84.807 Y47.133 E21.04139
G1 X90.030 Y52.356 E21.23366
G1 X89.588 Y52.486 E21.24566
G1 X84.003 Y46.901 E21.45125
G1 X83.198 Y46.670 E21.47304
G1 X89.095 Y52.567 E21.69011
G1 X88.591 Y52.636 E21.70335
G1 X82.394 Y46.439 E21.93148
G1 X81.554 Y46.172 E21.95440
G1 X88.087 Y52.705 E22.19488
G1 X87.583 Y52.774 E22.20812
G1 X80.695 Y45.886 E22.46168
G1 X79.835 Y45.599 E22.48526
G1 X87.079 Y52.843 E22.75191
G1 X86.540 Y52.877 E22.76597
G1 X79.010 Y45.347 E23.04315
G1 X78.234 Y45.144 E23.06404
G1 X85.910 Y52.820 E23.34662
G1 X85.281 Y52.764 E23.36307
G1 X77.457 Y44.941 E23.65106
G1 X76.772 Y44.829 E23.66912
G1 X84.651 Y52.707 E23.95915
G1 X83.998 Y52.628 E23.97627
G1 X76.115 Y44.744 E24.26647
G1 X75.464 Y44.666 E24.28353
G1 X83.194 Y52.396 E24.56807
G1 X82.390 Y52.165 E24.58986
G1 X74.839 Y44.615 E24.86779
G1 X74.214 Y44.563 E24.88411
G1 X81.585 Y51.933 E25.15543
G1 X80.757 Y51.679 E25.17798
G1 X73.617 Y44.539 E25.44080
G1 X73.077 Y44.572 E25.45488
G1 X79.900 Y51.395 E25.70604
G1 X79.044 Y51.111 E25.72953
G1 X72.539 Y44.607 E25.96897
G1 X72.082 Y44.723 E25.98125
G1 X78.195 Y50.836 E26.20628
G1 X77.419 Y50.632 E26.22717
G1 X71.625 Y44.838 E26.44045
G1 X71.167 Y44.954 E26.45273
G1 X76.642 Y50.429 E26.65427
G1 X75.918 Y50.278 E26.67353
G1 X70.710 Y45.070 E26.86524
G1 X70.288 Y45.221 E26.87690
G1 X75.258 Y50.191 E27.05983
G1 X74.598 Y50.103 E27.07717
G1 X69.867 Y45.373 E27.25131
G1 X69.445 Y45.524 E27.26297
G1 X74.043 Y50.122 E27.43222
G1 X73.503 Y50.155 E27.44630
G1 X69.024 Y45.676 E27.61120
G1 X68.622 Y45.847 E27.62256
G1 X72.985 Y50.210 E27.78317
G1 X72.564 Y50.362 E27.79483
G1 X68.276 Y46.074 E27.95267
G1 X67.929 Y46.300 E27.96345
G1 X72.142 Y50.513 E28.11854
G1 X71.721 Y50.665 E28.13019
G1 X67.582 Y46.527 E28.28253
G1 X67.236 Y46.753 E28.29330
G1 X71.299 Y50.816 E28.44288
G1 X70.878 Y50.968 E28.45453
G1 X66.897 Y46.987 E28.60107
G1 X66.562 Y47.225 E28.61177
G1 X70.537 Y51.201 E28.75811
G1 X70.202 Y51.439 E28.76881
G1 X66.227 Y47.463 E28.91515
G1 X65.892 Y47.701 E28.92585
G1 X69.867 Y51.677 E29.07219
G1 X69.532 Y51.915 E29.08289
G1 X65.557 Y47.939 E29.22923
G1 X65.222 Y48.177 E29.23993
G1 X69.197 Y52.153 E29.38627
G1 X68.862 Y52.391 E29.39697
G1 X64.913 Y48.441 E29.54235
G1 X64.626 Y48.728 E29.55289
G1 X68.532 Y52.633 E29.69666
G1 X68.248 Y52.923 E29.70721
G1 X64.340 Y49.014 E29.85108
G1 X64.053 Y49.301 E29.86163
G1 X67.965 Y53.212 E30.00562
G1 X67.681 Y53.502 E30.01616
G1 X63.767 Y49.587 E30.16026
G1 X63.481 Y49.875 E30.17080
G1 X67.397 Y53.791 E30.31496
G1 X67.114 Y54.081 E30.32550
G1 X63.198 Y50.165 E30.46966
G1 X62.914 Y50.454 E30.48020
G1 X66.830 Y54.370 E30.62436
G1 X66.547 Y54.660 E30.63491
G1 X62.635 Y50.748 E30.77889
G1 X62.385 Y51.071 E30.78952
G1 X66.263 Y54.949 E30.93230
G1 X66.000 Y55.259 E30.94288
G1 X62.134 Y51.393 E31.08517
G1 X61.883 Y51.715 E31.09580
G1 X65.749 Y55.581 E31.23810
G1 X65.499 Y55.904 E31.24873
G1 X61.633 Y52.038 E31.39104
G1 X61.382 Y52.360 E31.40166
G1 X65.248 Y56.226 E31.54397
G1 X64.998 Y56.549 E31.55460
G1 X61.131 Y52.683 E31.69691
G1 X60.881 Y53.005 E31.70754
G1 X64.747 Y56.871 E31.84985
G1 X64.496 Y57.194 E31.86048
G1 X60.630 Y53.328 E32.00280
G1 X60.380 Y53.650 E32.01343
G1 X64.246 Y57.516 E32.15575
G1 X63.995 Y57.839 E32.16638
G1 X60.129 Y53.973 E32.30871
G1 X59.878 Y54.295 E32.31934
G1 X63.757 Y58.174 E32.46212
G1 X63.531 Y58.521 E32.47290
G1 X59.628 Y54.617 E32.61659
G1 X59.377 Y54.940 E32.62722
G1 X63.305 Y58.868 E32.77181
G1 X63.079 Y59.215 E32.78259
G1 X59.127 Y55.262 E32.92809
G1 X58.883 Y55.592 E32.93875
G1 X62.853 Y59.562 E33.08490
G1 X62.627 Y59.909 E33.09568
G1 X58.657 Y55.939 E33.24182
G1 X58.431 Y56.286 E33.25260
G1 X62.401 Y60.256 E33.39875
G1 X62.175 Y60.603 E33.40953
