; generated by Slic3r 0.9.10b on 2013-11-16 at 22:10:37

; layer_height = 0.3
; perimeters = 1
; top_solid_layers = 2
; bottom_solid_layers = 2
; fill_density = 0.5
; perimeter_speed = 30
; infill_speed = 30
; travel_speed = 200
; nozzle_diameter = 0.5
; filament_diameter = 2.98
; extrusion_multiplier = 0.9
; perimeters extrusion width = 0.50mm
; infill extrusion width = 0.50mm
; solid infill extrusion width = 0.50mm
; top infill extrusion width = 0.50mm

G21 ; set units to millimeters
M107
M104 S190 ; set temperature
G28 ; home all axes
G1 Z15 F120 ; lift nozzle
M109 S190 ; wait for temperature to be reached
G90 ; use absolute coordinates
G92 E0
M82 ; use absolute distances for extrusion
G1 F1680.000 E-2.00000
G92 E0
G1 Z0.450 F12000.000
G1 X31.120 Y31.156
G1 F1680.000 E2.00000
G1 X31.790 Y30.496 F900.000 E2.02731
G1 X32.740 Y29.636 E2.06451
G1 X33.370 Y29.096 E2.08860
G1 X34.190 Y28.436 E2.11916
G1 X35.030 Y27.806 E2.14965
G1 X35.850 Y27.226 E2.17881
G1 X36.930 Y26.516 E2.21634
G1 X38.450 Y25.616 E2.26762
G1 X39.650 Y24.976 E2.30711
G1 X41.540 Y24.096 E2.36764
G1 X42.410 Y23.746 E2.39486
G1 X43.420 Y23.366 E2.42620
G1 X44.420 Y23.026 E2.45686
G1 X45.210 Y22.786 E2.48083
G1 X46.180 Y22.516 E2.51007
G1 X47.150 Y22.276 E2.53908
G1 X48.440 Y22.006 E2.57734
G1 X49.260 Y21.866 E2.60150
G1 X50.470 Y21.696 E2.63697
G1 X51.300 Y21.606 E2.66121
G1 X52.520 Y21.516 E2.69673
G1 X53.580 Y21.466 E2.72754
G1 X54.390 Y21.456 E2.75106
G1 X113.570 Y21.456 E4.46927
G1 X114.640 Y21.476 E4.50034
G1 X115.630 Y21.526 E4.52912
G1 X116.690 Y21.606 E4.55999
G1 X117.760 Y21.726 E4.59125
G1 X118.730 Y21.866 E4.61970
G1 X119.550 Y22.006 E4.64386
G1 X120.820 Y22.266 E4.68149
G1 X121.600 Y22.456 E4.70480
G1 X123.570 Y23.026 E4.76434
G1 X124.800 Y23.446 E4.80208
G1 X125.580 Y23.746 E4.82634
G1 X126.450 Y24.096 E4.85357
G1 X127.590 Y24.616 E4.88995
G1 X128.340 Y24.976 E4.91410
G1 X129.480 Y25.586 E4.95164
G1 X130.370 Y26.096 E4.98142
G1 X131.260 Y26.646 E5.01180
G1 X132.140 Y27.226 E5.04240
G1 X133.630 Y28.306 E5.09583
G1 X134.410 Y28.926 E5.12476
G1 X135.380 Y29.756 E5.16182
G1 X136.200 Y30.496 E5.19389
G1 X136.790 Y31.076 E5.21791
G1 X137.450 Y31.746 E5.24522
G1 X138.310 Y32.696 E5.28242
G1 X138.990 Y33.496 E5.31291
G1 X139.640 Y34.316 E5.34329
G1 X140.240 Y35.126 E5.37255
G1 X141.260 Y36.606 E5.42474
G1 X142.330 Y38.406 E5.48554
G1 X142.970 Y39.606 E5.52502
G1 X143.330 Y40.356 E5.54918
G1 X143.850 Y41.496 E5.58556
G1 X144.200 Y42.366 E5.61278
G1 X144.500 Y43.146 E5.63705
G1 X144.920 Y44.376 E5.67478
G1 X145.430 Y46.136 E5.72798
G1 X145.670 Y47.106 E5.75700
G1 X145.940 Y48.396 E5.79526
G1 X146.080 Y49.216 E5.81941
G1 X146.240 Y50.346 E5.85255
G1 X146.340 Y51.196 E5.87740
G1 X146.430 Y52.476 E5.91465
G1 X146.480 Y53.536 E5.94546
G1 X146.490 Y54.376 E5.96985
G1 X146.420 Y56.686 E6.03695
G1 X146.260 Y58.416 E6.08739
G1 X146.070 Y59.726 E6.12583
G1 X145.890 Y60.736 E6.15561
G1 X145.670 Y61.796 E6.18704
G1 X145.430 Y62.766 E6.21606
G1 X145.160 Y63.736 E6.24529
G1 X144.920 Y64.526 E6.26926
G1 X144.500 Y65.756 E6.30700
G1 X143.850 Y67.406 E6.35849
G1 X142.970 Y69.296 E6.41902
G1 X142.330 Y70.496 E6.45850
G1 X141.890 Y71.256 E6.48400
G1 X141.450 Y71.996 E6.50899
G1 X140.810 Y72.966 E6.54274
G1 X140.140 Y73.916 E6.57649
G1 X139.510 Y74.756 E6.60697
G1 X138.850 Y75.576 E6.63753
G1 X138.310 Y76.206 E6.66162
G1 X82.090 Y137.406 E9.07442
G1 X81.700 Y137.796 E9.09043
G1 X79.360 Y139.946 E9.18269
G1 X78.810 Y140.396 E9.20332
G1 X78.220 Y140.776 E9.22370
G1 X75.480 Y142.366 E9.31568
G1 X74.870 Y142.686 E9.33568
G1 X74.230 Y142.926 E9.35552
G1 X71.210 Y143.906 E9.44770
G1 X70.530 Y144.086 E9.46813
G1 X69.840 Y144.196 E9.48841
G1 X66.680 Y144.506 E9.58060
G1 X66.050 Y144.536 E9.59891
G1 X42.890 Y144.536 E10.27133
G1 X42.260 Y144.506 E10.28964
G1 X39.100 Y144.196 E10.38183
G1 X38.400 Y144.086 E10.40240
G1 X37.720 Y143.906 E10.42283
G1 X34.710 Y142.926 E10.51473
G1 X34.070 Y142.676 E10.53468
G1 X33.460 Y142.366 E10.55455
G1 X30.720 Y140.776 E10.64653
G1 X30.140 Y140.396 E10.66666
G1 X29.600 Y139.956 E10.68688
G1 X27.710 Y138.236 E10.76108
G1 X27.180 Y137.736 E10.78223
G1 X26.730 Y137.266 E10.80112
G1 X26.330 Y136.756 E10.81994
G1 X24.500 Y134.166 E10.91202
G1 X24.130 Y133.576 E10.93224
G1 X23.820 Y132.936 E10.95288
G1 X22.590 Y130.016 E11.04488
G1 X22.360 Y129.366 E11.06489
G1 X22.190 Y128.696 E11.08496
G1 X21.610 Y125.606 E11.17624
G1 X21.530 Y125.006 E11.19382
G1 X21.500 Y124.406 E11.21126
G1 X21.500 Y54.366 E13.24478
G1 X21.520 Y53.306 E13.27556
G1 X21.630 Y51.486 E13.32850
G1 X21.770 Y50.146 E13.36762
G1 X22.050 Y48.426 E13.41821
G1 X22.320 Y47.106 E13.45733
G1 X22.560 Y46.136 E13.48634
G1 X23.070 Y44.376 E13.53954
G1 X23.490 Y43.146 E13.57728
G1 X24.140 Y41.496 E13.62877
G1 X24.660 Y40.356 E13.66515
G1 X25.020 Y39.606 E13.68930
G1 X25.660 Y38.406 E13.72879
G1 X26.560 Y36.886 E13.78007
G1 X27.270 Y35.806 E13.81760
G1 X28.350 Y34.316 E13.87103
G1 X28.970 Y33.536 E13.89996
G1 X29.800 Y32.566 E13.93702
G1 X30.540 Y31.746 E13.96909
G1 X31.067 Y31.209 E13.99094
G1 F1680.000 E11.99094
G92 E0
G1 X54.474 Y91.245 F12000.000
G1 F1680.000 E2.00000
G1 X54.910 Y91.840 F720.000 E2.02140
G1 X55.735 Y92.839 E2.05904
G1 X56.683 Y93.896 E2.10025
G1 X57.736 Y95.003 E2.14462
G1 X58.879 Y96.152 E2.19166
G1 X60.093 Y97.333 E2.24083
G1 X62.665 Y99.752 E2.34336
G1 X67.891 Y104.539 E2.54911
G1 X70.257 Y106.739 E2.64292
G1 X72.262 Y108.696 E2.72427
G1 X73.082 Y109.554 E2.75872
G1 X73.753 Y110.311 E2.78811
G1 X74.265 Y110.966 E2.81224
G1 X75.481 Y112.698 E2.87368
G1 X75.996 Y113.473 E2.90070
G1 X76.851 Y114.864 E2.94811
G1 X77.198 Y115.494 E2.96898
G1 X77.496 Y116.089 E2.98829
G1 X77.749 Y116.656 E3.00632
G1 X77.962 Y117.202 E3.02336
G1 X78.138 Y117.737 E3.03971
G1 X78.283 Y118.269 E3.05570
G1 X78.398 Y118.806 E3.07166
G1 X78.489 Y119.358 E3.08789
G1 X78.608 Y120.537 E3.12229
G1 X78.662 Y121.867 E3.16095
G1 X78.677 Y124.196 E3.22856
G1 X78.181 Y126.843 E3.30677
G1 X77.137 Y129.315 E3.38466
G1 X75.591 Y131.507 E3.46256
G1 X73.613 Y133.320 E3.54046
G1 X71.295 Y134.671 E3.61835
G1 X68.742 Y135.497 E3.69625
G1 X66.072 Y135.761 E3.77414
G1 X63.407 Y135.451 E3.85204
G1 X60.870 Y134.580 E3.92994
G1 X58.575 Y133.189 E4.00783
G1 X56.630 Y131.342 E4.08573
G1 X54.474 Y128.169 E4.19710
G1 X52.318 Y131.342 E4.30847
G1 X50.372 Y133.189 E4.38637
G1 X48.078 Y134.580 E4.46426
G1 X45.540 Y135.451 E4.54216
G1 X43.000 Y135.747 E4.61642
G1 X42.875 Y135.761 E4.62006
G1 X40.205 Y135.497 E4.69795
G1 X37.653 Y134.671 E4.77585
G1 X35.335 Y133.320 E4.85374
G1 X33.449 Y131.592 E4.92801
G1 X33.357 Y131.507 E4.93164
G1 X31.811 Y129.315 E5.00954
G1 X30.766 Y126.843 E5.08743
G1 X30.270 Y124.196 E5.16563
G1 X30.275 Y122.606 E5.21180
G1 X30.306 Y121.180 E5.25322
G1 X30.390 Y119.932 E5.28953
G1 X30.549 Y118.806 E5.32254
G1 X30.665 Y118.269 E5.33849
G1 X30.809 Y117.737 E5.35449
G1 X30.986 Y117.202 E5.37084
G1 X31.198 Y116.656 E5.38788
G1 X31.451 Y116.089 E5.40590
G1 X31.749 Y115.494 E5.42521
G1 X32.096 Y114.864 E5.44608
G1 X32.496 Y114.193 E5.46877
G1 X33.466 Y112.698 E5.52052
G1 X34.682 Y110.966 E5.58195
G1 X35.194 Y110.311 E5.60609
G1 X35.865 Y109.554 E5.63548
G1 X36.685 Y108.696 E5.66992
G1 X37.634 Y107.754 E5.70874
G1 X39.838 Y105.664 E5.79694
G1 X46.283 Y99.752 E6.05084
G1 X48.855 Y97.333 E6.15337
G1 X50.069 Y96.152 E6.20254
G1 X51.211 Y95.003 E6.24957
G1 X52.265 Y93.896 E6.29394
G1 X53.212 Y92.839 E6.33516
G1 X54.038 Y91.840 E6.37280
G1 X54.429 Y91.306 E6.39202
G1 X52.840 Y90.058 F12000.000
G1 X53.046 Y89.776 F720.000 E6.40216
G1 X54.474 Y87.436 E6.48175
G1 X55.902 Y89.776 E6.56135
G1 X56.504 Y90.598 E6.59093
G1 X57.267 Y91.521 E6.62569
G1 X58.167 Y92.525 E6.66485
G1 X59.185 Y93.595 E6.70771
G1 X60.299 Y94.716 E6.75361
G1 X62.745 Y97.065 E6.85206
G1 X65.354 Y99.483 E6.95534
G1 X69.258 Y103.052 E7.10891
G1 X71.647 Y105.274 E7.20363
G1 X73.704 Y107.281 E7.28710
G1 X74.569 Y108.185 E7.32343
G1 X75.307 Y109.019 E7.35573
G1 X75.884 Y109.758 E7.38297
G1 X76.556 Y110.701 E7.41660
G1 X77.691 Y112.374 E7.47528
G1 X78.174 Y113.136 E7.50149
G1 X78.605 Y113.861 E7.52595
G1 X78.987 Y114.554 E7.54894
G1 X79.322 Y115.224 E7.57069
G1 X79.614 Y115.877 E7.59146
G1 X79.864 Y116.520 E7.61148
G1 X80.074 Y117.156 E7.63094
G1 X80.246 Y117.792 E7.65005
G1 X80.384 Y118.429 E7.66899
G1 X80.490 Y119.073 E7.68795
G1 X80.568 Y119.729 E7.70711
G1 X80.660 Y121.096 E7.74690
G1 X80.693 Y122.586 E7.79018
G1 X80.698 Y124.383 E7.84234
G1 X80.127 Y127.429 E7.93233
G1 X78.913 Y130.301 E8.02285
G1 X77.116 Y132.849 E8.11337
G1 X74.818 Y134.956 E8.20390
G1 X72.124 Y136.526 E8.29442
G1 X69.157 Y137.486 E8.38495
G1 X66.752 Y137.724 E8.45511
G1 X66.055 Y137.793 E8.47547
G1 X62.958 Y137.432 E8.56600
G1 X60.008 Y136.420 E8.65652
G1 X57.342 Y134.804 E8.74705
G1 X55.081 Y132.657 E8.83757
G1 X54.474 Y131.763 E8.86894
G1 X53.867 Y132.657 E8.90031
G1 X51.605 Y134.804 E8.99084
G1 X48.939 Y136.420 E9.08136
G1 X45.990 Y137.432 E9.17189
G1 X43.590 Y137.711 E9.24205
G1 X42.893 Y137.793 E9.26241
G1 X39.790 Y137.486 E9.35294
G1 X36.824 Y136.526 E9.44346
G1 X34.130 Y134.956 E9.53399
G1 X32.348 Y133.323 E9.60415
G1 X31.832 Y132.849 E9.62451
G1 X30.034 Y130.301 E9.71504
G1 X28.821 Y127.429 E9.80556
G1 X28.250 Y124.383 E9.89554
G1 X28.255 Y122.586 E9.94771
G1 X28.288 Y121.096 E9.99098
G1 X28.379 Y119.729 E10.03077
G1 X28.458 Y119.073 E10.04994
G1 X28.564 Y118.429 E10.06889
G1 X28.701 Y117.792 E10.08783
G1 X28.874 Y117.156 E10.10694
G1 X29.084 Y116.520 E10.12641
G1 X29.334 Y115.877 E10.14642
G1 X29.625 Y115.224 E10.16719
G1 X29.961 Y114.554 E10.18895
G1 X30.343 Y113.861 E10.21193
G1 X31.256 Y112.374 E10.26260
G1 X32.391 Y110.701 E10.32129
G1 X33.063 Y109.758 E10.35491
G1 X33.641 Y109.019 E10.38215
G1 X34.379 Y108.185 E10.41445
G1 X35.243 Y107.281 E10.45078
G1 X37.301 Y105.274 E10.53425
G1 X39.690 Y103.052 E10.62897
G1 X44.910 Y98.271 E10.83448
G1 X47.455 Y95.876 E10.93595
G1 X48.648 Y94.716 E10.98427
G1 X49.763 Y93.595 E11.03017
G1 X50.780 Y92.525 E11.07303
G1 X51.681 Y91.521 E11.11219
G1 X52.443 Y90.598 E11.14695
G1 X52.795 Y90.118 E11.16422
G1 F1680.000 E9.16422
G92 E0
G1 X52.852 Y80.654 F12000.000
G1 F1680.000 E2.00000
G1 X52.007 Y80.587 F720.000 E2.02460
G1 X51.210 Y80.499 E2.04788
G1 X50.394 Y80.383 E2.07183
G1 X49.559 Y80.236 E2.09643
G1 X48.774 Y80.074 E2.11971
G1 X47.972 Y79.881 E2.14365
G1 X47.176 Y79.664 E2.16759
G1 X46.388 Y79.421 E2.19154
G1 X45.608 Y79.154 E2.21548
G1 X44.837 Y78.863 E2.23942
G1 X44.075 Y78.547 E2.26336
G1 X43.323 Y78.208 E2.28731
G1 X42.583 Y77.845 E2.31125
G1 X41.854 Y77.459 E2.33519
G1 X41.138 Y77.050 E2.35913
G1 X40.435 Y76.620 E2.38307
G1 X39.745 Y76.167 E2.40702
G1 X39.071 Y75.693 E2.43096
G1 X38.411 Y75.197 E2.45490
G1 X37.750 Y74.667 E2.47950
G1 X37.141 Y74.146 E2.50279
G1 X36.531 Y73.591 E2.52673
G1 X35.938 Y73.017 E2.55067
G1 X35.365 Y72.425 E2.57461
G1 X34.810 Y71.815 E2.59855
G1 X34.274 Y71.188 E2.62250
G1 X33.758 Y70.545 E2.64644
G1 X33.263 Y69.885 E2.67038
G1 X32.789 Y69.211 E2.69432
G1 X32.336 Y68.521 E2.71826
G1 X31.906 Y67.818 E2.74221
G1 X31.497 Y67.102 E2.76615
G1 X31.111 Y66.373 E2.79009
G1 X30.739 Y65.612 E2.81469
G1 X30.409 Y64.881 E2.83797
G1 X30.093 Y64.119 E2.86192
G1 X29.802 Y63.348 E2.88586
G1 X29.535 Y62.568 E2.90980
G1 X29.292 Y61.779 E2.93374
G1 X29.075 Y60.984 E2.95769
G1 X28.882 Y60.182 E2.98163
G1 X28.711 Y59.352 E3.00623
G1 X28.573 Y58.562 E3.02951
G1 X28.457 Y57.746 E3.05345
G1 X28.374 Y57.019 E3.07470
G1 X28.302 Y56.104 E3.10134
G1 X28.263 Y55.280 E3.12528
G1 X28.250 Y54.456 E3.14922
G1 X28.263 Y53.631 E3.17317
G1 X28.302 Y52.808 E3.19711
G1 X28.374 Y51.893 E3.22374
G1 X28.573 Y50.350 E3.26893
G1 X28.715 Y49.537 E3.29287
G1 X28.882 Y48.730 E3.31682
G1 X29.075 Y47.928 E3.34076
G1 X29.292 Y47.132 E3.36470
G1 X29.535 Y46.344 E3.38864
G1 X29.802 Y45.564 E3.41258
G1 X30.093 Y44.793 E3.43653
G1 X30.409 Y44.031 E3.46047
G1 X30.748 Y43.279 E3.48441
G1 X31.111 Y42.539 E3.50835
G1 X31.497 Y41.810 E3.53230
G1 X31.906 Y41.094 E3.55624
G1 X32.336 Y40.391 E3.58018
G1 X32.789 Y39.701 E3.60412
G1 X33.263 Y39.027 E3.62806
G1 X33.758 Y38.367 E3.65201
G1 X34.274 Y37.724 E3.67595
G1 X34.810 Y37.096 E3.69989
G1 X35.365 Y36.487 E3.72383
G1 X35.938 Y35.894 E3.74777
G1 X36.531 Y35.321 E3.77172
G1 X37.141 Y34.766 E3.79566
G1 X37.768 Y34.230 E3.81960
G1 X38.411 Y33.714 E3.84354
G1 X39.071 Y33.219 E3.86748
G1 X39.745 Y32.745 E3.89143
G1 X40.435 Y32.292 E3.91537
G1 X41.138 Y31.861 E3.93931
G1 X41.854 Y31.453 E3.96325
G1 X42.583 Y31.067 E3.98720
G1 X43.323 Y30.704 E4.01114
G1 X44.075 Y30.365 E4.03508
G1 X44.837 Y30.049 E4.05902
G1 X45.608 Y29.758 E4.08296
G1 X46.388 Y29.491 E4.10691
G1 X47.176 Y29.248 E4.13085
G1 X47.972 Y29.031 E4.15479
G1 X48.774 Y28.838 E4.17873
G1 X49.581 Y28.671 E4.20268
G1 X50.394 Y28.529 E4.22662
G1 X51.210 Y28.413 E4.25056
G1 X52.030 Y28.322 E4.27450
G1 X52.852 Y28.258 E4.29844
G1 X53.675 Y28.219 E4.32239
G1 X54.500 Y28.206 E4.34633
G1 X55.325 Y28.219 E4.37027
G1 X56.148 Y28.258 E4.39421
G1 X57.063 Y28.330 E4.42085
G1 X58.606 Y28.529 E4.46604
G1 X59.419 Y28.671 E4.48998
G1 X60.226 Y28.838 E4.51392
G1 X61.028 Y29.031 E4.53786
G1 X61.823 Y29.248 E4.56180
G1 X62.612 Y29.491 E4.58575
G1 X63.392 Y29.758 E4.60969
G1 X64.163 Y30.049 E4.63363
G1 X64.925 Y30.365 E4.65757
G1 X65.677 Y30.704 E4.68152
G1 X66.417 Y31.067 E4.70546
G1 X67.146 Y31.453 E4.72940
G1 X67.862 Y31.861 E4.75334
G1 X68.565 Y32.292 E4.77728
G1 X69.255 Y32.745 E4.80123
G1 X69.929 Y33.219 E4.82517
G1 X70.589 Y33.714 E4.84911
G1 X71.232 Y34.230 E4.87305
G1 X71.859 Y34.766 E4.89700
G1 X72.469 Y35.321 E4.92094
G1 X73.062 Y35.894 E4.94488
G1 X73.635 Y36.487 E4.96882
G1 X74.190 Y37.096 E4.99276
G1 X74.711 Y37.706 E5.01604
G1 X75.242 Y38.367 E5.04065
G1 X75.737 Y39.027 E5.06459
G1 X76.211 Y39.701 E5.08853
G1 X76.664 Y40.391 E5.11248
G1 X77.094 Y41.094 E5.13642
G1 X77.503 Y41.810 E5.16036
G1 X77.889 Y42.539 E5.18430
G1 X78.252 Y43.279 E5.20824
G1 X78.591 Y44.031 E5.23219
G1 X78.907 Y44.793 E5.25613
G1 X79.198 Y45.564 E5.28007
G1 X79.465 Y46.344 E5.30401
G1 X79.708 Y47.132 E5.32795
G1 X79.925 Y47.928 E5.35190
G1 X80.118 Y48.730 E5.37584
G1 X80.285 Y49.537 E5.39978
G1 X80.427 Y50.350 E5.42372
G1 X80.543 Y51.166 E5.44767
G1 X80.633 Y51.986 E5.47161
G1 X80.698 Y52.808 E5.49555
G1 X80.746 Y54.206 E5.53617
G1 X76.246 Y54.206 E5.66682
G1 X76.207 Y53.090 E5.69923
G1 X76.154 Y52.409 E5.71907
G1 X75.982 Y51.053 E5.75874
G1 X75.726 Y49.711 E5.79841
G1 X75.386 Y48.388 E5.83808
G1 X74.964 Y47.088 E5.87775
G1 X74.461 Y45.818 E5.91742
G1 X73.879 Y44.582 E5.95709
G1 X73.221 Y43.384 E5.99676
G1 X72.489 Y42.231 E6.03644
G1 X71.686 Y41.125 E6.07611
G1 X70.815 Y40.072 E6.11578
G1 X69.880 Y39.076 E6.15545
G1 X68.884 Y38.141 E6.19512
G1 X67.831 Y37.270 E6.23479
G1 X66.725 Y36.467 E6.27446
G1 X65.572 Y35.735 E6.31413
G1 X64.374 Y35.077 E6.35380
G1 X63.737 Y34.765 E6.37438
G1 X62.507 Y34.233 E6.41331
G1 X61.221 Y33.770 E6.45298
G1 X59.909 Y33.389 E6.49265
G1 X58.576 Y33.091 E6.53232
G1 X57.226 Y32.877 E6.57199
G1 X56.547 Y32.802 E6.59183
G1 X55.183 Y32.717 E6.63150
G1 X53.817 Y32.717 E6.67117
G1 X53.109 Y32.751 E6.69176
G1 X51.774 Y32.877 E6.73068
G1 X50.424 Y33.091 E6.77035
G1 X49.730 Y33.236 E6.79093
G1 X48.432 Y33.570 E6.82986
G1 X47.132 Y33.992 E6.86953
G1 X45.862 Y34.495 E6.90920
G1 X44.626 Y35.077 E6.94887
G1 X43.428 Y35.735 E6.98854
G1 X42.275 Y36.467 E7.02822
G1 X41.169 Y37.270 E7.06789
G1 X40.116 Y38.141 E7.10756
G1 X39.120 Y39.076 E7.14723
G1 X38.628 Y39.586 E7.16781
G1 X37.741 Y40.592 E7.20674
G1 X36.904 Y41.672 E7.24641
G1 X36.136 Y42.802 E7.28608
G1 X35.440 Y43.978 E7.32575
G1 X34.820 Y45.195 E7.36542
G1 X34.277 Y46.449 E7.40509
G1 X33.815 Y47.735 E7.44476
G1 X33.433 Y49.047 E7.48443
G1 X33.135 Y50.380 E7.52410
G1 X32.921 Y51.730 E7.56377
G1 X32.793 Y53.090 E7.60344
G1 X32.760 Y53.798 E7.62403
G1 X32.761 Y55.139 E7.66295
G1 X32.846 Y56.503 E7.70262
G1 X33.018 Y57.858 E7.74229
G1 X33.274 Y59.201 E7.78197
G1 X33.614 Y60.524 E7.82164
G1 X34.036 Y61.823 E7.86131
G1 X34.539 Y63.094 E7.90098
G1 X35.121 Y64.330 E7.94065
G1 X35.779 Y65.528 E7.98032
G1 X36.511 Y66.681 E8.01999
G1 X37.314 Y67.787 E8.05966
G1 X38.185 Y68.839 E8.09933
G1 X39.120 Y69.836 E8.13900
