; generated by Slic3r 1.1.7 on 2014-12-06 at 13:47:34

; perimeters extrusion width = 0.50mm
; infill extrusion width = 0.50mm
; solid infill extrusion width = 0.50mm
; top infill extrusion width = 0.50mm

G21 ; set units to millimeters
M104 S190 ; set temperature
G28 ; home all axes
G1 Z15 F120 ; lift nozzle
M109 S190 ; wait for temperature to be reached
G90 ; use absolute coordinates
G92 E0
M82 ; use absolute distances for extrusion
M106 S102
G1 F1680.000 E-2.00000
G92 E0
G1 Z0.350 F12000.000
G1 X60.901 Y53.003 F12000.000
G1 E2.00000 F1680.000
G1 X61.359 Y52.476 E2.02252 F1200.000
G1 X61.496 Y52.351 E2.02848
G1 X62.973 Y51.102 E2.09090
G1 X64.793 Y49.986 E2.15977
G1 X66.782 Y49.166 E2.22918
G1 X68.880 Y48.671 E2.29870
G1 X70.705 Y48.509 E2.35780
G1 X100.004 Y48.548 E3.30298
G1 X100.935 Y48.650 E3.33320 F1200.000
G1 X102.138 Y48.866 E3.37264
G1 X103.041 Y49.117 E3.40287
G1 X104.188 Y49.520 E3.44209
G1 X106.086 Y50.477 E3.51067
G1 X106.868 Y50.996 E3.54094
G1 X107.813 Y51.717 E3.57929
G1 X109.310 Y53.190 E3.64702
G1 X109.897 Y53.919 E3.67723
G1 X110.563 Y54.864 E3.71454
G1 X111.540 Y56.681 E3.78108
G1 X112.125 Y58.194 E3.83340
G1 X121.036 Y86.774 E4.79918
G1 X121.403 Y88.792 E4.86533
G1 X121.475 Y90.837 E4.93135
G1 X121.252 Y92.881 E4.99767
G1 X120.737 Y94.868 E5.06389
G1 X120.347 Y95.887 E5.09909
G1 X119.931 Y96.778 E5.13081
G1 X118.850 Y98.550 E5.19778
G1 X118.182 Y99.409 E5.23289
G1 X117.506 Y100.157 E5.26542
G1 X116.143 Y101.393 E5.32477
G1 X92.625 Y119.113 E6.27469
G1 X90.767 Y120.182 E6.34384
G1 X90.603 Y120.251 E6.34960
G1 X88.757 Y120.945 E6.41320
G1 X86.638 Y121.381 E6.48299
G1 X84.479 Y121.471 E6.55272
G1 X82.335 Y121.214 E6.62236
G1 X81.415 Y120.988 E6.65294
G1 X80.261 Y120.618 E6.69203
G1 X78.333 Y119.712 E6.76075
G1 X77.534 Y119.213 E6.79115
G1 X76.912 Y118.795 E6.81531
G1 X53.309 Y100.928 E7.77028
G1 X51.822 Y99.414 E7.83874
G1 X50.617 Y97.751 E7.90500
G1 X49.652 Y95.884 E7.97280
G1 X48.993 Y93.971 E8.03806
G1 X48.610 Y91.956 E8.10424
G1 X48.521 Y89.911 E8.17027
G1 X48.728 Y87.865 E8.23659
G1 X49.113 Y86.207 E8.29151
G1 X58.044 Y57.720 E9.25461
G1 X58.874 Y55.833 E9.32110
G1 X59.989 Y54.062 E9.38861
G1 X60.852 Y53.059 E9.43130
G1 F1680.000 E7.43130
G92 E0
G1 X111.925 Y94.929 F12000.000
G1 E2.00000 F1680.000
G1 X111.612 Y95.210 E2.01356 F900.000
G1 X111.211 Y95.519 E2.02991
G1 X110.867 Y95.743 E2.04314
G1 X110.414 Y95.992 E2.05984
G1 X110.051 Y96.157 E2.07268
G1 X109.555 Y96.337 E2.08972
G1 X109.181 Y96.441 E2.10224
G1 X108.648 Y96.543 E2.11972
G1 X108.275 Y96.585 E2.13183
G1 X107.724 Y96.604 E2.14961
G1 X107.359 Y96.587 E2.16142
G1 X106.800 Y96.518 E2.17958
G1 X106.453 Y96.446 E2.19101
G1 X105.903 Y96.288 E2.20948
G1 X105.582 Y96.167 E2.22055
G1 X104.900 Y95.834 E2.24502
G1 X104.466 Y96.103 E2.26148
G1 X103.938 Y96.384 E2.28080
G1 X103.333 Y96.654 E2.30215
G1 X102.766 Y96.860 E2.32162
G1 X102.135 Y97.041 E2.34279
G1 X101.541 Y97.167 E2.36241
G1 X100.894 Y97.258 E2.38347
G1 X100.283 Y97.300 E2.40324
G1 X99.636 Y97.298 E2.42410
G1 X99.019 Y97.254 E2.44407
G1 X98.383 Y97.161 E2.46478
G1 X97.772 Y97.028 E2.48495
G1 X97.161 Y96.850 E2.50548
G1 X96.572 Y96.632 E2.52574
G1 X95.996 Y96.372 E2.54613
G1 X95.591 Y96.155 E2.56095
G1 X94.886 Y96.724 E2.59017
G1 X94.126 Y97.260 E2.62018
G1 X94.220 Y97.884 E2.64055
G1 X94.263 Y98.389 E2.65688
G1 X94.274 Y99.334 E2.68736
G1 X94.255 Y99.688 E2.69880
G1 X94.077 Y100.975 E2.74072
G1 X93.757 Y102.165 E2.78048
G1 X93.242 Y103.405 E2.82377
G1 X92.585 Y104.526 E2.86570
G1 X92.427 Y104.754 E2.87465
G1 X91.784 Y105.550 E2.90767
G1 X91.488 Y105.864 E2.92158
G1 X90.955 Y106.357 E2.94499
G1 X91.054 Y107.161 E2.97112
G1 X91.062 Y107.438 E2.98006
G1 X91.037 Y108.114 E3.00190
G1 X91.009 Y108.366 E3.01008
G1 X90.823 Y109.276 E3.04005
G1 X90.588 Y109.966 E3.06355
G1 X90.163 Y110.822 E3.09439
G1 X89.517 Y111.719 E3.13005
G1 X88.857 Y112.377 E3.16012
G1 X88.104 Y112.926 E3.19017
G1 X87.343 Y113.324 E3.21789
G1 X86.881 Y113.502 E3.23384
G1 X86.434 Y113.633 E3.24889
G1 X85.949 Y113.735 E3.26485
G1 X85.476 Y113.794 E3.28024
G1 X85.001 Y113.813 E3.29558
G1 X84.511 Y113.792 E3.31139
G1 X84.051 Y113.735 E3.32636
G1 X83.571 Y113.636 E3.34217
G1 X83.119 Y113.502 E3.35737
G1 X82.739 Y113.359 E3.37047
G1 X81.909 Y112.934 E3.40054
G1 X81.157 Y112.388 E3.43052
G1 X80.493 Y111.731 E3.46066
G1 X79.938 Y110.987 E3.49061
G1 X79.837 Y110.822 E3.49685
G1 X79.498 Y110.168 E3.52061
G1 X79.412 Y109.965 E3.52771
G1 X79.181 Y109.291 E3.55072
G1 X79.120 Y109.056 E3.55854
G1 X78.993 Y108.380 E3.58072
G1 X78.964 Y108.114 E3.58935
G1 X78.938 Y107.454 E3.61067
G1 X78.948 Y107.161 E3.62013
G1 X79.045 Y106.357 E3.64627
G1 X78.522 Y105.874 E3.66922
G1 X78.217 Y105.550 E3.68358
G1 X77.584 Y104.766 E3.71609
G1 X77.415 Y104.527 E3.72553
G1 X76.759 Y103.404 E3.76748
G1 X76.249 Y102.179 E3.81028
G1 X75.922 Y100.975 E3.85053
G1 X75.746 Y99.688 E3.89244
G1 X75.727 Y99.349 E3.90340
G1 X75.737 Y98.389 E3.93435
G1 X75.778 Y97.899 E3.95021
G1 X75.874 Y97.260 E3.97106
G1 X75.122 Y96.731 E4.00074
G1 X74.410 Y96.155 E4.03027
G1 X74.017 Y96.366 E4.04466
G1 X73.428 Y96.632 E4.06551
G1 X72.852 Y96.845 E4.08532
G1 X72.227 Y97.028 E4.10632
G1 X71.632 Y97.158 E4.12597
G1 X70.983 Y97.254 E4.14714
G1 X70.379 Y97.298 E4.16666
G1 X69.719 Y97.300 E4.18797
G1 X69.120 Y97.260 E4.20732
G1 X68.461 Y97.167 E4.22880
G1 X67.879 Y97.045 E4.24799
G1 X67.234 Y96.860 E4.26963
G1 X66.680 Y96.659 E4.28864
G1 X66.062 Y96.384 E4.31046
G1 X65.546 Y96.111 E4.32929
G1 X65.100 Y95.834 E4.34622
G1 X64.419 Y96.167 E4.37069
G1 X64.113 Y96.282 E4.38122
G1 X63.547 Y96.447 E4.40025
G1 X63.215 Y96.515 E4.41118
G1 X62.641 Y96.587 E4.42982
G1 X62.291 Y96.603 E4.44113
G1 X61.725 Y96.586 E4.45939
G1 X61.364 Y96.545 E4.47113
G1 X60.821 Y96.441 E4.48898
G1 X60.459 Y96.341 E4.50108
G1 X59.949 Y96.157 E4.51856
G1 X59.599 Y95.999 E4.53097
G1 X59.132 Y95.743 E4.54815
G1 X58.802 Y95.526 E4.56088
G1 X58.389 Y95.210 E4.57764
G1 X58.085 Y94.938 E4.59082
G1 X57.733 Y94.572 E4.60719
G1 X57.466 Y94.249 E4.62070
G1 X57.178 Y93.846 E4.63670
G1 X56.955 Y93.478 E4.65058
G1 X56.735 Y93.048 E4.66617
G1 X56.562 Y92.641 E4.68043
G1 X56.409 Y92.194 E4.69565
G1 X56.294 Y91.758 E4.71021
G1 X56.209 Y91.304 E4.72512
G1 X56.155 Y90.844 E4.74005
G1 X56.134 Y90.395 E4.75455
G1 X56.145 Y89.920 E4.76988
G1 X56.186 Y89.484 E4.78401
G1 X56.267 Y89.004 E4.79971
G1 X56.366 Y88.590 E4.81345
G1 X56.517 Y88.115 E4.82953
G1 X56.671 Y87.729 E4.84294
G1 X56.893 Y87.270 E4.85937
G1 X57.094 Y86.921 E4.87238
G1 X57.387 Y86.488 E4.88924
G1 X57.631 Y86.180 E4.90192
G1 X57.992 Y85.788 E4.91910
G1 X58.270 Y85.527 E4.93140
G1 X58.694 Y85.184 E4.94899
G1 X58.999 Y84.974 E4.96094
G1 X59.480 Y84.695 E4.97888
G1 X59.805 Y84.539 E4.99051
G1 X60.333 Y84.333 E5.00879
G1 X60.668 Y84.232 E5.02008
G1 X61.416 Y84.084 E5.04468
G1 X61.610 Y83.607 E5.06128
G1 X61.879 Y83.057 E5.08102
G1 X62.206 Y82.484 E5.10232
G1 X62.547 Y81.969 E5.12223
G1 X62.944 Y81.448 E5.14338
G1 X63.354 Y80.979 E5.16348
G1 X63.814 Y80.520 E5.18444
G1 X64.287 Y80.105 E5.20475
G1 X64.800 Y79.715 E5.22553
G1 X65.332 Y79.367 E5.24602
G1 X65.889 Y79.056 E5.26661
G1 X66.468 Y78.781 E5.28729
G1 X67.058 Y78.552 E5.30770
G1 X67.676 Y78.360 E5.32860
G1 X68.287 Y78.218 E5.34881
G1 X68.766 Y78.141 E5.36447
G1 X69.017 Y77.240 E5.39462
G1 X69.330 Y76.338 E5.42542
G1 X68.883 Y75.871 E5.44627
G1 X68.566 Y75.492 E5.46222
G1 X68.010 Y74.709 E5.49320
G1 X67.830 Y74.419 E5.50421
G1 X67.246 Y73.256 E5.54620
G1 X66.819 Y72.028 E5.58812
G1 X66.560 Y70.776 E5.62937
G1 X66.464 Y69.480 E5.67130
G1 X66.464 Y69.191 E5.68064
G1 X66.535 Y68.180 E5.71331
G1 X66.599 Y67.744 E5.72753
G1 X66.747 Y67.046 E5.75056
G1 X66.229 Y66.475 E5.77544
G1 X66.033 Y66.214 E5.78596
G1 X65.713 Y65.718 E5.80500
G1 X65.551 Y65.421 E5.81591
G1 X65.312 Y64.896 E5.83453
G1 X65.189 Y64.567 E5.84587
G1 X65.031 Y64.025 E5.86407
G1 X64.954 Y63.670 E5.87579
G1 X64.875 Y63.123 E5.89360
G1 X64.849 Y62.748 E5.90573
G1 X64.849 Y62.208 E5.92316
G1 X64.876 Y61.821 E5.93566
G1 X64.951 Y61.300 E5.95265
G1 X65.034 Y60.909 E5.96556
G1 X65.178 Y60.413 E5.98222
G1 X65.321 Y60.028 E5.99546
G1 X65.529 Y59.569 E6.01172
G1 X65.732 Y59.195 E6.02544
G1 X65.998 Y58.782 E6.04131
G1 X66.262 Y58.432 E6.05544
G1 X66.577 Y58.071 E6.07090
G1 X66.898 Y57.756 E6.08541
G1 X67.255 Y57.455 E6.10046
G1 X67.631 Y57.182 E6.11545
G1 X68.018 Y56.945 E6.13011
G1 X68.442 Y56.729 E6.14545
G1 X68.850 Y56.558 E6.15972
G1 X69.314 Y56.406 E6.17547
G1 X69.734 Y56.305 E6.18940
G1 X70.228 Y56.226 E6.20554
G1 X70.645 Y56.192 E6.21903
G1 X71.156 Y56.191 E6.23554
G1 X71.563 Y56.223 E6.24870
G1 X72.081 Y56.305 E6.26561 F900.000
G1 X72.464 Y56.397 E6.27834
G1 X72.974 Y56.562 E6.29562
G1 X73.328 Y56.709 E6.30798
G1 X73.818 Y56.958 E6.32570
G1 X74.132 Y57.150 E6.33759
G1 X74.589 Y57.478 E6.35574
G1 X74.861 Y57.707 E6.36720
G1 X75.271 Y58.109 E6.38572
G1 X75.498 Y58.367 E6.39681
G1 X75.850 Y58.833 E6.41567
G1 X76.030 Y59.112 E6.42637
G1 X76.385 Y59.785 E6.45093
G1 X76.917 Y59.835 E6.46815
G1 X77.501 Y59.933 E6.48726
G1 X78.163 Y60.091 E6.50921
G1 X78.733 Y60.271 E6.52850
G1 X79.360 Y60.520 E6.55025
G1 X79.904 Y60.780 E6.56970
G1 X80.485 Y61.110 E6.59127
G1 X80.993 Y61.447 E6.61094
G1 X81.518 Y61.851 E6.63229
G1 X81.978 Y62.256 E6.65207
G1 X82.440 Y62.723 E6.67327
G1 X82.847 Y63.191 E6.69328
G1 X83.238 Y63.711 E6.71426
G1 X83.582 Y64.233 E6.73443
G1 X83.899 Y64.795 E6.75523
G1 X84.099 Y65.210 E6.77009
G1 X84.992 Y65.179 E6.79892
G1 X85.901 Y65.210 E6.82826
G1 X86.095 Y64.808 E6.84266
G1 X86.418 Y64.233 E6.86392
G1 X86.753 Y63.723 E6.88361
G1 X87.154 Y63.192 E6.90509
G1 X87.549 Y62.734 E6.92458
G1 X88.022 Y62.256 E6.94628
G1 X88.471 Y61.859 E6.96561
G1 X89.008 Y61.447 E6.98744
G1 X89.503 Y61.118 E7.00662
G1 X90.096 Y60.780 E7.02864
G1 X90.628 Y60.525 E7.04767
G1 X91.267 Y60.271 E7.06986
G1 X91.823 Y60.095 E7.08868
G1 X92.499 Y59.933 E7.11109
G1 X93.070 Y59.837 E7.12979
G1 X93.614 Y59.786 E7.14741
G1 X93.969 Y59.112 E7.17197
G1 X94.141 Y58.845 E7.18220
G1 X94.502 Y58.367 E7.20154
G1 X94.719 Y58.120 E7.21215
G1 X95.139 Y57.707 E7.23114
G1 X95.400 Y57.486 E7.24218
G1 X95.866 Y57.150 E7.26073
G1 X96.169 Y56.965 E7.27216
G1 X96.672 Y56.709 E7.29037
G1 X97.010 Y56.569 E7.30218
G1 X97.535 Y56.398 E7.32000
G1 X97.904 Y56.308 E7.33225
G1 X98.438 Y56.223 E7.34968
G1 X98.828 Y56.192 E7.36231
G1 X99.355 Y56.192 E7.37931
G1 X99.759 Y56.224 E7.39237
G1 X100.267 Y56.305 E7.40899
G1 X100.671 Y56.402 E7.42239
G1 X101.150 Y56.558 E7.43864
G1 X101.545 Y56.723 E7.45245
G1 X101.982 Y56.945 E7.46825
G1 X102.358 Y57.175 E7.48246
G1 X102.746 Y57.455 E7.49789
G1 X103.092 Y57.746 E7.51249
G1 X103.423 Y58.071 E7.52746
G1 X103.730 Y58.421 E7.54248
G1 X104.001 Y58.781 E7.55703
G1 X104.261 Y59.182 E7.57243
G1 X104.471 Y59.569 E7.58663
G1 X104.674 Y60.014 E7.60240
G1 X104.822 Y60.413 E7.61613
G1 X104.963 Y60.894 E7.63231
G1 X105.050 Y61.300 E7.64571
G1 X105.123 Y61.807 E7.66224
G1 X105.151 Y62.208 E7.67521
G1 X105.151 Y62.733 E7.69214
G1 X105.125 Y63.123 E7.70474
G1 X105.048 Y63.655 E7.72209
G1 X104.969 Y64.025 E7.73428
G1 X104.815 Y64.552 E7.75200
G1 X104.689 Y64.895 E7.76379
G1 X104.456 Y65.408 E7.78196
G1 X104.287 Y65.718 E7.79335
G1 X103.977 Y66.202 E7.81189
G1 X103.771 Y66.475 E7.82292
G1 X103.253 Y67.045 E7.84778
G1 X103.398 Y67.730 E7.87037
G1 X103.464 Y68.181 E7.88506
G1 X103.535 Y69.176 E7.91724
G1 X103.537 Y69.479 E7.92703
G1 X103.439 Y70.777 E7.96902
G1 X103.180 Y72.038 E8.01054
G1 X102.755 Y73.255 E8.05212
G1 X102.170 Y74.419 E8.09415
G1 X101.999 Y74.697 E8.10468
G1 X101.434 Y75.492 E8.13614
G1 X101.127 Y75.860 E8.15161
G1 X100.670 Y76.338 E8.17295
G1 X100.979 Y77.231 E8.20343
G1 X101.234 Y78.140 E8.23389
G1 X101.699 Y78.215 E8.24908
G1 X102.323 Y78.360 E8.26976
G1 X102.929 Y78.547 E8.29022
G1 X103.532 Y78.781 E8.31107
G1 X104.109 Y79.054 E8.33166
G1 X104.668 Y79.367 E8.35235
G1 X105.189 Y79.708 E8.37243
G1 X105.712 Y80.105 E8.39361
G1 X106.176 Y80.509 E8.41345
G1 X106.646 Y80.979 E8.43489
G1 X107.047 Y81.437 E8.45454
G1 X107.453 Y81.969 E8.47613
G1 X107.786 Y82.471 E8.49555
G1 X108.121 Y83.057 E8.51734
G1 X108.383 Y83.594 E8.53660
G1 X108.585 Y84.084 E8.55370
G1 X109.332 Y84.232 E8.57827
G1 X109.654 Y84.329 E8.58912
G1 X110.195 Y84.539 E8.60784
G1 X110.507 Y84.688 E8.61898
G1 X111.001 Y84.974 E8.63740
G1 X111.295 Y85.175 E8.64890
G1 X111.730 Y85.526 E8.66693
G1 X111.999 Y85.777 E8.67881
G1 X112.370 Y86.180 E8.69648
G1 X112.604 Y86.476 E8.70866
G1 X112.906 Y86.920 E8.72596
G1 X113.101 Y87.257 E8.73851
G1 X113.330 Y87.729 E8.75545
G1 X113.477 Y88.101 E8.76835
G1 X113.633 Y88.589 E8.78488
G1 X113.730 Y88.990 E8.79818
G1 X113.814 Y89.484 E8.81434
G1 X113.854 Y89.906 E8.82801
G1 X113.867 Y90.395 E8.84380
G1 X113.846 Y90.829 E8.85782
G1 X113.791 Y91.304 E8.87324
G1 X113.709 Y91.744 E8.88768
G1 X113.590 Y92.195 E8.90272
G1 X113.442 Y92.630 E8.91756
G1 X113.266 Y93.048 E8.93218
G1 X113.051 Y93.467 E8.94739
G1 X112.822 Y93.846 E8.96168
G1 X112.542 Y94.239 E8.97723
G1 X112.267 Y94.572 E8.99117
G1 X111.977 Y94.875 E9.00470
G1 F1680.000 E7.00470
G92 E0
G1 X104.872 Y92.049 F12000.000
G1 E2.00000 F1680.000
G1 X103.600 Y93.021 E2.05162 F720.000
G1 X102.817 Y93.508 E2.08136
G1 X101.963 Y93.876 E2.11136
G1 X101.063 Y94.111 E2.14137
G1 X100.138 Y94.206 E2.17137
G1 X99.210 Y94.160 E2.20136
G1 X98.299 Y93.972 E2.23136
G1 X97.427 Y93.648 E2.26135
G1 X96.621 Y93.203 E2.29109
G1 X95.307 Y92.304 E2.34244
G1 X93.139 Y94.215 E2.43568
G1 X90.693 Y95.780 E2.52936
G1 X91.142 Y97.531 E2.58767
G1 X91.286 Y98.547 E2.62075
G1 X91.273 Y99.577 E2.65399
G1 X91.104 Y100.593 E2.68724
G1 X90.782 Y101.573 E2.72050
G1 X90.312 Y102.491 E2.75377
G1 X89.704 Y103.325 E2.78707
G1 X88.974 Y104.050 E2.82026
G1 X87.510 Y105.140 E2.87911
G1 X87.986 Y106.733 E2.93275
G1 X88.068 Y107.217 E2.94860
G1 X88.077 Y107.712 E2.96456
G1 X88.012 Y108.203 E2.98055
G1 X87.874 Y108.680 E2.99656
G1 X87.665 Y109.129 E3.01253
G1 X87.389 Y109.542 E3.02857
G1 X87.052 Y109.908 E3.04461
G1 X86.664 Y110.211 E3.06052
G1 X86.444 Y110.344 E3.06878
G1 X86.032 Y110.530 E3.08338
G1 X85.752 Y110.620 E3.09285
G1 X85.505 Y110.673 E3.10101
G1 X85.010 Y110.717 E3.11706
G1 X84.516 Y110.677 E3.13303
G1 X84.267 Y110.624 E3.14123
G1 X83.795 Y110.463 E3.15732
G1 X83.534 Y110.330 E3.16678
G1 X83.353 Y110.224 E3.17356
G1 X82.963 Y109.921 E3.18949
G1 X82.624 Y109.558 E3.20551
G1 X82.345 Y109.147 E3.22152
G1 X82.133 Y108.698 E3.23753
G1 X81.992 Y108.224 E3.25350
G1 X81.923 Y107.733 E3.26950
G1 X81.930 Y107.237 E3.28551
G1 X82.009 Y106.752 E3.30135
G1 X82.503 Y105.161 E3.35508
G1 X81.046 Y104.064 E3.41393
G1 X80.312 Y103.343 E3.44713
G1 X79.699 Y102.509 E3.48049
G1 X79.226 Y101.591 E3.51382
G1 X78.900 Y100.610 E3.54716
G1 X78.729 Y99.592 E3.58046
G1 X78.713 Y98.560 E3.61376
G1 X78.855 Y97.543 E3.64689
G1 X79.314 Y95.790 E3.70535
G1 X76.869 Y94.222 E3.79904
G1 X74.707 Y92.305 E3.89226
G1 X73.388 Y93.197 E3.94363
G1 X72.584 Y93.643 E3.97329
G1 X71.715 Y93.968 E4.00323
G1 X70.963 Y94.126 E4.02802
G1 X70.807 Y94.158 E4.03317
G1 X69.880 Y94.207 E4.06312
G1 X68.956 Y94.115 E4.09308
G1 X68.056 Y93.883 E4.12304
G1 X67.203 Y93.519 E4.15297
G1 X66.419 Y93.035 E4.18270
G1 X65.152 Y92.056 E4.23436
G1 X63.883 Y92.988 E4.28513
G1 X63.473 Y93.222 E4.30036
G1 X63.026 Y93.391 E4.31579
G1 X62.557 Y93.487 E4.33124
G1 X62.077 Y93.507 E4.34673
G1 X61.603 Y93.449 E4.36214
G1 X61.143 Y93.317 E4.37757
G1 X60.710 Y93.113 E4.39302
G1 X60.314 Y92.845 E4.40844
G1 X59.965 Y92.520 E4.42382
G1 X59.670 Y92.146 E4.43921
G1 X59.433 Y91.732 E4.45457
G1 X59.261 Y91.291 E4.46987
G1 X59.154 Y90.827 E4.48520
G1 X59.114 Y90.354 E4.50053
