; generated by Slic3r 1.2.9 on 2015-08-22 at 18:56:15

; external perimeters extrusion width = 0.50mm
; perimeters extrusion width = 0.72mm
; infill extrusion width = 0.27mm
; solid infill extrusion width = 0.72mm
; top infill extrusion width = 0.72mm

M104 S190 ; set temperature
G28 ; home all axes
G1 Z15 F120 ; lift nozzle
M109 S190 ; wait for temperature to be reached
G21 ; set units to millimeters
G90 ; use absolute coordinates
M82 ; use absolute distances for extrusion
G92 E0
M106 S102
G1 E-2.00000 F1680.00000
G92 E0
G1 Z0.350 F12000.000
G1 X67.703 Y50.779 F12000.000
G1 E2.00000 F1680.00000
G1 X69.449 Y49.344 E2.06363 F1200.000
G1 X72.600 Y48.519 E2.15535
G1 X92.600 Y48.519 E2.71839
G1 X95.051 Y49.004 E2.78871
G1 X96.437 Y49.579 E2.83096 F1200.000
G1 X96.968 Y49.836 E2.84755
G1 X97.322 Y50.031 E2.85894
G1 X97.984 Y50.450 E2.88099
G1 X98.458 Y50.802 E2.89762
G1 X98.911 Y51.185 E2.91430
G1 X99.338 Y51.594 E2.93096
G1 X99.615 Y51.890 E2.94238
G1 X99.998 Y52.342 E2.95905
G1 X100.351 Y52.818 E2.97575
G1 X100.772 Y53.482 E2.99786
G1 X101.050 Y54.000 E3.01442
G1 X101.297 Y54.539 E3.03110
G1 X101.510 Y55.092 E3.04780
G1 X101.687 Y55.658 E3.06448
G1 X101.788 Y56.049 E3.07587
G1 X103.399 Y63.459 E3.28932
G1 X103.684 Y65.080 E3.33567
G1 X103.772 Y65.899 E3.35887
G1 X103.830 Y67.264 E3.39733
G1 X103.811 Y68.098 E3.42080
G1 X103.692 Y69.460 E3.45929
G1 X103.567 Y70.279 E3.48263
G1 X103.274 Y71.614 E3.52110
G1 X103.045 Y72.411 E3.54443
G1 X102.518 Y73.869 E3.58809
G1 X85.594 Y117.049 E4.89371
G1 X84.412 Y118.976 E4.95735
G1 X82.637 Y120.375 E5.02098
G1 X79.602 Y121.136 E5.10909
G1 X74.802 Y121.137 E5.24421
G1 X72.577 Y120.740 E5.30784
G1 X70.626 Y119.598 E5.37147
G1 X69.190 Y117.852 E5.43511
G1 X68.370 Y114.951 E5.51999
G1 X66.164 Y58.200 E7.11885
G1 X66.164 Y54.955 E7.21018
G1 X66.561 Y52.730 E7.27381
G1 X67.665 Y50.844 E7.33533
G1 E5.33533 F1680.00000
G92 E0
G1 X91.940 Y75.700 F12000.000
G1 E2.00000 F1680.00000
G1 X90.536 Y76.498 E2.04547 F900.000
G1 X89.335 Y76.899 E2.08111
G1 X88.079 Y77.146 E2.11714
G1 X86.780 Y77.230 E2.15379
G1 X82.132 Y77.230 E2.28465
G1 X82.132 Y105.496 E3.08041
G1 X81.462 Y105.983 E3.10372
G1 X80.607 Y106.818 E3.13736
G1 X79.873 Y107.782 E3.17146
G1 X79.288 Y108.841 E3.20554
G1 X78.863 Y109.975 E3.23961
G1 X78.609 Y111.159 E3.27369
G1 X78.531 Y112.366 E3.30776
G1 X78.629 Y113.573 E3.34184
G1 X78.735 Y114.030 E3.35506
G1 X75.471 Y114.030 E3.44693
G1 X75.471 Y74.969 E4.54657
G1 X83.733 Y74.969 E4.77916
G1 X84.784 Y75.321 E4.81034
G1 X86.034 Y75.535 E4.84606
G1 X87.303 Y75.556 E4.88179
G1 X88.560 Y75.382 E4.91752
G1 X89.803 Y75.010 E4.95403
G1 X91.950 Y73.777 E5.02373
G1 X93.071 Y72.728 E5.06696
G1 X93.071 Y61.871 E5.37262
G1 X91.950 Y60.822 E5.41583
G1 X89.803 Y59.589 E5.48555
G1 X88.560 Y59.217 E5.52207
G1 X87.303 Y59.043 E5.55779
G1 X86.034 Y59.064 E5.59353
G1 X84.784 Y59.278 E5.62924
G1 X83.916 Y59.568 E5.65500
G1 X82.038 Y58.484 E5.71607
G1 X81.776 Y57.530 E5.74392
G1 X73.270 Y57.530 E5.98336
G1 X73.270 Y55.869 E6.03010
G1 X91.770 Y55.869 E6.55091
G1 X91.770 Y55.794 E6.55304
G1 X93.047 Y55.915 E6.58914
G1 X93.320 Y55.985 E6.59707 F900.000
G1 X93.582 Y56.088 E6.60501
G1 X93.968 Y56.317 E6.61764
G1 X94.305 Y56.613 E6.63027
G1 X94.485 Y56.831 E6.63820
G1 X94.635 Y57.068 E6.64611
G1 X94.818 Y57.490 E6.65907
G1 X94.885 Y57.753 E6.66670
G1 X94.929 Y58.209 E6.67961
G1 X94.911 Y58.491 E6.68757
G1 X94.856 Y58.779 E6.69580
G1 X94.766 Y59.057 E6.70403
G1 X94.641 Y59.321 E6.71227
G1 X94.487 Y59.564 E6.72037
G1 X93.868 Y60.292 E6.74726
G1 X94.867 Y61.509 E6.79159
G1 X95.545 Y62.596 E6.82765
G1 X96.078 Y63.759 E6.86368
G1 X96.457 Y64.982 E6.89972
G1 X96.674 Y66.244 E6.93576
G1 X96.728 Y67.522 E6.97179
G1 X96.617 Y68.798 E7.00784
G1 X96.342 Y70.049 E7.04389
G1 X95.910 Y71.253 E7.07992
G1 X95.325 Y72.392 E7.11596
G1 X94.599 Y73.447 E7.15200
G1 X93.743 Y74.398 E7.18804
G1 X92.789 Y75.218 E7.22346
G1 X92.005 Y75.663 E7.24882
G1 X92.213 Y76.028 F12000.000
G1 X90.707 Y76.883 E7.29388 F720.000
G1 X89.443 Y77.306 E7.32860
G1 X88.133 Y77.563 E7.36332
G1 X86.793 Y77.650 E7.39827
G1 X82.551 Y77.650 E7.50868
G1 X82.551 Y105.710 E8.23907
G1 X81.734 Y106.305 E8.26539
G1 X80.923 Y107.097 E8.29491
G1 X80.226 Y108.012 E8.32484
G1 X79.670 Y109.017 E8.35474
G1 X79.268 Y110.093 E8.38464
G1 X79.026 Y111.217 E8.41455
G1 X78.952 Y112.363 E8.44445
G1 X79.045 Y113.508 E8.47435
G1 X79.263 Y114.450 E8.49952
G1 X75.051 Y114.450 E8.60915
G1 X75.051 Y74.549 E9.64772
G1 X83.802 Y74.549 E9.87548
G1 X84.886 Y74.913 E9.90525
G1 X86.073 Y75.116 E9.93660
G1 X87.278 Y75.136 E9.96795
G1 X88.471 Y74.971 E9.99930
G1 X89.636 Y74.622 E10.03096
G1 X91.699 Y73.437 E10.09287
G1 X92.651 Y72.546 E10.12684
G1 X92.651 Y62.053 E10.39996
G1 X91.699 Y61.162 E10.43391
G1 X89.636 Y59.977 E10.49584
G1 X88.471 Y59.628 E10.52749
G1 X87.278 Y59.463 E10.55884
G1 X86.073 Y59.483 E10.59020
G1 X84.886 Y59.686 E10.62154
G1 X83.870 Y60.027 E10.64944
G1 X81.310 Y58.549 E10.72638
G1 X81.577 Y58.391 E10.73443
G1 X81.456 Y57.950 E10.74634
G1 X72.850 Y57.950 E10.97033
G1 X72.850 Y55.205 E11.04175
G1 X73.850 Y55.205 E11.06778
G1 X73.850 Y55.450 E11.07413
G1 X91.350 Y55.450 E11.52964 F720.000
G1 X91.350 Y55.205 E11.53599
G1 X92.350 Y55.205 E11.56202
G1 X92.350 Y55.427 E11.56779
G1 X93.120 Y55.500 E11.58789
G1 X93.450 Y55.585 E11.59678
G1 X93.768 Y55.710 E11.60566
G1 X94.216 Y55.976 E11.61923
G1 X94.607 Y56.320 E11.63280
G1 X94.825 Y56.583 E11.64169
G1 X95.007 Y56.871 E11.65054
G1 X95.216 Y57.354 E11.66424
G1 X95.300 Y57.680 E11.67303
G1 X95.350 Y58.202 E11.68667
G1 X95.328 Y58.544 E11.69558
G1 X95.264 Y58.883 E11.70457
G1 X95.157 Y59.212 E11.71356
G1 X95.010 Y59.524 E11.72255
G1 X94.826 Y59.814 E11.73149
G1 X94.415 Y60.297 E11.74798
G1 X95.209 Y61.264 E11.78054
G1 X95.916 Y62.396 E11.81530
G1 X96.471 Y63.609 E11.85002
G1 X96.866 Y64.884 E11.88475
G1 X97.092 Y66.199 E11.91949
G1 X97.149 Y67.532 E11.95421
G1 X97.033 Y68.862 E11.98896
G1 X96.747 Y70.165 E12.02369
G1 X96.296 Y71.421 E12.05842
G1 X95.686 Y72.608 E12.09316
G1 X94.930 Y73.707 E12.12789
G1 X94.037 Y74.699 E12.16263
G1 X93.032 Y75.563 E12.19714
G1 X92.278 Y75.991 E12.21970
G1 X91.782 Y75.775 F12000.000
G1 X95.553 Y63.345 F12000.000
G1 X88.336 Y56.128 E12.50827 F1200.000
G1 X87.716 Y56.128 E12.52579
G1 X92.173 Y60.585 E12.70398
G1 X93.330 Y61.742 F12000.000
G1 X95.967 Y64.379 E12.80942 F1200.000
G1 X96.224 Y65.256 E12.83527
G1 X93.330 Y62.361 E12.95102
G1 X93.330 Y62.981 E12.96853
G1 X96.353 Y66.005 E13.08943
G1 X96.431 Y66.702 E13.10926
G1 X93.330 Y63.601 E13.23326
G1 X93.330 Y64.220 E13.25078
G1 X96.458 Y67.349 E13.37587
G1 X96.439 Y67.950 E13.39287
G1 X93.330 Y64.840 E13.51720
G1 X93.330 Y65.460 E13.53472
G1 X96.390 Y68.520 E13.65707
G1 X96.313 Y69.062 E13.67256
G1 X93.330 Y66.079 E13.79182
G1 X93.330 Y66.699 E13.80934
G1 X96.201 Y69.570 E13.92415
G1 X96.086 Y70.075 E13.93878
G1 X93.330 Y67.319 E14.04898
G1 X93.330 Y67.938 E14.06650
G1 X95.922 Y70.531 E14.17016
G1 X95.758 Y70.987 E14.18385
G1 X93.330 Y68.558 E14.28096
G1 X93.330 Y69.178 E14.29848
G1 X95.571 Y71.419 E14.38807
G1 X95.360 Y71.828 E14.40108
G1 X93.330 Y69.798 E14.48227
G1 X93.330 Y70.417 E14.49979
G1 X95.150 Y72.238 E14.57258
G1 X94.904 Y72.612 E14.58523
G1 X93.330 Y71.037 E14.64820
G1 X93.330 Y71.657 E14.66572
G1 X94.652 Y72.979 E14.71858
G1 X94.397 Y73.343 E14.73116
G1 X93.330 Y72.276 E14.77381
G1 X93.274 Y72.840 E14.78983
G1 X94.103 Y73.669 E14.82299
G1 X93.810 Y73.996 E14.83539
G1 X92.954 Y73.140 E14.86961
G1 X92.633 Y73.439 E14.88201
G1 X93.506 Y74.312 E14.91690
G1 X93.173 Y74.598 E14.92932
G1 X92.313 Y73.739 E14.96368
G1 X91.976 Y74.021 E14.97612
G1 X92.840 Y74.885 E15.01064
G1 X92.474 Y75.139 E15.02323
G1 X91.582 Y74.247 E15.05888
G1 X91.189 Y74.473 E15.07171
G1 X92.079 Y75.363 E15.10729
G1 X91.684 Y75.588 E15.12014
G1 X90.795 Y74.699 E15.15566
G1 X90.402 Y74.925 E15.16850
G1 X91.288 Y75.812 E15.20395
G1 X90.893 Y76.037 E15.21680
G1 X90.008 Y75.152 E15.25218
G1 X89.564 Y75.328 E15.26568
G1 X90.498 Y76.261 E15.30299
G1 X90.036 Y76.419 E15.31679
G1 X89.087 Y75.470 E15.35471
G1 X88.610 Y75.613 E15.36879
G1 X89.571 Y76.574 E15.40721
G1 X89.080 Y76.703 E15.42156
G1 X88.076 Y75.698 E15.46173
G1 X87.531 Y75.773 E15.47726
G1 X88.562 Y76.804 E15.51848
G1 X88.034 Y76.896 E15.53364
G1 X86.949 Y75.810 E15.57703
G1 X86.319 Y75.800 E15.59485
G1 X87.452 Y76.933 E15.64016
G1 X86.870 Y76.971 E15.65665
G1 X85.647 Y75.748 E15.70552
G1 X84.899 Y75.620 E15.72697
G1 X86.251 Y76.971 E15.78099
G1 X85.631 Y76.971 E15.79851
G1 X84.040 Y75.381 E15.86211
G1 X83.268 Y75.228 E15.88438
G1 X85.011 Y76.971 E15.95409
G1 X84.392 Y76.971 E15.97161
G1 X82.648 Y75.228 E16.04133
G1 X82.028 Y75.228 E16.05885
G1 X83.772 Y76.971 E16.12856
G1 X83.152 Y76.971 E16.14608
G1 X81.409 Y75.228 E16.21579
G1 X80.789 Y75.228 E16.23331
G1 X82.532 Y76.971 E16.30303
G1 X81.913 Y76.971 E16.32055
G1 X80.169 Y75.228 E16.39026
G1 X79.549 Y75.228 E16.40778
G1 X81.873 Y77.552 E16.50069
G1 X81.873 Y78.171 E16.51821
G1 X78.930 Y75.228 E16.63590
G1 X78.310 Y75.228 E16.65342
G1 X81.873 Y78.791 E16.79589
G1 X81.873 Y79.411 E16.81341
G1 X77.690 Y75.228 E16.98065
G1 X77.071 Y75.228 E16.99817
G1 X81.873 Y80.030 E17.19019
G1 X81.873 Y80.650 E17.20771
G1 X76.451 Y75.228 E17.42451
G1 X75.831 Y75.228 E17.44203
G1 X81.873 Y81.270 E17.68360
G1 X81.873 Y81.889 E17.70112
G1 X75.730 Y75.746 E17.94675
G1 X75.730 Y76.365 E17.96427
G1 X81.873 Y82.509 E18.20991
G1 X81.873 Y83.129 E18.22743
G1 X75.730 Y76.985 E18.47306
G1 X75.730 Y77.605 E18.49058
G1 X81.873 Y83.748 E18.73622
G1 X81.873 Y84.368 E18.75374
G1 X75.730 Y78.225 E18.99937
G1 X75.730 Y78.844 E19.01689
G1 X81.873 Y84.988 E19.26253
G1 X81.873 Y85.608 E19.28005
G1 X75.730 Y79.464 E19.52568
G1 X75.730 Y80.084 E19.54320
G1 X81.873 Y86.227 E19.78884
G1 X81.873 Y86.847 E19.80636
G1 X75.730 Y80.703 E20.05199
G1 X75.730 Y81.323 E20.06951
G1 X81.873 Y87.467 E20.31514
G1 X81.873 Y88.086 E20.33266
G1 X75.730 Y81.943 E20.57830
G1 X75.730 Y82.562 E20.59582
G1 X81.873 Y88.706 E20.84145
G1 X81.873 Y89.326 E20.85897
G1 X75.730 Y83.182 E21.10461
G1 X75.730 Y83.802 E21.12213
G1 X81.873 Y89.945 E21.36776
G1 X81.873 Y90.565 E21.38528
G1 X75.730 Y84.421 E21.63092
G1 X75.730 Y85.041 E21.64844
G1 X81.873 Y91.185 E21.89407
G1 X81.873 Y91.804 E21.91159
G1 X75.730 Y85.661 E22.15723
G1 X75.730 Y86.280 E22.17475
G1 X81.873 Y92.424 E22.42038
G1 X81.873 Y93.044 E22.43790
G1 X75.730 Y86.900 E22.68354
G1 X75.730 Y87.520 E22.70106
G1 X81.873 Y93.664 E22.94669
G1 X81.873 Y94.283 E22.96421
G1 X75.730 Y88.140 E23.20985
G1 X75.730 Y88.759 E23.22737
G1 X81.873 Y94.903 E23.47300
G1 X81.873 Y95.523 E23.49052
G1 X75.730 Y89.379 E23.73615
G1 X75.730 Y89.999 E23.75367
G1 X81.873 Y96.142 E23.99931
G1 X81.873 Y96.762 E24.01683
G1 X75.730 Y90.618 E24.26246
G1 X75.730 Y91.238 E24.27998
G1 X81.873 Y97.382 E24.52562
G1 X81.873 Y98.001 E24.54314
G1 X75.730 Y91.858 E24.78877
G1 X75.730 Y92.477 E24.80629
G1 X81.873 Y98.621 E25.05193
G1 X81.873 Y99.241 E25.06945
G1 X75.730 Y93.097 E25.31508
G1 X75.730 Y93.717 E25.33260
G1 X81.873 Y99.860 E25.57824
G1 X81.873 Y100.480 E25.59576
G1 X75.730 Y94.336 E25.84139
G1 X75.730 Y94.956 E25.85891
G1 X81.873 Y101.100 E26.10455
G1 X81.873 Y101.719 E26.12207
G1 X75.730 Y95.576 E26.36770
G1 X75.730 Y96.196 E26.38522
G1 X81.873 Y102.339 E26.63086
G1 X81.873 Y102.959 E26.64838
G1 X75.730 Y96.815 E26.89401
G1 X75.730 Y97.435 E26.91153
G1 X81.873 Y103.579 E27.15716
G1 X81.873 Y104.198 E27.17468
G1 X75.730 Y98.055 E27.42032
G1 X75.730 Y98.674 E27.43784
G1 X81.873 Y104.818 E27.68347
G1 X81.857 Y105.422 E27.70055
G1 X75.730 Y99.294 E27.94555
G1 X75.730 Y99.914 E27.96307
G1 X81.499 Y105.683 E28.19372
G1 X81.163 Y105.967 E28.20615
G1 X75.730 Y100.533 E28.42340
G1 X75.730 Y101.153 E28.44092
G1 X80.850 Y106.273 E28.64565
G1 X80.537 Y106.580 E28.65804
G1 X75.730 Y101.773 E28.85023
G1 X75.730 Y102.392 E28.86775
G1 X80.254 Y106.917 E29.04865
G1 X79.986 Y107.268 E29.06115
G1 X75.730 Y103.012 E29.23132
G1 X75.730 Y103.632 E29.24884
G1 X79.718 Y107.620 E29.40830
G1 X79.489 Y108.011 E29.42111
G1 X75.730 Y104.252 E29.57141
G1 X75.730 Y104.871 E29.58893
G1 X79.269 Y108.410 E29.73043
G1 X79.051 Y108.812 E29.74335
G1 X75.730 Y105.491 E29.87614
G1 X75.730 Y106.111 E29.89366
G1 X78.882 Y109.263 E30.01971
G1 X78.714 Y109.714 E30.03332
G1 X75.730 Y106.730 E30.15262
G1 X75.730 Y107.350 E30.17014
G1 X78.571 Y110.191 E30.28373
G1 X78.461 Y110.701 E30.29848
G1 X75.730 Y107.970 E30.40769
G1 X75.730 Y108.589 E30.42521
G1 X78.353 Y111.213 E30.53009
G1 X78.315 Y111.794 E30.54658
G1 X75.730 Y109.209 E30.64995
G1 X75.730 Y109.829 E30.66746
G1 X78.277 Y112.376 E30.76932
G1 X78.318 Y113.037 E30.78804
G1 X75.730 Y110.448 E30.89154
G1 X75.730 Y111.068 E30.90906
G1 X78.373 Y113.712 E31.01475
G1 X77.814 Y113.772 E31.03065
G1 X75.730 Y111.688 E31.11398
G1 X75.730 Y112.307 E31.13150
G1 X77.194 Y113.772 E31.19004
G1 X76.574 Y113.772 E31.20756
G1 X75.730 Y112.927 E31.24134
G1 X75.730 Y113.547 E31.25886
G1 X75.955 Y113.772 E31.26786
G1 E29.26786 F1680.00000
G92 E0
G1 X94.741 Y61.913 F12000.000
G1 E2.00000 F1680.00000
G1 X88.955 Y56.128 E2.23131 F1200.000
G1 X89.575 Y56.128 E2.24883
G1 X93.652 Y60.205 E2.41186
G1 X93.937 Y59.870 E2.42428
G1 X90.195 Y56.128 E2.57392
G1 X90.814 Y56.128 E2.59144
G1 X94.222 Y59.536 E2.72770
G1 X94.466 Y59.159 E2.74037
G1 X91.434 Y56.128 E2.86158
G1 X92.029 Y56.103 E2.87841
G1 X94.624 Y58.698 E2.98220
G1 X94.650 Y58.104 E2.99901
G1 X92.696 Y56.150 E3.07715
G1 X93.720 Y56.555 F12000.000
G1 X94.281 Y57.115 E3.09956 F1200.000
G1 X90.717 Y59.748 F12000.000
G1 X87.096 Y56.128 E3.24432 F1200.000
G1 X86.476 Y56.128 E3.26184
G1 X89.565 Y59.216 E3.38532
G1 X88.689 Y58.960 E3.41110
G1 X85.857 Y56.128 E3.52435
G1 X85.237 Y56.128 E3.54187
G1 X87.970 Y58.861 E3.65115
G1 X87.276 Y58.786 E3.67088
G1 X84.617 Y56.128 E3.77719
G1 X83.998 Y56.128 E3.79471
G1 X86.666 Y58.796 E3.90141
G1 X86.062 Y58.811 E3.91851
G1 X83.378 Y56.128 E4.02581
G1 X82.758 Y56.128 E4.04333
G1 X85.533 Y58.902 E4.15425
G1 X85.004 Y58.993 E4.16942
G1 X82.139 Y56.128 E4.28397
G1 X81.519 Y56.128 E4.30149
G1 X84.513 Y59.122 E4.42121
G1 X84.049 Y59.277 E4.43505
G1 X80.899 Y56.128 E4.56098
G1 X80.280 Y56.128 E4.57850
G1 X81.423 Y57.271 E4.62423
G1 X80.803 Y57.271 E4.64175
G1 X79.660 Y56.128 E4.68747
G1 X79.040 Y56.128 E4.70499
G1 X80.184 Y57.271 E4.75072
G1 X79.564 Y57.271 E4.76824
G1 X78.420 Y56.128 E4.81396
G1 X77.801 Y56.128 E4.83148
G1 X78.944 Y57.271 E4.87721
G1 X78.325 Y57.271 E4.89473
G1 X77.181 Y56.128 E4.94045
G1 X76.561 Y56.128 E4.95797
G1 X77.705 Y57.271 E5.00369
G1 X77.085 Y57.271 E5.02121
G1 X75.942 Y56.128 E5.06694
G1 X75.322 Y56.128 E5.08446
G1 X76.466 Y57.271 E5.13018
G1 X75.846 Y57.271 E5.14770
G1 X74.702 Y56.128 E5.19343
G1 X74.083 Y56.128 E5.21095
G1 X75.226 Y57.271 E5.25667
G1 X74.607 Y57.271 E5.27419
G1 X73.529 Y56.193 E5.31729
G1 X73.529 Y56.813 E5.33481
G1 X73.987 Y57.271 E5.35313
G1 X82.220 Y58.069 F12000.000
G1 X82.586 Y58.435 E5.36776 F1200.000
M106 S255
M104 S188 ; set temperature
G1 E3.36776 F1680.00000
G92 E0
G1 Z0.650 F12000.000
G1 X75.597 Y82.223 F12000.000
G1 E2.00000 F1680.00000
G1 X75.597 Y75.095 E2.20068 F1579.094
G1 X83.713 Y75.095 E2.42917
G1 X84.753 Y75.443 E2.46004
G1 X86.022 Y75.660 E2.49630
G1 X87.311 Y75.681 E2.53258
G1 X88.587 Y75.505 E2.56885
G1 X89.850 Y75.127 E2.60597
G1 X92.015 Y73.885 E2.67623
G1 X93.197 Y72.784 E2.72170
G1 X93.197 Y61.816 E3.03046
G1 X92.015 Y60.714 E3.07594
G1 X89.866 Y59.479 E3.14573
G1 X88.588 Y59.094 E3.18331
G1 X87.311 Y58.918 E3.21959
G1 X86.022 Y58.939 E3.25587
G1 X84.753 Y59.156 E3.29213
G1 X83.930 Y59.432 E3.31657
G1 X82.145 Y58.401 E3.37460
G1 X81.871 Y57.404 E3.40369
G1 X73.396 Y57.404 E3.64230
G1 X73.396 Y55.995 E3.68199
G1 X91.896 Y55.995 E4.20280
G1 X91.896 Y55.932 E4.20457
G1 X93.023 Y56.038 E4.23645
G1 X93.269 Y56.101 E4.24361 F1579.094
G1 X93.661 Y56.270 E4.25562
G1 X94.014 Y56.510 E4.26764
G1 X94.207 Y56.691 E4.27508
G1 X94.383 Y56.904 E4.28287
G1 X94.531 Y57.138 E4.29066
G1 X94.649 Y57.388 E4.29845
G1 X94.731 Y57.640 E4.30589
G1 X94.799 Y58.071 E4.31819
G1 X94.799 Y58.338 E4.32570
G1 X94.765 Y58.612 E4.33348
G1 X94.699 Y58.868 E4.34092
