; generated by Slic3r 0.9.9 on 2013-05-02 at 16:32:46

; layer_height = 0.4
; perimeters = 2
; top_solid_layers = 2
; bottom_solid_layers = 2
; fill_density = 0.2
; perimeter_speed = 30
; infill_speed = 60
; travel_speed = 130
; nozzle_diameter = 0.5
; filament_diameter = 3
; extrusion_multiplier = 0.8
; perimeters extrusion width = 0.53mm
; infill extrusion width = 0.53mm
; solid infill extrusion width = 0.53mm
; top infill extrusion width = 0.53mm
; first layer extrusion width = 1.00mm

G21 ; set units to millimeters
M107
M190 S105 ; wait for bed temperature to be reached
M104 S220 ; set temperature
G28 ; home all axes
G1 Z5 F120 ; lift nozzle
G1 E3
M109 S220 ; wait for temperature to be reached
G90 ; use absolute coordinates
G92 E0
M82 ; use absolute distances for extrusion
G1 F1680.000 E-2.00000
G92 E0
G1 Z0.500 F7800.000
G1 X89.760 Y80.517
G1 F1680.000 E2.00000
G1 X89.940 Y80.317 F540.000 E2.01359
G1 X90.520 Y79.757 E2.05432
G1 X90.950 Y79.417 E2.08201
G1 X91.400 Y79.117 E2.10933
G1 X91.630 Y78.987 E2.12268
G1 X92.110 Y78.737 E2.15002
G1 X92.610 Y78.527 E2.17741
G1 X92.870 Y78.437 E2.19131
G1 X93.390 Y78.297 E2.21852
G1 X93.920 Y78.187 E2.24586
G1 X94.730 Y78.107 E2.28698
G1 X105.270 Y78.107 E2.81942
G1 X106.080 Y78.187 E2.86054
G1 X106.610 Y78.297 E2.88788
G1 X107.130 Y78.437 E2.91509
G1 X107.890 Y78.737 E2.95636
G1 X108.370 Y78.987 E2.98370
G1 X108.830 Y79.267 E3.01091
G1 X109.050 Y79.417 E3.02436
G1 X109.480 Y79.757 E3.05205
G1 X109.680 Y79.937 E3.06564
G1 X110.240 Y80.517 E3.10637
G1 X110.580 Y80.947 E3.13406
G1 X110.880 Y81.397 E3.16138
G1 X111.260 Y82.107 E3.20206
G1 X111.560 Y82.867 E3.24334
G1 X111.700 Y83.387 E3.27054
G1 X111.810 Y83.917 E3.29789
G1 X111.890 Y84.727 E3.33900
G1 X111.890 Y115.267 E4.88178
G1 X111.870 Y115.537 E4.89545
G1 X111.810 Y116.077 E4.92290
G1 X111.760 Y116.337 E4.93628
G1 X111.560 Y117.127 E4.97744
G1 X111.470 Y117.387 E4.99134
G1 X111.140 Y118.127 E5.03227
G1 X110.880 Y118.597 E5.05941
G1 X110.580 Y119.047 E5.08673
G1 X110.060 Y119.677 E5.12799
G1 X109.480 Y120.237 E5.16872
G1 X109.050 Y120.577 E5.19641
G1 X108.600 Y120.877 E5.22373
G1 X107.890 Y121.257 E5.26441
G1 X107.130 Y121.557 E5.30569
G1 X106.610 Y121.697 E5.33289
G1 X106.080 Y121.807 E5.36024
G1 X105.270 Y121.887 E5.40135
G1 X94.730 Y121.887 E5.93380
G1 X93.920 Y121.807 E5.97492
G1 X93.390 Y121.697 E6.00226
G1 X92.870 Y121.557 E6.02946
G1 X92.360 Y121.367 E6.05696
G1 X91.630 Y121.007 E6.09807
G1 X91.400 Y120.877 E6.11142
G1 X90.950 Y120.577 E6.13874
G1 X90.320 Y120.057 E6.18001
G1 X89.760 Y119.477 E6.22073
G1 X89.420 Y119.047 E6.24843
G1 X89.120 Y118.597 E6.27575
G1 X88.740 Y117.887 E6.31643
G1 X88.440 Y117.127 E6.35770
G1 X88.300 Y116.607 E6.38491
G1 X88.190 Y116.077 E6.41225
G1 X88.110 Y115.267 E6.45337
G1 X88.110 Y84.727 E7.99614
G1 X88.190 Y83.917 E8.03726
G1 X88.240 Y83.657 E8.05063
G1 X88.440 Y82.867 E8.09180
G1 X88.530 Y82.607 E8.10570
G1 X88.740 Y82.107 E8.13310
G1 X89.120 Y81.397 E8.17378
G1 X89.420 Y80.947 E8.20110
G1 X89.676 Y80.621 E8.22203
G1 F1680.000 E6.22203
G92 E0
G1 X98.326 Y88.384 F7800.000
G1 F1680.000 E2.00000
G1 X99.361 Y87.632 F540.000 E2.06460
G1 X100.639 Y87.632 E2.12921
G1 X101.674 Y88.384 E2.19381
G1 X102.069 Y89.600 E2.25842
G1 X101.674 Y90.816 E2.32303
G1 X100.639 Y91.568 E2.38764
G1 X99.360 Y91.568 E2.45224
G1 X98.326 Y90.816 E2.51685
G1 X97.931 Y89.600 E2.58145
G1 X98.285 Y88.511 E2.63930
G1 X98.050 Y87.535 F7800.000
G1 X97.567 Y87.832
G1 X96.992 Y89.600 F540.000 E2.73322
G1 X97.566 Y91.368 E2.82713
G1 X99.070 Y92.461 E2.92103
G1 X100.930 Y92.461 E3.01495
G1 X102.433 Y91.368 E3.10886
G1 X103.008 Y89.600 E3.20278
G1 X102.434 Y87.832 E3.29669
G1 X100.703 Y86.575 E3.40474
G1 X100.780 Y86.339 E3.41726
G1 X103.661 Y86.339 E3.56282
G1 X103.661 Y113.661 E4.94303
G1 X96.339 Y113.661 E5.31290
G1 X96.339 Y86.339 E6.69311
G1 X99.220 Y86.339 E6.83867
G1 X99.297 Y86.575 E6.85118
G1 X97.675 Y87.753 E6.95247
G1 X95.446 Y85.446 F7800.000
G1 X104.554 Y85.446 F378.000 E7.41254
G1 X104.554 Y114.554 E8.88293
G1 X95.446 Y114.554 E9.34300
G1 X95.446 Y85.580 E10.80663
G1 X96.219 Y85.893 F7800.000
G1 X95.500 Y85.500
G1 X97.846 Y89.686
G1 X99.118 Y91.458
G1 X99.418 Y91.676
G1 X101.691 Y90.937
G1 X103.014 Y91.747
G1 X102.261 Y92.293 F1080.000 E10.85503
G1 X103.014 Y93.046 E10.91041
G1 X103.014 Y94.346 E10.97801
G1 X101.508 Y92.840 E11.08876
G1 X100.476 Y93.108 E11.14422
G1 X103.014 Y95.646 E11.33089
G1 X103.014 Y96.946 E11.39849
G1 X99.176 Y93.108 E11.68076
G1 X96.986 Y92.218 E11.80371
G1 X103.014 Y98.245 E12.24705
G1 X103.014 Y99.545 E12.31465
G1 X96.986 Y93.517 E12.75800
G1 X96.986 Y94.817 E12.82560
G1 X103.014 Y100.845 E13.26894
G1 X103.014 Y102.145 E13.33654
G1 X96.986 Y96.117 E13.77989
G1 X96.986 Y97.417 E13.84749
G1 X103.014 Y103.444 E14.29083
G1 X103.014 Y104.744 E14.35843
G1 X96.986 Y98.716 E14.80178
G1 X96.986 Y100.016 E14.86938
G1 X103.014 Y106.044 E15.31272
G1 X103.014 Y107.344 E15.38032
G1 X96.986 Y101.316 E15.82367
G1 X96.986 Y102.616 E15.89127
G1 X103.014 Y108.643 E16.33461
G1 X103.014 Y109.943 E16.40221
G1 X96.986 Y103.915 E16.84556
G1 X96.986 Y105.215 E16.91315
G1 X103.014 Y111.243 E17.35650
G1 X103.014 Y112.543 E17.42410
G1 X96.986 Y106.515 E17.86745
G1 X96.986 Y107.815 E17.93504
G1 X102.185 Y113.014 E18.31745
G1 X100.886 Y113.014 E18.38505
G1 X96.986 Y109.114 E18.67186
G1 X96.986 Y110.414 E18.73946
G1 X99.586 Y113.014 E18.93067
G1 X98.286 Y113.014 E18.99827
G1 X96.986 Y111.714 E19.09388
G1 X96.986 Y113.014 E19.16149
M106 S255
M104 S215 ; set temperature
M140 S100 ; set bed temperature
G1 F1680.000 E17.16149
G92 E0
G1 Z0.900 F7800.000
G1 X99.252 Y91.901
G1 F1680.000 E2.00000
G1 X98.043 Y91.022 F826.721 E2.03518
G1 X97.580 Y89.600 E2.07035
G1 X98.043 Y88.178 E2.10553
G1 X99.252 Y87.299 E2.14071
G1 X100.748 Y87.299 E2.17589
G1 X101.957 Y88.178 E2.21107
G1 X102.420 Y89.600 E2.24624
G1 X101.957 Y91.022 E2.28142
G1 X100.748 Y91.901 E2.31660
G1 X99.330 Y91.901 E2.34994
G1 X99.421 Y91.382 F7800.000
G1 X98.485 Y90.701 F826.721 E2.37718
G1 X98.127 Y89.600 E2.40441
G1 X98.485 Y88.499 E2.43165
G1 X99.421 Y87.818 E2.45888
G1 X100.579 Y87.818 E2.48611
G1 X101.515 Y88.499 E2.51335
G1 X101.873 Y89.600 E2.54058
G1 X101.515 Y90.701 E2.56782
G1 X100.579 Y91.382 E2.59505
G1 X99.499 Y91.382 E2.62045
G1 X99.001 Y91.687 F7800.000
G1 X95.779 Y85.779
G1 X104.221 Y85.779 F826.721 E2.81902
G1 X104.221 Y114.221 E3.48808
G1 X95.779 Y114.221 E3.68665
G1 X95.779 Y85.857 E4.35387
G1 X95.260 Y85.260 F7800.000
G1 X104.740 Y85.260 F600.000 E4.57689
G1 X104.740 Y114.740 E5.27039
G1 X95.260 Y114.740 E5.49341
G1 X95.260 Y85.338 E6.18508
G1 X95.710 Y85.520 F7800.000
G1 X96.156 Y86.156
G1 X96.893 Y86.156 F1653.441 E6.20247
G1 X96.156 Y86.893 E6.22706
G1 X96.156 Y87.630 E6.24445
G1 X97.630 Y86.156 E6.29363
G1 X98.367 Y86.156 E6.31102
G1 X96.156 Y88.367 E6.38479
G1 X97.847 Y89.683 F7800.000
G1 X99.065 Y91.420
G1 X99.418 Y91.676
G1 X101.794 Y90.904
G1 X101.672 Y91.695
G1 X96.156 Y97.211 F1653.441 E6.56882
G1 X96.156 Y97.948 E6.58621
G1 X103.844 Y90.260 E6.84270
G1 X103.844 Y90.997 E6.86009
G1 X96.156 Y98.685 E7.11659
G1 X96.156 Y99.422 E7.13398
G1 X103.844 Y91.734 E7.39047
G1 X103.844 Y92.471 E7.40786
G1 X96.156 Y100.159 E7.66436
G1 X96.156 Y100.896 E7.68174
G1 X103.844 Y93.208 E7.93824
G1 X103.844 Y93.945 E7.95563
G1 X96.156 Y101.633 E8.21213
G1 X96.156 Y102.370 E8.22951
G1 X103.844 Y94.682 E8.48601
G1 X103.844 Y95.419 E8.50340
G1 X96.156 Y103.107 E8.75990
G1 X96.156 Y103.844 E8.77728
G1 X103.844 Y96.156 E9.03378
G1 X103.844 Y96.893 E9.05117
G1 X96.156 Y104.581 E9.30767
G1 X96.156 Y105.318 E9.32505
G1 X103.844 Y97.630 E9.58155
G1 X103.844 Y98.367 E9.59894
G1 X96.156 Y106.055 E9.85543
G1 X96.156 Y106.792 E9.87282
G1 X103.844 Y99.104 E10.12932
G1 X103.844 Y99.841 E10.14671
G1 X96.156 Y107.529 E10.40320
G1 X96.156 Y108.266 E10.42059
G1 X103.844 Y100.578 E10.67709
G1 X103.844 Y101.315 E10.69448
G1 X96.156 Y109.003 E10.95097
G1 X96.156 Y109.740 E10.96836
G1 X103.844 Y102.052 E11.22486
G1 X103.844 Y102.789 E11.24224
G1 X96.156 Y110.477 E11.49874
G1 X96.156 Y111.214 E11.51613
G1 X103.844 Y103.526 E11.77263
G1 X103.844 Y104.263 E11.79001
G1 X96.156 Y111.951 E12.04651
G1 X96.156 Y112.688 E12.06390
G1 X103.844 Y105.000 E12.32040
G1 X103.844 Y105.737 E12.33778
G1 X96.156 Y113.425 E12.59428
G1 X96.474 Y113.844 E12.60669
G1 X103.844 Y106.474 E12.85259
G1 X103.844 Y107.211 E12.86997
G1 X97.211 Y113.844 E13.09128
G1 X97.948 Y113.844 E13.10867
G1 X103.844 Y107.948 E13.30538
G1 X103.844 Y108.685 E13.32277
G1 X98.685 Y113.844 E13.49490
G1 X99.422 Y113.844 E13.51228
G1 X103.844 Y109.422 E13.65982
G1 X103.844 Y110.159 E13.67721
G1 X100.159 Y113.844 E13.80016
G1 X100.896 Y113.844 E13.81755
G1 X103.844 Y110.896 E13.91591
G1 X103.844 Y111.633 E13.93330
G1 X101.633 Y113.844 E14.00707
G1 X102.370 Y113.844 E14.02446
G1 X103.844 Y112.370 E14.07364
G1 X103.844 Y113.107 E14.09103
G1 X103.107 Y113.844 E14.11562
G1 X103.844 Y113.844 E14.13302
G1 X96.156 Y96.474 F7800.000
G1 X100.352 Y92.278 F1653.441 E14.27302
G1 X99.615 Y92.278 E14.29041
G1 X96.156 Y95.737 E14.40582
G1 X96.156 Y95.000 E14.42321
G1 X98.984 Y92.172 E14.51757
G1 X98.557 Y91.862 E14.53002
G1 X96.156 Y94.263 E14.61013
G1 X96.156 Y93.526 E14.62752
G1 X98.131 Y91.552 E14.69340
G1 X97.714 Y91.231 E14.70579
G1 X96.156 Y92.789 E14.75778
G1 X96.156 Y92.052 E14.77517
G1 X97.534 Y90.675 E14.82113
G1 X97.353 Y90.118 E14.83493
G1 X96.156 Y91.315 E14.87486
G1 X96.156 Y90.578 E14.89224
G1 X97.209 Y89.526 E14.92736
G1 X97.563 Y88.434 E14.95444
G1 X96.156 Y89.841 E15.00139
G1 X96.156 Y89.104 E15.01878
G1 X99.104 Y86.156 E15.11714
G1 X98.929 Y87.068 E15.13905
G1 X99.841 Y86.156 E15.16949
G1 X100.257 Y86.477 E15.18189
G1 X100.578 Y86.156 E15.19260
G1 X101.315 Y86.156 E15.20998
G1 X100.684 Y86.787 E15.23104
G1 X101.111 Y87.097 E15.24349
G1 X102.052 Y86.156 E15.27489
G1 X102.789 Y86.156 E15.29227
G1 X101.538 Y87.407 E15.33402
G1 X101.965 Y87.717 E15.34647
G1 X103.526 Y86.156 E15.39856
G1 X103.844 Y86.575 E15.41097
G1 X102.326 Y88.093 E15.46162
G1 X102.507 Y88.649 E15.47542
G1 X103.844 Y87.312 E15.52003
G1 X103.844 Y88.049 E15.53742
G1 X102.687 Y89.206 E15.57601
G1 X102.712 Y89.918 E15.59282
G1 X103.844 Y88.786 E15.63057
G1 X103.844 Y89.523 E15.64796
G1 X102.358 Y91.009 E15.69755
G1 X101.794 Y90.904 F7800.000
G1 X101.794 Y88.405
G1 X100.582 Y87.524
G1 X100.024 Y86.777
G1 X100.024 Y86.777 F600.000 E15.69755
G1 X100.084 Y86.365 F7800.000
G1 X99.844 Y86.144 F600.000 E15.70236
G1 F1680.000 E13.70236
G92 E0
G1 Z1.300 F7800.000
G1 X99.252 Y87.299
G1 F1680.000 E2.00000
G1 X100.748 Y87.299 F600.000 E2.03518
G1 X101.957 Y88.178 E2.07035
G1 X102.420 Y89.600 E2.10553
G1 X101.957 Y91.022 E2.14071
G1 X100.748 Y91.901 E2.17589
G1 X99.252 Y91.901 E2.21107
G1 X98.043 Y91.022 E2.24624
G1 X97.580 Y89.600 E2.28142
G1 X98.043 Y88.178 E2.31660
G1 X99.189 Y87.345 E2.34994
G1 X99.421 Y87.818 F7800.000
G1 X100.579 Y87.818 F600.000 E2.37718
G1 X101.515 Y88.499 E2.40441
G1 X101.873 Y89.600 E2.43165
G1 X101.515 Y90.701 E2.45888
G1 X100.579 Y91.382 E2.48611
G1 X99.421 Y91.382 E2.51335
G1 X98.485 Y90.701 E2.54058
G1 X98.127 Y89.600 E2.56781
G1 X98.485 Y88.499 E2.59505
G1 X99.358 Y87.864 E2.62045
G1 X99.582 Y87.324 F7800.000
G1 X95.779 Y85.779
G1 X104.221 Y85.779 F600.000 E2.81902
G1 X104.221 Y114.221 E3.48808
G1 X95.779 Y114.221 E3.68665
G1 X95.779 Y85.857 E4.35387
G1 X95.260 Y85.260 F7800.000
G1 X104.740 Y85.260 F600.000 E4.57689
G1 X104.740 Y114.740 E5.27039
G1 X95.260 Y114.740 E5.49341
G1 X95.260 Y85.338 E6.18508
G1 X95.710 Y85.520 F7800.000
G1 X97.100 Y98.893
G1 X97.954 Y95.705 F1111.657 E6.26271
G1 X96.257 Y94.008 E6.31917
G1 X97.111 Y90.820 E6.39681
G1 X97.543 Y90.705 E6.40732
G1 X97.184 Y89.600 E6.43464
G1 X97.722 Y87.945 E6.47558
G1 X99.747 Y86.474 E6.53445
G1 X99.429 Y86.156 E6.54503
G1 X96.156 Y86.156 E6.62201
G1 X96.156 Y90.232 E6.71790
G1 X96.610 Y90.686 E6.73298
G1 X96.156 Y92.378 E6.77419
G1 X96.156 Y99.146 E6.93340
G1 X103.844 Y97.086 F7800.000
G1 X103.476 Y97.185 F1111.657 E6.94237
G1 X102.622 Y100.372 E7.02000
G1 X103.844 Y101.595 E7.06066
G1 X101.702 Y113.844 F7800.000
G1 X102.491 Y110.898 F1111.657 E7.13242
G1 X103.844 Y110.535 E7.16536
G1 X103.844 Y103.841 E7.32282
G1 X103.465 Y105.257 E7.35730
G1 X101.146 Y105.878 E7.41376
G1 X100.292 Y109.066 E7.49139
G1 X101.989 Y110.763 E7.54785
G1 X101.164 Y113.844 E7.62288
G1 X97.721 Y113.844 F7800.000
G1 X96.618 Y112.740 F1111.657 E7.65959
G1 X97.472 Y109.553 E7.73723
G1 X99.790 Y108.931 E7.79369
G1 X100.644 Y105.744 E7.87132
G1 X98.947 Y104.047 E7.92778
G1 X99.801 Y100.859 E8.00541
G1 X102.120 Y100.238 E8.06187
G1 X102.974 Y97.050 E8.13951
G1 X101.277 Y95.353 E8.19597
G1 X102.131 Y92.165 E8.27360
G1 X103.844 Y91.706 E8.31532
G1 X103.844 Y86.897 E8.42846
G1 X103.606 Y86.659 E8.43636
G1 X103.741 Y86.156 E8.44862
G1 X103.203 Y86.156 E8.46127
G1 X103.104 Y86.525 E8.47025
G1 X101.072 Y87.069 E8.51973
G1 X102.278 Y87.945 E8.55478
G1 X102.816 Y89.600 E8.59572
G1 X102.278 Y91.255 E8.63665
G1 X101.453 Y91.855 E8.66065
G1 X101.629 Y92.031 E8.66651
G1 X100.775 Y95.218 E8.74414
G1 X98.456 Y95.840 E8.80061
G1 X97.602 Y99.027 E8.87824
G1 X99.299 Y100.724 E8.93470
G1 X98.445 Y103.912 E9.01233
G1 X96.156 Y104.525 E9.06808
G1 X96.156 Y108.604 E9.16403
G1 X96.970 Y109.418 E9.19110
G1 X96.156 Y112.455 E9.26507
G1 X96.156 Y113.844 E9.29774
G1 X95.500 Y114.500 F7800.000
G1 X97.848 Y89.680
G1 X98.309 Y88.263
G1 X100.582 Y87.524
G1 X99.976 Y86.777
G1 X99.976 Y86.777 F600.000 E9.29774
G1 X99.916 Y86.366 F7800.000
G1 X100.156 Y86.144 F600.000 E9.30255
G1 F1680.000 E7.30255
G92 E0
G1 Z1.700 F7800.000
G1 X100.748 Y87.299
G1 F1680.000 E2.00000
G1 X101.957 Y88.178 F600.000 E2.03518
G1 X102.420 Y89.600 E2.07036
G1 X101.957 Y91.022 E2.10553
G1 X100.748 Y91.901 E2.14071
G1 X99.252 Y91.901 E2.17589
G1 X98.043 Y91.022 E2.21107
G1 X97.580 Y89.600 E2.24624
G1 X98.043 Y88.178 E2.28142
G1 X99.252 Y87.299 E2.31660
G1 X100.670 Y87.299 E2.34994
G1 X100.579 Y87.818 F7800.000
G1 X101.515 Y88.499 F600.000 E2.37718
G1 X101.873 Y89.600 E2.40441
G1 X101.515 Y90.701 E2.43165
G1 X100.579 Y91.382 E2.45888
G1 X99.421 Y91.382 E2.48611
G1 X98.485 Y90.701 E2.51335
G1 X98.127 Y89.600 E2.54058
G1 X98.485 Y88.499 E2.56782
G1 X99.421 Y87.818 E2.59505
G1 X100.501 Y87.818 E2.62045
G1 X100.999 Y87.513 F7800.000
G1 X104.221 Y85.779
G1 X104.221 Y114.221 F600.000 E3.28951
G1 X95.779 Y114.221 E3.48808
G1 X95.779 Y85.779 E4.15713
G1 X104.143 Y85.779 E4.35387
G1 X104.740 Y85.260 F7800.000
G1 X104.740 Y114.740 F600.000 E5.04737
G1 X95.260 Y114.740 E5.27039
G1 X95.260 Y85.260 E5.96389
G1 X104.662 Y85.260 E6.18508
G1 X104.480 Y85.710 F7800.000
G1 X103.844 Y86.530
G1 X103.472 Y86.156 F1093.002 E6.19748
G1 X99.796 Y86.156 E6.28395
G1 X99.959 Y86.320 E6.28938
G1 X100.000 Y86.290 E6.29056
G1 X101.072 Y87.069 E6.32175
G1 X103.104 Y86.525 E6.37123
G1 X103.844 Y87.264 E6.39584
G1 X104.500 Y85.500 F7800.000
G1 X98.309 Y88.263
G1 X97.849 Y89.676
G1 X97.543 Y90.705
G1 X97.184 Y89.600 F1093.002 E6.42316
G1 X97.722 Y87.945 E6.46410
G1 X99.534 Y86.629 E6.51677
G1 X99.061 Y86.156 E6.53250
G1 X96.156 Y86.156 E6.60083
G1 X96.156 Y89.865 E6.68808
G1 X97.111 Y90.820 E6.71986
G1 X96.744 Y91.188 F7800.000
G1 X96.156 Y90.600 F1093.002 E6.73942
G1 X96.156 Y93.382 E6.80486
G1 X103.476 Y97.185 F7800.000
G1 X101.142 Y94.851 F1093.002 E6.88249
G1 X101.763 Y92.533 E6.93896
G1 X101.240 Y92.009 E6.95637
G1 X101.665 Y91.700 E6.96875
G1 X102.131 Y92.165 E6.98423
G1 X103.844 Y91.706 E7.02595
G1 X103.844 Y97.086 E7.15250
G1 X103.844 Y101.227 F7800.000
G1 X102.487 Y99.870 F1093.002 E7.19764
G1 X103.108 Y97.552 E7.25410
G1 X100.775 Y95.218 E7.33173
G1 X98.456 Y95.840 E7.38819
G1 X96.156 Y93.539 E7.46471
G1 X96.156 Y94.274 E7.48200
G1 X98.089 Y96.207 E7.54630
G1 X97.468 Y98.525 E7.60276
G1 X99.801 Y100.859 E7.68039
G1 X102.120 Y100.238 E7.73686
G1 X103.844 Y101.962 E7.79422
G1 X103.844 Y104.845 F7800.000
G1 X103.844 Y104.901 F1093.002 E7.79554
G1 X103.844 Y110.535 F7800.000
G1 X103.844 Y105.636 F1093.002 E7.91078
G1 X103.465 Y105.257 E7.92339
G1 X101.146 Y105.878 E7.97985
G1 X98.813 Y103.545 E8.05749
G1 X99.434 Y101.226 E8.11395
G1 X97.100 Y98.893 E8.19158
