; generated by Slic3r 0.9.9 on 2013-05-02 at 17:00:56

; layer_height = 0.4
; perimeters = 2
; top_solid_layers = 3
; bottom_solid_layers = 3
; fill_density = 0.3
; perimeter_speed = 30
; infill_speed = 40
; travel_speed = 200
; nozzle_diameter = 0.5
; filament_diameter = 2.80
; extrusion_multiplier = 0.85
; perimeters extrusion width = 0.53mm
; infill extrusion width = 0.53mm
; solid infill extrusion width = 0.53mm
; top infill extrusion width = 0.53mm
; first layer extrusion width = 1.00mm

G21 ; set units to millimeters
M107
M190 S80 ; wait for bed temperature to be reached
M104 S225 ; set temperature
G28 ; home all axes
G1 Z5 F120 ; lift nozzle
G1 E3
M109 S225 ; wait for temperature to be reached
G90 ; use absolute coordinates
G92 E0
M82 ; use absolute distances for extrusion
G1 F1680.000 E-2.00000
G92 E0
G1 Z0.400 F12000.000
G1 X79.195 Y88.240
G1 F1680.000 E2.00000
G1 X79.845 Y87.750 F540.000 E2.04109
G1 X80.075 Y87.600 E2.05495
G1 X80.545 Y87.340 E2.08206
G1 X81.035 Y87.110 E2.10938
G1 X81.545 Y86.920 E2.13686
G1 X82.335 Y86.720 E2.17799
G1 X82.875 Y86.630 E2.20562
G1 X83.415 Y86.590 E2.23296
G1 X110.985 Y86.590 E3.62461
G1 X111.585 Y86.640 E3.65500
G1 X112.175 Y86.750 E3.68530
G1 X112.765 Y86.910 E3.71616
G1 X113.325 Y87.110 E3.74617
G1 X113.605 Y87.230 E3.76155
G1 X114.135 Y87.510 E3.79181
G1 X119.995 Y90.890 E4.13328
G1 X120.455 Y91.210 E4.16156
G1 X121.095 Y91.750 E4.20383
G1 X121.655 Y92.360 E4.24563
G1 X121.835 Y92.580 E4.25998
G1 X122.145 Y93.040 E4.28798
G1 X122.295 Y93.280 E4.30227
G1 X122.555 Y93.770 E4.33027
G1 X122.865 Y94.550 E4.37263
G1 X123.015 Y95.080 E4.40044
G1 X123.125 Y95.630 E4.42875
G1 X123.215 Y96.460 E4.47089
G1 X123.215 Y103.520 E4.82726
G1 X123.165 Y104.070 E4.85514
G1 X123.075 Y104.620 E4.88327
G1 X122.945 Y105.160 E4.91130
G1 X122.775 Y105.690 E4.93940
G1 X122.555 Y106.200 E4.96744
G1 X122.295 Y106.690 E4.99544
G1 X122.155 Y106.930 E5.00946
G1 X121.665 Y107.610 E5.05177
G1 X121.295 Y108.020 E5.07965
G1 X120.895 Y108.410 E5.10784
G1 X120.235 Y108.930 E5.15026
G1 X119.765 Y109.220 E5.17813
G1 X113.875 Y112.630 E5.52168
G1 X113.325 Y112.890 E5.55239
G1 X113.045 Y113.000 E5.56757
G1 X112.465 Y113.180 E5.59822
G1 X111.875 Y113.310 E5.62872
G1 X111.275 Y113.390 E5.65927
G1 X110.975 Y113.410 E5.67445
G1 X83.415 Y113.410 E7.06560
G1 X82.875 Y113.370 E7.09293
G1 X82.335 Y113.280 E7.12057
G1 X81.545 Y113.080 E7.16170
G1 X81.035 Y112.890 E7.18917
G1 X80.545 Y112.660 E7.21650
G1 X80.075 Y112.400 E7.24361
G1 X79.405 Y111.930 E7.28492
G1 X78.795 Y111.390 E7.32604
G1 X78.255 Y110.780 E7.36717
G1 X77.785 Y110.110 E7.40848
G1 X77.525 Y109.640 E7.43559
G1 X77.295 Y109.150 E7.46291
G1 X77.105 Y108.640 E7.49038
G1 X77.035 Y108.380 E7.50398
G1 X76.905 Y107.850 E7.53152
G1 X76.815 Y107.310 E7.55916
G1 X76.775 Y106.770 E7.58649
G1 X76.775 Y93.230 E8.26995
G1 X76.815 Y92.690 E8.29728
G1 X76.905 Y92.150 E8.32491
G1 X77.105 Y91.360 E8.36605
G1 X77.295 Y90.850 E8.39352
G1 X77.525 Y90.360 E8.42084
G1 X77.785 Y89.890 E8.44796
G1 X78.255 Y89.220 E8.48927
G1 X78.605 Y88.810 E8.51648
G1 X79.093 Y88.332 E8.55097
G1 F1680.000 E6.55097
G92 E0
G1 X107.284 Y98.036 F12000.000
G1 F1680.000 E2.00000
G1 X110.685 Y96.072 F540.000 E2.19826
G1 X114.087 Y98.036 E2.39653
G1 X114.087 Y101.964 E2.59479
G1 X110.685 Y103.928 E2.79306
G1 X107.284 Y101.964 E2.99132
G1 X107.284 Y98.173 E3.18266
G1 X106.971 Y97.177 F12000.000
G1 X110.284 Y94.871
G1 X110.371 Y95.198 F540.000 E3.19974
G1 X106.370 Y97.508 E3.43297
G1 X106.370 Y102.492 E3.68452
G1 X110.371 Y104.802 E3.91775
G1 X110.284 Y105.129 E3.93483
G1 X85.057 Y105.129 E5.20821
G1 X85.057 Y94.871 E5.72598
G1 X110.146 Y94.871 E6.99244
G1 X110.563 Y93.957 F12000.000
G1 X115.858 Y97.014 F540.000 E7.30104
G1 X115.858 Y102.986 E7.60250
G1 X110.563 Y106.043 E7.91110
G1 X84.142 Y106.043 E9.24473
G1 X84.142 Y93.957 E9.85479
G1 X110.426 Y93.957 E11.18150
G1 X110.722 Y94.857 F12000.000
G1 X107.766 Y95.534
G1 X106.419 Y95.534 F720.000 E11.25234
G1 X107.168 Y96.282 E11.30801
G1 X106.314 Y96.775 E11.35986
G1 X105.072 Y95.534 E11.45220
G1 X103.725 Y95.534 E11.52303
G1 X105.707 Y97.515 E11.67041
G1 X105.707 Y98.862 E11.74124
G1 X102.379 Y95.534 E11.98879
G1 X101.032 Y95.534 E12.05962
G1 X105.707 Y100.209 E12.40734
G1 X105.707 Y101.556 E12.47817
G1 X99.685 Y95.534 E12.92607
G1 X98.338 Y95.534 E12.99690
G1 X107.270 Y104.466 E13.66121
G1 X105.923 Y104.466 E13.73204
G1 X96.991 Y95.534 E14.39635
G1 X95.644 Y95.534 E14.46719
G1 X104.576 Y104.466 E15.13150
G1 X103.229 Y104.466 E15.20233
G1 X94.297 Y95.534 E15.86664
G1 X92.950 Y95.534 E15.93747
G1 X101.882 Y104.466 E16.60178
G1 X100.535 Y104.466 E16.67262
G1 X91.603 Y95.534 E17.33693
G1 X90.256 Y95.534 E17.40776
G1 X99.189 Y104.466 E18.07207
G1 X97.842 Y104.466 E18.14290
G1 X88.909 Y95.534 E18.80721
G1 X87.563 Y95.534 E18.87805
G1 X96.495 Y104.466 E19.54236
G1 X95.148 Y104.466 E19.61319
G1 X86.216 Y95.534 E20.27750
G1 X85.719 Y96.384 E20.32929
G1 X93.801 Y104.466 E20.93034
G1 X92.454 Y104.466 E21.00117
G1 X85.719 Y97.731 E21.50205
G1 X85.719 Y99.078 E21.57288
G1 X91.107 Y104.466 E21.97359
G1 X89.760 Y104.466 E22.04442
G1 X85.719 Y100.425 E22.34495
G1 X85.719 Y101.772 E22.41579
G1 X88.413 Y104.466 E22.61615
G1 X87.066 Y104.466 E22.68698
G1 X85.719 Y103.119 E22.78717
G1 X85.719 Y104.466 E22.85801
G1 X107.483 Y104.472 F12000.000
G1 X108.485 Y104.472 F360.000 E22.89719
G1 X110.988 Y105.039 F12000.000
G1 X111.384 Y104.810 F360.000 E22.90832
G1 X111.120 Y104.547 E22.91742
G1 X111.445 Y104.248 E22.92818
G1 X111.779 Y104.582 E22.93970
G1 X112.175 Y104.354 E22.95083
G1 X111.841 Y104.019 E22.96235
G1 X112.236 Y103.791 E22.97348
G1 X112.571 Y104.125 E22.98500
G1 X112.966 Y103.897 E22.99613
G1 X112.632 Y103.562 E23.00765
G1 X113.028 Y103.334 E23.01878
G1 X113.362 Y103.668 E23.03030
G1 X113.758 Y103.440 E23.04144
G1 X113.423 Y103.106 E23.05295
G1 X113.819 Y102.877 E23.06409
G1 X114.153 Y103.211 E23.07561
G1 X114.549 Y102.983 E23.08674
G1 X114.215 Y102.649 E23.09826
G1 X114.610 Y102.420 E23.10939
G1 X114.945 Y102.755 E23.12091
G1 X115.201 Y102.386 E23.13183
G1 X114.744 Y101.930 E23.14757
G1 X115.201 Y101.762 E23.15942
G1 X114.744 Y101.306 E23.17516
G1 X115.201 Y101.138 E23.18701
G1 X114.744 Y100.681 E23.20274
G1 X115.201 Y100.514 E23.21459
G1 X114.744 Y100.057 E23.23033
G1 X115.201 Y99.890 E23.24218
G1 X114.744 Y99.433 E23.25791
G1 X115.201 Y99.266 E23.26976
G1 X114.744 Y98.809 E23.28550
G1 X115.201 Y98.642 E23.29735
G1 X114.744 Y98.185 E23.31308
G1 X115.201 Y98.017 E23.32494
G1 X113.724 Y96.540 E23.37584
G1 X113.494 Y96.935 E23.38696
G1 X112.247 Y95.688 E23.42995
G1 X112.018 Y96.083 E23.44107
G1 X111.021 Y95.087 E23.47540
G1 X115.200 Y97.393 F12000.000
G1 X115.201 Y97.393 F360.000 E23.47542
G1 X107.618 Y96.029 F12000.000
G1 X108.051 Y95.779 F360.000 E23.48880
G1 X107.801 Y95.528 E23.49826
G1 X108.485 Y95.528 E23.51654
M106 S255
M104 S220 ; set temperature
G1 F1680.000 E21.51654
G92 E0
G1 Z0.800 F12000.000
G1 X109.560 Y96.350
G1 F1680.000 E2.00000
G1 X110.685 Y95.700 F1226.215 E2.03730
G1 X114.409 Y97.850 E2.16068
G1 X114.409 Y102.150 E2.28406
G1 X110.685 Y104.300 E2.40744
G1 X106.961 Y102.150 E2.53082
G1 X106.961 Y97.850 E2.65420
G1 X109.492 Y96.389 E2.73804
G1 X109.819 Y96.800 F12000.000
G1 X110.685 Y96.300 F1226.215 E2.76674
G1 X113.890 Y98.150 E2.87290
G1 X113.890 Y101.850 E2.97906
G1 X110.685 Y103.700 E3.08523
G1 X107.481 Y101.850 E3.19139
G1 X107.481 Y98.150 E3.29755
G1 X109.752 Y96.839 E3.37279
G1 X109.819 Y96.280 F12000.000
G1 X84.465 Y105.721
G1 X84.465 Y94.279 F1226.215 E3.70106
G1 X110.477 Y94.279 E4.44741
G1 X115.535 Y97.200 E4.61501
G1 X115.535 Y102.800 E4.77569
G1 X110.477 Y105.721 E4.94328
G1 X84.543 Y105.721 E5.68739
G1 X83.945 Y106.240 F12000.000
G1 X83.945 Y93.760 F1226.215 E6.04549
G1 X110.616 Y93.760 E6.81074
G1 X116.055 Y96.900 E6.99094
G1 X116.055 Y103.100 E7.16883
G1 X110.616 Y106.240 E7.34904
G1 X84.023 Y106.240 E8.11205
G1 X84.205 Y105.790 F12000.000
G1 X84.841 Y94.656
G1 X85.585 Y94.656 F1634.953 E8.13365
G1 X84.841 Y95.400 E8.16421
G1 X84.841 Y96.144 E8.18581
G1 X86.329 Y94.656 E8.24691
G1 X87.073 Y94.656 E8.26851
G1 X84.841 Y96.888 E8.36016
G1 X84.841 Y97.631 E8.38176
G1 X87.817 Y94.656 E8.50395
G1 X88.561 Y94.656 E8.52555
G1 X84.841 Y98.375 E8.67829
G1 X84.841 Y99.119 E8.69989
G1 X89.304 Y94.656 E8.88318
G1 X90.048 Y94.656 E8.90478
G1 X84.841 Y99.863 E9.11862
G1 X84.841 Y100.607 E9.14022
G1 X90.792 Y94.656 E9.38460
G1 X91.536 Y94.656 E9.40620
G1 X84.841 Y101.350 E9.68114
G1 X84.841 Y102.094 E9.70274
G1 X92.279 Y94.656 E10.00822
G1 X93.023 Y94.656 E10.02982
G1 X84.841 Y102.838 E10.36584
G1 X84.841 Y103.582 E10.38744
G1 X93.767 Y94.656 E10.75402
G1 X94.511 Y94.656 E10.77562
G1 X84.841 Y104.325 E11.17274
G1 X84.841 Y105.069 E11.19434
G1 X95.255 Y94.656 E11.62201
G1 X95.998 Y94.656 E11.64361
G1 X85.311 Y105.344 E12.08256
G1 X86.054 Y105.344 E12.10416
G1 X96.742 Y94.656 E12.54311
G1 X97.486 Y94.656 E12.56471
G1 X86.798 Y105.344 E13.00366
G1 X87.542 Y105.344 E13.02526
G1 X98.230 Y94.656 E13.46420
G1 X98.974 Y94.656 E13.48580
G1 X88.286 Y105.344 E13.92475
G1 X89.030 Y105.344 E13.94635
G1 X99.717 Y94.656 E14.38530
G1 X100.461 Y94.656 E14.40690
G1 X89.773 Y105.344 E14.84585
G1 X90.517 Y105.344 E14.86745
G1 X101.205 Y94.656 E15.30640
G1 X101.949 Y94.656 E15.32800
G1 X91.261 Y105.344 E15.76695
G1 X92.005 Y105.344 E15.78855
G1 X102.693 Y94.656 E16.22750
G1 X103.436 Y94.656 E16.24910
G1 X92.748 Y105.344 E16.68805
G1 X93.492 Y105.344 E16.70965
G1 X104.180 Y94.656 E17.14860
G1 X104.924 Y94.656 E17.17020
G1 X94.236 Y105.344 E17.60915
G1 X94.980 Y105.344 E17.63075
G1 X105.668 Y94.656 E18.06970
G1 X106.412 Y94.656 E18.09130
G1 X95.724 Y105.344 E18.53025
G1 X96.467 Y105.344 E18.55185
G1 X107.155 Y94.656 E18.99080
G1 X107.899 Y94.656 E19.01240
G1 X97.211 Y105.344 E19.45135
G1 X97.955 Y105.344 E19.47295
G1 X108.643 Y94.656 E19.91190
G1 X110.874 Y94.656 F12000.000
G1 X109.691 Y95.839 F1634.953 E19.96048
G1 X107.931 Y96.855 E20.01949
G1 X110.130 Y94.656 E20.10981
G1 X109.387 Y94.656 E20.13141
G1 X98.699 Y105.344 E20.57036
G1 X99.443 Y105.344 E20.59196
G1 X106.585 Y98.202 E20.88529
G1 X106.585 Y98.945 E20.90689
G1 X100.186 Y105.344 E21.16967
G1 X100.930 Y105.344 E21.19127
G1 X106.585 Y99.689 E21.42351
G1 X106.585 Y100.433 E21.44511
G1 X101.674 Y105.344 E21.64680
G1 X102.418 Y105.344 E21.66840
G1 X106.585 Y101.177 E21.83954
G1 X106.585 Y101.921 E21.86114
G1 X103.162 Y105.344 E22.00173
G1 X103.905 Y105.344 E22.02333
G1 X106.773 Y102.476 E22.14111
G1 X107.245 Y102.748 E22.15692
G1 X104.649 Y105.344 E22.26352
G1 X105.393 Y105.344 E22.28512
G1 X107.716 Y103.021 E22.38054
G1 X108.188 Y103.293 E22.39635
G1 X106.137 Y105.344 E22.48059
G1 X106.880 Y105.344 E22.50219
G1 X108.659 Y103.565 E22.57524
G1 X109.131 Y103.837 E22.59105
G1 X107.624 Y105.344 E22.65293
G1 X108.368 Y105.344 E22.67453
G1 X109.602 Y104.110 E22.72522
G1 X110.074 Y104.382 E22.74103
G1 X109.112 Y105.344 E22.78055
G1 X109.856 Y105.344 E22.80215
G1 X110.545 Y104.654 E22.83048
G1 X110.599 Y105.344 E22.85057
G1 X111.017 Y104.926 E22.86772
G1 X111.343 Y105.344 E22.88311
G1 X113.393 Y103.340 F12000.000
G1 X113.170 Y103.562 F817.477 E22.89266
G1 X111.550 Y104.404 E22.94816
G1 X111.328 Y104.626 E22.95771
G1 X115.013 Y102.498 F12000.000
G1 X114.932 Y101.801 F817.477 E22.97906
G1 X115.013 Y101.720 E22.98255
G1 X114.932 Y101.022 E23.00390
G1 X115.013 Y100.941 E23.00739
G1 X114.932 Y100.244 E23.02874
G1 X115.013 Y100.162 E23.03223
G1 X114.932 Y99.465 E23.05358
G1 X115.013 Y99.384 E23.05707
G1 X114.932 Y98.686 E23.07842
G1 X115.013 Y98.605 E23.08191
G1 X114.932 Y97.908 E23.10326
G1 X115.013 Y97.826 E23.10675
G1 X114.666 Y97.395 E23.12359
G1 X114.725 Y97.335 E23.12615
G1 X114.232 Y97.050 E23.14348
G1 X114.172 Y97.110 E23.14604
G1 X113.738 Y96.765 E23.16289
G1 X113.678 Y96.825 E23.16545
G1 X113.244 Y96.480 E23.18230
G1 X113.185 Y96.540 E23.18486
G1 X112.751 Y96.195 E23.20171
G1 X112.691 Y96.255 E23.20427
G1 X112.257 Y95.910 E23.22112
G1 X112.198 Y95.970 E23.22368
G1 X111.763 Y95.625 E23.24052
G1 X111.704 Y95.685 E23.24308
G1 X111.210 Y95.400 E23.26041
G1 F1680.000 E21.26041
G92 E0
G1 Z1.200 F12000.000
G1 X110.685 Y95.700
G1 F1680.000 E2.00000
G1 X114.409 Y97.850 F1228.185 E2.12338
G1 X114.409 Y102.150 E2.24676
G1 X110.685 Y104.300 E2.37014
G1 X106.961 Y102.150 E2.49352
G1 X106.961 Y97.850 E2.61690
G1 X110.618 Y95.739 E2.73804
G1 X110.685 Y96.300 F12000.000
G1 X113.890 Y98.150 F1228.185 E2.84421
G1 X113.890 Y101.850 E2.95037
G1 X110.685 Y103.700 E3.05653
G1 X107.481 Y101.850 E3.16270
G1 X107.481 Y98.150 E3.26886
G1 X110.618 Y96.339 E3.37279
G1 X111.019 Y95.902 F12000.000
G1 X84.465 Y105.721
G1 X84.465 Y94.279 F1228.185 E3.70106
G1 X110.477 Y94.279 E4.44741
G1 X115.535 Y97.200 E4.61501
G1 X115.535 Y102.800 E4.77569
G1 X110.477 Y105.721 E4.94328
G1 X84.543 Y105.721 E5.68739
G1 X83.945 Y106.240 F12000.000
G1 X83.945 Y93.760 F1228.185 E6.04549
G1 X110.616 Y93.760 E6.81074
G1 X116.055 Y96.900 E6.99094
G1 X116.055 Y103.100 E7.16883
G1 X110.616 Y106.240 E7.34904
G1 X84.023 Y106.240 E8.11205
G1 X84.205 Y105.790 F12000.000
G1 X84.842 Y105.344
G1 X84.841 Y104.600 F1637.580 E8.13366
G1 X85.585 Y105.344 E8.16421
G1 X86.329 Y105.344 E8.18581
G1 X84.841 Y103.856 E8.24692
G1 X84.841 Y103.112 E8.26852
G1 X87.073 Y105.344 E8.36017
G1 X87.817 Y105.344 E8.38177
G1 X84.841 Y102.369 E8.50396
G1 X84.841 Y101.625 E8.52556
G1 X88.561 Y105.344 E8.67831
G1 X89.304 Y105.344 E8.69991
G1 X84.841 Y100.881 E8.88320
G1 X84.841 Y100.137 E8.90480
G1 X90.048 Y105.344 E9.11864
G1 X90.792 Y105.344 E9.14024
G1 X84.841 Y99.393 E9.38463
G1 X84.841 Y98.650 E9.40623
G1 X91.536 Y105.344 E9.68116
G1 X92.280 Y105.344 E9.70276
G1 X84.841 Y97.906 E10.00825
G1 X84.841 Y97.162 E10.02985
G1 X93.023 Y105.344 E10.36587
G1 X93.767 Y105.344 E10.38747
G1 X84.841 Y96.418 E10.75405
G1 X84.841 Y95.674 E10.77565
G1 X94.511 Y105.344 E11.17278
G1 X95.255 Y105.344 E11.19438
G1 X84.841 Y94.931 E11.62205
G1 X85.311 Y94.656 E11.63783
G1 X95.999 Y105.344 E12.07678
G1 X96.742 Y105.344 E12.09838
G1 X86.054 Y94.656 E12.53733
G1 X86.798 Y94.656 E12.55893
G1 X97.486 Y105.344 E12.99788
G1 X98.230 Y105.344 E13.01948
G1 X87.542 Y94.656 E13.45843
G1 X88.286 Y94.656 E13.48003
G1 X98.974 Y105.344 E13.91898
G1 X99.717 Y105.344 E13.94058
G1 X89.030 Y94.656 E14.37953
G1 X89.773 Y94.656 E14.40113
G1 X100.461 Y105.344 E14.84008
G1 X101.205 Y105.344 E14.86168
G1 X90.517 Y94.656 E15.30063
G1 X91.261 Y94.656 E15.32223
G1 X101.949 Y105.344 E15.76118
G1 X102.693 Y105.344 E15.78278
G1 X92.005 Y94.656 E16.22173
G1 X92.749 Y94.656 E16.24333
G1 X103.436 Y105.344 E16.68228
G1 X104.180 Y105.344 E16.70388
G1 X93.492 Y94.656 E17.14283
G1 X94.236 Y94.656 E17.16443
G1 X104.924 Y105.344 E17.60338
G1 X105.668 Y105.344 E17.62498
G1 X94.980 Y94.656 E18.06393
G1 X95.724 Y94.656 E18.08553
G1 X106.412 Y105.344 E18.52448
G1 X107.155 Y105.344 E18.54608
G1 X96.467 Y94.656 E18.98503
G1 X97.211 Y94.656 E19.00663
G1 X107.899 Y105.344 E19.44557
G1 X108.643 Y105.344 E19.46717
G1 X97.955 Y94.656 E19.90612
G1 X98.699 Y94.656 E19.92772
G1 X109.387 Y105.344 E20.36667
G1 X110.131 Y105.344 E20.38827
G1 X107.932 Y103.145 E20.47858
G1 X106.585 Y101.798 F12000.000
G1 X99.443 Y94.656 F1637.580 E20.77191
G1 X100.186 Y94.656 E20.79351
G1 X106.585 Y101.054 E21.05629
G1 X106.585 Y100.311 E21.07789
G1 X100.930 Y94.656 E21.31013
G1 X101.674 Y94.656 E21.33173
G1 X106.585 Y99.567 E21.53341
G1 X106.585 Y98.823 E21.55501
G1 X102.418 Y94.656 E21.72615
G1 X103.162 Y94.656 E21.74775
G1 X106.585 Y98.079 E21.88834
G1 X106.773 Y97.524 E21.90538
G1 X103.905 Y94.656 E22.02315
G1 X104.649 Y94.656 E22.04475
G1 X107.245 Y97.252 E22.15135
G1 X107.716 Y96.979 E22.16716
G1 X105.393 Y94.656 E22.26258
G1 X106.137 Y94.656 E22.28418
G1 X108.188 Y96.707 E22.36841
G1 X108.659 Y96.435 E22.38423
G1 X106.881 Y94.656 E22.45728
G1 X107.624 Y94.656 E22.47888
G1 X109.131 Y96.163 E22.54075
G1 X109.602 Y95.890 E22.55657
G1 X108.368 Y94.656 E22.60726
G1 X109.112 Y94.656 E22.62886
G1 X110.074 Y95.618 E22.66837
G1 X110.546 Y95.346 E22.68418
G1 X109.856 Y94.656 E22.71251
G1 X110.600 Y94.656 E22.73411
G1 X111.017 Y95.074 E22.75126
G1 X111.343 Y94.656 E22.76665
