; generated by Slic3r 1.2.1 on 2014-12-16 at 18:59:13

; external perimeters extrusion width = 0.50mm
; perimeters extrusion width = 0.50mm
; infill extrusion width = 0.50mm
; solid infill extrusion width = 0.50mm
; top infill extrusion width = 0.50mm

M104 S190 ; set temperature
G28 ; home all axes
G1 Z15 F120 ; lift nozzle
M109 S190 ; wait for temperature to be reached
G21 ; set units to millimeters
G90 ; use absolute coordinates
M82 ; use absolute distances for extrusion
G92 E0
M106 S102
G1 E-2.00000 F1680.000
G92 E0
G1 Z0.350 F12000.000
G1 X48.102 Y49.324 F12000.000
G1 E2.00000 F1680.000
G1 X49.848 Y47.888 E2.06363 F1200.000
G1 X53.000 Y47.064 E2.15535
G1 X117.000 Y47.064 E3.95707
G1 X119.225 Y47.461 E4.02070
G1 X121.176 Y48.602 E4.08434 F1200.000
G1 X122.612 Y50.348 E4.14797
G1 X123.436 Y53.500 E4.23969
G1 X123.436 Y116.500 E6.01326
G1 X123.039 Y118.725 E6.07689
G1 X121.898 Y120.676 E6.14052
G1 X120.152 Y122.112 E6.20416
G1 X117.000 Y122.936 E6.29587
G1 X53.000 Y122.936 E8.09760
G1 X50.775 Y122.539 E8.16123
G1 X48.824 Y121.398 E8.22486
G1 X47.388 Y119.652 E8.28849
G1 X46.564 Y116.500 E8.38021
G1 X46.564 Y53.500 E10.15378
G1 X46.961 Y51.275 E10.21741
G1 X48.064 Y49.389 E10.27893
G1 E8.27893 F1680.000
G92 E0
G1 X53.250 Y102.353 F12000.000
G1 E2.00000 F1680.000
G1 X53.250 Y93.750 E2.22393 F720.000
G1 X116.750 Y93.750 E3.87677
G1 X116.750 Y116.250 E4.46243
G1 X53.250 Y116.250 E6.11527 F720.000
G1 X53.250 Y102.428 E6.47503
G1 X53.562 Y115.978 F12000.000
G1 X53.522 Y115.938 E6.47651 F1200.000
G1 X53.522 Y115.364 E6.49143
G1 X54.136 Y115.978 E6.51400
G1 X54.709 Y115.978 E6.52892
G1 X53.522 Y114.791 E6.57259
G1 X53.522 Y114.218 E6.58751
G1 X55.282 Y115.978 E6.65228
G1 X55.855 Y115.978 E6.66720
G1 X53.522 Y113.645 E6.75306
G1 X53.522 Y113.072 E6.76798
G1 X56.428 Y115.978 E6.87495
G1 X57.002 Y115.978 E6.88987
G1 X53.522 Y112.498 E7.01793
G1 X53.522 Y111.925 E7.03285
G1 X57.575 Y115.978 E7.18202
G1 X58.148 Y115.978 E7.19694
G1 X53.522 Y111.352 E7.36720
G1 X53.522 Y110.779 E7.38212
G1 X58.721 Y115.978 E7.57348
G1 X59.294 Y115.978 E7.58840
G1 X53.522 Y110.206 E7.80087
G1 X53.522 Y109.633 E7.81578
G1 X59.867 Y115.978 E8.04935
G1 X60.441 Y115.978 E8.06426
G1 X53.522 Y109.059 E8.31892
G1 X53.522 Y108.486 E8.33384
G1 X61.014 Y115.978 E8.60960
G1 X61.587 Y115.978 E8.62452
G1 X53.522 Y107.913 E8.92138
G1 X53.522 Y107.340 E8.93630
G1 X62.160 Y115.978 E9.25426
G1 X62.733 Y115.978 E9.26917
G1 X53.522 Y106.767 E9.60823
G1 X53.522 Y106.194 E9.62315
G1 X63.306 Y115.978 E9.98330
G1 X63.880 Y115.978 E9.99822
G1 X53.522 Y105.620 E10.37948
G1 X53.522 Y105.047 E10.39440
G1 X64.453 Y115.978 E10.79675
G1 X65.026 Y115.978 E10.81167
G1 X53.522 Y104.474 E11.23512
G1 X53.522 Y103.901 E11.25004
G1 X65.599 Y115.978 E11.69459
G1 X66.172 Y115.978 E11.70951
G1 X53.522 Y103.328 E12.17516
G1 X53.522 Y102.754 E12.19008
G1 X66.746 Y115.978 E12.67682
G1 X67.319 Y115.978 E12.69174
G1 X53.522 Y102.181 E13.19959
G1 X53.522 Y101.608 E13.21451
G1 X67.892 Y115.978 E13.74346
G1 X68.465 Y115.978 E13.75838
G1 X53.522 Y101.035 E14.30842
G1 X53.522 Y100.462 E14.32334
G1 X69.038 Y115.978 E14.89448
G1 X69.611 Y115.978 E14.90940
G1 X53.522 Y99.889 E15.50165
G1 X53.522 Y99.315 E15.51656
G1 X70.185 Y115.978 E16.12991
G1 X70.758 Y115.978 E16.14483
G1 X53.522 Y98.742 E16.77927
G1 X53.522 Y98.169 E16.79419
G1 X71.331 Y115.978 E17.44973
G1 X71.904 Y115.978 E17.46465
G1 X53.522 Y97.596 E18.14128
G1 X53.522 Y97.023 E18.15620
G1 X72.477 Y115.978 E18.85394
G1 X73.050 Y115.978 E18.86886
G1 X53.522 Y96.450 E19.58770
G1 X53.522 Y95.876 E19.60262
G1 X73.624 Y115.978 E20.34255
G1 X74.197 Y115.978 E20.35747
G1 X53.522 Y95.303 E21.11851
G1 X53.522 Y94.730 E21.13343
G1 X74.770 Y115.978 E21.91556
G1 X75.343 Y115.978 E21.93048
G1 X53.522 Y94.157 E22.73371
G1 X53.961 Y94.022 E22.74566
G1 X75.916 Y115.978 E23.55383
G1 X76.490 Y115.978 E23.56875
G1 X54.534 Y94.022 E24.37693
G1 X55.108 Y94.022 E24.39185
G1 X77.063 Y115.978 E25.20003
G1 X77.636 Y115.978 E25.21495
G1 X55.681 Y94.022 E26.02313
G1 X56.254 Y94.022 E26.03805
G1 X78.209 Y115.978 E26.84622
G1 X78.782 Y115.978 E26.86114
G1 X56.827 Y94.022 E27.66932
G1 X57.400 Y94.022 E27.68424
G1 X79.355 Y115.978 E28.49242
G1 X79.929 Y115.978 E28.50734
G1 X57.974 Y94.022 E29.31552
G1 X58.547 Y94.022 E29.33044
G1 X80.502 Y115.978 E30.13861
G1 X81.075 Y115.978 E30.15353
G1 X59.120 Y94.022 E30.96171
G1 X59.693 Y94.022 E30.97663
G1 X81.648 Y115.978 E31.78481
G1 X82.221 Y115.978 E31.79973
G1 X60.266 Y94.022 E32.60791
G1 X60.839 Y94.022 E32.62283
G1 X82.794 Y115.978 E33.43100
G1 X83.368 Y115.978 E33.44592
G1 X61.413 Y94.022 E34.25410
G1 X61.986 Y94.022 E34.26902
G1 X83.941 Y115.978 E35.07720
G1 X84.514 Y115.978 E35.09212
G1 X62.559 Y94.022 E35.90030
G1 X63.132 Y94.022 E35.91522
G1 X85.087 Y115.978 E36.72339
G1 X85.660 Y115.978 E36.73831
G1 X63.705 Y94.022 E37.54649
G1 X64.278 Y94.022 E37.56141
G1 X86.234 Y115.978 E38.36959
G1 X86.807 Y115.978 E38.38451
G1 X64.852 Y94.022 E39.19269
G1 X65.425 Y94.022 E39.20761
G1 X87.380 Y115.978 E40.01578
G1 X87.953 Y115.978 E40.03070
G1 X65.998 Y94.022 E40.83888
G1 X66.571 Y94.022 E40.85380
G1 X88.526 Y115.978 E41.66198
G1 X89.099 Y115.978 E41.67690
G1 X67.144 Y94.022 E42.48508
G1 X67.718 Y94.022 E42.49999
G1 X89.673 Y115.978 E43.30817
G1 X90.246 Y115.978 E43.32309
G1 X68.291 Y94.022 E44.13127
G1 X68.864 Y94.022 E44.14619
G1 X90.819 Y115.978 E44.95437
G1 X91.392 Y115.978 E44.96929
G1 X69.437 Y94.022 E45.77747
G1 X70.010 Y94.022 E45.79238
G1 X91.965 Y115.978 E46.60056
G1 X92.538 Y115.978 E46.61548
G1 X70.583 Y94.022 E47.42366
G1 X71.157 Y94.022 E47.43858
G1 X93.112 Y115.978 E48.24676
G1 X93.685 Y115.978 E48.26168
G1 X71.730 Y94.022 E49.06986
G1 X72.303 Y94.022 E49.08477
G1 X94.258 Y115.978 E49.89295
G1 X94.831 Y115.978 E49.90787
G1 X72.876 Y94.022 E50.71605
G1 X73.449 Y94.022 E50.73097
G1 X95.404 Y115.978 E51.53915
G1 X95.978 Y115.978 E51.55407
G1 X74.022 Y94.022 E52.36225
G1 X74.596 Y94.022 E52.37716
G1 X96.551 Y115.978 E53.18534
G1 X97.124 Y115.978 E53.20026
G1 X75.169 Y94.022 E54.00844
G1 X75.742 Y94.022 E54.02336
G1 X97.697 Y115.978 E54.83154
G1 X98.270 Y115.978 E54.84646
G1 X76.315 Y94.022 E55.65464
G1 X76.888 Y94.022 E55.66955
G1 X98.843 Y115.978 E56.47773
G1 X99.417 Y115.978 E56.49265
G1 X77.462 Y94.022 E57.30083
G1 X78.035 Y94.022 E57.31575
G1 X99.990 Y115.978 E58.12393
G1 X100.563 Y115.978 E58.13885
G1 X78.608 Y94.022 E58.94702
G1 X79.181 Y94.022 E58.96194
G1 X101.136 Y115.978 E59.77012
G1 X101.709 Y115.978 E59.78504
G1 X79.754 Y94.022 E60.59322
G1 X80.327 Y94.022 E60.60814
G1 X102.282 Y115.978 E61.41632
G1 X102.856 Y115.978 E61.43124
G1 X80.901 Y94.022 E62.23941
G1 X81.474 Y94.022 E62.25433
G1 X103.429 Y115.978 E63.06251
G1 X104.002 Y115.978 E63.07743
G1 X82.047 Y94.022 E63.88561
G1 X82.620 Y94.022 E63.90053
G1 X104.575 Y115.978 E64.70871
G1 X105.148 Y115.978 E64.72363
G1 X83.193 Y94.022 E65.53180
G1 X83.766 Y94.022 E65.54672
G1 X105.722 Y115.978 E66.35490
G1 X106.295 Y115.978 E66.36982
G1 X84.340 Y94.022 E67.17800
G1 X84.913 Y94.022 E67.19292
G1 X106.868 Y115.978 E68.00110
G1 X107.441 Y115.978 E68.01602
G1 X85.486 Y94.022 E68.82419
G1 X86.059 Y94.022 E68.83911
G1 X108.014 Y115.978 E69.64729
G1 X108.587 Y115.978 E69.66221
G1 X86.632 Y94.022 E70.47039
G1 X87.206 Y94.022 E70.48531
G1 X109.161 Y115.978 E71.29349
G1 X109.734 Y115.978 E71.30841
G1 X87.779 Y94.022 E72.11658
G1 X88.352 Y94.022 E72.13150
G1 X110.307 Y115.978 E72.93968
G1 X110.880 Y115.978 E72.95460
G1 X88.925 Y94.022 E73.76278
G1 X89.498 Y94.022 E73.77770
G1 X111.453 Y115.978 E74.58588
G1 X112.026 Y115.978 E74.60080
G1 X90.071 Y94.022 E75.40897
G1 X90.645 Y94.022 E75.42389
G1 X112.600 Y115.978 E76.23207
G1 X113.173 Y115.978 E76.24699
G1 X91.218 Y94.022 E77.05517
G1 X91.791 Y94.022 E77.07009
G1 X113.746 Y115.978 E77.87827
G1 X114.319 Y115.978 E77.89319
G1 X92.364 Y94.022 E78.70136
G1 X92.937 Y94.022 E78.71628
G1 X114.892 Y115.978 E79.52446
G1 X115.466 Y115.978 E79.53938
G1 X93.510 Y94.022 E80.34756
G1 X94.084 Y94.022 E80.36248
G1 X116.039 Y115.978 E81.17066
G1 X116.478 Y115.843 E81.18260
G1 X94.657 Y94.022 E81.98584
G1 X95.230 Y94.022 E82.00075
G1 X116.478 Y115.270 E82.78289
G1 X116.478 Y114.697 E82.79781
G1 X95.803 Y94.022 E83.55884
G1 X96.376 Y94.022 E83.57376
G1 X116.478 Y114.124 E84.31370
G1 X116.478 Y113.550 E84.32862
G1 X96.950 Y94.022 E85.04745
G1 X97.523 Y94.022 E85.06237
G1 X116.478 Y112.977 E85.76011
G1 X116.478 Y112.404 E85.77503
G1 X98.096 Y94.022 E86.45167
G1 X98.669 Y94.022 E86.46659
G1 X116.478 Y111.831 E87.12213
G1 X116.478 Y111.258 E87.13705
G1 X99.242 Y94.022 E87.77149
G1 X99.815 Y94.022 E87.78641
G1 X116.478 Y110.685 E88.39975
G1 X116.478 Y110.111 E88.41467
G1 X100.389 Y94.022 E89.00691
G1 X100.962 Y94.022 E89.02183
G1 X116.478 Y109.538 E89.59297
G1 X116.478 Y108.965 E89.60789
G1 X101.535 Y94.022 E90.15794
G1 X102.108 Y94.022 E90.17286
G1 X116.478 Y108.392 E90.70180
G1 X116.478 Y107.819 E90.71672
G1 X102.681 Y94.022 E91.22457
G1 X103.254 Y94.022 E91.23949
G1 X116.478 Y107.246 E91.72624
G1 X116.478 Y106.672 E91.74116
G1 X103.828 Y94.022 E92.20681
G1 X104.401 Y94.022 E92.22172
G1 X116.478 Y106.099 E92.66628
G1 X116.478 Y105.526 E92.68119
G1 X104.974 Y94.022 E93.10465
G1 X105.547 Y94.022 E93.11956
G1 X116.478 Y104.953 E93.52192
G1 X116.478 Y104.380 E93.53684
G1 X106.120 Y94.022 E93.91809
G1 X106.694 Y94.022 E93.93301
G1 X116.478 Y103.806 E94.29316
G1 X116.478 Y103.233 E94.30808
G1 X107.267 Y94.022 E94.64714
G1 X107.840 Y94.022 E94.66206
G1 X116.478 Y102.660 E94.98001
G1 X116.478 Y102.087 E94.99493
G1 X108.413 Y94.022 E95.29179
G1 X108.986 Y94.022 E95.30671
G1 X116.478 Y101.514 E95.58247
G1 X116.478 Y100.941 E95.59739
G1 X109.559 Y94.022 E95.85205
G1 X110.133 Y94.022 E95.86697
G1 X116.478 Y100.367 E96.10053
G1 X116.478 Y99.794 E96.11545
G1 X110.706 Y94.022 E96.32791
G1 X111.279 Y94.022 E96.34283
G1 X116.478 Y99.221 E96.53419
G1 X116.478 Y98.648 E96.54911
G1 X111.852 Y94.022 E96.71938
G1 X112.425 Y94.022 E96.73429
G1 X116.478 Y98.075 E96.88346
G1 X116.478 Y97.502 E96.89838
G1 X112.998 Y94.022 E97.02645
G1 X113.572 Y94.022 E97.04136
G1 X116.478 Y96.928 E97.14833
G1 X116.478 Y96.355 E97.16325
G1 X114.145 Y94.022 E97.24912
G1 X114.718 Y94.022 E97.26404
G1 X116.478 Y95.782 E97.32881
G1 X116.478 Y95.209 E97.34373
G1 X115.291 Y94.022 E97.38740
G1 X115.864 Y94.022 E97.40232
G1 X116.478 Y94.636 E97.42489
G1 X116.478 Y94.062 E97.43981
G1 X116.438 Y94.022 E97.44128
G1 E95.44128 F1680.000
G92 E0
G1 X91.273 Y53.750 F12000.000
G1 E2.00000 F1680.000
G1 X116.750 Y53.750 E2.66315 F720.000
G1 X116.750 Y76.250 E3.24880
G1 X53.250 Y76.250 E4.90164 F720.000
G1 X53.250 Y53.750 E5.48729
G1 X91.198 Y53.750 E6.47503
G1 X116.438 Y54.022 F12000.000
G1 X116.478 Y54.062 E6.47651 F1200.000
G1 X116.478 Y54.636 E6.49143
G1 X115.864 Y54.022 E6.51400
G1 X115.291 Y54.022 E6.52892
G1 X116.478 Y55.209 E6.57259
G1 X116.478 Y55.782 E6.58751
G1 X114.718 Y54.022 E6.65228
G1 X114.145 Y54.022 E6.66720
G1 X116.478 Y56.355 E6.75306
G1 X116.478 Y56.928 E6.76798
G1 X113.572 Y54.022 E6.87495
G1 X112.998 Y54.022 E6.88987
G1 X116.478 Y57.502 E7.01794
G1 X116.478 Y58.075 E7.03285
G1 X112.425 Y54.022 E7.18202
G1 X111.852 Y54.022 E7.19694
G1 X116.478 Y58.648 E7.36720
G1 X116.478 Y59.221 E7.38212
G1 X111.279 Y54.022 E7.57349
G1 X110.706 Y54.022 E7.58840
G1 X116.478 Y59.794 E7.80087
G1 X116.478 Y60.367 E7.81579
G1 X110.133 Y54.022 E8.04935
G1 X109.559 Y54.022 E8.06427
G1 X116.478 Y60.941 E8.31893
G1 X116.478 Y61.514 E8.33384
G1 X108.986 Y54.022 E8.60960
G1 X108.413 Y54.022 E8.62452
G1 X116.478 Y62.087 E8.92138
G1 X116.478 Y62.660 E8.93630
G1 X107.840 Y54.022 E9.25426
G1 X107.267 Y54.022 E9.26918
G1 X116.478 Y63.233 E9.60823
G1 X116.478 Y63.806 E9.62315
G1 X106.694 Y54.022 E9.98331
G1 X106.120 Y54.022 E9.99822
G1 X116.478 Y64.380 E10.37948
G1 X116.478 Y64.953 E10.39440
G1 X105.547 Y54.022 E10.79675
G1 X104.974 Y54.022 E10.81167
G1 X116.478 Y65.526 E11.23512
G1 X116.478 Y66.099 E11.25004
G1 X104.401 Y54.022 E11.69459
G1 X103.828 Y54.022 E11.70951
G1 X116.478 Y66.672 E12.17516
G1 X116.478 Y67.246 E12.19008
G1 X103.254 Y54.022 E12.67683
G1 X102.681 Y54.022 E12.69175
G1 X116.478 Y67.819 E13.19959
G1 X116.478 Y68.392 E13.21451
G1 X102.108 Y54.022 E13.74346
G1 X101.535 Y54.022 E13.75838
G1 X116.478 Y68.965 E14.30842
G1 X116.478 Y69.538 E14.32334
G1 X100.962 Y54.022 E14.89449
G1 X100.389 Y54.022 E14.90941
G1 X116.478 Y70.111 E15.50165
G1 X116.478 Y70.685 E15.51657
G1 X99.815 Y54.022 E16.12991
G1 X99.242 Y54.022 E16.14483
G1 X116.478 Y71.258 E16.77927
G1 X116.478 Y71.831 E16.79419
G1 X98.669 Y54.022 E17.44973
G1 X98.096 Y54.022 E17.46465
G1 X116.478 Y72.404 E18.14129
G1 X116.478 Y72.977 E18.15621
G1 X97.523 Y54.022 E18.85394
G1 X96.950 Y54.022 E18.86886
G1 X116.478 Y73.550 E19.58770
G1 X116.478 Y74.124 E19.60262
G1 X96.376 Y54.022 E20.34256
G1 X95.803 Y54.022 E20.35747
G1 X116.478 Y74.697 E21.11851
G1 X116.478 Y75.270 E21.13343
G1 X95.230 Y54.022 E21.91556
G1 X94.657 Y54.022 E21.93048
G1 X116.478 Y75.843 E22.73371
G1 X116.039 Y75.978 E22.74566
G1 X94.084 Y54.022 E23.55384
G1 X93.510 Y54.022 E23.56876
G1 X115.466 Y75.978 E24.37693
G1 X114.892 Y75.978 E24.39185
G1 X92.937 Y54.022 E25.20003
G1 X92.364 Y54.022 E25.21495
G1 X114.319 Y75.978 E26.02313
G1 X113.746 Y75.978 E26.03805
G1 X91.791 Y54.022 E26.84623
G1 X91.218 Y54.022 E26.86115
G1 X113.173 Y75.978 E27.66932
G1 X112.600 Y75.978 E27.68424
G1 X90.645 Y54.022 E28.49242
G1 X90.071 Y54.022 E28.50734
G1 X112.026 Y75.978 E29.31552
G1 X111.453 Y75.978 E29.33044
G1 X89.498 Y54.022 E30.13862
G1 X88.925 Y54.022 E30.15354
G1 X110.880 Y75.978 E30.96171
G1 X110.307 Y75.978 E30.97663
G1 X88.352 Y54.022 E31.78481
G1 X87.779 Y54.022 E31.79973
G1 X109.734 Y75.978 E32.60791
G1 X109.161 Y75.978 E32.62283
G1 X87.206 Y54.022 E33.43101
G1 X86.632 Y54.022 E33.44593
G1 X108.587 Y75.978 E34.25410
G1 X108.014 Y75.978 E34.26902
G1 X86.059 Y54.022 E35.07720
G1 X85.486 Y54.022 E35.09212
G1 X107.441 Y75.978 E35.90030
G1 X106.868 Y75.978 E35.91522
G1 X84.913 Y54.022 E36.72340
G1 X84.340 Y54.022 E36.73832
G1 X106.295 Y75.978 E37.54649
G1 X105.722 Y75.978 E37.56141
G1 X83.766 Y54.022 E38.36959
G1 X83.193 Y54.022 E38.38451
G1 X105.148 Y75.978 E39.19269
G1 X104.575 Y75.978 E39.20761
G1 X82.620 Y54.022 E40.01579
G1 X82.047 Y54.022 E40.03071
G1 X104.002 Y75.978 E40.83888
G1 X103.429 Y75.978 E40.85380
G1 X81.474 Y54.022 E41.66198
G1 X80.901 Y54.022 E41.67690
G1 X102.856 Y75.978 E42.48508
G1 X102.282 Y75.978 E42.50000
G1 X80.327 Y54.022 E43.30818
G1 X79.754 Y54.022 E43.32310
G1 X101.709 Y75.978 E44.13127
G1 X101.136 Y75.978 E44.14619
G1 X79.181 Y54.022 E44.95437
G1 X78.608 Y54.022 E44.96929
G1 X100.563 Y75.978 E45.77747
G1 X99.990 Y75.978 E45.79239
G1 X78.035 Y54.022 E46.60057
G1 X77.462 Y54.022 E46.61549
G1 X99.417 Y75.978 E47.42366
G1 X98.843 Y75.978 E47.43858
G1 X76.888 Y54.022 E48.24676
G1 X76.315 Y54.022 E48.26168
G1 X98.270 Y75.978 E49.06986
G1 X97.697 Y75.978 E49.08478
G1 X75.742 Y54.022 E49.89296
G1 X75.169 Y54.022 E49.90788
G1 X97.124 Y75.978 E50.71605
G1 X96.551 Y75.978 E50.73097
G1 X74.596 Y54.022 E51.53915
G1 X74.022 Y54.022 E51.55407
G1 X95.978 Y75.978 E52.36225
G1 X95.404 Y75.978 E52.37717
G1 X73.449 Y54.022 E53.18535
G1 X72.876 Y54.022 E53.20027
G1 X94.831 Y75.978 E54.00844
G1 X94.258 Y75.978 E54.02336
G1 X72.303 Y54.022 E54.83154
G1 X71.730 Y54.022 E54.84646
G1 X93.685 Y75.978 E55.65464
G1 X93.112 Y75.978 E55.66956
G1 X71.157 Y54.022 E56.47774
G1 X70.583 Y54.022 E56.49266
G1 X92.538 Y75.978 E57.30083
G1 X91.965 Y75.978 E57.31575
G1 X70.010 Y54.022 E58.12393
G1 X69.437 Y54.022 E58.13885
G1 X91.392 Y75.978 E58.94703
