; generated by Slic3r 1.0.0RC1 on 2014-12-16 at 09:35:29

; layer_height = 0.3
; perimeters = 2
; top_solid_layers = 3
; bottom_solid_layers = 3
; fill_density = 0.5
; perimeter_speed = 30
; infill_speed = 30
; travel_speed = 200
; nozzle_diameter = 0.5
; filament_diameter = 2.98
; extrusion_multiplier = 0.9
; perimeters extrusion width = 0.50mm
; infill extrusion width = 0.70mm
; solid infill extrusion width = 0.70mm
; top infill extrusion width = 0.70mm

G21 ; set units to millimeters
M107
M104 S190 ; set temperature
G28 ; home all axes
G1 Z15 F120 ; lift nozzle
M109 S190 ; wait for temperature to be reached
G90 ; use absolute coordinates
G92 E0
M82 ; use absolute distances for extrusion
G1 F1680.000 E-2.00000
G92 E0
G1 Z0.450 F12000.000
G1 X57.900 Y69.900 F12000.000
G1 E2.00000 F1680.000
G1 X58.890 Y69.100 E2.03696 F900.000
G1 X60.010 Y68.490 E2.07398
G1 X61.230 Y68.120 E2.11100
G1 X62.500 Y68.000 E2.14803
G1 X107.500 Y68.000 E3.45455
G1 X108.770 Y68.120 E3.49159
G1 X109.990 Y68.490 E3.52860
G1 X111.110 Y69.100 E3.56563
G1 X112.100 Y69.900 E3.60259
G1 X112.900 Y70.890 E3.63954
G1 X113.510 Y72.010 E3.67657
G1 X113.880 Y73.230 E3.71358
G1 X114.000 Y74.500 E3.75062
G1 X114.000 Y95.500 E4.36033
G1 X113.880 Y96.770 E4.39737
G1 X113.510 Y97.990 E4.43438
G1 X112.900 Y99.110 E4.47141
G1 X112.100 Y100.100 E4.50836
G1 X111.110 Y100.900 E4.54532
G1 X109.990 Y101.510 E4.58235
G1 X108.770 Y101.880 E4.61936
G1 X107.500 Y102.000 E4.65640
G1 X62.500 Y102.000 E5.96291
G1 X61.230 Y101.880 E5.99995
G1 X60.010 Y101.510 E6.03697
G1 X58.890 Y100.900 E6.07399
G1 X57.900 Y100.100 E6.11095
G1 X57.100 Y99.110 E6.14790
G1 X56.490 Y97.990 E6.18493
G1 X56.120 Y96.770 E6.22195
G1 X56.000 Y95.500 E6.25898
G1 X56.000 Y74.500 E6.86869
G1 X56.120 Y73.230 E6.90573
G1 X56.490 Y72.010 E6.94274
G1 X57.100 Y70.890 E6.97977
G1 X57.853 Y69.958 E7.01455
G1 F1680.000 E5.01455
G92 E0
G1 X63.250 Y94.750 F12000.000
G1 E2.00000 F1680.000
G1 X63.250 Y75.250 E2.56616 F900.000
G1 X106.750 Y75.250 E3.82912
G1 X106.750 Y94.750 E4.39528
G1 X63.325 Y94.750 E5.65607
G1 X62.750 Y95.250 F12000.000
G1 X62.750 Y74.750 E6.25126 F720.000
G1 X107.250 Y74.750 E7.54326
G1 X107.250 Y95.250 E8.13845
G1 X62.825 Y95.250 E9.42828
G1 X63.000 Y94.817 F12000.000
G1 X63.680 Y94.386 F12000.000
G1 X63.614 Y94.320 E9.43183 F1200.000
G1 X63.614 Y93.389 E9.46738
G1 X64.611 Y94.386 E9.52121
G1 X65.541 Y94.386 E9.55676
G1 X63.614 Y92.459 E9.66086
G1 X63.614 Y91.528 E9.69641
G1 X66.472 Y94.386 E9.85078
G1 X67.402 Y94.386 E9.88633
G1 X63.614 Y90.598 E10.09098
G1 X63.614 Y89.668 E10.12653
G1 X68.332 Y94.386 E10.38145
G1 X69.263 Y94.386 E10.41700
G1 X63.614 Y88.737 E10.72219
G1 X63.614 Y87.807 E10.75774
G1 X70.193 Y94.386 E11.11321
G1 X71.124 Y94.386 E11.14876
G1 X63.614 Y86.876 E11.55450
G1 X63.614 Y85.946 E11.59005
G1 X72.054 Y94.386 E12.04607
G1 X72.985 Y94.386 E12.08161
G1 X63.614 Y85.015 E12.58790
G1 X63.614 Y84.085 E12.62345
G1 X73.915 Y94.386 E13.18001
G1 X74.846 Y94.386 E13.21556
G1 X63.614 Y83.154 E13.82240
G1 X63.614 Y82.224 E13.85795
G1 X75.776 Y94.386 E14.51506
G1 X76.707 Y94.386 E14.55060
G1 X63.614 Y81.293 E15.25799
G1 X63.614 Y80.363 E15.29353
G1 X77.637 Y94.386 E16.05119
G1 X78.568 Y94.386 E16.08674
G1 X63.614 Y79.432 E16.89467
G1 X63.614 Y78.502 E16.93022
G1 X79.498 Y94.386 E17.78842
G1 X80.429 Y94.386 E17.82397
G1 X63.614 Y77.571 E18.73244
G1 X63.614 Y76.641 E18.76799
G1 X81.359 Y94.386 E19.72674
G1 X82.290 Y94.386 E19.76229
G1 X63.614 Y75.710 E20.77131
G1 X64.449 Y75.614 E20.80340
G1 X83.220 Y94.386 E21.81762
G1 X84.150 Y94.386 E21.85316
G1 X65.379 Y75.614 E22.86738
G1 X66.310 Y75.614 E22.90293
G1 X85.081 Y94.386 E23.91714
G1 X86.011 Y94.386 E23.95269
G1 X67.240 Y75.614 E24.96691
G1 X68.171 Y75.614 E25.00245
G1 X86.942 Y94.386 E26.01667
G1 X87.872 Y94.386 E26.05222
G1 X69.101 Y75.614 E27.06643
G1 X70.032 Y75.614 E27.10198
G1 X88.803 Y94.386 E28.11620
G1 X89.733 Y94.386 E28.15174
G1 X70.962 Y75.614 E29.16596
G1 X71.892 Y75.614 E29.20151
G1 X90.664 Y94.386 E30.21572
G1 X91.594 Y94.386 E30.25127
G1 X72.823 Y75.614 E31.26549
G1 X73.753 Y75.614 E31.30104
G1 X92.525 Y94.386 E32.31525
G1 X93.455 Y94.386 E32.35080
G1 X74.684 Y75.614 E33.36501
G1 X75.614 Y75.614 E33.40056
G1 X94.386 Y94.386 E34.41478
G1 X95.316 Y94.386 E34.45033
G1 X76.545 Y75.614 E35.46454
G1 X77.475 Y75.614 E35.50009
G1 X96.247 Y94.386 E36.51430
G1 X97.177 Y94.386 E36.54985
G1 X78.406 Y75.614 E37.56407
G1 X79.336 Y75.614 E37.59962
G1 X98.108 Y94.386 E38.61383
G1 X99.038 Y94.386 E38.64938
G1 X80.267 Y75.614 E39.66359
G1 X81.197 Y75.614 E39.69914
G1 X99.969 Y94.386 E40.71336
G1 X100.899 Y94.386 E40.74891
G1 X82.128 Y75.614 E41.76312
G1 X83.058 Y75.614 E41.79867
G1 X101.829 Y94.386 E42.81288
G1 X102.760 Y94.386 E42.84843
G1 X83.989 Y75.614 E43.86265
G1 X84.919 Y75.614 E43.89820
G1 X103.690 Y94.386 E44.91241
G1 X104.621 Y94.386 E44.94796
G1 X85.850 Y75.614 E45.96218
G1 X86.780 Y75.614 E45.99772
G1 X105.551 Y94.386 E47.01194
G1 X106.386 Y94.290 E47.04403
G1 X87.710 Y75.614 E48.05305
G1 X88.641 Y75.614 E48.08859
G1 X106.386 Y93.359 E49.04734
G1 X106.386 Y92.429 E49.08289
G1 X89.571 Y75.614 E49.99136
G1 X90.502 Y75.614 E50.02691
G1 X106.386 Y91.498 E50.88511
G1 X106.386 Y90.568 E50.92066
G1 X91.432 Y75.614 E51.72859
G1 X92.363 Y75.614 E51.76414
G1 X106.386 Y89.637 E52.52179
G1 X106.386 Y88.707 E52.55734
G1 X93.293 Y75.614 E53.26472
G1 X94.224 Y75.614 E53.30027
G1 X106.386 Y87.776 E53.95737
G1 X106.386 Y86.846 E53.99292
G1 X95.154 Y75.614 E54.59975
G1 X96.085 Y75.614 E54.63530
G1 X106.386 Y85.915 E55.19186
G1 X106.386 Y84.985 E55.22741
G1 X97.015 Y75.614 E55.73370
G1 X97.946 Y75.614 E55.76925
G1 X106.386 Y84.054 E56.22526
G1 X106.386 Y83.124 E56.26081
G1 X98.876 Y75.614 E56.66655
G1 X99.807 Y75.614 E56.70210
G1 X106.386 Y82.193 E57.05756
G1 X106.386 Y81.263 E57.09311
G1 X100.737 Y75.614 E57.39830
G1 X101.668 Y75.614 E57.43385
G1 X106.386 Y80.332 E57.68877
G1 X106.386 Y79.402 E57.72432
G1 X102.598 Y75.614 E57.92897
G1 X103.528 Y75.614 E57.96451
G1 X106.386 Y78.472 E58.11889
G1 X106.386 Y77.541 E58.15444
G1 X104.459 Y75.614 E58.25853
G1 X105.389 Y75.614 E58.29408
G1 X106.386 Y76.611 E58.34791
G1 X106.386 Y75.680 E58.38346
G1 X106.320 Y75.614 E58.38701
M106 S190
M104 S185 ; set temperature
G1 F1680.000 E56.38701
G92 E0
G1 Z0.750 F12000.000
G1 X63.250 Y75.250 F12000.000
G1 E2.00000 F1680.000
G1 X106.750 Y75.250 E2.84198 F1800
G1 X106.750 Y94.750 E3.21942
G1 X63.250 Y94.750 E4.06139
G1 X63.250 Y75.325 E4.43738
G1 X62.750 Y74.750 F12000.000
G1 X107.250 Y74.750 E5.29871 F1440
G1 X107.250 Y95.250 E5.69551
G1 X62.750 Y95.250 E6.55684
G1 X62.750 Y74.825 E6.95218
G1 X63.183 Y75.000 F12000.000
G1 X63.614 Y75.680 F12000.000
G1 X63.680 Y75.614 E6.95455 F2400
G1 X64.611 Y75.614 E6.97825
G1 X63.614 Y76.611 E7.01414
G1 X63.614 Y77.541 E7.03783
G1 X65.541 Y75.614 E7.10723
G1 X66.472 Y75.614 E7.13093
G1 X63.614 Y78.472 E7.23385
G1 X63.614 Y79.402 E7.25755
G1 X67.402 Y75.614 E7.39398
G1 X68.332 Y75.614 E7.41768
G1 X63.614 Y80.332 E7.58762
G1 X63.614 Y81.263 E7.61132
G1 X69.263 Y75.614 E7.81478
G1 X70.193 Y75.614 E7.83848
G1 X63.614 Y82.193 E8.07546
G1 X63.614 Y83.124 E8.09916
G1 X71.124 Y75.614 E8.36965
G1 X72.054 Y75.614 E8.39335
G1 X63.614 Y84.054 E8.69736
G1 X63.614 Y84.985 E8.72106
G1 X72.985 Y75.614 E9.05858
G1 X73.915 Y75.614 E9.08228
G1 X63.614 Y85.915 E9.45332
G1 X63.614 Y86.846 E9.47702
G1 X74.846 Y75.614 E9.88158
G1 X75.776 Y75.614 E9.90528
G1 X63.614 Y87.776 E10.34335
G1 X63.614 Y88.707 E10.36705
G1 X76.707 Y75.614 E10.83863
G1 X77.637 Y75.614 E10.86233
G1 X63.614 Y89.637 E11.36743
G1 X63.614 Y90.568 E11.39113
G1 X78.568 Y75.614 E11.92975
G1 X79.498 Y75.614 E11.95345
G1 X63.614 Y91.498 E12.52558
G1 X63.614 Y92.429 E12.54928
G1 X80.429 Y75.614 E13.15493
G1 X81.359 Y75.614 E13.17863
G1 X63.614 Y93.359 E13.81780
G1 X63.614 Y94.290 E13.84149
G1 X82.290 Y75.614 E14.51417
G1 X83.220 Y75.614 E14.53787
G1 X64.449 Y94.386 E15.21402
G1 X65.379 Y94.386 E15.23772
G1 X84.150 Y75.614 E15.91386
G1 X85.081 Y75.614 E15.93756
G1 X66.310 Y94.386 E16.61370
G1 X67.240 Y94.386 E16.63740
G1 X86.011 Y75.614 E17.31354
G1 X86.942 Y75.614 E17.33724
G1 X68.171 Y94.386 E18.01339
G1 X69.101 Y94.386 E18.03708
G1 X87.872 Y75.614 E18.71323
G1 X88.803 Y75.614 E18.73693
G1 X70.031 Y94.386 E19.41307
G1 X70.962 Y94.386 E19.43677
G1 X89.733 Y75.614 E20.11291
G1 X90.664 Y75.614 E20.13661
G1 X71.892 Y94.386 E20.81275
G1 X72.823 Y94.386 E20.83645
G1 X91.594 Y75.614 E21.51260
G1 X92.525 Y75.614 E21.53630
G1 X73.753 Y94.386 E22.21244
G1 X74.684 Y94.386 E22.23614
G1 X93.455 Y75.614 E22.91228
G1 X94.386 Y75.614 E22.93598
G1 X75.614 Y94.386 E23.61212
G1 X76.545 Y94.386 E23.63582
G1 X95.316 Y75.614 E24.31197
G1 X96.247 Y75.614 E24.33567
G1 X77.475 Y94.386 E25.01181
G1 X78.406 Y94.386 E25.03551
G1 X97.177 Y75.614 E25.71165
G1 X98.108 Y75.614 E25.73535
G1 X79.336 Y94.386 E26.41149
G1 X80.267 Y94.386 E26.43519
G1 X99.038 Y75.614 E27.11134
G1 X99.968 Y75.614 E27.13503
G1 X81.197 Y94.386 E27.81118
G1 X82.128 Y94.386 E27.83488
G1 X100.899 Y75.614 E28.51102
G1 X101.829 Y75.614 E28.53472
G1 X83.058 Y94.386 E29.21086
G1 X83.989 Y94.386 E29.23456
G1 X102.760 Y75.614 E29.91070
G1 X103.690 Y75.614 E29.93440
G1 X84.919 Y94.386 E30.61055
G1 X85.850 Y94.386 E30.63425
G1 X104.621 Y75.614 E31.31039
G1 X105.551 Y75.614 E31.33409
G1 X86.780 Y94.386 E32.01023
G1 X87.710 Y94.386 E32.03393
G1 X106.386 Y75.710 E32.70661
G1 X106.386 Y76.641 E32.73031
G1 X88.641 Y94.386 E33.36948
G1 X89.571 Y94.386 E33.39318
G1 X106.386 Y77.571 E33.99883
G1 X106.386 Y78.502 E34.02253
G1 X90.502 Y94.386 E34.59466
G1 X91.432 Y94.386 E34.61836
G1 X106.386 Y79.432 E35.15698
G1 X106.386 Y80.363 E35.18068
G1 X92.363 Y94.386 E35.68578
G1 X93.293 Y94.386 E35.70948
G1 X106.386 Y81.293 E36.18107
G1 X106.386 Y82.224 E36.20477
G1 X94.224 Y94.386 E36.64284
G1 X95.154 Y94.386 E36.66654
G1 X106.386 Y83.154 E37.07110
G1 X106.386 Y84.085 E37.09480
G1 X96.085 Y94.386 E37.46584
G1 X97.015 Y94.386 E37.48954
G1 X106.386 Y85.015 E37.82706
G1 X106.386 Y85.946 E37.85076
G1 X97.946 Y94.386 E38.15477
G1 X98.876 Y94.386 E38.17847
G1 X106.386 Y86.876 E38.44897
G1 X106.386 Y87.807 E38.47267
G1 X99.807 Y94.386 E38.70964
G1 X100.737 Y94.386 E38.73334
G1 X106.386 Y88.737 E38.93681
G1 X106.386 Y89.668 E38.96051
G1 X101.668 Y94.386 E39.13045
G1 X102.598 Y94.386 E39.15415
G1 X106.386 Y90.598 E39.29059
G1 X106.386 Y91.528 E39.31428
G1 X103.528 Y94.386 E39.41720
G1 X104.459 Y94.386 E39.44090
G1 X106.386 Y92.459 E39.51030
G1 X106.386 Y93.389 E39.53400
G1 X105.389 Y94.386 E39.56989
G1 X106.320 Y94.386 E39.59359
G1 X106.386 Y94.320 E39.59596
M106 S190
G1 F1680.000 E37.59596
G92 E0
G1 Z1.050 F12000.000
G1 X106.750 Y94.750 F12000.000
G1 E2.00000 F1680.000
G1 X63.250 Y94.750 E2.84198 F1800
G1 X63.250 Y75.250 E3.21942
G1 X106.750 Y75.250 E4.06139
G1 X106.750 Y94.675 E4.43738
G1 X107.250 Y95.250 F12000.000
G1 X62.750 Y95.250 E5.29871 F1440
G1 X62.750 Y74.750 E5.69551
G1 X107.250 Y74.750 E6.55684
G1 X107.250 Y95.175 E6.95218
G1 X106.817 Y95.000 F12000.000
G1 X106.320 Y75.614 F12000.000
G1 X106.386 Y75.680 E6.95455 F2400
G1 X106.386 Y76.611 E6.97825
G1 X105.389 Y75.614 E7.01414
G1 X104.459 Y75.614 E7.03783
G1 X106.386 Y77.541 E7.10723
G1 X106.386 Y78.472 E7.13093
G1 X103.528 Y75.614 E7.23385
G1 X102.598 Y75.614 E7.25755
G1 X106.386 Y79.402 E7.39398
G1 X106.386 Y80.332 E7.41768
G1 X101.668 Y75.614 E7.58762
G1 X100.737 Y75.614 E7.61132
G1 X106.386 Y81.263 E7.81478
G1 X106.386 Y82.193 E7.83848
G1 X99.807 Y75.614 E8.07546
G1 X98.876 Y75.614 E8.09916
G1 X106.386 Y83.124 E8.36965
G1 X106.386 Y84.054 E8.39335
G1 X97.946 Y75.614 E8.69736
G1 X97.015 Y75.614 E8.72106
G1 X106.386 Y84.985 E9.05858
G1 X106.386 Y85.915 E9.08228
G1 X96.085 Y75.614 E9.45332
G1 X95.154 Y75.614 E9.47702
G1 X106.386 Y86.846 E9.88158
G1 X106.386 Y87.776 E9.90528
G1 X94.224 Y75.614 E10.34335
G1 X93.293 Y75.614 E10.36705
G1 X106.386 Y88.707 E10.83863
G1 X106.386 Y89.637 E10.86233
G1 X92.363 Y75.614 E11.36743
G1 X91.432 Y75.614 E11.39113
G1 X106.386 Y90.568 E11.92975
G1 X106.386 Y91.498 E11.95345
G1 X90.502 Y75.614 E12.52558
G1 X89.571 Y75.614 E12.54928
G1 X106.386 Y92.429 E13.15493
G1 X106.386 Y93.359 E13.17863
G1 X88.641 Y75.614 E13.81779
G1 X87.710 Y75.614 E13.84149
G1 X106.386 Y94.290 E14.51417
G1 X105.551 Y94.386 E14.53557
G1 X86.780 Y75.614 E15.21171
G1 X85.850 Y75.614 E15.23541
G1 X104.621 Y94.386 E15.91155
G1 X103.690 Y94.386 E15.93525
G1 X84.919 Y75.614 E16.61139
G1 X83.989 Y75.614 E16.63509
G1 X102.760 Y94.386 E17.31124
G1 X101.829 Y94.386 E17.33493
G1 X83.058 Y75.614 E18.01108
G1 X82.128 Y75.614 E18.03478
G1 X100.899 Y94.386 E18.71092
G1 X99.969 Y94.386 E18.73462
G1 X81.197 Y75.614 E19.41076
G1 X80.267 Y75.614 E19.43446
G1 X99.038 Y94.386 E20.11060
G1 X98.108 Y94.386 E20.13430
G1 X79.336 Y75.614 E20.81045
G1 X78.406 Y75.614 E20.83415
G1 X97.177 Y94.386 E21.51029
G1 X96.247 Y94.386 E21.53399
G1 X77.475 Y75.614 E22.21013
G1 X76.545 Y75.614 E22.23383
G1 X95.316 Y94.386 E22.90997
G1 X94.386 Y94.386 E22.93367
G1 X75.614 Y75.614 E23.60982
G1 X74.684 Y75.614 E23.63352
G1 X93.455 Y94.386 E24.30966
G1 X92.525 Y94.386 E24.33336
G1 X73.753 Y75.614 E25.00950
G1 X72.823 Y75.614 E25.03320
G1 X91.594 Y94.386 E25.70934
G1 X90.664 Y94.386 E25.73304
G1 X71.892 Y75.614 E26.40919
G1 X70.962 Y75.614 E26.43288
G1 X89.733 Y94.386 E27.10903
G1 X88.803 Y94.386 E27.13273
G1 X70.032 Y75.614 E27.80887
G1 X69.101 Y75.614 E27.83257
G1 X87.872 Y94.386 E28.50871
G1 X86.942 Y94.386 E28.53241
G1 X68.171 Y75.614 E29.20855
G1 X67.240 Y75.614 E29.23225
G1 X86.011 Y94.386 E29.90840
G1 X85.081 Y94.386 E29.93210
G1 X66.310 Y75.614 E30.60824
G1 X65.379 Y75.614 E30.63194
G1 X84.150 Y94.386 E31.30808
G1 X83.220 Y94.386 E31.33178
G1 X64.449 Y75.614 E32.00792
G1 X63.614 Y75.710 E32.02932
G1 X82.290 Y94.386 E32.70200
G1 X81.359 Y94.386 E32.72570
G1 X63.614 Y76.641 E33.36486
G1 X63.614 Y77.571 E33.38856
G1 X80.429 Y94.386 E33.99421
G1 X79.498 Y94.386 E34.01791
G1 X63.614 Y78.502 E34.59005
G1 X63.614 Y79.432 E34.61375
G1 X78.568 Y94.386 E35.15236
G1 X77.637 Y94.386 E35.17606
G1 X63.614 Y80.363 E35.68117
G1 X63.614 Y81.293 E35.70487
G1 X76.707 Y94.386 E36.17645
G1 X75.776 Y94.386 E36.20015
G1 X63.614 Y82.224 E36.63823
G1 X63.614 Y83.154 E36.66193
G1 X74.846 Y94.386 E37.06648
G1 X73.915 Y94.386 E37.09018
G1 X63.614 Y84.085 E37.46122
G1 X63.614 Y85.015 E37.48492
G1 X72.985 Y94.386 E37.82245
G1 X72.054 Y94.386 E37.84615
G1 X63.614 Y85.946 E38.15016
G1 X63.614 Y86.876 E38.17386
G1 X71.124 Y94.386 E38.44435
G1 X70.193 Y94.386 E38.46805
G1 X63.614 Y87.807 E38.70503
G1 X63.614 Y88.737 E38.72873
G1 X69.263 Y94.386 E38.93219
G1 X68.332 Y94.386 E38.95589
G1 X63.614 Y89.668 E39.12584
G1 X63.614 Y90.598 E39.14954
G1 X67.402 Y94.386 E39.28597
G1 X66.472 Y94.386 E39.30967
G1 X63.614 Y91.528 E39.41259
G1 X63.614 Y92.459 E39.43629
G1 X65.541 Y94.386 E39.50569
G1 X64.611 Y94.386 E39.52939
G1 X63.614 Y93.389 E39.56527
G1 X63.614 Y94.320 E39.58897
G1 X63.680 Y94.386 E39.59134
M106 S190
G1 F1680.000 E37.59134
G92 E0
G1 Z1.350 F12000.000
G1 X63.250 Y94.750 F12000.000
G1 E2.00000 F1680.000
G1 X63.250 Y75.250 E2.37744 F1800
G1 X106.750 Y75.250 E3.21942
G1 X106.750 Y94.750 E3.59685
G1 X63.325 Y94.750 E4.43738
G1 X62.750 Y95.250 F12000.000
G1 X62.750 Y74.750 E4.83417 F1440
G1 X107.250 Y74.750 E5.69551
G1 X107.250 Y95.250 E6.09230
G1 X62.825 Y95.250 E6.95218
G1 X63.000 Y94.817 F12000.000
G1 X94.614 Y76.681 F12000.000
G1 X94.681 Y76.614 E6.95464 F2400
G1 X95.628 Y76.614 E6.97919
G1 X94.614 Y77.628 E7.01636
G1 X94.614 Y78.575 E7.04091
G1 X96.575 Y76.614 E7.11281
G1 X97.522 Y76.614 E7.13736
G1 X94.614 Y79.522 E7.24397
G1 X94.614 Y80.469 E7.26852
G1 X98.469 Y76.614 E7.40985
G1 X99.416 Y76.614 E7.43440
G1 X94.614 Y81.416 E7.61045
G1 X94.614 Y82.363 E7.63500
G1 X100.363 Y76.614 E7.84577
G1 X101.310 Y76.614 E7.87032
G1 X94.614 Y83.310 E8.11581
G1 X94.614 Y84.257 E8.14036
G1 X102.257 Y76.614 E8.42057
G1 X103.204 Y76.614 E8.44512
G1 X94.614 Y85.204 E8.76005
G1 X94.614 Y86.151 E8.78460
G1 X104.151 Y76.614 E9.13425
G1 X105.098 Y76.614 E9.15880
G1 X94.614 Y87.098 E9.54317
G1 X94.614 Y88.045 E9.56772
G1 X105.386 Y77.273 E9.96265
