; generated by Slic3r 1.2.1 on 2014-12-16 at 20:40:51

; external perimeters extrusion width = 0.50mm
; perimeters extrusion width = 0.50mm
; infill extrusion width = 0.50mm
; solid infill extrusion width = 0.50mm
; top infill extrusion width = 0.50mm

M104 S190 ; set temperature
G28 ; home all axes
G1 Z15 F120 ; lift nozzle
M109 S190 ; wait for temperature to be reached
G21 ; set units to millimeters
G90 ; use absolute coordinates
M82 ; use absolute distances for extrusion
G92 E0
M106 S102
G1 E-2.00000 F1680.000
G92 E0
G1 Z0.350 F12000.000
G1 X56.646 Y68.877 F12000.000
G1 E2.00000 F1680.000
G1 X57.848 Y67.888 E2.04381 F1200.000
G1 X61.000 Y67.064 E2.13553
G1 X109.000 Y67.064 E3.48682
G1 X111.225 Y67.461 E3.55045
G1 X113.176 Y68.602 E3.61409 F1200.000
G1 X114.612 Y70.348 E3.67772
G1 X115.436 Y73.500 E3.76944
G1 X115.436 Y96.500 E4.41693
G1 X115.039 Y98.725 E4.48057
G1 X113.898 Y100.676 E4.54420
G1 X112.152 Y102.112 E4.60783
G1 X109.000 Y102.936 E4.69955
G1 X61.000 Y102.936 E6.05084
G1 X58.775 Y102.539 E6.11447
G1 X56.824 Y101.398 E6.17810
G1 X55.388 Y99.652 E6.24174
G1 X54.564 Y96.500 E6.33346
G1 X54.564 Y73.500 E6.98095
G1 X54.961 Y71.275 E7.04458
G1 X56.102 Y69.324 E7.10821
G1 X56.588 Y68.924 E7.12592
G1 E5.12592 F1680.000
G92 E0
G1 X108.750 Y91.837 F12000.000
G1 E2.00000 F1680.000
G1 X108.750 Y96.250 E2.11486 F720.000
G1 X61.250 Y96.250 E3.35124 F720.000
G1 X61.250 Y73.750 E3.93689
G1 X108.750 Y73.750 E5.17327
G1 X108.750 Y91.762 E5.64211
G1 X108.438 Y74.022 F12000.000
G1 X108.478 Y74.062 E5.64358 F1200.000
G1 X108.478 Y74.636 E5.65851
G1 X107.864 Y74.022 E5.68110
G1 X107.290 Y74.022 E5.69603
G1 X108.478 Y75.210 E5.73973
G1 X108.478 Y75.783 E5.75466
G1 X106.717 Y74.022 E5.81947
G1 X106.143 Y74.022 E5.83440
G1 X108.478 Y76.357 E5.92033
G1 X108.478 Y76.930 E5.93526
G1 X105.570 Y74.022 E6.04230
G1 X104.996 Y74.022 E6.05723
G1 X108.478 Y77.504 E6.18539
G1 X108.478 Y78.078 E6.20032
G1 X104.422 Y74.022 E6.34959
G1 X103.849 Y74.022 E6.36452
G1 X108.478 Y78.651 E6.53490
G1 X108.478 Y79.225 E6.54983
G1 X103.275 Y74.022 E6.74133
G1 X102.702 Y74.022 E6.75626
G1 X108.478 Y79.798 E6.96887
G1 X108.478 Y80.372 E6.98380
G1 X102.128 Y74.022 E7.21753
G1 X101.555 Y74.022 E7.23246
G1 X108.478 Y80.945 E7.48730
G1 X108.478 Y81.519 E7.50223
G1 X100.981 Y74.022 E7.77818
G1 X100.407 Y74.022 E7.79311
G1 X108.478 Y82.093 E8.09018
G1 X108.478 Y82.666 E8.10511
G1 X99.834 Y74.022 E8.42329
G1 X99.260 Y74.022 E8.43822
G1 X108.478 Y83.240 E8.77752
G1 X108.478 Y83.813 E8.79244
G1 X98.687 Y74.022 E9.15285
G1 X98.113 Y74.022 E9.16778
G1 X108.478 Y84.387 E9.54931
G1 X108.478 Y84.961 E9.56424
G1 X97.539 Y74.022 E9.96688
G1 X96.966 Y74.022 E9.98181
G1 X108.478 Y85.534 E10.40556
G1 X108.478 Y86.108 E10.42049
G1 X96.392 Y74.022 E10.86535
G1 X95.819 Y74.022 E10.88028
G1 X108.478 Y86.681 E11.34626
G1 X108.478 Y87.255 E11.36119
G1 X95.245 Y74.022 E11.84829
G1 X94.672 Y74.022 E11.86322
G1 X108.478 Y87.828 E12.37142
G1 X108.478 Y88.402 E12.38635
G1 X94.098 Y74.022 E12.91567
G1 X93.524 Y74.022 E12.93060
G1 X108.478 Y88.976 E13.48104
G1 X108.478 Y89.549 E13.49597
G1 X92.951 Y74.022 E14.06752
G1 X92.377 Y74.022 E14.08245
G1 X108.478 Y90.123 E14.67511
G1 X108.478 Y90.696 E14.69004
G1 X91.804 Y74.022 E15.30382
G1 X91.230 Y74.022 E15.31875
G1 X108.478 Y91.270 E15.95364
G1 X108.478 Y91.844 E15.96857
G1 X90.656 Y74.022 E16.62458
G1 X90.083 Y74.022 E16.63951
G1 X108.478 Y92.417 E17.31662
G1 X108.478 Y92.991 E17.33155
G1 X89.509 Y74.022 E18.02979
G1 X88.936 Y74.022 E18.04472
G1 X108.478 Y93.564 E18.76406
G1 X108.478 Y94.138 E18.77899
G1 X88.362 Y74.022 E19.51946
G1 X87.788 Y74.022 E19.53439
G1 X108.478 Y94.712 E20.29596
G1 X108.478 Y95.285 E20.31089
G1 X87.215 Y74.022 E21.09358
G1 X86.641 Y74.022 E21.10851
G1 X108.478 Y95.859 E21.91231
G1 X108.023 Y95.978 E21.92455
G1 X86.068 Y74.022 E22.73272
G1 X85.494 Y74.022 E22.74765
G1 X107.449 Y95.978 E23.55583
G1 X106.876 Y95.978 E23.57076
G1 X84.921 Y74.022 E24.37894
G1 X84.347 Y74.022 E24.39387
G1 X106.302 Y95.978 E25.20205
G1 X105.728 Y95.978 E25.21698
G1 X83.773 Y74.022 E26.02516
G1 X83.200 Y74.022 E26.04009
G1 X105.155 Y95.978 E26.84826
G1 X104.581 Y95.978 E26.86319
G1 X82.626 Y74.022 E27.67137
G1 X82.053 Y74.022 E27.68630
G1 X104.008 Y95.978 E28.49448
G1 X103.434 Y95.978 E28.50941
G1 X81.479 Y74.022 E29.31759
G1 X80.905 Y74.022 E29.33252
G1 X102.861 Y95.978 E30.14070
G1 X102.287 Y95.978 E30.15563
G1 X80.332 Y74.022 E30.96380
G1 X79.758 Y74.022 E30.97873
G1 X101.713 Y95.978 E31.78691
G1 X101.140 Y95.978 E31.80184
G1 X79.185 Y74.022 E32.61002
G1 X78.611 Y74.022 E32.62495
G1 X100.566 Y95.978 E33.43313
G1 X99.993 Y95.978 E33.44806
G1 X78.038 Y74.022 E34.25624
G1 X77.464 Y74.022 E34.27117
G1 X99.419 Y95.978 E35.07935
G1 X98.845 Y95.978 E35.09428
G1 X76.890 Y74.022 E35.90245
G1 X76.317 Y74.022 E35.91738
G1 X98.272 Y95.978 E36.72556
G1 X97.698 Y95.978 E36.74049
G1 X75.743 Y74.022 E37.54867
G1 X75.170 Y74.022 E37.56360
G1 X97.125 Y95.978 E38.37178
G1 X96.551 Y95.978 E38.38671
G1 X74.596 Y74.022 E39.19489
G1 X74.022 Y74.022 E39.20982
G1 X95.978 Y95.978 E40.01799
G1 X95.404 Y95.978 E40.03292
G1 X73.449 Y74.022 E40.84110
G1 X72.875 Y74.022 E40.85603
G1 X94.830 Y95.978 E41.66421
G1 X94.257 Y95.978 E41.67914
G1 X72.302 Y74.022 E42.48732
G1 X71.728 Y74.022 E42.50225
G1 X93.683 Y95.978 E43.31043
G1 X93.110 Y95.978 E43.32536
G1 X71.155 Y74.022 E44.13353
G1 X70.581 Y74.022 E44.14846
G1 X92.536 Y95.978 E44.95664
G1 X91.962 Y95.978 E44.97157
G1 X70.007 Y74.022 E45.77975
G1 X69.434 Y74.022 E45.79468
G1 X91.389 Y95.978 E46.60286
G1 X90.815 Y95.978 E46.61779
G1 X68.860 Y74.022 E47.42597
G1 X68.287 Y74.022 E47.44090
G1 X90.242 Y95.978 E48.24907
G1 X89.668 Y95.978 E48.26400
G1 X67.713 Y74.022 E49.07218
G1 X67.139 Y74.022 E49.08711
G1 X89.095 Y95.978 E49.89529
G1 X88.521 Y95.978 E49.91022
G1 X66.566 Y74.022 E50.71840
G1 X65.992 Y74.022 E50.73333
G1 X87.947 Y95.978 E51.54151
G1 X87.374 Y95.978 E51.55644
G1 X65.419 Y74.022 E52.36461
G1 X64.845 Y74.022 E52.37954
G1 X86.800 Y95.978 E53.18772
G1 X86.227 Y95.978 E53.20265
G1 X64.272 Y74.022 E54.01083
G1 X63.698 Y74.022 E54.02576
G1 X85.653 Y95.978 E54.83394
G1 X85.079 Y95.978 E54.84887
G1 X63.124 Y74.022 E55.65705
G1 X62.551 Y74.022 E55.67198
G1 X84.506 Y95.978 E56.48015
G1 X83.932 Y95.978 E56.49508
G1 X61.977 Y74.022 E57.30326
G1 X61.522 Y74.141 E57.31550
G1 X83.359 Y95.978 E58.11930
G1 X82.785 Y95.978 E58.13423
G1 X61.522 Y74.715 E58.91692
G1 X61.522 Y75.288 E58.93185
G1 X82.212 Y95.978 E59.69342
G1 X81.638 Y95.978 E59.70835
G1 X61.522 Y75.862 E60.44881
G1 X61.522 Y76.436 E60.46374
G1 X81.064 Y95.978 E61.18309
G1 X80.491 Y95.978 E61.19802
G1 X61.522 Y77.009 E61.89625
G1 X61.522 Y77.583 E61.91118
G1 X79.917 Y95.978 E62.58830
G1 X79.344 Y95.978 E62.60323
G1 X61.522 Y78.156 E63.25924
G1 X61.522 Y78.730 E63.27417
G1 X78.770 Y95.978 E63.90906
G1 X78.196 Y95.978 E63.92399
G1 X61.522 Y79.304 E64.53777
G1 X61.522 Y79.877 E64.55270
G1 X77.623 Y95.978 E65.14536
G1 X77.049 Y95.978 E65.16029
G1 X61.522 Y80.451 E65.73184
G1 X61.522 Y81.024 E65.74677
G1 X76.476 Y95.978 E66.29720
G1 X75.902 Y95.978 E66.31213
G1 X61.522 Y81.598 E66.84146
G1 X61.522 Y82.172 E66.85639
G1 X75.328 Y95.978 E67.36459
G1 X74.755 Y95.978 E67.37952
G1 X61.522 Y82.745 E67.86662
G1 X61.522 Y83.319 E67.88155
G1 X74.181 Y95.978 E68.34753
G1 X73.608 Y95.978 E68.36246
G1 X61.522 Y83.892 E68.80732
G1 X61.522 Y84.466 E68.82225
G1 X73.034 Y95.978 E69.24600
G1 X72.461 Y95.978 E69.26093
G1 X61.522 Y85.039 E69.66357
G1 X61.522 Y85.613 E69.67850
G1 X71.887 Y95.978 E70.06002
G1 X71.313 Y95.978 E70.07495
G1 X61.522 Y86.187 E70.43536
G1 X61.522 Y86.760 E70.45029
G1 X70.740 Y95.978 E70.78959
G1 X70.166 Y95.978 E70.80452
G1 X61.522 Y87.334 E71.12270
G1 X61.522 Y87.907 E71.13763
G1 X69.593 Y95.978 E71.43470
G1 X69.019 Y95.978 E71.44963
G1 X61.522 Y88.481 E71.72558
G1 X61.522 Y89.055 E71.74051
G1 X68.445 Y95.978 E71.99535
G1 X67.872 Y95.978 E72.01028
G1 X61.522 Y89.628 E72.24401
G1 X61.522 Y90.202 E72.25894
G1 X67.298 Y95.978 E72.47155
G1 X66.725 Y95.978 E72.48648
G1 X61.522 Y90.775 E72.67798
G1 X61.522 Y91.349 E72.69291
G1 X66.151 Y95.978 E72.86329
G1 X65.578 Y95.978 E72.87822
G1 X61.522 Y91.922 E73.02749
G1 X61.522 Y92.496 E73.04242
G1 X65.004 Y95.978 E73.17058
G1 X64.430 Y95.978 E73.18551
G1 X61.522 Y93.070 E73.29255
G1 X61.522 Y93.643 E73.30748
G1 X63.857 Y95.978 E73.39341
G1 X63.283 Y95.978 E73.40834
G1 X61.522 Y94.217 E73.47315
G1 X61.522 Y94.790 E73.48808
G1 X62.710 Y95.978 E73.53178
G1 X62.136 Y95.978 E73.54671
G1 X61.522 Y95.364 E73.56930
G1 X61.522 Y95.938 E73.58423
G1 X61.562 Y95.978 E73.58570
M104 S188 ; set temperature
G1 E71.58570 F1680.000
G92 E0
G1 Z0.650 F12000.000
G1 X65.118 Y73.750 F12000.000
G1 E2.00000 F1680.000
G1 X108.750 Y73.750 E2.81755 F1440.000
G1 X108.750 Y96.250 E3.23914
G1 X61.250 Y96.250 E4.12916 F1440.000
G1 X61.250 Y73.750 E4.55075
G1 X65.043 Y73.750 E4.62181
G1 X61.586 Y74.046 F12000.000
G1 X61.546 Y74.086 E4.62287 F2400.000
G1 X61.546 Y74.705 E4.63447
G1 X62.205 Y74.046 E4.65194
G1 X62.824 Y74.046 E4.66355
G1 X61.546 Y75.324 E4.69742
G1 X61.546 Y75.944 E4.70903
G1 X63.444 Y74.046 E4.75932
G1 X64.063 Y74.046 E4.77092
G1 X61.546 Y76.563 E4.83762
G1 X61.546 Y77.182 E4.84922
G1 X64.682 Y74.046 E4.93232
G1 X65.301 Y74.046 E4.94393
G1 X61.546 Y77.801 E5.04344
G1 X61.546 Y78.421 E5.05505
G1 X65.921 Y74.046 E5.17097
G1 X66.540 Y74.046 E5.18257
G1 X61.546 Y79.040 E5.31491
G1 X61.546 Y79.659 E5.32651
G1 X67.159 Y74.046 E5.47525
G1 X67.778 Y74.046 E5.48686
G1 X61.546 Y80.278 E5.65201
G1 X61.546 Y80.898 E5.66361
G1 X68.398 Y74.046 E5.84517
G1 X69.017 Y74.046 E5.85677
G1 X61.546 Y81.517 E6.05474
G1 X61.546 Y82.136 E6.06635
G1 X69.636 Y74.046 E6.28073
G1 X70.255 Y74.046 E6.29233
G1 X61.546 Y82.755 E6.52312
G1 X61.546 Y83.375 E6.53472
G1 X70.875 Y74.046 E6.78192
G1 X71.494 Y74.046 E6.79352
G1 X61.546 Y83.994 E7.05713
G1 X61.546 Y84.613 E7.06873
G1 X72.113 Y74.046 E7.34875
G1 X72.732 Y74.046 E7.36035
G1 X61.546 Y85.232 E7.65678
G1 X61.546 Y85.852 E7.66838
G1 X73.352 Y74.046 E7.98122
G1 X73.971 Y74.046 E7.99282
G1 X61.546 Y86.471 E8.32206
G1 X61.546 Y87.090 E8.33367
G1 X74.590 Y74.046 E8.67932
G1 X75.209 Y74.046 E8.69092
G1 X61.546 Y87.709 E9.05298
G1 X61.546 Y88.329 E9.06459
G1 X75.829 Y74.046 E9.44306
G1 X76.448 Y74.046 E9.45466
G1 X61.546 Y88.948 E9.84954
G1 X61.546 Y89.567 E9.86115
G1 X77.067 Y74.046 E10.27244
G1 X77.686 Y74.046 E10.28404
G1 X61.546 Y90.186 E10.71174
G1 X61.546 Y90.806 E10.72334
G1 X78.306 Y74.046 E11.16745
G1 X78.925 Y74.046 E11.17905
G1 X61.546 Y91.425 E11.63957
G1 X61.546 Y92.044 E11.65117
G1 X79.544 Y74.046 E12.12810
G1 X80.163 Y74.046 E12.13970
G1 X61.546 Y92.663 E12.63304
G1 X61.546 Y93.283 E12.64464
G1 X80.783 Y74.046 E13.15439
G1 X81.402 Y74.046 E13.16599
G1 X61.546 Y93.902 E13.69214
G1 X61.546 Y94.521 E13.70375
G1 X82.021 Y74.046 E14.24631
G1 X82.640 Y74.046 E14.25791
G1 X61.546 Y95.140 E14.81689
G1 X61.546 Y95.760 E14.82849
G1 X83.260 Y74.046 E15.40387
G1 X83.879 Y74.046 E15.41547
G1 X61.970 Y95.954 E15.99601
G1 X62.590 Y95.954 E16.00762
G1 X84.498 Y74.046 E16.58816
G1 X85.117 Y74.046 E16.59976
G1 X63.209 Y95.954 E17.18030
G1 X63.828 Y95.954 E17.19190
G1 X85.737 Y74.046 E17.77244
G1 X86.356 Y74.046 E17.78404
G1 X64.447 Y95.954 E18.36458
G1 X65.067 Y95.954 E18.37619
G1 X86.975 Y74.046 E18.95672
G1 X87.594 Y74.046 E18.96833
G1 X65.686 Y95.954 E19.54887
G1 X66.305 Y95.954 E19.56047
G1 X88.214 Y74.046 E20.14101
G1 X88.833 Y74.046 E20.15261
G1 X66.924 Y95.954 E20.73315
G1 X67.544 Y95.954 E20.74475
G1 X89.452 Y74.046 E21.32529
G1 X90.071 Y74.046 E21.33690
G1 X68.163 Y95.954 E21.91744
G1 X68.782 Y95.954 E21.92904
G1 X90.691 Y74.046 E22.50958
G1 X91.310 Y74.046 E22.52118
G1 X69.401 Y95.954 E23.10172
G1 X70.021 Y95.954 E23.11332
G1 X91.929 Y74.046 E23.69386
G1 X92.548 Y74.046 E23.70547
G1 X70.640 Y95.954 E24.28601
G1 X71.259 Y95.954 E24.29761
G1 X93.168 Y74.046 E24.87815
G1 X93.787 Y74.046 E24.88975
G1 X71.878 Y95.954 E25.47029
G1 X72.498 Y95.954 E25.48189
G1 X94.406 Y74.046 E26.06243
G1 X95.025 Y74.046 E26.07404
G1 X73.117 Y95.954 E26.65457
G1 X73.736 Y95.954 E26.66618
G1 X95.645 Y74.046 E27.24672
G1 X96.264 Y74.046 E27.25832
G1 X74.355 Y95.954 E27.83886
G1 X74.975 Y95.954 E27.85046
G1 X96.883 Y74.046 E28.43100
G1 X97.502 Y74.046 E28.44260
G1 X75.594 Y95.954 E29.02314
G1 X76.213 Y95.954 E29.03475
G1 X98.122 Y74.046 E29.61529
G1 X98.741 Y74.046 E29.62689
G1 X76.832 Y95.954 E30.20743
G1 X77.452 Y95.954 E30.21903
G1 X99.360 Y74.046 E30.79957
G1 X99.979 Y74.046 E30.81117
G1 X78.071 Y95.954 E31.39171
G1 X78.690 Y95.954 E31.40332
G1 X100.599 Y74.046 E31.98386
G1 X101.218 Y74.046 E31.99546
G1 X79.309 Y95.954 E32.57600
G1 X79.929 Y95.954 E32.58760
G1 X101.837 Y74.046 E33.16814
G1 X102.456 Y74.046 E33.17974
G1 X80.548 Y95.954 E33.76028
G1 X81.167 Y95.954 E33.77189
G1 X103.076 Y74.046 E34.35243
G1 X103.695 Y74.046 E34.36403
G1 X81.786 Y95.954 E34.94457
G1 X82.406 Y95.954 E34.95617
G1 X104.314 Y74.046 E35.53671
G1 X104.933 Y74.046 E35.54831
G1 X83.025 Y95.954 E36.12885
G1 X83.644 Y95.954 E36.14046
G1 X105.553 Y74.046 E36.72099
G1 X106.172 Y74.046 E36.73260
G1 X84.263 Y95.954 E37.31314
G1 X84.883 Y95.954 E37.32474
G1 X106.791 Y74.046 E37.90528
G1 X107.410 Y74.046 E37.91688
G1 X85.502 Y95.954 E38.49742
G1 X86.121 Y95.954 E38.50902
G1 X108.030 Y74.046 E39.08956
G1 X108.454 Y74.240 E39.09832
G1 X86.740 Y95.954 E39.67370
G1 X87.360 Y95.954 E39.68530
G1 X108.454 Y74.860 E40.24427
G1 X108.454 Y75.479 E40.25588
G1 X87.979 Y95.954 E40.79844
G1 X88.598 Y95.954 E40.81004
G1 X108.454 Y76.098 E41.33620
G1 X108.454 Y76.717 E41.34780
G1 X89.217 Y95.954 E41.85755
G1 X89.837 Y95.954 E41.86915
G1 X108.454 Y77.337 E42.36248
G1 X108.454 Y77.956 E42.37409
G1 X90.456 Y95.954 E42.85101
G1 X91.075 Y95.954 E42.86262
G1 X108.454 Y78.575 E43.32314
G1 X108.454 Y79.194 E43.33474
G1 X91.694 Y95.954 E43.77885
G1 X92.314 Y95.954 E43.79045
G1 X108.454 Y79.814 E44.21815
G1 X108.454 Y80.433 E44.22975
G1 X92.933 Y95.954 E44.64104
G1 X93.552 Y95.954 E44.65264
G1 X108.454 Y81.052 E45.04753
G1 X108.454 Y81.671 E45.05913
G1 X94.171 Y95.954 E45.43760
G1 X94.791 Y95.954 E45.44920
G1 X108.454 Y82.291 E45.81127
G1 X108.454 Y82.910 E45.82287
G1 X95.410 Y95.954 E46.16852
G1 X96.029 Y95.954 E46.18012
G1 X108.454 Y83.529 E46.50937
G1 X108.454 Y84.148 E46.52097
G1 X96.648 Y95.954 E46.83381
G1 X97.268 Y95.954 E46.84541
G1 X108.454 Y84.768 E47.14183
G1 X108.454 Y85.387 E47.15344
G1 X97.887 Y95.954 E47.43345
G1 X98.506 Y95.954 E47.44506
G1 X108.454 Y86.006 E47.70866
G1 X108.454 Y86.625 E47.72027
G1 X99.125 Y95.954 E47.96747
G1 X99.745 Y95.954 E47.97907
G1 X108.454 Y87.245 E48.20986
G1 X108.454 Y87.864 E48.22146
G1 X100.364 Y95.954 E48.43584
G1 X100.983 Y95.954 E48.44744
G1 X108.454 Y88.483 E48.64541
G1 X108.454 Y89.102 E48.65702
G1 X101.602 Y95.954 E48.83858
G1 X102.222 Y95.954 E48.85018
G1 X108.454 Y89.722 E49.01533
G1 X108.454 Y90.341 E49.02694
G1 X102.841 Y95.954 E49.17568
G1 X103.460 Y95.954 E49.18728
G1 X108.454 Y90.960 E49.31961
G1 X108.454 Y91.579 E49.33122
G1 X104.079 Y95.954 E49.44714
G1 X104.699 Y95.954 E49.45874
G1 X108.454 Y92.199 E49.55826
G1 X108.454 Y92.818 E49.56986
G1 X105.318 Y95.954 E49.65297
G1 X105.937 Y95.954 E49.66457
G1 X108.454 Y93.437 E49.73127
G1 X108.454 Y94.056 E49.74287
G1 X106.556 Y95.954 E49.79316
G1 X107.176 Y95.954 E49.80476
G1 X108.454 Y94.676 E49.83864
G1 X108.454 Y95.295 E49.85024
G1 X107.795 Y95.954 E49.86771
G1 X108.414 Y95.954 E49.87932
G1 X108.454 Y95.914 E49.88038
M106 S255
G1 E47.88038 F1680.000
G92 E0
G1 Z0.950 F12000.000
G1 X108.750 Y76.297 F12000.000
G1 E2.00000 F1680.000
