; generated by Slic3r 1.0.0RC2 on 2014-12-15 at 23:47:59

; layer_height = 0.4
; perimeters = 3
; top_solid_layers = 3
; bottom_solid_layers = 3
; fill_density = 0.4
; perimeter_speed = 30
; infill_speed = 60
; travel_speed = 130
; nozzle_diameter = 0.5
; filament_diameter = 3
; extrusion_multiplier = 1
; perimeters extrusion width = 0.50mm
; infill extrusion width = 0.53mm
; solid infill extrusion width = 0.53mm
; top infill extrusion width = 0.53mm
; first layer extrusion width = 0.70mm

G21 ; set units to millimeters
M107
M104 S200 ; set temperature
G28 ; home all axes
G1 Z5 F5000 ; lift nozzle

M109 S200 ; wait for temperature to be reached
G90 ; use absolute coordinates
G92 E0
M82 ; use absolute distances for extrusion
G1 F1800.000 E-1.00000
G92 E0
G1 Z0.350 F7800.000
G1 X84.790 Y72.790 F7800.000
G1 E1.00000 F1800.000
G1 X85.800 Y71.960 E1.04253 F540.000
G1 X86.950 Y71.350 E1.08489
G1 X88.200 Y70.970 E1.12739
G1 X89.500 Y70.840 E1.16990
G1 X110.500 Y70.840 E1.85314
G1 X111.800 Y70.970 E1.89565
G1 X113.050 Y71.350 E1.93815
G1 X114.200 Y71.960 E1.98051
G1 X115.210 Y72.790 E2.02304
G1 X116.040 Y73.800 E2.06557
G1 X116.650 Y74.950 E2.10792
G1 X117.030 Y76.200 E2.15043
G1 X117.160 Y77.500 E2.19294
G1 X117.160 Y122.500 E3.65702
G1 X117.030 Y123.800 E3.69953
G1 X116.650 Y125.050 E3.74204
G1 X116.040 Y126.200 E3.78439
G1 X115.210 Y127.210 E3.82692
G1 X114.200 Y128.040 E3.86946
G1 X113.050 Y128.650 E3.91181
G1 X111.800 Y129.030 E3.95432
G1 X110.500 Y129.160 E3.99682
G1 X89.500 Y129.160 E4.68006
G1 X88.200 Y129.030 E4.72257
G1 X86.950 Y128.650 E4.76508
G1 X85.800 Y128.040 E4.80743
G1 X84.790 Y127.210 E4.84996
G1 X83.960 Y126.200 E4.89249
G1 X83.350 Y125.050 E4.93485
G1 X82.970 Y123.800 E4.97735
G1 X82.840 Y122.500 E5.01986
G1 X82.840 Y77.500 E6.48395
G1 X82.970 Y76.200 E6.52645
G1 X83.350 Y74.950 E6.56896
G1 X83.960 Y73.800 E6.61131
G1 X84.727 Y72.866 E6.65064
G1 F1800.000 E5.65064
G92 E0
G1 X91.164 Y79.164 F7800.000
G1 E1.00000 F1800.000
G1 X108.836 Y79.164 E1.57495 F540.000
G1 X108.836 Y120.836 E2.93075
G1 X91.164 Y120.836 E3.50570
G1 X91.164 Y79.263 E4.85829
G1 X90.507 Y78.507 F7800.000
G1 X109.493 Y78.507 E5.47600 F540.000
G1 X109.493 Y121.493 E6.87455
G1 X90.507 Y121.493 E7.49226
G1 X90.507 Y78.606 E8.88761
G1 X89.850 Y77.850 F7800.000
G1 X110.150 Y77.850 E9.54807 F378.000
G1 X110.150 Y122.150 E10.98938
G1 X89.850 Y122.150 E11.64985
G1 X89.850 Y77.949 E13.08795
G1 X90.419 Y78.179 F7800.000
G1 X108.393 Y79.674 F7800.000
G1 X108.326 Y79.607 E13.09105 F1080.000
G1 X107.385 Y79.607 E13.12210
G1 X108.393 Y80.615 E13.16910
G1 X108.393 Y81.557 E13.20014
G1 X106.443 Y79.607 E13.29104
G1 X105.501 Y79.607 E13.32209
G1 X108.393 Y82.499 E13.45689
G1 X108.393 Y83.440 E13.48793
G1 X104.560 Y79.607 E13.66664
G1 X103.618 Y79.607 E13.69768
G1 X108.393 Y84.382 E13.92029
G1 X108.393 Y85.323 E13.95133
G1 X102.677 Y79.607 E14.21784
G1 X101.735 Y79.607 E14.24888
G1 X108.393 Y86.265 E14.55929
G1 X108.393 Y87.207 E14.59033
G1 X100.793 Y79.607 E14.94464
G1 X99.852 Y79.607 E14.97569
G1 X108.393 Y88.148 E15.37390
G1 X108.393 Y89.090 E15.40494
G1 X98.910 Y79.607 E15.84705
G1 X97.969 Y79.607 E15.87809
G1 X108.393 Y90.031 E16.36411
G1 X108.393 Y90.973 E16.39515
G1 X97.027 Y79.607 E16.92506
G1 X96.085 Y79.607 E16.95610
G1 X108.393 Y91.915 E17.52992
G1 X108.393 Y92.856 E17.56096
G1 X95.144 Y79.607 E18.17868
G1 X94.202 Y79.607 E18.20972
G1 X108.393 Y93.798 E18.87134
G1 X108.393 Y94.739 E18.90238
G1 X93.261 Y79.607 E19.60790
G1 X92.319 Y79.607 E19.63894
G1 X108.393 Y95.681 E20.38836
G1 X108.393 Y96.623 E20.41940
G1 X91.607 Y79.837 E21.20200
G1 X91.607 Y80.779 E21.23304
G1 X108.393 Y97.564 E22.01564
G1 X108.393 Y98.506 E22.04669
G1 X91.607 Y81.720 E22.82929
G1 X91.607 Y82.662 E22.86033
G1 X108.393 Y99.447 E23.64293
G1 X108.393 Y100.389 E23.67397
G1 X91.607 Y83.604 E24.45657
G1 X91.607 Y84.545 E24.48762
G1 X108.393 Y101.331 E25.27022
G1 X108.393 Y102.272 E25.30126
G1 X91.607 Y85.487 E26.08386
G1 X91.607 Y86.428 E26.11490
G1 X108.393 Y103.214 E26.89750
G1 X108.393 Y104.156 E26.92855
G1 X91.607 Y87.370 E27.71115
G1 X91.607 Y88.312 E27.74219
G1 X108.393 Y105.097 E28.52479
G1 X108.393 Y106.039 E28.55583
G1 X91.607 Y89.253 E29.33843
G1 X91.607 Y90.195 E29.36948
G1 X108.393 Y106.980 E30.15208
G1 X108.393 Y107.922 E30.18312
G1 X91.607 Y91.136 E30.96572
G1 X91.607 Y92.078 E30.99676
G1 X108.393 Y108.864 E31.77936
G1 X108.393 Y109.805 E31.81041
G1 X91.607 Y93.020 E32.59301
G1 X91.607 Y93.961 E32.62405
G1 X108.393 Y110.747 E33.40665
G1 X108.393 Y111.688 E33.43769
G1 X91.607 Y94.903 E34.22029
G1 X91.607 Y95.844 E34.25134
G1 X108.393 Y112.630 E35.03394
G1 X108.393 Y113.572 E35.06498
G1 X91.607 Y96.786 E35.84758
G1 X91.607 Y97.728 E35.87862
G1 X108.393 Y114.513 E36.66122
G1 X108.393 Y115.455 E36.69227
G1 X91.607 Y98.669 E37.47487
G1 X91.607 Y99.611 E37.50591
G1 X108.393 Y116.396 E38.28851
G1 X108.393 Y117.338 E38.31955
G1 X91.607 Y100.552 E39.10215
G1 X91.607 Y101.494 E39.13320
G1 X108.393 Y118.280 E39.91580
G1 X108.393 Y119.221 E39.94684
G1 X91.607 Y102.436 E40.72944
G1 X91.607 Y103.377 E40.76048
G1 X108.393 Y120.163 E41.54308
G1 X107.681 Y120.393 E41.56774
G1 X91.607 Y104.319 E42.31716
G1 X91.607 Y105.260 E42.34820
G1 X106.740 Y120.393 E43.05372
G1 X105.798 Y120.393 E43.08477
G1 X91.607 Y106.202 E43.74639
G1 X91.607 Y107.144 E43.77743
G1 X104.856 Y120.393 E44.39515
G1 X103.915 Y120.393 E44.42619
G1 X91.607 Y108.085 E45.00001
G1 X91.607 Y109.027 E45.03105
G1 X102.973 Y120.393 E45.56096
G1 X102.031 Y120.393 E45.59201
G1 X91.607 Y109.969 E46.07802
G1 X91.607 Y110.910 E46.10907
G1 X101.090 Y120.393 E46.55118
G1 X100.148 Y120.393 E46.58222
G1 X91.607 Y111.852 E46.98043
G1 X91.607 Y112.793 E47.01148
G1 X99.207 Y120.393 E47.36579
G1 X98.265 Y120.393 E47.39683
G1 X91.607 Y113.735 E47.70724
G1 X91.607 Y114.677 E47.73829
G1 X97.323 Y120.393 E48.00480
G1 X96.382 Y120.393 E48.03584
G1 X91.607 Y115.618 E48.25845
G1 X91.607 Y116.560 E48.28949
G1 X95.440 Y120.393 E48.46820
G1 X94.499 Y120.393 E48.49924
G1 X91.607 Y117.501 E48.63405
G1 X91.607 Y118.443 E48.66509
G1 X93.557 Y120.393 E48.75600
G1 X92.615 Y120.393 E48.78704
G1 X91.607 Y119.385 E48.83405
G1 X91.607 Y120.326 E48.86509
G1 X91.674 Y120.393 E48.86819
M106 S203
G1 F1800.000 E47.86819
G92 E0
G1 Z0.750 F7800.000
G1 X90.750 Y121.250 F7800.000
G1 E1.00000 F1800.000
G1 X90.750 Y78.750 E2.20250 F1800
G1 X109.250 Y78.750 E2.72595
G1 X109.250 Y121.250 E3.92845
G1 X90.825 Y121.250 E4.44977
G1 X90.250 Y121.750 F7800.000
G1 X90.250 Y78.250 E5.68057 F1800
G1 X109.750 Y78.250 E6.23231
G1 X109.750 Y121.750 E7.46311
G1 X90.325 Y121.750 E8.01272
G1 X89.750 Y122.250 F7800.000
G1 X89.750 Y77.750 E9.27181 F1260
G1 X110.250 Y77.750 E9.85184
G1 X110.250 Y122.250 E11.11094
G1 X89.825 Y122.250 E11.68885
G1 X90.000 Y121.817 F7800.000
G1 X108.909 Y120.857 F7800.000
G1 X108.857 Y120.909 E11.69101 F3600
G1 X108.122 Y120.909 E11.71262
G1 X108.909 Y120.122 E11.74535
G1 X108.909 Y119.387 E11.76697
G1 X107.387 Y120.909 E11.83026
G1 X106.652 Y120.909 E11.85188
G1 X108.909 Y118.652 E11.94574
G1 X108.909 Y117.917 E11.96736
G1 X105.917 Y120.909 E12.09179
G1 X105.182 Y120.909 E12.11341
G1 X108.909 Y117.182 E12.26841
G1 X108.909 Y116.447 E12.29002
G1 X104.447 Y120.909 E12.47559
G1 X103.712 Y120.909 E12.49721
G1 X108.909 Y115.712 E12.71334
G1 X108.909 Y114.977 E12.73496
G1 X102.977 Y120.909 E12.98166
G1 X102.242 Y120.909 E13.00328
G1 X108.909 Y114.242 E13.28055
G1 X108.909 Y113.507 E13.30217
G1 X101.507 Y120.909 E13.61001
G1 X100.772 Y120.909 E13.63162
G1 X108.909 Y112.772 E13.97003
G1 X108.909 Y112.037 E13.99164
G1 X100.037 Y120.909 E14.36062
G1 X99.303 Y120.909 E14.38224
G1 X108.909 Y111.303 E14.78178
G1 X108.909 Y110.568 E14.80340
G1 X98.568 Y120.909 E15.23351
G1 X97.833 Y120.909 E15.25512
G1 X108.909 Y109.833 E15.71580
G1 X108.909 Y109.098 E15.73742
G1 X97.098 Y120.909 E16.22867
G1 X96.363 Y120.909 E16.25028
G1 X108.909 Y108.363 E16.77210
G1 X108.909 Y107.628 E16.79371
G1 X95.628 Y120.909 E17.34610
G1 X94.893 Y120.909 E17.36771
G1 X108.909 Y106.893 E17.95066
G1 X108.909 Y106.158 E17.97228
G1 X94.158 Y120.909 E18.58580
G1 X93.423 Y120.909 E18.60741
G1 X108.909 Y105.423 E19.25150
G1 X108.909 Y104.688 E19.27312
G1 X92.688 Y120.909 E19.94777
G1 X91.953 Y120.909 E19.96939
G1 X108.909 Y103.953 E20.67461
G1 X108.909 Y103.218 E20.69623
G1 X91.218 Y120.909 E21.43202
G1 X91.091 Y120.301 E21.45029
G1 X108.909 Y102.483 E22.19136
G1 X108.909 Y101.748 E22.21297
G1 X91.091 Y119.566 E22.95404
G1 X91.091 Y118.831 E22.97566
G1 X108.909 Y101.013 E23.71673
G1 X108.909 Y100.278 E23.73835
G1 X91.091 Y118.096 E24.47942
G1 X91.091 Y117.361 E24.50103
G1 X108.909 Y99.543 E25.24210
G1 X108.909 Y98.808 E25.26372
G1 X91.091 Y116.626 E26.00479
G1 X91.091 Y115.891 E26.02640
G1 X108.909 Y98.073 E26.76748
G1 X108.909 Y97.338 E26.78909
G1 X91.091 Y115.156 E27.53016
G1 X91.091 Y114.421 E27.55178
G1 X108.909 Y96.603 E28.29285
G1 X108.909 Y95.868 E28.31446
G1 X91.091 Y113.686 E29.05553
G1 X91.091 Y112.951 E29.07715
G1 X108.909 Y95.133 E29.81822
G1 X108.909 Y94.398 E29.83984
G1 X91.091 Y112.216 E30.58091
G1 X91.091 Y111.481 E30.60252
G1 X108.909 Y93.663 E31.34359
G1 X108.909 Y92.928 E31.36521
G1 X91.091 Y110.746 E32.10628
G1 X91.091 Y110.011 E32.12789
G1 X108.909 Y92.193 E32.86897
G1 X108.909 Y91.458 E32.89058
G1 X91.091 Y109.277 E33.63165
G1 X91.091 Y108.542 E33.65327
G1 X108.909 Y90.723 E34.39434
G1 X108.909 Y89.988 E34.41595
G1 X91.091 Y107.807 E35.15702
G1 X91.091 Y107.072 E35.17864
G1 X108.909 Y89.253 E35.91971
G1 X108.909 Y88.518 E35.94133
G1 X91.091 Y106.337 E36.68240
G1 X91.091 Y105.602 E36.70401
G1 X108.909 Y87.783 E37.44508
G1 X108.909 Y87.049 E37.46670
G1 X91.091 Y104.867 E38.20777
G1 X91.091 Y104.132 E38.22938
G1 X108.909 Y86.314 E38.97046
G1 X108.909 Y85.579 E38.99207
G1 X91.091 Y103.397 E39.73314
G1 X91.091 Y102.662 E39.75476
G1 X108.909 Y84.844 E40.49583
G1 X108.909 Y84.109 E40.51744
G1 X91.091 Y101.927 E41.25851
G1 X91.091 Y101.192 E41.28013
G1 X108.909 Y83.374 E42.02120
G1 X108.909 Y82.639 E42.04282
G1 X91.091 Y100.457 E42.78389
G1 X91.091 Y99.722 E42.80550
G1 X108.909 Y81.904 E43.54657
G1 X108.909 Y81.169 E43.56819
G1 X91.091 Y98.987 E44.30926
G1 X91.091 Y98.252 E44.33087
G1 X108.909 Y80.434 E45.07195
G1 X108.909 Y79.699 E45.09356
G1 X91.091 Y97.517 E45.83463
G1 X91.091 Y96.782 E45.85625
G1 X108.782 Y79.091 E46.59203
G1 X108.047 Y79.091 E46.61365
G1 X91.091 Y96.047 E47.31887
G1 X91.091 Y95.312 E47.34048
G1 X107.312 Y79.091 E48.01514
G1 X106.577 Y79.091 E48.03675
G1 X91.091 Y94.577 E48.68083
G1 X91.091 Y93.842 E48.70245
G1 X105.842 Y79.091 E49.31596
G1 X105.107 Y79.091 E49.33758
G1 X91.091 Y93.107 E49.92053
G1 X91.091 Y92.372 E49.94214
G1 X104.372 Y79.091 E50.49452
G1 X103.637 Y79.091 E50.51614
G1 X91.091 Y91.637 E51.03795
G1 X91.091 Y90.902 E51.05956
G1 X102.902 Y79.091 E51.55081
G1 X102.167 Y79.091 E51.57242
G1 X91.091 Y90.167 E52.03310
G1 X91.091 Y89.432 E52.05471
G1 X101.432 Y79.091 E52.48482
G1 X100.697 Y79.091 E52.50643
G1 X91.091 Y88.697 E52.90597
G1 X91.091 Y87.962 E52.92759
G1 X99.962 Y79.091 E53.29656
G1 X99.227 Y79.091 E53.31818
G1 X91.091 Y87.227 E53.65658
G1 X91.091 Y86.492 E53.67820
G1 X98.492 Y79.091 E53.98603
G1 X97.757 Y79.091 E54.00765
G1 X91.091 Y85.757 E54.28492
G1 X91.091 Y85.023 E54.30653
G1 X97.023 Y79.091 E54.55323
G1 X96.288 Y79.091 E54.57485
G1 X91.091 Y84.288 E54.79098
G1 X91.091 Y83.553 E54.81259
G1 X95.553 Y79.091 E54.99816
G1 X94.818 Y79.091 E55.01977
G1 X91.091 Y82.818 E55.17477
G1 X91.091 Y82.083 E55.19638
G1 X94.083 Y79.091 E55.32081
G1 X93.348 Y79.091 E55.34243
G1 X91.091 Y81.348 E55.43629
G1 X91.091 Y80.613 E55.45790
G1 X92.613 Y79.091 E55.52119
G1 X91.878 Y79.091 E55.54281
G1 X91.091 Y79.878 E55.57553
G1 X91.091 Y79.143 E55.59715
G1 X91.143 Y79.091 E55.59931
M106 S203
G1 F1800.000 E54.59931
G92 E0
G1 Z1.150 F7800.000
G1 X90.750 Y78.750 F7800.000
G1 E1.00000 F1800.000
G1 X109.250 Y78.750 E1.52344 F1800
G1 X109.250 Y121.250 E2.72595
G1 X90.750 Y121.250 E3.24939
G1 X90.750 Y78.825 E4.44977
G1 X90.250 Y78.250 F7800.000
G1 X109.750 Y78.250 E5.00151 F1800
G1 X109.750 Y121.750 E6.23231
G1 X90.250 Y121.750 E6.78404
G1 X90.250 Y78.325 E8.01272
G1 X89.750 Y77.750 F7800.000
G1 X110.250 Y77.750 E8.59275 F1260
G1 X110.250 Y122.250 E9.85184
G1 X89.750 Y122.250 E10.43188
G1 X89.750 Y77.825 E11.68885
G1 X90.183 Y78.000 F7800.000
G1 X108.909 Y79.143 F7800.000
G1 X108.857 Y79.091 E11.69100 F3600
G1 X108.122 Y79.091 E11.71262
G1 X108.909 Y79.878 E11.74534
G1 X108.909 Y80.613 E11.76696
G1 X107.387 Y79.091 E11.83025
G1 X106.652 Y79.091 E11.85186
G1 X108.909 Y81.348 E11.94573
G1 X108.909 Y82.083 E11.96734
G1 X105.917 Y79.091 E12.09177
G1 X105.182 Y79.091 E12.11338
G1 X108.909 Y82.818 E12.26838
G1 X108.909 Y83.553 E12.29000
G1 X104.447 Y79.091 E12.47556
G1 X103.712 Y79.091 E12.49717
G1 X108.909 Y84.288 E12.71331
G1 X108.909 Y85.023 E12.73492
G1 X102.977 Y79.091 E12.98162
G1 X102.243 Y79.091 E13.00324
G1 X108.909 Y85.757 E13.28051
G1 X108.909 Y86.492 E13.30212
G1 X101.508 Y79.091 E13.60996
G1 X100.773 Y79.091 E13.63157
G1 X108.909 Y87.227 E13.96998
G1 X108.909 Y87.962 E13.99159
G1 X100.038 Y79.091 E14.36056
G1 X99.303 Y79.091 E14.38218
G1 X108.909 Y88.697 E14.78172
G1 X108.909 Y89.432 E14.80333
G1 X98.568 Y79.091 E15.23344
G1 X97.833 Y79.091 E15.25505
G1 X108.909 Y90.167 E15.71573
G1 X108.909 Y90.902 E15.73735
G1 X97.098 Y79.091 E16.22859
G1 X96.363 Y79.091 E16.25020
G1 X108.909 Y91.637 E16.77202
G1 X108.909 Y92.372 E16.79363
G1 X95.628 Y79.091 E17.34601
G1 X94.893 Y79.091 E17.36763
G1 X108.909 Y93.107 E17.95057
G1 X108.909 Y93.842 E17.97219
G1 X94.158 Y79.091 E18.58570
G1 X93.423 Y79.091 E18.60732
G1 X108.909 Y94.577 E19.25140
G1 X108.909 Y95.312 E19.27302
G1 X92.688 Y79.091 E19.94767
G1 X91.953 Y79.091 E19.96928
G1 X108.909 Y96.047 E20.67450
G1 X108.909 Y96.782 E20.69612
G1 X91.218 Y79.091 E21.43190
G1 X91.091 Y79.699 E21.45017
G1 X108.909 Y97.517 E22.19124
G1 X108.909 Y98.252 E22.21286
G1 X91.091 Y80.434 E22.95393
G1 X91.091 Y81.169 E22.97554
G1 X108.909 Y98.987 E23.71661
G1 X108.909 Y99.722 E23.73823
G1 X91.091 Y81.904 E24.47930
G1 X91.091 Y82.639 E24.50091
G1 X108.909 Y100.457 E25.24199
G1 X108.909 Y101.192 E25.26360
G1 X91.091 Y83.374 E26.00467
G1 X91.091 Y84.109 E26.02629
G1 X108.909 Y101.927 E26.76736
G1 X108.909 Y102.662 E26.78897
G1 X91.091 Y84.844 E27.53005
G1 X91.091 Y85.579 E27.55166
G1 X108.909 Y103.397 E28.29273
G1 X108.909 Y104.132 E28.31435
G1 X91.091 Y86.314 E29.05542
G1 X91.091 Y87.049 E29.07703
G1 X108.909 Y104.867 E29.81810
G1 X108.909 Y105.602 E29.83972
G1 X91.091 Y87.783 E30.58079
G1 X91.091 Y88.518 E30.60241
G1 X108.909 Y106.337 E31.34348
G1 X108.909 Y107.072 E31.36509
G1 X91.091 Y89.253 E32.10616
G1 X91.091 Y89.988 E32.12778
G1 X108.909 Y107.807 E32.86885
G1 X108.909 Y108.542 E32.89046
G1 X91.091 Y90.723 E33.63154
G1 X91.091 Y91.458 E33.65315
G1 X108.909 Y109.277 E34.39422
G1 X108.909 Y110.011 E34.41584
G1 X91.091 Y92.193 E35.15691
G1 X91.091 Y92.928 E35.17852
G1 X108.909 Y110.746 E35.91959
G1 X108.909 Y111.481 E35.94121
G1 X91.091 Y93.663 E36.68228
G1 X91.091 Y94.398 E36.70390
G1 X108.909 Y112.216 E37.44497
G1 X108.909 Y112.951 E37.46658
G1 X91.091 Y95.133 E38.20765
G1 X91.091 Y95.868 E38.22927
G1 X108.909 Y113.686 E38.97034
G1 X108.909 Y114.421 E38.99195
G1 X91.091 Y96.603 E39.73303
G1 X91.091 Y97.338 E39.75464
G1 X108.909 Y115.156 E40.49571
G1 X108.909 Y115.891 E40.51733
G1 X91.091 Y98.073 E41.25840
G1 X91.091 Y98.808 E41.28001
G1 X108.909 Y116.626 E42.02109
G1 X108.909 Y117.361 E42.04270
G1 X91.091 Y99.543 E42.78377
G1 X91.091 Y100.278 E42.80539
G1 X108.909 Y118.096 E43.54646
G1 X108.909 Y118.831 E43.56807
G1 X91.091 Y101.013 E44.30914
G1 X91.091 Y101.748 E44.33076
G1 X108.909 Y119.566 E45.07183
G1 X108.909 Y120.301 E45.09345
G1 X91.091 Y102.483 E45.83452
G1 X91.091 Y103.218 E45.85613
G1 X108.782 Y120.909 E46.59192
G1 X108.047 Y120.909 E46.61354
G1 X91.091 Y103.953 E47.31876
G1 X91.091 Y104.688 E47.34038
G1 X107.312 Y120.909 E48.01503
G1 X106.577 Y120.909 E48.03665
G1 X91.091 Y105.423 E48.68074
G1 X91.091 Y106.158 E48.70235
G1 X105.842 Y120.909 E49.31587
G1 X105.107 Y120.909 E49.33749
