; generated by Slic3r 1.2.1 on 2014-12-16 at 18:21:56

; external perimeters extrusion width = 0.50mm
; perimeters extrusion width = 0.50mm
; infill extrusion width = 0.50mm
; solid infill extrusion width = 0.50mm
; top infill extrusion width = 0.50mm

M104 S190 ; set temperature
G28 ; home all axes
G1 Z15 F120 ; lift nozzle
M109 S190 ; wait for temperature to be reached
G21 ; set units to millimeters
G90 ; use absolute coordinates
M82 ; use absolute distances for extrusion
G92 E0
M106 S102
G1 E-2.00000 F1680.000
G92 E0
G1 Z0.350 F12000.000
G1 X57.742 Y70.209 F12000.000
G1 E2.00000 F1680.000
G1 X59.348 Y68.888 E2.05854 F1200.000
G1 X62.500 Y68.064 E2.15026
G1 X107.500 Y68.064 E3.41710
G1 X109.725 Y68.461 E3.48073
G1 X111.676 Y69.602 E3.54436 F1200.000
G1 X113.112 Y71.348 E3.60800
G1 X113.936 Y74.500 E3.69972
G1 X113.936 Y95.500 E4.29091
G1 X113.539 Y97.725 E4.35454
G1 X112.398 Y99.676 E4.41817
G1 X110.652 Y101.112 E4.48180
G1 X107.500 Y101.936 E4.57352
G1 X62.500 Y101.936 E5.84036
G1 X60.275 Y101.539 E5.90399
G1 X58.324 Y100.398 E5.96762
G1 X56.888 Y98.652 E6.03125
G1 X56.064 Y95.500 E6.12297
G1 X56.064 Y74.500 E6.71416
G1 X56.461 Y72.275 E6.77780
G1 X57.602 Y70.324 E6.84143
G1 X57.684 Y70.257 E6.84440
G1 E4.84440 F1680.000
G92 E0
G1 X62.750 Y88.915 F12000.000
G1 E2.00000 F1680.000
G1 X62.750 Y74.750 E2.36871 F720.000
G1 X107.250 Y74.750 E3.52700
G1 X107.250 Y95.250 E4.06059
G1 X62.750 Y95.250 E5.21888 F720.000
G1 X62.750 Y88.990 E5.38182
G1 X63.022 Y94.938 F12000.000
G1 X63.062 Y94.978 E5.38329 F1200.000
G1 X63.638 Y94.978 E5.39826
G1 X63.022 Y94.362 E5.42090
G1 X63.022 Y93.787 E5.43587
G1 X64.213 Y94.978 E5.47967
G1 X64.788 Y94.978 E5.49464
G1 X63.022 Y93.212 E5.55962
G1 X63.022 Y92.637 E5.57458
G1 X65.363 Y94.978 E5.66073
G1 X65.938 Y94.978 E5.67570
G1 X63.022 Y92.062 E5.78301
G1 X63.022 Y91.487 E5.79798
G1 X66.513 Y94.978 E5.92645
G1 X67.088 Y94.978 E5.94142
G1 X63.022 Y90.912 E6.09107
G1 X63.022 Y90.337 E6.10604
G1 X67.663 Y94.978 E6.27685
G1 X68.238 Y94.978 E6.29182
G1 X63.022 Y89.762 E6.48380
G1 X63.022 Y89.187 E6.49877
G1 X68.813 Y94.978 E6.71192
G1 X69.388 Y94.978 E6.72689
G1 X63.022 Y88.612 E6.96121
G1 X63.022 Y88.037 E6.97617
G1 X69.963 Y94.978 E7.23166
G1 X70.538 Y94.978 E7.24663
G1 X63.022 Y87.462 E7.52328
G1 X63.022 Y86.887 E7.53825
G1 X71.113 Y94.978 E7.83607
G1 X71.688 Y94.978 E7.85104
G1 X63.022 Y86.312 E8.17003
G1 X63.022 Y85.737 E8.18499
G1 X72.263 Y94.978 E8.52515
G1 X72.838 Y94.978 E8.54012
G1 X63.022 Y85.162 E8.90144
G1 X63.022 Y84.587 E8.91641
G1 X73.413 Y94.978 E9.29890
G1 X73.988 Y94.978 E9.31387
G1 X63.022 Y84.012 E9.71753
G1 X63.022 Y83.437 E9.73250
G1 X74.563 Y94.978 E10.15733
G1 X75.138 Y94.978 E10.17230
G1 X63.022 Y82.862 E10.61829
G1 X63.022 Y82.287 E10.63326
G1 X75.713 Y94.978 E11.10042
G1 X76.289 Y94.978 E11.11539
G1 X63.022 Y81.711 E11.60372
G1 X63.022 Y81.136 E11.61869
G1 X76.864 Y94.978 E12.12819
G1 X77.439 Y94.978 E12.14316
G1 X63.022 Y80.561 E12.67382
G1 X63.022 Y79.986 E12.68879
G1 X78.014 Y94.978 E13.24063
G1 X78.589 Y94.978 E13.25559
G1 X63.022 Y79.411 E13.82860
G1 X63.022 Y78.836 E13.84356
G1 X79.164 Y94.978 E14.43773
G1 X79.739 Y94.978 E14.45270
G1 X63.022 Y78.261 E15.06804
G1 X63.022 Y77.686 E15.08301
G1 X80.314 Y94.978 E15.71951
G1 X80.889 Y94.978 E15.73448
G1 X63.022 Y77.111 E16.39215
G1 X63.022 Y76.536 E16.40712
G1 X81.464 Y94.978 E17.08596
G1 X82.039 Y94.978 E17.10093
G1 X63.022 Y75.961 E17.80094
G1 X63.022 Y75.386 E17.81591
G1 X82.614 Y94.978 E18.53708
G1 X83.189 Y94.978 E18.55205
G1 X63.234 Y75.022 E19.28661
G1 X63.809 Y75.022 E19.30158
G1 X83.764 Y94.978 E20.03613
G1 X84.339 Y94.978 E20.05110
G1 X64.384 Y75.022 E20.78566
G1 X64.959 Y75.022 E20.80063
G1 X84.914 Y94.978 E21.53518
G1 X85.489 Y94.978 E21.55015
G1 X65.534 Y75.022 E22.28471
G1 X66.109 Y75.022 E22.29968
G1 X86.064 Y94.978 E23.03423
G1 X86.639 Y94.978 E23.04920
G1 X66.684 Y75.022 E23.78376
G1 X67.259 Y75.022 E23.79873
G1 X87.214 Y94.978 E24.53328
G1 X87.789 Y94.978 E24.54825
G1 X67.834 Y75.022 E25.28281
G1 X68.409 Y75.022 E25.29778
G1 X88.364 Y94.978 E26.03233
G1 X88.940 Y94.978 E26.04730
G1 X68.984 Y75.022 E26.78186
G1 X69.560 Y75.022 E26.79683
G1 X89.515 Y94.978 E27.53138
G1 X90.090 Y94.978 E27.54635
G1 X70.135 Y75.022 E28.28091
G1 X70.710 Y75.022 E28.29588
G1 X90.665 Y94.978 E29.03043
G1 X91.240 Y94.978 E29.04540
G1 X71.285 Y75.022 E29.77996
G1 X71.860 Y75.022 E29.79493
G1 X91.815 Y94.978 E30.52948
G1 X92.390 Y94.978 E30.54445
G1 X72.435 Y75.022 E31.27901
G1 X73.010 Y75.022 E31.29398
G1 X92.965 Y94.978 E32.02853
G1 X93.540 Y94.978 E32.04350
G1 X73.585 Y75.022 E32.77806
G1 X74.160 Y75.022 E32.79303
G1 X94.115 Y94.978 E33.52758
G1 X94.690 Y94.978 E33.54255
G1 X74.735 Y75.022 E34.27711
G1 X75.310 Y75.022 E34.29208
G1 X95.265 Y94.978 E35.02663
G1 X95.840 Y94.978 E35.04160
G1 X75.885 Y75.022 E35.77616
G1 X76.460 Y75.022 E35.79113
G1 X96.415 Y94.978 E36.52568
G1 X96.990 Y94.978 E36.54065
G1 X77.035 Y75.022 E37.27521
G1 X77.610 Y75.022 E37.29018
G1 X97.565 Y94.978 E38.02473
G1 X98.140 Y94.978 E38.03970
G1 X78.185 Y75.022 E38.77426
G1 X78.760 Y75.022 E38.78923
G1 X98.715 Y94.978 E39.52378
G1 X99.290 Y94.978 E39.53875
G1 X79.335 Y75.022 E40.27331
G1 X79.910 Y75.022 E40.28828
G1 X99.865 Y94.978 E41.02283
G1 X100.440 Y94.978 E41.03780
G1 X80.485 Y75.022 E41.77236
G1 X81.060 Y75.022 E41.78733
G1 X101.016 Y94.978 E42.52188
G1 X101.591 Y94.978 E42.53685
G1 X81.635 Y75.022 E43.27141
G1 X82.211 Y75.022 E43.28638
G1 X102.166 Y94.978 E44.02093
G1 X102.741 Y94.978 E44.03590
G1 X82.786 Y75.022 E44.77046
G1 X83.361 Y75.022 E44.78543
G1 X103.316 Y94.978 E45.51998
G1 X103.891 Y94.978 E45.53495
G1 X83.936 Y75.022 E46.26951
G1 X84.511 Y75.022 E46.28448
G1 X104.466 Y94.978 E47.01903
G1 X105.041 Y94.978 E47.03400
G1 X85.086 Y75.022 E47.76856
G1 X85.661 Y75.022 E47.78353
G1 X105.616 Y94.978 E48.51808
G1 X106.191 Y94.978 E48.53305
G1 X86.236 Y75.022 E49.26761
G1 X86.811 Y75.022 E49.28258
G1 X106.766 Y94.978 E50.01713
G1 X106.978 Y94.614 E50.02808
G1 X87.386 Y75.022 E50.74926
G1 X87.961 Y75.022 E50.76423
G1 X106.978 Y94.039 E51.46423
G1 X106.978 Y93.464 E51.47920
G1 X88.536 Y75.022 E52.15804
G1 X89.111 Y75.022 E52.17301
G1 X106.978 Y92.889 E52.83069
G1 X106.978 Y92.314 E52.84565
G1 X89.686 Y75.022 E53.48216
G1 X90.261 Y75.022 E53.49713
G1 X106.978 Y91.739 E54.11246
G1 X106.978 Y91.164 E54.12743
G1 X90.836 Y75.022 E54.72160
G1 X91.411 Y75.022 E54.73657
G1 X106.978 Y90.589 E55.30957
G1 X106.978 Y90.014 E55.32454
G1 X91.986 Y75.022 E55.87637
G1 X92.561 Y75.022 E55.89134
G1 X106.978 Y89.439 E56.42201
G1 X106.978 Y88.864 E56.43698
G1 X93.136 Y75.022 E56.94648
G1 X93.711 Y75.022 E56.96144
G1 X106.978 Y88.289 E57.44978
G1 X106.978 Y87.713 E57.46474
G1 X94.287 Y75.022 E57.93191
G1 X94.862 Y75.022 E57.94687
G1 X106.978 Y87.138 E58.39287
G1 X106.978 Y86.563 E58.40784
G1 X95.437 Y75.022 E58.83267
G1 X96.012 Y75.022 E58.84763
G1 X106.978 Y85.988 E59.25129
G1 X106.978 Y85.413 E59.26626
G1 X96.587 Y75.022 E59.64875
G1 X97.162 Y75.022 E59.66372
G1 X106.978 Y84.838 E60.02505
G1 X106.978 Y84.263 E60.04001
G1 X97.737 Y75.022 E60.38017
G1 X98.312 Y75.022 E60.39514
G1 X106.978 Y83.688 E60.71413
G1 X106.978 Y83.113 E60.72910
G1 X98.887 Y75.022 E61.02692
G1 X99.462 Y75.022 E61.04189
G1 X106.978 Y82.538 E61.31854
G1 X106.978 Y81.963 E61.33351
G1 X100.037 Y75.022 E61.58899
G1 X100.612 Y75.022 E61.60396
G1 X106.978 Y81.388 E61.83828
G1 X106.978 Y80.813 E61.85325
G1 X101.187 Y75.022 E62.06640
G1 X101.762 Y75.022 E62.08136
G1 X106.978 Y80.238 E62.27335
G1 X106.978 Y79.663 E62.28831
G1 X102.337 Y75.022 E62.45913
G1 X102.912 Y75.022 E62.47410
G1 X106.978 Y79.088 E62.62374
G1 X106.978 Y78.513 E62.63871
G1 X103.487 Y75.022 E62.76719
G1 X104.062 Y75.022 E62.78216
G1 X106.978 Y77.938 E62.88947
G1 X106.978 Y77.363 E62.90444
G1 X104.637 Y75.022 E62.99058
G1 X105.212 Y75.022 E63.00555
G1 X106.978 Y76.788 E63.07052
G1 X106.978 Y76.213 E63.08549
G1 X105.787 Y75.022 E63.12930
G1 X106.362 Y75.022 E63.14427
G1 X106.978 Y75.638 E63.16691
G1 X106.978 Y75.062 E63.18188
G1 X106.938 Y75.022 E63.18335
M106 S117
M104 S188 ; set temperature
G1 E61.18335 F1680.000
G92 E0
G1 Z0.650 F12000.000
G1 X81.949 Y74.750 F12000.000
G1 E2.00000 F1680.000
G1 X107.250 Y74.750 E2.47408 F1440.000
G1 X107.250 Y95.250 E2.85819
G1 X62.750 Y95.250 E3.69200 F1440.000
G1 X62.750 Y74.750 E4.07611
G1 X81.874 Y74.750 E4.43444
G1 X63.086 Y75.046 F12000.000
G1 X63.046 Y75.086 E4.43550 F2400.000
G1 X63.046 Y75.705 E4.44709
G1 X63.705 Y75.046 E4.46455
G1 X64.323 Y75.046 E4.47615
G1 X63.046 Y76.323 E4.51000
G1 X63.046 Y76.942 E4.52159
G1 X64.942 Y75.046 E4.57185
G1 X65.561 Y75.046 E4.58344
G1 X63.046 Y77.561 E4.65009
G1 X63.046 Y78.180 E4.66169
G1 X66.180 Y75.046 E4.74473
G1 X66.799 Y75.046 E4.75633
G1 X63.046 Y78.799 E4.85577
G1 X63.046 Y79.417 E4.86737
G1 X67.417 Y75.046 E4.98321
G1 X68.036 Y75.046 E4.99480
G1 X63.046 Y80.036 E5.12704
G1 X63.046 Y80.655 E5.13864
G1 X68.655 Y75.046 E5.28727
G1 X69.274 Y75.046 E5.29887
G1 X63.046 Y81.274 E5.46390
G1 X63.046 Y81.893 E5.47549
G1 X69.893 Y75.046 E5.65693
G1 X70.511 Y75.046 E5.66852
G1 X63.046 Y82.511 E5.86635
G1 X63.046 Y83.130 E5.87794
G1 X71.130 Y75.046 E6.09217
G1 X71.749 Y75.046 E6.10376
G1 X63.046 Y83.749 E6.33439
G1 X63.046 Y84.368 E6.34598
G1 X72.368 Y75.046 E6.59300
G1 X72.987 Y75.046 E6.60460
G1 X63.046 Y84.987 E6.86801
G1 X63.046 Y85.605 E6.87961
G1 X73.605 Y75.046 E7.15942
G1 X74.224 Y75.046 E7.17102
G1 X63.046 Y86.224 E7.46723
G1 X63.046 Y86.843 E7.47883
G1 X74.843 Y75.046 E7.79144
G1 X75.462 Y75.046 E7.80303
G1 X63.046 Y87.462 E8.13204
G1 X63.046 Y88.081 E8.14363
G1 X76.081 Y75.046 E8.48904
G1 X76.699 Y75.046 E8.50063
G1 X63.046 Y88.699 E8.86243
G1 X63.046 Y89.318 E8.87403
G1 X77.318 Y75.046 E9.25223
G1 X77.937 Y75.046 E9.26382
G1 X63.046 Y89.937 E9.65842
G1 X63.046 Y90.556 E9.67001
G1 X78.556 Y75.046 E10.08101
G1 X79.175 Y75.046 E10.09260
G1 X63.046 Y91.175 E10.51999
G1 X63.046 Y91.794 E10.53159
G1 X79.794 Y75.046 E10.97538
G1 X80.412 Y75.046 E10.98697
G1 X63.046 Y92.412 E11.44716
G1 X63.046 Y93.031 E11.45875
G1 X81.031 Y75.046 E11.93534
G1 X81.650 Y75.046 E11.94693
G1 X63.046 Y93.650 E12.43991
G1 X63.046 Y94.269 E12.45151
G1 X82.269 Y75.046 E12.96088
G1 X82.888 Y75.046 E12.97248
G1 X63.046 Y94.888 E13.49825
G1 X63.598 Y94.954 E13.50868
G1 X83.506 Y75.046 E14.03622
G1 X84.125 Y75.046 E14.04781
G1 X64.217 Y94.954 E14.57535
G1 X64.836 Y94.954 E14.58695
G1 X84.744 Y75.046 E15.11449
G1 X85.363 Y75.046 E15.12609
G1 X65.454 Y94.954 E15.65363
G1 X66.073 Y94.954 E15.66522
G1 X85.982 Y75.046 E16.19277
G1 X86.600 Y75.046 E16.20436
G1 X66.692 Y94.954 E16.73190
G1 X67.311 Y94.954 E16.74350
G1 X87.219 Y75.046 E17.27104
G1 X87.838 Y75.046 E17.28263
G1 X67.930 Y94.954 E17.81018
G1 X68.548 Y94.954 E17.82177
G1 X88.457 Y75.046 E18.34931
G1 X89.076 Y75.046 E18.36091
G1 X69.167 Y94.954 E18.88845
G1 X69.786 Y94.954 E18.90005
G1 X89.694 Y75.046 E19.42759
G1 X90.313 Y75.046 E19.43918
G1 X70.405 Y94.954 E19.96672
G1 X71.024 Y94.954 E19.97832
G1 X90.932 Y75.046 E20.50586
G1 X91.551 Y75.046 E20.51746
G1 X71.642 Y94.954 E21.04500
G1 X72.261 Y94.954 E21.05659
G1 X92.170 Y75.046 E21.58414
G1 X92.788 Y75.046 E21.59573
G1 X72.880 Y94.954 E22.12327
G1 X73.499 Y94.954 E22.13487
G1 X93.407 Y75.046 E22.66241
G1 X94.026 Y75.046 E22.67400
G1 X74.118 Y94.954 E23.20155
G1 X74.736 Y94.954 E23.21314
G1 X94.645 Y75.046 E23.74068
G1 X95.264 Y75.046 E23.75228
G1 X75.355 Y94.954 E24.27982
G1 X75.974 Y94.954 E24.29142
G1 X95.882 Y75.046 E24.81896
G1 X96.501 Y75.046 E24.83055
G1 X76.593 Y94.954 E25.35809
G1 X77.212 Y94.954 E25.36969
G1 X97.120 Y75.046 E25.89723
G1 X97.739 Y75.046 E25.90883
G1 X77.830 Y94.954 E26.43637
G1 X78.449 Y94.954 E26.44796
G1 X98.358 Y75.046 E26.97551
G1 X98.976 Y75.046 E26.98710
G1 X79.068 Y94.954 E27.51464
G1 X79.687 Y94.954 E27.52624
G1 X99.595 Y75.046 E28.05378
G1 X100.214 Y75.046 E28.06537
G1 X80.306 Y94.954 E28.59292
G1 X80.924 Y94.954 E28.60451
G1 X100.833 Y75.046 E29.13205
G1 X101.452 Y75.046 E29.14365
G1 X81.543 Y94.954 E29.67119
G1 X82.162 Y94.954 E29.68279
G1 X102.070 Y75.046 E30.21033
G1 X102.689 Y75.046 E30.22192
G1 X82.781 Y94.954 E30.74946
G1 X83.400 Y94.954 E30.76106
G1 X103.308 Y75.046 E31.28860
G1 X103.927 Y75.046 E31.30020
G1 X84.018 Y94.954 E31.82774
G1 X84.637 Y94.954 E31.83933
G1 X104.546 Y75.046 E32.36688
G1 X105.164 Y75.046 E32.37847
G1 X85.256 Y94.954 E32.90601
G1 X85.875 Y94.954 E32.91761
G1 X105.783 Y75.046 E33.44515
G1 X106.402 Y75.046 E33.45674
G1 X86.494 Y94.954 E33.98429
G1 X87.112 Y94.954 E33.99588
G1 X106.954 Y75.112 E34.52166
G1 X106.954 Y75.731 E34.53325
G1 X87.731 Y94.954 E35.04263
G1 X88.350 Y94.954 E35.05422
G1 X106.954 Y76.350 E35.54721
G1 X106.954 Y76.969 E35.55880
G1 X88.969 Y94.954 E36.03538
G1 X89.588 Y94.954 E36.04698
G1 X106.954 Y77.588 E36.50716
G1 X106.954 Y78.206 E36.51876
G1 X90.206 Y94.954 E36.96255
G1 X90.825 Y94.954 E36.97414
G1 X106.954 Y78.825 E37.40153
G1 X106.954 Y79.444 E37.41313
G1 X91.444 Y94.954 E37.82412
G1 X92.063 Y94.954 E37.83572
G1 X106.954 Y80.063 E38.23031
G1 X106.954 Y80.682 E38.24191
G1 X92.682 Y94.954 E38.62011
G1 X93.301 Y94.954 E38.63170
G1 X106.954 Y81.301 E38.99350
G1 X106.954 Y81.919 E39.00510
G1 X93.919 Y94.954 E39.35050
G1 X94.538 Y94.954 E39.36210
G1 X106.954 Y82.538 E39.69111
G1 X106.954 Y83.157 E39.70270
G1 X95.157 Y94.954 E40.01531
G1 X95.776 Y94.954 E40.02691
G1 X106.954 Y83.776 E40.32312
G1 X106.954 Y84.395 E40.33471
G1 X96.395 Y94.954 E40.61453
G1 X97.013 Y94.954 E40.62612
G1 X106.954 Y85.013 E40.88954
G1 X106.954 Y85.632 E40.90113
G1 X97.632 Y94.954 E41.14816
G1 X98.251 Y94.954 E41.15975
G1 X106.954 Y86.251 E41.39037
G1 X106.954 Y86.870 E41.40197
G1 X98.870 Y94.954 E41.61619
G1 X99.489 Y94.954 E41.62779
G1 X106.954 Y87.489 E41.82562
G1 X106.954 Y88.107 E41.83721
G1 X100.107 Y94.954 E42.01864
G1 X100.726 Y94.954 E42.03024
G1 X106.954 Y88.726 E42.19527
G1 X106.954 Y89.345 E42.20686
G1 X101.345 Y94.954 E42.35550
G1 X101.964 Y94.954 E42.36710
G1 X106.954 Y89.964 E42.49933
G1 X106.954 Y90.583 E42.51093
G1 X102.583 Y94.954 E42.62677
G1 X103.201 Y94.954 E42.63837
G1 X106.954 Y91.201 E42.73781
G1 X106.954 Y91.820 E42.74940
G1 X103.820 Y94.954 E42.83245
G1 X104.439 Y94.954 E42.84405
G1 X106.954 Y92.439 E42.91070
G1 X106.954 Y93.058 E42.92229
G1 X105.058 Y94.954 E42.97254
G1 X105.677 Y94.954 E42.98414
G1 X106.954 Y93.677 E43.01799
G1 X106.954 Y94.295 E43.02959
G1 X106.295 Y94.954 E43.04704
G1 X106.914 Y94.954 E43.05864
G1 X106.954 Y94.914 E43.05970
M106 S255
G1 E41.05970 F1680.000
G92 E0
G1 Z0.950 F12000.000
G1 X71.503 Y74.750 F12000.000
G1 E2.00000 F1680.000
G1 X107.250 Y74.750 E2.66980 F1133.568
G1 X107.250 Y95.250 E3.05392
G1 X62.750 Y95.250 E3.88772 F1133.568
G1 X62.750 Y74.750 E4.27184
G1 X71.428 Y74.750 E4.43444
G1 X70.921 Y75.066 F12000.000
G1 X71.250 Y76.296 E4.45829 F1416.960
G1 X73.922 Y77.012 E4.51013
G1 X75.345 Y75.589 E4.54783
G1 X78.017 Y76.305 E4.59967
G1 X78.538 Y78.248 E4.63737
G1 X81.210 Y78.964 E4.68921
G1 X82.633 Y77.542 E4.72691
G1 X85.305 Y78.258 E4.77874
G1 X85.826 Y80.201 E4.81645
G1 X88.498 Y80.917 E4.86828
G1 X89.921 Y79.495 E4.90598
G1 X92.593 Y80.211 E4.95782
G1 X93.114 Y82.154 E4.99552
G1 X95.787 Y82.870 E5.04736
G1 X97.209 Y81.447 E5.08506
G1 X99.882 Y82.163 E5.13690
G1 X100.402 Y84.107 E5.17460
G1 X103.075 Y84.823 E5.22643
G1 X104.497 Y83.400 E5.26413
G1 X106.934 Y84.053 E5.31140
G1 X106.934 Y87.124 E5.36894
G1 X106.155 Y87.903 E5.38959
G1 X103.483 Y87.187 E5.44143
G1 X102.962 Y85.244 E5.47913
G1 X100.290 Y84.528 E5.53097
G1 X98.867 Y85.950 E5.56867
G1 X96.195 Y85.234 E5.62051
G1 X95.674 Y83.291 E5.65821
G1 X93.002 Y82.575 E5.71004
G1 X91.579 Y83.998 E5.74774
G1 X88.906 Y83.282 E5.79958
G1 X88.386 Y81.338 E5.83728
G1 X85.713 Y80.622 E5.88912
G1 X84.291 Y82.045 E5.92682
G1 X81.618 Y81.329 E5.97866
G1 X81.098 Y79.385 E6.01636
G1 X78.425 Y78.669 E6.06819
G1 X77.003 Y80.092 E6.10589
G1 X74.330 Y79.376 E6.15773
G1 X73.810 Y77.432 E6.19543
G1 X71.137 Y76.716 E6.24727
G1 X69.715 Y78.139 E6.28497
G1 X67.042 Y77.423 E6.33681
G1 X66.522 Y75.480 E6.37451
G1 X64.977 Y75.066 E6.40446
G1 X63.547 Y75.066 E6.43126
G1 X63.066 Y75.547 E6.44401
