; generated by Slic3r 1.0.0RC1 on 2014-12-16 at 09:35:57

; layer_height = 0.3
; perimeters = 2
; top_solid_layers = 3
; bottom_solid_layers = 3
; fill_density = 0.5
; perimeter_speed = 30
; infill_speed = 30
; travel_speed = 200
; nozzle_diameter = 0.5
; filament_diameter = 2.98
; extrusion_multiplier = 0.9
; perimeters extrusion width = 0.50mm
; infill extrusion width = 0.70mm
; solid infill extrusion width = 0.70mm
; top infill extrusion width = 0.70mm

G21 ; set units to millimeters
M107
M104 S190 ; set temperature
G28 ; home all axes
G1 Z15 F120 ; lift nozzle
M109 S190 ; wait for temperature to be reached
G90 ; use absolute coordinates
G92 E0
M82 ; use absolute distances for extrusion
G1 F1680.000 E-2.00000
G92 E0
G1 Z0.450 F12000.000
G1 X43.890 Y68.600 F12000.000
G1 E2.00000 F1680.000
G1 X45.010 Y67.990 E2.03703 F900.000
G1 X46.230 Y67.620 E2.07404
G1 X47.500 Y67.500 E2.11108
G1 X122.500 Y67.500 E4.28861
G1 X123.770 Y67.620 E4.32565
G1 X124.990 Y67.990 E4.36266
G1 X126.110 Y68.600 E4.39969
G1 X127.100 Y69.400 E4.43664
G1 X127.900 Y70.390 E4.47360
G1 X128.510 Y71.510 E4.51063
G1 X128.880 Y72.730 E4.54764
G1 X129.000 Y74.000 E4.58468
G1 X129.000 Y96.000 E5.22342
G1 X128.880 Y97.270 E5.26046
G1 X128.510 Y98.490 E5.29747
G1 X127.900 Y99.610 E5.33450
G1 X127.100 Y100.600 E5.37145
G1 X126.110 Y101.400 E5.40841
G1 X124.990 Y102.010 E5.44544
G1 X123.770 Y102.380 E5.48245
G1 X122.500 Y102.500 E5.51949
G1 X47.500 Y102.500 E7.69702
G1 X46.230 Y102.380 E7.73405
G1 X45.010 Y102.010 E7.77107
G1 X43.890 Y101.400 E7.80809
G1 X42.900 Y100.600 E7.84505
G1 X42.100 Y99.610 E7.88200
G1 X41.490 Y98.490 E7.91903
G1 X41.120 Y97.270 E7.95605
G1 X41.000 Y96.000 E7.99308
G1 X41.000 Y74.000 E8.63183
G1 X41.120 Y72.730 E8.66886
G1 X41.490 Y71.510 E8.70588
G1 X42.100 Y70.390 E8.74291
G1 X42.900 Y69.400 E8.77986
G1 X43.832 Y68.647 E8.81464
G1 F1680.000 E6.81464
G92 E0
G1 X48.250 Y95.250 F12000.000
G1 E2.00000 F1680.000
G1 X48.250 Y74.750 E2.59519 F900.000
G1 X121.750 Y74.750 E4.72917
G1 X121.750 Y95.250 E5.32436
G1 X48.325 Y95.250 E7.45616
G1 X47.750 Y95.750 F12000.000
G1 X47.750 Y74.250 E8.08039 F720.000
G1 X122.250 Y74.250 E10.24340
G1 X122.250 Y95.750 E10.86762
G1 X47.825 Y95.750 E13.02846
G1 X48.000 Y95.317 F12000.000
G1 X48.680 Y94.886 F12000.000
G1 X48.614 Y94.820 E13.03203 F1200.000
G1 X48.614 Y93.886 E13.06781
G1 X49.614 Y94.886 E13.12198
G1 X50.547 Y94.886 E13.15776
G1 X48.614 Y92.953 E13.26253
G1 X48.614 Y92.019 E13.29830
G1 X51.481 Y94.886 E13.45367
G1 X52.414 Y94.886 E13.48944
G1 X48.614 Y91.086 E13.69540
G1 X48.614 Y90.153 E13.73118
G1 X53.347 Y94.886 E13.98773
G1 X54.281 Y94.886 E14.02351
G1 X48.614 Y89.219 E14.33066
G1 X48.614 Y88.286 E14.36644
G1 X55.214 Y94.886 E14.72418
G1 X56.148 Y94.886 E14.75996
G1 X48.614 Y87.352 E15.16830
G1 X48.614 Y86.419 E15.20407
G1 X57.081 Y94.886 E15.66301
G1 X58.015 Y94.886 E15.69879
G1 X48.614 Y85.485 E16.20832
G1 X48.614 Y84.552 E16.24409
G1 X58.948 Y94.886 E16.80422
G1 X59.882 Y94.886 E16.84000
G1 X48.614 Y83.618 E17.45072
G1 X48.614 Y82.685 E17.48649
G1 X60.815 Y94.886 E18.14781
G1 X61.748 Y94.886 E18.18359
G1 X48.614 Y81.752 E18.89550
G1 X48.614 Y80.818 E18.93128
G1 X62.682 Y94.886 E19.69378
G1 X63.615 Y94.886 E19.72956
G1 X48.614 Y79.885 E20.54266
G1 X48.614 Y78.951 E20.57844
G1 X64.549 Y94.886 E21.44214
G1 X65.482 Y94.886 E21.47791
G1 X48.614 Y78.018 E22.39221
G1 X48.614 Y77.084 E22.42798
G1 X66.416 Y94.886 E23.39287
G1 X67.349 Y94.886 E23.42865
G1 X48.614 Y76.151 E24.44413
G1 X48.614 Y75.217 E24.47991
G1 X68.283 Y94.886 E25.54599
G1 X69.216 Y94.886 E25.58177
G1 X49.445 Y75.114 E26.65344
G1 X50.378 Y75.114 E26.68921
G1 X70.149 Y94.886 E27.76088
G1 X71.083 Y94.886 E27.79666
G1 X51.311 Y75.114 E28.86833
G1 X52.245 Y75.114 E28.90411
G1 X72.016 Y94.886 E29.97578
G1 X72.950 Y94.886 E30.01156
G1 X53.178 Y75.114 E31.08323
G1 X54.112 Y75.114 E31.11900
G1 X73.883 Y94.886 E32.19067
G1 X74.817 Y94.886 E32.22645
G1 X55.045 Y75.114 E33.29812
G1 X55.979 Y75.114 E33.33390
G1 X75.750 Y94.886 E34.40557
G1 X76.684 Y94.886 E34.44135
G1 X56.912 Y75.114 E35.51302
G1 X57.846 Y75.114 E35.54879
G1 X77.617 Y94.886 E36.62046
G1 X78.550 Y94.886 E36.65624
G1 X58.779 Y75.114 E37.72791
G1 X59.712 Y75.114 E37.76369
G1 X79.484 Y94.886 E38.83536
G1 X80.417 Y94.886 E38.87114
G1 X60.646 Y75.114 E39.94281
G1 X61.579 Y75.114 E39.97858
G1 X81.351 Y94.886 E41.05025
G1 X82.284 Y94.886 E41.08603
G1 X62.513 Y75.114 E42.15770
G1 X63.446 Y75.114 E42.19348
G1 X83.218 Y94.886 E43.26515
G1 X84.151 Y94.886 E43.30093
G1 X64.380 Y75.114 E44.37260
G1 X65.313 Y75.114 E44.40837
G1 X85.085 Y94.886 E45.48004
G1 X86.018 Y94.886 E45.51582
G1 X66.247 Y75.114 E46.58749
G1 X67.180 Y75.114 E46.62327
G1 X86.952 Y94.886 E47.69494
G1 X87.885 Y94.886 E47.73072
G1 X68.113 Y75.114 E48.80239
G1 X69.047 Y75.114 E48.83816
G1 X88.818 Y94.886 E49.90983
G1 X89.752 Y94.886 E49.94561
G1 X69.980 Y75.114 E51.01728
G1 X70.914 Y75.114 E51.05306
G1 X90.685 Y94.886 E52.12473
G1 X91.619 Y94.886 E52.16051
G1 X71.847 Y75.114 E53.23218
G1 X72.781 Y75.114 E53.26795
G1 X92.552 Y94.886 E54.33962
G1 X93.486 Y94.886 E54.37540
G1 X73.714 Y75.114 E55.44707
G1 X74.648 Y75.114 E55.48285
G1 X94.419 Y94.886 E56.55452
G1 X95.353 Y94.886 E56.59030
G1 X75.581 Y75.114 E57.66197
G1 X76.514 Y75.114 E57.69774
G1 X96.286 Y94.886 E58.76941
G1 X97.219 Y94.886 E58.80519
G1 X77.448 Y75.114 E59.87686
G1 X78.381 Y75.114 E59.91264
G1 X98.153 Y94.886 E60.98431
G1 X99.086 Y94.886 E61.02009
G1 X79.315 Y75.114 E62.09176
G1 X80.248 Y75.114 E62.12753
G1 X100.020 Y94.886 E63.19920
G1 X100.953 Y94.886 E63.23498
G1 X81.182 Y75.114 E64.30665
G1 X82.115 Y75.114 E64.34243
G1 X101.887 Y94.886 E65.41410
G1 X102.820 Y94.886 E65.44988
G1 X83.049 Y75.114 E66.52155
G1 X83.982 Y75.114 E66.55732
G1 X103.754 Y94.886 E67.62899
G1 X104.687 Y94.886 E67.66477
G1 X84.915 Y75.114 E68.73644
G1 X85.849 Y75.114 E68.77222
G1 X105.620 Y94.886 E69.84389
G1 X106.554 Y94.886 E69.87967
G1 X86.782 Y75.114 E70.95134
G1 X87.716 Y75.114 E70.98711
G1 X107.487 Y94.886 E72.05878
G1 X108.421 Y94.886 E72.09456
G1 X88.649 Y75.114 E73.16623
G1 X89.583 Y75.114 E73.20201
G1 X109.354 Y94.886 E74.27368
G1 X110.288 Y94.886 E74.30946
G1 X90.516 Y75.114 E75.38113
G1 X91.450 Y75.114 E75.41690
G1 X111.221 Y94.886 E76.48857
G1 X112.155 Y94.886 E76.52435
G1 X92.383 Y75.114 E77.59602
G1 X93.316 Y75.114 E77.63180
G1 X113.088 Y94.886 E78.70347
G1 X114.021 Y94.886 E78.73925
G1 X94.250 Y75.114 E79.81092
G1 X95.183 Y75.114 E79.84669
G1 X114.955 Y94.886 E80.91836
G1 X115.888 Y94.886 E80.95414
G1 X96.117 Y75.114 E82.02581
G1 X97.050 Y75.114 E82.06159
G1 X116.822 Y94.886 E83.13326
G1 X117.755 Y94.886 E83.16903
G1 X97.984 Y75.114 E84.24071
G1 X98.917 Y75.114 E84.27648
G1 X118.689 Y94.886 E85.34815
G1 X119.622 Y94.886 E85.38393
G1 X99.851 Y75.114 E86.45560
G1 X100.784 Y75.114 E86.49138
G1 X120.556 Y94.886 E87.56305
G1 X121.386 Y94.783 E87.59511
G1 X101.717 Y75.114 E88.66119
G1 X102.651 Y75.114 E88.69697
G1 X121.386 Y93.849 E89.71245
G1 X121.386 Y92.916 E89.74822
G1 X103.584 Y75.114 E90.71311
G1 X104.518 Y75.114 E90.74888
G1 X121.386 Y91.982 E91.66317
G1 X121.386 Y91.049 E91.69895
G1 X105.451 Y75.114 E92.56265
G1 X106.385 Y75.114 E92.59842
G1 X121.386 Y90.115 E93.41152
G1 X121.386 Y89.182 E93.44730
G1 X107.318 Y75.114 E94.20980
G1 X108.252 Y75.114 E94.24558
G1 X121.386 Y88.248 E94.95749
G1 X121.386 Y87.315 E94.99326
G1 X109.185 Y75.114 E95.65458
G1 X110.118 Y75.114 E95.69035
G1 X121.386 Y86.382 E96.30107
G1 X121.386 Y85.448 E96.33685
G1 X111.052 Y75.114 E96.89697
G1 X111.985 Y75.114 E96.93275
G1 X121.386 Y84.515 E97.44227
G1 X121.386 Y83.581 E97.47805
G1 X112.919 Y75.114 E97.93698
G1 X113.852 Y75.114 E97.97276
G1 X121.386 Y82.648 E98.38109
G1 X121.386 Y81.714 E98.41687
G1 X114.786 Y75.114 E98.77461
G1 X115.719 Y75.114 E98.81039
G1 X121.386 Y80.781 E99.11753
G1 X121.386 Y79.847 E99.15331
G1 X116.653 Y75.114 E99.40986
G1 X117.586 Y75.114 E99.44564
G1 X121.386 Y78.914 E99.65159
G1 X121.386 Y77.981 E99.68737
G1 X118.519 Y75.114 E99.84273
G1 X119.453 Y75.114 E99.87851
G1 X121.386 Y77.047 E99.98327
G1 X121.386 Y76.114 E100.01905
G1 X120.386 Y75.114 E100.07322
G1 X121.320 Y75.114 E100.10899
G1 X121.386 Y75.180 E100.11257
M104 S185 ; set temperature
G1 F1680.000 E98.11257
G92 E0
G1 Z0.750 F12000.000
G1 X48.250 Y95.250 F12000.000
G1 E2.00000 F1680.000
G1 X48.250 Y74.750 E2.39679 F1800
G1 X121.750 Y74.750 E3.81945
G1 X121.750 Y95.250 E4.21624
G1 X48.325 Y95.250 E5.63744
G1 X47.750 Y95.750 F12000.000
G1 X47.750 Y74.250 E6.05359 F1440
G1 X122.250 Y74.250 E7.49560
G1 X122.250 Y95.750 E7.91175
G1 X47.825 Y95.750 E9.35230
G1 X48.000 Y95.317 F12000.000
G1 X48.680 Y75.114 F12000.000
G1 X48.614 Y75.180 E9.35469 F2400
G1 X48.614 Y76.114 E9.37854
G1 X49.614 Y75.114 E9.41465
G1 X50.547 Y75.114 E9.43850
G1 X48.614 Y77.047 E9.50835
G1 X48.614 Y77.981 E9.53220
G1 X51.481 Y75.114 E9.63577
G1 X52.414 Y75.114 E9.65962
G1 X48.614 Y78.914 E9.79692
G1 X48.614 Y79.847 E9.82078
G1 X53.347 Y75.114 E9.99181
G1 X54.281 Y75.114 E10.01566
G1 X48.614 Y80.781 E10.22042
G1 X48.614 Y81.714 E10.24428
G1 X55.214 Y75.114 E10.48277
G1 X56.148 Y75.114 E10.50662
G1 X48.614 Y82.648 E10.77885
G1 X48.614 Y83.581 E10.80270
G1 X57.081 Y75.114 E11.10865
G1 X58.015 Y75.114 E11.13250
G1 X48.614 Y84.515 E11.47219
G1 X48.614 Y85.448 E11.49604
G1 X58.948 Y75.114 E11.86945
G1 X59.882 Y75.114 E11.89330
G1 X48.614 Y86.382 E12.30045
G1 X48.614 Y87.315 E12.32430
G1 X60.815 Y75.114 E12.76518
G1 X61.748 Y75.114 E12.78903
G1 X48.614 Y88.248 E13.26363
G1 X48.614 Y89.182 E13.28748
G1 X62.682 Y75.114 E13.79582
G1 X63.615 Y75.114 E13.81967
G1 X48.614 Y90.115 E14.36174
G1 X48.614 Y91.049 E14.38559
G1 X64.549 Y75.114 E14.96138
G1 X65.482 Y75.114 E14.98524
G1 X48.614 Y91.982 E15.59476
G1 X48.614 Y92.916 E15.61861
G1 X66.416 Y75.114 E16.26187
G1 X67.349 Y75.114 E16.28572
G1 X48.614 Y93.849 E16.96271
G1 X48.614 Y94.783 E16.98656
G1 X68.283 Y75.114 E17.69728
G1 X69.216 Y75.114 E17.72113
G1 X49.444 Y94.886 E18.43557
G1 X50.378 Y94.886 E18.45943
G1 X70.149 Y75.114 E19.17387
G1 X71.083 Y75.114 E19.19772
G1 X51.311 Y94.886 E19.91217
G1 X52.245 Y94.886 E19.93602
G1 X72.016 Y75.114 E20.65047
G1 X72.950 Y75.114 E20.67432
G1 X53.178 Y94.886 E21.38877
G1 X54.112 Y94.886 E21.41262
G1 X73.883 Y75.114 E22.12707
G1 X74.817 Y75.114 E22.15092
G1 X55.045 Y94.886 E22.86537
G1 X55.979 Y94.886 E22.88922
G1 X75.750 Y75.114 E23.60366
G1 X76.684 Y75.114 E23.62751
G1 X56.912 Y94.886 E24.34196
G1 X57.845 Y94.886 E24.36581
G1 X77.617 Y75.114 E25.08026
G1 X78.550 Y75.114 E25.10411
G1 X58.779 Y94.886 E25.81856
G1 X59.712 Y94.886 E25.84241
G1 X79.484 Y75.114 E26.55686
G1 X80.417 Y75.114 E26.58071
G1 X60.646 Y94.886 E27.29516
G1 X61.579 Y94.886 E27.31901
G1 X81.351 Y75.114 E28.03345
G1 X82.284 Y75.114 E28.05730
G1 X62.513 Y94.886 E28.77175
G1 X63.446 Y94.886 E28.79560
G1 X83.218 Y75.114 E29.51005
G1 X84.151 Y75.114 E29.53390
G1 X64.380 Y94.886 E30.24835
G1 X65.313 Y94.886 E30.27220
G1 X85.085 Y75.114 E30.98665
G1 X86.018 Y75.114 E31.01050
G1 X66.246 Y94.886 E31.72495
G1 X67.180 Y94.886 E31.74880
G1 X86.951 Y75.114 E32.46324
G1 X87.885 Y75.114 E32.48709
G1 X68.113 Y94.886 E33.20154
G1 X69.047 Y94.886 E33.22539
G1 X88.818 Y75.114 E33.93984
G1 X89.752 Y75.114 E33.96369
G1 X69.980 Y94.886 E34.67814
G1 X70.914 Y94.886 E34.70199
G1 X90.685 Y75.114 E35.41644
G1 X91.619 Y75.114 E35.44029
G1 X71.847 Y94.886 E36.15474
G1 X72.781 Y94.886 E36.17859
G1 X92.552 Y75.114 E36.89303
G1 X93.486 Y75.114 E36.91688
G1 X73.714 Y94.886 E37.63133
G1 X74.647 Y94.886 E37.65518
G1 X94.419 Y75.114 E38.36963
G1 X95.352 Y75.114 E38.39348
G1 X75.581 Y94.886 E39.10793
G1 X76.514 Y94.886 E39.13178
G1 X96.286 Y75.114 E39.84623
G1 X97.219 Y75.114 E39.87008
G1 X77.448 Y94.886 E40.58453
G1 X78.381 Y94.886 E40.60838
G1 X98.153 Y75.114 E41.32282
G1 X99.086 Y75.114 E41.34667
G1 X79.315 Y94.886 E42.06112
G1 X80.248 Y94.886 E42.08497
G1 X100.020 Y75.114 E42.79942
G1 X100.953 Y75.114 E42.82327
G1 X81.182 Y94.886 E43.53772
G1 X82.115 Y94.886 E43.56157
G1 X101.887 Y75.114 E44.27602
G1 X102.820 Y75.114 E44.29987
G1 X83.048 Y94.886 E45.01432
G1 X83.982 Y94.886 E45.03817
G1 X103.753 Y75.114 E45.75261
G1 X104.687 Y75.114 E45.77646
G1 X84.915 Y94.886 E46.49091
G1 X85.849 Y94.886 E46.51476
G1 X105.620 Y75.114 E47.22921
G1 X106.554 Y75.114 E47.25306
G1 X86.782 Y94.886 E47.96751
G1 X87.716 Y94.886 E47.99136
G1 X107.487 Y75.114 E48.70581
G1 X108.421 Y75.114 E48.72966
G1 X88.649 Y94.886 E49.44410
G1 X89.583 Y94.886 E49.46796
G1 X109.354 Y75.114 E50.18240
G1 X110.288 Y75.114 E50.20625
G1 X90.516 Y94.886 E50.92070
G1 X91.450 Y94.886 E50.94455
G1 X111.221 Y75.114 E51.65900
G1 X112.154 Y75.114 E51.68285
G1 X92.383 Y94.886 E52.39730
G1 X93.316 Y94.886 E52.42115
G1 X113.088 Y75.114 E53.13560
G1 X114.021 Y75.114 E53.15945
G1 X94.250 Y94.886 E53.87389
G1 X95.183 Y94.886 E53.89775
G1 X114.955 Y75.114 E54.61219
G1 X115.888 Y75.114 E54.63604
G1 X96.117 Y94.886 E55.35049
G1 X97.050 Y94.886 E55.37434
G1 X116.822 Y75.114 E56.08879
G1 X117.755 Y75.114 E56.11264
G1 X97.984 Y94.886 E56.82709
G1 X98.917 Y94.886 E56.85094
G1 X118.689 Y75.114 E57.56539
G1 X119.622 Y75.114 E57.58924
G1 X99.851 Y94.886 E58.30368
G1 X100.784 Y94.886 E58.32754
G1 X120.555 Y75.114 E59.04198
G1 X121.386 Y75.217 E59.06336
G1 X101.717 Y94.886 E59.77408
G1 X102.651 Y94.886 E59.79793
G1 X121.386 Y76.151 E60.47492
G1 X121.386 Y77.084 E60.49877
G1 X103.584 Y94.886 E61.14203
G1 X104.518 Y94.886 E61.16588
G1 X121.386 Y78.018 E61.77541
G1 X121.386 Y78.951 E61.79926
G1 X105.451 Y94.886 E62.37506
G1 X106.385 Y94.886 E62.39891
G1 X121.386 Y79.885 E62.94098
G1 X121.386 Y80.818 E62.96483
G1 X107.318 Y94.886 E63.47317
G1 X108.252 Y94.886 E63.49702
G1 X121.386 Y81.752 E63.97163
G1 X121.386 Y82.685 E63.99548
G1 X109.185 Y94.886 E64.43636
G1 X110.118 Y94.886 E64.46021
G1 X121.386 Y83.618 E64.86736
G1 X121.386 Y84.552 E64.89121
G1 X111.052 Y94.886 E65.26463
G1 X111.985 Y94.886 E65.28848
G1 X121.386 Y85.485 E65.62816
G1 X121.386 Y86.419 E65.65201
G1 X112.919 Y94.886 E65.95797
G1 X113.852 Y94.886 E65.98182
G1 X121.386 Y87.352 E66.25405
G1 X121.386 Y88.286 E66.27790
G1 X114.786 Y94.886 E66.51640
G1 X115.719 Y94.886 E66.54025
G1 X121.386 Y89.219 E66.74501
G1 X121.386 Y90.153 E66.76886
G1 X116.653 Y94.886 E66.93990
G1 X117.586 Y94.886 E66.96375
G1 X121.386 Y91.086 E67.10106
G1 X121.386 Y92.019 E67.12491
G1 X118.519 Y94.886 E67.22848
G1 X119.453 Y94.886 E67.25234
G1 X121.386 Y92.953 E67.32218
G1 X121.386 Y93.886 E67.34603
G1 X120.386 Y94.886 E67.38215
G1 X121.320 Y94.886 E67.40600
G1 X121.386 Y94.820 E67.40838
G1 F1680.000 E65.40838
G92 E0
G1 Z1.050 F12000.000
G1 X48.250 Y95.250 F12000.000
G1 E2.00000 F1680.000
G1 X48.250 Y74.750 E2.39679 F1800
G1 X121.750 Y74.750 E3.81945
G1 X121.750 Y95.250 E4.21624
G1 X48.325 Y95.250 E5.63744
G1 X47.750 Y95.750 F12000.000
G1 X47.750 Y74.250 E6.05359 F1440
G1 X122.250 Y74.250 E7.49560
G1 X122.250 Y95.750 E7.91175
G1 X47.825 Y95.750 E9.35230
G1 X48.000 Y95.317 F12000.000
G1 X48.680 Y94.886 F12000.000
G1 X48.614 Y94.820 E9.35469 F2400
G1 X48.614 Y93.886 E9.37854
G1 X49.614 Y94.886 E9.41466
G1 X50.547 Y94.886 E9.43851
G1 X48.614 Y92.953 E9.50835
G1 X48.614 Y92.019 E9.53220
G1 X51.481 Y94.886 E9.63578
G1 X52.414 Y94.886 E9.65963
G1 X48.614 Y91.086 E9.79694
G1 X48.614 Y90.153 E9.82079
G1 X53.347 Y94.886 E9.99182
G1 X54.281 Y94.886 E10.01568
G1 X48.614 Y89.219 E10.22044
G1 X48.614 Y88.286 E10.24429
G1 X55.214 Y94.886 E10.48279
G1 X56.148 Y94.886 E10.50664
G1 X48.614 Y87.352 E10.77887
G1 X48.614 Y86.419 E10.80272
G1 X57.081 Y94.886 E11.10868
G1 X58.015 Y94.886 E11.13253
G1 X48.614 Y85.485 E11.47221
G1 X48.614 Y84.552 E11.49606
G1 X58.948 Y94.886 E11.86948
G1 X59.882 Y94.886 E11.89333
G1 X48.614 Y83.618 E12.30048
G1 X48.614 Y82.685 E12.32433
G1 X60.815 Y94.886 E12.76521
G1 X61.748 Y94.886 E12.78906
G1 X48.614 Y81.752 E13.26367
G1 X48.614 Y80.818 E13.28752
G1 X62.682 Y94.886 E13.79586
G1 X63.615 Y94.886 E13.81971
G1 X48.614 Y79.885 E14.36178
G1 X48.614 Y78.951 E14.38563
G1 X64.549 Y94.886 E14.96143
G1 X65.482 Y94.886 E14.98528
G1 X48.614 Y78.018 E15.59481
G1 X48.614 Y77.084 E15.61866
G1 X66.416 Y94.886 E16.26192
