; generated by Slic3r 1.1.7 on 2014-12-01 at 13:40:48

; perimeters extrusion width = 0.50mm
; infill extrusion width = 0.50mm
; solid infill extrusion width = 0.50mm
; top infill extrusion width = 0.50mm

G21 ; set units to millimeters
M107
M104 S190 ; set temperature
G28 ; home all axes
G1 Z15 F120 ; lift nozzle
M109 S190 ; wait for temperature to be reached
G90 ; use absolute coordinates
G92 E0
M82 ; use absolute distances for extrusion
G1 F1680.000 E-2.00000
G92 E0
G1 Z0.260 F12000.000
G1 X57.766 Y57.450 F12000.000
G1 E2.00000 F1680.000
G1 X58.776 Y56.541 E2.04074 F1200.000
G1 X60.742 Y55.113 E2.11359
G1 X61.919 Y54.433 E2.15432
G1 X64.139 Y53.445 E2.22717
G1 X65.431 Y53.025 E2.26790
G1 X67.808 Y52.519 E2.34075
G1 X69.160 Y52.377 E2.38149
G1 X100.840 Y52.377 E3.33115
G1 X102.192 Y52.519 E3.37188
G1 X104.569 Y53.025 E3.44474 F1200.000
G1 X105.861 Y53.445 E3.48547
G1 X108.081 Y54.433 E3.55832
G1 X109.258 Y55.113 E3.59905
G1 X111.224 Y56.541 E3.67190
G1 X112.234 Y57.450 E3.71264
G1 X113.860 Y59.256 E3.78549
G1 X114.659 Y60.356 E3.82622
G1 X115.874 Y62.460 E3.89907
G1 X116.427 Y63.702 E3.93981
G1 X117.178 Y66.013 E4.01266
G1 X117.460 Y67.342 E4.05340
G1 X117.750 Y70.439 E4.14662
G1 X117.714 Y100.241 E5.03997
G1 X117.460 Y102.658 E5.11283
G1 X117.178 Y103.987 E5.15356
G1 X116.427 Y106.298 E5.22642
G1 X115.874 Y107.540 E5.26715
G1 X114.659 Y109.644 E5.34000
G1 X113.860 Y110.744 E5.38073
G1 X112.234 Y112.550 E5.45359
G1 X111.224 Y113.459 E5.49432
G1 X109.258 Y114.887 E5.56717
G1 X108.081 Y115.567 E5.60790
G1 X105.861 Y116.555 E5.68075
G1 X104.569 Y116.975 E5.72149
G1 X102.192 Y117.481 E5.79434
G1 X100.840 Y117.623 E5.83507
G1 X69.160 Y117.623 E6.78473
G1 X67.808 Y117.481 E6.82547
G1 X65.431 Y116.975 E6.89832
G1 X64.139 Y116.555 E6.93905
G1 X61.919 Y115.567 E7.01191
G1 X60.742 Y114.887 E7.05264
G1 X58.776 Y113.459 E7.12549
G1 X57.766 Y112.550 E7.16622
G1 X56.140 Y110.744 E7.23908
G1 X55.341 Y109.644 E7.27981
G1 X54.126 Y107.540 E7.35266
G1 X53.573 Y106.298 E7.39340
G1 X52.822 Y103.987 E7.46625
G1 X52.540 Y102.658 E7.50698
G1 X52.250 Y99.561 E7.60020
G1 X52.286 Y69.759 E8.49356
G1 X52.540 Y67.342 E8.56641
G1 X52.822 Y66.013 E8.60715
G1 X53.573 Y63.702 E8.68000
G1 X54.126 Y62.460 E8.72074
G1 X55.341 Y60.356 E8.79359
G1 X56.140 Y59.256 E8.83432
G1 X57.716 Y57.506 E8.90492
G1 F1680.000 E6.90492
G92 E0
G1 X77.985 Y108.014 F12000.000
G1 E2.00000 F1680.000
G1 X76.062 Y109.411 E2.07127 F720.000
G1 X73.758 Y110.437 E2.14687
G1 X73.758 Y110.406 E2.14779
G1 X71.564 Y110.873 E2.21503
G1 X69.186 Y110.873 E2.28631
G1 X66.860 Y110.378 E2.35758
G1 X64.688 Y109.411 E2.42886
G1 X62.765 Y108.014 E2.50013
G1 X61.174 Y106.247 E2.57141
G1 X59.985 Y104.187 E2.64269
G1 X59.250 Y101.926 E2.71396
G1 X59.001 Y99.561 E2.78524
G1 X59.250 Y97.197 E2.85651
G1 X59.985 Y94.935 E2.92779
G1 X61.174 Y92.876 E2.99907
G1 X62.765 Y91.109 E3.07034
G1 X64.688 Y89.712 E3.14162
G1 X66.860 Y88.744 E3.21289
G1 X69.186 Y88.250 E3.28417
G1 X71.564 Y88.250 E3.35544
G1 X71.724 Y88.284 E3.36036
G1 X73.890 Y88.744 E3.42672 F720.000
G1 X76.062 Y89.712 E3.49800
G1 X77.985 Y91.109 E3.56927
G1 X79.576 Y92.876 E3.64055
G1 X80.765 Y94.935 E3.71182
G1 X81.500 Y97.197 E3.78310
G1 X81.749 Y99.561 E3.85438
G1 X81.500 Y101.926 E3.92565
G1 X80.765 Y104.187 E3.99693
G1 X79.576 Y106.247 E4.06820
G1 X78.036 Y107.958 E4.13723
G1 X66.599 Y109.887 F12000.000
G1 X60.078 Y103.366 E4.41369 F1200.000
G1 X59.730 Y102.294 E4.44745
G1 X67.626 Y110.191 E4.78220
G1 X68.544 Y110.386 E4.81035
G1 X59.537 Y101.378 E5.19221
G1 X59.452 Y100.570 E5.21657
G1 X69.412 Y110.530 E5.63880
G1 X70.135 Y110.530 E5.66048
G1 X59.367 Y99.762 E6.11697
G1 X59.397 Y99.070 E6.13775
G1 X70.858 Y110.530 E6.62360
G1 X71.572 Y110.521 E6.64500
G1 X59.466 Y98.415 E7.15819
G1 X59.535 Y97.761 E7.17791
G1 X72.168 Y110.394 E7.71348
G1 X72.765 Y110.267 E7.73175
G1 X59.631 Y97.133 E8.28854
G1 X59.808 Y96.587 E8.30575
G1 X73.361 Y110.140 E8.88030
G1 X73.929 Y109.986 E8.89796
G1 X59.985 Y96.042 E9.48909
G1 X60.163 Y95.496 E9.50629
G1 X74.430 Y109.763 E10.11112
G1 X74.930 Y109.540 E10.12754
G1 X60.360 Y94.970 E10.74521
G1 X60.625 Y94.512 E10.76108
G1 X75.430 Y109.317 E11.38874
G1 X75.924 Y109.088 E11.40506
G1 X60.889 Y94.053 E12.04242
G1 X61.154 Y93.595 E12.05829
G1 X76.343 Y108.784 E12.70219
G1 X76.762 Y108.479 E12.71771
G1 X61.419 Y93.136 E13.36815
G1 X61.752 Y92.746 E13.38353
G1 X77.181 Y108.175 E14.03761
G1 X77.600 Y107.871 E14.05313
G1 X62.094 Y92.365 E14.71045
G1 X62.437 Y91.985 E14.72579
G1 X77.968 Y107.516 E15.38421
G1 X78.313 Y107.138 E15.39956
G1 X62.782 Y91.607 E16.05798
G1 X63.150 Y91.252 E16.07331
G1 X78.656 Y106.757 E16.73062
G1 X78.998 Y106.377 E16.74597
G1 X63.569 Y90.948 E17.40006
G1 X63.988 Y90.643 E17.41557
G1 X79.331 Y105.986 E18.06601
G1 X79.596 Y105.528 E18.08188
G1 X64.407 Y90.339 E18.72578
G1 X64.826 Y90.035 E18.74130
G1 X79.861 Y105.069 E19.37867
G1 X80.125 Y104.611 E19.39454
G1 X65.320 Y89.805 E20.02220
G1 X65.820 Y89.583 E20.03862
G1 X80.390 Y104.153 E20.65628
G1 X80.587 Y103.627 E20.67312
G1 X66.320 Y89.360 E21.27794
G1 X66.821 Y89.137 E21.29436
G1 X80.765 Y103.081 E21.88549
G1 X80.942 Y102.535 E21.90270
G1 X67.389 Y88.982 E22.47725
G1 X67.985 Y88.855 E22.49553
G1 X81.119 Y101.989 E23.05232
G1 X81.215 Y101.362 E23.07135
G1 X68.582 Y88.729 E23.60691
G1 X69.178 Y88.602 E23.62519
G1 X81.284 Y100.707 E24.13838
G1 X81.353 Y100.053 E24.15811
G1 X69.892 Y88.592 E24.64396
G1 X70.615 Y88.592 E24.66563
G1 X81.383 Y99.360 E25.12212
G1 X81.298 Y98.552 E25.14648
G1 X71.338 Y88.592 E25.56871
G1 X72.206 Y88.737 E25.59506
G1 X81.213 Y97.744 E25.97693
G1 X81.020 Y96.828 E26.00499
G1 X73.124 Y88.932 E26.33975
G1 X74.151 Y89.236 E26.37185
G1 X80.672 Y95.757 E26.64831
G1 X80.091 Y94.453 F12000.000
G1 X75.454 Y89.816 E26.84488 F1200.000
G1 X77.651 Y91.290 F12000.000
G1 X78.012 Y91.650 E26.86017 F1200.000
G1 X60.659 Y104.670 F12000.000
G1 X65.296 Y109.307 E27.05675 F1200.000
G1 X63.099 Y107.833 F12000.000
G1 X62.738 Y107.472 E27.07203 F1200.000
G1 F1680.000 E25.07203
G92 E0
G1 X77.985 Y78.891 F12000.000
G1 E2.00000 F1680.000
G1 X76.062 Y80.288 E2.07127 F720.000
G1 X73.758 Y81.314 E2.14687
G1 X73.758 Y81.284 E2.14779
G1 X71.564 Y81.750 E2.21503
G1 X69.186 Y81.750 E2.28631
G1 X66.860 Y81.256 E2.35758
G1 X64.688 Y80.288 E2.42886
G1 X62.765 Y78.891 E2.50013
G1 X61.174 Y77.124 E2.57141
G1 X59.985 Y75.065 E2.64269
G1 X59.250 Y72.803 E2.71396
G1 X59.001 Y70.439 E2.78524
G1 X59.250 Y68.074 E2.85651
G1 X59.985 Y65.813 E2.92779
G1 X61.174 Y63.753 E2.99907
G1 X62.765 Y61.986 E3.07034
G1 X64.688 Y60.589 E3.14162
G1 X66.860 Y59.622 E3.21289
G1 X69.186 Y59.127 E3.28417
G1 X71.564 Y59.127 E3.35544
G1 X71.724 Y59.161 E3.36036
G1 X73.890 Y59.622 E3.42672 F720.000
G1 X76.062 Y60.589 E3.49800
G1 X77.985 Y61.986 E3.56927
G1 X79.576 Y63.753 E3.64055
G1 X80.765 Y65.813 E3.71182
G1 X81.500 Y68.074 E3.78310
G1 X81.749 Y70.439 E3.85438
G1 X81.500 Y72.803 E3.92565
G1 X80.765 Y75.065 E3.99693
G1 X79.576 Y77.124 E4.06820
G1 X78.036 Y78.835 E4.13723
G1 X66.599 Y80.764 F12000.000
G1 X60.078 Y74.243 E4.41369 F1200.000
G1 X59.730 Y73.172 E4.44745
G1 X67.626 Y81.068 E4.78220
G1 X68.544 Y81.263 E4.81035
G1 X59.537 Y72.256 E5.19221
G1 X59.452 Y71.448 E5.21657
G1 X69.412 Y81.408 E5.63880
G1 X70.135 Y81.408 E5.66048
G1 X59.367 Y70.640 E6.11697
G1 X59.397 Y69.947 E6.13775
G1 X70.858 Y81.408 E6.62360
G1 X71.572 Y81.398 E6.64500
G1 X59.466 Y69.293 E7.15819
G1 X59.535 Y68.638 E7.17791
G1 X72.168 Y81.271 E7.71348
G1 X72.765 Y81.145 E7.73175
G1 X59.631 Y68.011 E8.28854
G1 X59.808 Y67.465 E8.30575
G1 X73.361 Y81.018 E8.88030
G1 X73.929 Y80.863 E8.89796
G1 X59.985 Y66.919 E9.48909
G1 X60.163 Y66.373 E9.50629
G1 X74.430 Y80.640 E10.11112
G1 X74.930 Y80.417 E10.12754
G1 X60.360 Y65.847 E10.74521
G1 X60.625 Y65.389 E10.76108
G1 X75.430 Y80.195 E11.38874
G1 X75.924 Y79.965 E11.40506
G1 X60.889 Y64.931 E12.04242
G1 X61.154 Y64.472 E12.05829
G1 X76.343 Y79.661 E12.70219
G1 X76.762 Y79.357 E12.71771
G1 X61.419 Y64.014 E13.36815
G1 X61.752 Y63.623 E13.38353
G1 X77.181 Y79.052 E14.03761
G1 X77.600 Y78.748 E14.05313
G1 X62.094 Y63.243 E14.71045
G1 X62.437 Y62.862 E14.72579
G1 X77.968 Y78.393 E15.38421
G1 X78.313 Y78.015 E15.39956
G1 X62.782 Y62.484 E16.05798
G1 X63.150 Y62.129 E16.07331
G1 X78.656 Y77.635 E16.73062
G1 X78.998 Y77.254 E16.74597
G1 X63.569 Y61.825 E17.40006
G1 X63.988 Y61.521 E17.41557
G1 X79.331 Y76.864 E18.06601
G1 X79.596 Y76.405 E18.08188
G1 X64.407 Y61.216 E18.72578
G1 X64.826 Y60.912 E18.74130
G1 X79.861 Y75.947 E19.37867
G1 X80.125 Y75.488 E19.39454
G1 X65.320 Y60.683 E20.02220
G1 X65.820 Y60.460 E20.03862
G1 X80.390 Y75.030 E20.65628
G1 X80.587 Y74.504 E20.67312
G1 X66.320 Y60.237 E21.27794
G1 X66.821 Y60.014 E21.29436
G1 X80.765 Y73.958 E21.88549
G1 X80.942 Y73.413 E21.90270
G1 X67.389 Y59.860 E22.47725
G1 X67.985 Y59.733 E22.49553
G1 X81.119 Y72.867 E23.05232
G1 X81.215 Y72.239 E23.07135
G1 X68.582 Y59.606 E23.60691
G1 X69.178 Y59.479 E23.62519
G1 X81.284 Y71.585 E24.13838
G1 X81.353 Y70.930 E24.15811
G1 X69.892 Y59.470 E24.64396
G1 X70.615 Y59.470 E24.66563
G1 X81.383 Y70.238 E25.12212
G1 X81.298 Y69.430 E25.14648
G1 X71.338 Y59.470 E25.56871
G1 X72.206 Y59.614 E25.59506
G1 X81.213 Y68.622 E25.97693
G1 X81.020 Y67.706 E26.00499
G1 X73.124 Y59.809 E26.33975
G1 X74.151 Y60.113 E26.37185
G1 X80.672 Y66.634 E26.64831
G1 X80.091 Y65.330 F12000.000
G1 X75.454 Y60.693 E26.84488 F1200.000
G1 X77.651 Y62.167 F12000.000
G1 X78.012 Y62.528 E26.86017 F1200.000
G1 X60.659 Y75.547 F12000.000
G1 X65.296 Y80.184 E27.05675 F1200.000
G1 X63.099 Y78.710 F12000.000
G1 X62.738 Y78.350 E27.07203 F1200.000
G1 F1680.000 E25.07203
G92 E0
G1 X107.235 Y78.891 F12000.000
G1 E2.00000 F1680.000
G1 X105.312 Y80.288 E2.07127 F720.000
G1 X103.008 Y81.314 E2.14687
G1 X103.008 Y81.284 E2.14779
G1 X100.814 Y81.750 E2.21503
G1 X98.436 Y81.750 E2.28631
G1 X96.110 Y81.256 E2.35758
G1 X93.938 Y80.288 E2.42886
G1 X92.015 Y78.891 E2.50013
G1 X90.424 Y77.124 E2.57141
G1 X89.235 Y75.065 E2.64269
G1 X88.500 Y72.803 E2.71396
G1 X88.251 Y70.439 E2.78524
G1 X88.500 Y68.074 E2.85651
G1 X89.235 Y65.813 E2.92779
G1 X90.424 Y63.753 E2.99907
G1 X92.015 Y61.986 E3.07034
G1 X93.938 Y60.589 E3.14162
G1 X96.110 Y59.622 E3.21289
G1 X98.436 Y59.127 E3.28417
G1 X100.814 Y59.127 E3.35544
G1 X100.974 Y59.161 E3.36036
G1 X103.140 Y59.622 E3.42672 F720.000
G1 X105.312 Y60.589 E3.49800
G1 X107.235 Y61.986 E3.56927
G1 X108.826 Y63.753 E3.64055
G1 X110.015 Y65.813 E3.71182
G1 X110.750 Y68.074 E3.78310
G1 X110.999 Y70.439 E3.85438
G1 X110.750 Y72.803 E3.92565
G1 X110.015 Y75.065 E3.99693
G1 X108.826 Y77.124 E4.06820
G1 X107.286 Y78.835 E4.13723
G1 X95.849 Y80.764 F12000.000
G1 X89.328 Y74.243 E4.41369 F1200.000
G1 X88.980 Y73.172 E4.44745
G1 X96.876 Y81.068 E4.78220
G1 X97.794 Y81.263 E4.81035
G1 X88.787 Y72.256 E5.19221
G1 X88.702 Y71.448 E5.21657
G1 X98.662 Y81.408 E5.63880
G1 X99.385 Y81.408 E5.66048
G1 X88.617 Y70.640 E6.11697
G1 X88.647 Y69.947 E6.13775
G1 X100.108 Y81.408 E6.62360
G1 X100.822 Y81.398 E6.64500
G1 X88.716 Y69.293 E7.15819
G1 X88.785 Y68.638 E7.17791
G1 X101.418 Y81.271 E7.71348
G1 X102.015 Y81.145 E7.73175
G1 X88.881 Y68.011 E8.28854
G1 X89.058 Y67.465 E8.30575
G1 X102.611 Y81.018 E8.88030
G1 X103.179 Y80.863 E8.89796
G1 X89.235 Y66.919 E9.48909
G1 X89.413 Y66.373 E9.50629
G1 X103.680 Y80.640 E10.11112
G1 X104.180 Y80.417 E10.12754
G1 X89.610 Y65.847 E10.74521
G1 X89.875 Y65.389 E10.76108
G1 X104.680 Y80.195 E11.38874
G1 X105.174 Y79.965 E11.40506
G1 X90.139 Y64.931 E12.04242
G1 X90.404 Y64.472 E12.05829
G1 X105.593 Y79.661 E12.70219
G1 X106.012 Y79.357 E12.71771
G1 X90.669 Y64.014 E13.36815
G1 X91.002 Y63.623 E13.38353
G1 X106.431 Y79.052 E14.03761
G1 X106.850 Y78.748 E14.05313
G1 X91.344 Y63.243 E14.71045
G1 X91.687 Y62.862 E14.72579
G1 X107.218 Y78.393 E15.38421
G1 X107.563 Y78.015 E15.39956
G1 X92.032 Y62.484 E16.05798
G1 X92.400 Y62.129 E16.07331
G1 X107.906 Y77.635 E16.73062
G1 X108.248 Y77.254 E16.74597
G1 X92.819 Y61.825 E17.40006
G1 X93.238 Y61.521 E17.41557
G1 X108.581 Y76.864 E18.06601
G1 X108.846 Y76.405 E18.08188
G1 X93.657 Y61.216 E18.72578
G1 X94.076 Y60.912 E18.74130
G1 X109.111 Y75.947 E19.37867
G1 X109.375 Y75.488 E19.39454
G1 X94.570 Y60.683 E20.02220
G1 X95.070 Y60.460 E20.03862
G1 X109.640 Y75.030 E20.65628
G1 X109.837 Y74.504 E20.67312
G1 X95.570 Y60.237 E21.27794
G1 X96.071 Y60.014 E21.29436
G1 X110.015 Y73.958 E21.88549
G1 X110.192 Y73.413 E21.90270
G1 X96.639 Y59.860 E22.47725
G1 X97.235 Y59.733 E22.49553
G1 X110.369 Y72.867 E23.05232
G1 X110.465 Y72.239 E23.07135
G1 X97.832 Y59.606 E23.60691
G1 X98.428 Y59.479 E23.62519
G1 X110.534 Y71.585 E24.13838
G1 X110.603 Y70.930 E24.15811
G1 X99.142 Y59.470 E24.64396
G1 X99.865 Y59.470 E24.66563
G1 X110.633 Y70.238 E25.12212
G1 X110.548 Y69.430 E25.14648
G1 X100.588 Y59.470 E25.56871
G1 X101.456 Y59.614 E25.59506
G1 X110.463 Y68.622 E25.97693
G1 X110.270 Y67.706 E26.00499
G1 X102.374 Y59.809 E26.33975
G1 X103.401 Y60.113 E26.37185
G1 X109.922 Y66.634 E26.64831
G1 X109.341 Y65.330 F12000.000
G1 X104.704 Y60.693 E26.84488 F1200.000
G1 X106.901 Y62.167 F12000.000
G1 X107.262 Y62.528 E26.86017 F1200.000
G1 X89.909 Y75.547 F12000.000
G1 X94.546 Y80.184 E27.05675 F1200.000
G1 X92.349 Y78.710 F12000.000
G1 X91.988 Y78.350 E27.07203 F1200.000
G1 F1680.000 E25.07203
G92 E0
G1 X107.235 Y108.014 F12000.000
G1 E2.00000 F1680.000
G1 X105.312 Y109.411 E2.07127 F720.000
G1 X103.008 Y110.437 E2.14687
G1 X103.008 Y110.406 E2.14779
G1 X100.814 Y110.873 E2.21503
G1 X98.436 Y110.873 E2.28631
G1 X96.110 Y110.378 E2.35758
G1 X93.938 Y109.411 E2.42886
G1 X92.015 Y108.014 E2.50013
G1 X90.424 Y106.247 E2.57141
G1 X89.235 Y104.187 E2.64269
G1 X88.500 Y101.926 E2.71396
G1 X88.251 Y99.561 E2.78524
G1 X88.500 Y97.197 E2.85651
G1 X89.235 Y94.935 E2.92779
G1 X90.424 Y92.876 E2.99907
G1 X92.015 Y91.109 E3.07034
G1 X93.938 Y89.712 E3.14162
G1 X96.110 Y88.744 E3.21289
G1 X98.436 Y88.250 E3.28417
G1 X100.814 Y88.250 E3.35544
G1 X100.974 Y88.284 E3.36036
G1 X103.140 Y88.744 E3.42672 F720.000
G1 X105.312 Y89.712 E3.49800
G1 X107.235 Y91.109 E3.56927
G1 X108.826 Y92.876 E3.64055
G1 X110.015 Y94.935 E3.71182
G1 X110.750 Y97.197 E3.78310
G1 X110.999 Y99.561 E3.85438
G1 X110.750 Y101.926 E3.92565
G1 X110.015 Y104.187 E3.99693
G1 X108.826 Y106.247 E4.06820
G1 X107.286 Y107.958 E4.13723
G1 X95.849 Y109.887 F12000.000
G1 X89.328 Y103.366 E4.41369 F1200.000
G1 X88.980 Y102.294 E4.44745
G1 X96.876 Y110.191 E4.78220
G1 X97.794 Y110.386 E4.81035
G1 X88.787 Y101.378 E5.19221
G1 X88.702 Y100.570 E5.21657
G1 X98.662 Y110.530 E5.63880
G1 X99.385 Y110.530 E5.66048
G1 X88.617 Y99.762 E6.11697
G1 X88.647 Y99.070 E6.13775
G1 X100.108 Y110.530 E6.62360
G1 X100.822 Y110.521 E6.64500
G1 X88.716 Y98.415 E7.15819
G1 X88.785 Y97.761 E7.17791
G1 X101.418 Y110.394 E7.71348
G1 X102.015 Y110.267 E7.73175
G1 X88.881 Y97.133 E8.28854
G1 X89.058 Y96.587 E8.30575
G1 X102.611 Y110.140 E8.88030
G1 X103.179 Y109.986 E8.89796
G1 X89.235 Y96.042 E9.48909
G1 X89.413 Y95.496 E9.50629
G1 X103.680 Y109.763 E10.11112
G1 X104.180 Y109.540 E10.12754
G1 X89.610 Y94.970 E10.74521
G1 X89.875 Y94.512 E10.76108
G1 X104.680 Y109.317 E11.38874
G1 X105.174 Y109.088 E11.40506
G1 X90.139 Y94.053 E12.04242
G1 X90.404 Y93.595 E12.05829
G1 X105.593 Y108.784 E12.70219
G1 X106.012 Y108.479 E12.71771
G1 X90.669 Y93.136 E13.36815
G1 X91.002 Y92.746 E13.38353
G1 X106.431 Y108.175 E14.03761
G1 X106.850 Y107.871 E14.05313
G1 X91.344 Y92.365 E14.71045
G1 X91.687 Y91.985 E14.72579
G1 X107.218 Y107.516 E15.38421
G1 X107.563 Y107.138 E15.39956
G1 X92.032 Y91.607 E16.05798
G1 X92.400 Y91.252 E16.07331
G1 X107.906 Y106.757 E16.73062
G1 X108.248 Y106.377 E16.74597
G1 X92.819 Y90.948 E17.40006
G1 X93.238 Y90.643 E17.41557
G1 X108.581 Y105.986 E18.06601
G1 X108.846 Y105.528 E18.08188
G1 X93.657 Y90.339 E18.72578
G1 X94.076 Y90.035 E18.74130
G1 X109.111 Y105.069 E19.37867
G1 X109.375 Y104.611 E19.39454
G1 X94.570 Y89.805 E20.02220
G1 X95.070 Y89.583 E20.03862
G1 X109.640 Y104.153 E20.65628
G1 X109.837 Y103.627 E20.67312
G1 X95.570 Y89.360 E21.27794
G1 X96.071 Y89.137 E21.29436
G1 X110.015 Y103.081 E21.88549
