; generated by Slic3r 1.1.7 on 2014-12-01 at 13:38:48

; perimeters extrusion width = 0.50mm
; infill extrusion width = 0.50mm
; solid infill extrusion width = 0.50mm
; top infill extrusion width = 0.50mm

G21 ; set units to millimeters
M107
M104 S190 ; set temperature
G28 ; home all axes
G1 Z15 F120 ; lift nozzle
M109 S190 ; wait for temperature to be reached
G90 ; use absolute coordinates
G92 E0
M82 ; use absolute distances for extrusion
G1 F1680.000 E-2.00000
G92 E0
G1 Z0.260 F12000.000
G1 X72.391 Y72.012 F12000.000
G1 E2.00000 F1680.000
G1 X73.401 Y71.102 E2.04074 F1200.000
G1 X75.367 Y69.674 E2.11359
G1 X76.544 Y68.994 E2.15432
G1 X78.764 Y68.006 E2.22717
G1 X80.056 Y67.586 E2.26790
G1 X82.433 Y67.081 E2.34075
G1 X83.785 Y66.939 E2.38149
G1 X86.215 Y66.939 E2.45434
G1 X87.567 Y67.081 E2.49507
G1 X89.944 Y67.586 E2.56793 F1200.000
G1 X91.236 Y68.006 E2.60866
G1 X93.456 Y68.994 E2.68151
G1 X94.633 Y69.674 E2.72224
G1 X96.599 Y71.102 E2.79509
G1 X97.609 Y72.012 E2.83583
G1 X99.235 Y73.818 E2.90868
G1 X100.034 Y74.917 E2.94941
G1 X101.249 Y77.022 E3.02226
G1 X101.802 Y78.263 E3.06300
G1 X102.553 Y80.574 E3.13585
G1 X102.835 Y81.904 E3.17659
G1 X103.089 Y84.321 E3.24944
G1 X103.089 Y85.679 E3.29017
G1 X102.835 Y88.096 E3.36302
G1 X102.553 Y89.426 E3.40376
G1 X101.802 Y91.737 E3.47661
G1 X101.249 Y92.978 E3.51734
G1 X100.034 Y95.083 E3.59020
G1 X99.235 Y96.182 E3.63093
G1 X97.609 Y97.988 E3.70378
G1 X96.599 Y98.898 E3.74452
G1 X94.633 Y100.326 E3.81737
G1 X93.456 Y101.006 E3.85810
G1 X91.236 Y101.994 E3.93095
G1 X89.944 Y102.414 E3.97168
G1 X87.753 Y102.880 E4.03883
G1 X87.567 Y102.919 E4.04453
G1 X86.215 Y103.061 E4.08527
G1 X83.785 Y103.061 E4.15812
G1 X82.433 Y102.919 E4.19885
G1 X80.056 Y102.414 E4.27171
G1 X78.764 Y101.994 E4.31244
G1 X76.544 Y101.006 E4.38529
G1 X75.367 Y100.326 E4.42602
G1 X73.401 Y98.898 E4.49887
G1 X72.391 Y97.988 E4.53961
G1 X70.765 Y96.182 E4.61246
G1 X69.966 Y95.083 E4.65319
G1 X68.751 Y92.978 E4.72604
G1 X68.198 Y91.737 E4.76678
G1 X67.447 Y89.426 E4.83963
G1 X67.165 Y88.096 E4.88037
G1 X66.911 Y85.679 E4.95322
G1 X66.911 Y84.321 E4.99395
G1 X67.165 Y81.904 E5.06680
G1 X67.447 Y80.574 E5.10753
G1 X68.198 Y78.263 E5.18039
G1 X68.751 Y77.022 E5.22112
G1 X69.966 Y74.917 E5.29397
G1 X70.765 Y73.818 E5.33470
G1 X72.341 Y72.067 E5.40531
G1 F1680.000 E3.40531
G92 E0
G1 X92.610 Y93.452 F12000.000
G1 E2.00000 F1680.000
G1 X90.687 Y94.850 E2.07127 F720.000
G1 X88.383 Y95.876 E2.14687
G1 X88.383 Y95.845 E2.14779
G1 X86.189 Y96.311 E2.21503
G1 X83.811 Y96.311 E2.28631
G1 X81.485 Y95.817 E2.35758
G1 X79.313 Y94.850 E2.42886
G1 X77.390 Y93.452 E2.50013
G1 X75.799 Y91.685 E2.57141
G1 X74.610 Y89.626 E2.64269
G1 X73.875 Y87.365 E2.71396
G1 X73.626 Y85.000 E2.78524
G1 X73.875 Y82.635 E2.85651
G1 X74.610 Y80.374 E2.92779
G1 X75.799 Y78.315 E2.99907
G1 X77.390 Y76.548 E3.07034
G1 X79.313 Y75.150 E3.14162
G1 X81.485 Y74.183 E3.21289
G1 X83.811 Y73.689 E3.28417
G1 X86.189 Y73.689 E3.35544
G1 X86.349 Y73.723 E3.36036
G1 X88.515 Y74.183 E3.42672 F720.000
G1 X90.687 Y75.150 E3.49800
G1 X92.610 Y76.548 E3.56927
G1 X94.201 Y78.315 E3.64055
G1 X95.390 Y80.374 E3.71182
G1 X96.125 Y82.635 E3.78310
G1 X96.374 Y85.000 E3.85438
G1 X96.125 Y87.365 E3.92565
G1 X95.390 Y89.626 E3.99693
G1 X94.201 Y91.685 E4.06820
G1 X92.661 Y93.397 E4.13723
G1 X81.224 Y95.326 F12000.000
G1 X74.703 Y88.804 E4.41369 F1200.000
G1 X74.355 Y87.733 E4.44745
G1 X82.251 Y95.630 E4.78220
G1 X83.169 Y95.825 E4.81035
G1 X74.162 Y86.817 E5.19221
G1 X74.077 Y86.009 E5.21657
G1 X84.037 Y95.969 E5.63880
G1 X84.760 Y95.969 E5.66048
G1 X73.992 Y85.201 E6.11697
G1 X74.022 Y84.508 E6.13775
G1 X85.483 Y95.969 E6.62360
G1 X86.197 Y95.959 E6.64500
G1 X74.091 Y83.854 E7.15819
G1 X74.160 Y83.199 E7.17791
G1 X86.793 Y95.833 E7.71348
G1 X87.390 Y95.706 E7.73175
G1 X74.256 Y82.572 E8.28854
G1 X74.433 Y82.026 E8.30575
G1 X87.986 Y95.579 E8.88030
G1 X88.554 Y95.424 E8.89796
G1 X74.610 Y81.480 E9.48909
G1 X74.788 Y80.934 E9.50629
G1 X89.055 Y95.202 E10.11112
G1 X89.555 Y94.979 E10.12754
G1 X74.985 Y80.409 E10.74521
G1 X75.250 Y79.950 E10.76108
G1 X90.055 Y94.756 E11.38874
G1 X90.549 Y94.527 E11.40506
G1 X75.514 Y79.492 E12.04242
G1 X75.779 Y79.033 E12.05829
G1 X90.968 Y94.222 E12.70219
G1 X91.387 Y93.918 E12.71771
G1 X76.044 Y78.575 E13.36815
G1 X76.377 Y78.185 E13.38353
G1 X91.806 Y93.614 E14.03761
G1 X92.225 Y93.309 E14.05313
G1 X76.719 Y77.804 E14.71045
G1 X77.062 Y77.423 E14.72579
G1 X92.593 Y92.955 E15.38421
G1 X92.938 Y92.577 E15.39956
G1 X77.407 Y77.045 E16.05798
G1 X77.775 Y76.691 E16.07331
G1 X93.281 Y92.196 E16.73062
G1 X93.623 Y91.815 E16.74597
G1 X78.194 Y76.386 E17.40006
G1 X78.613 Y76.082 E17.41557
G1 X93.956 Y91.425 E18.06601
G1 X94.221 Y90.967 E18.08188
G1 X79.032 Y75.778 E18.72578
G1 X79.451 Y75.473 E18.74130
G1 X94.486 Y90.508 E19.37867
G1 X94.750 Y90.050 E19.39454
G1 X79.945 Y75.244 E20.02220
G1 X80.445 Y75.021 E20.03862
G1 X95.015 Y89.591 E20.65628
G1 X95.212 Y89.066 E20.67312
G1 X80.945 Y74.798 E21.27794
G1 X81.446 Y74.576 E21.29436
G1 X95.390 Y88.520 E21.88549
G1 X95.567 Y87.974 E21.90270
G1 X82.014 Y74.421 E22.47725
G1 X82.610 Y74.294 E22.49553
G1 X95.744 Y87.428 E23.05232
G1 X95.840 Y86.801 E23.07135
G1 X83.207 Y74.167 E23.60691
G1 X83.803 Y74.041 E23.62519
G1 X95.909 Y86.146 E24.13838
G1 X95.978 Y85.492 E24.15811
G1 X84.517 Y74.031 E24.64396
G1 X85.240 Y74.031 E24.66563
G1 X96.008 Y84.799 E25.12212
G1 X95.923 Y83.991 E25.14648
G1 X85.963 Y74.031 E25.56871
G1 X86.831 Y74.175 E25.59506
G1 X95.838 Y83.183 E25.97693
G1 X95.645 Y82.267 E26.00499
G1 X87.749 Y74.370 E26.33975
G1 X88.776 Y74.674 E26.37185
G1 X95.297 Y81.196 E26.64831
G1 X94.716 Y79.892 F12000.000
G1 X90.079 Y75.255 E26.84488 F1200.000
G1 X92.276 Y76.728 F12000.000
G1 X92.637 Y77.089 E26.86017 F1200.000
G1 X75.284 Y90.108 F12000.000
G1 X79.921 Y94.745 E27.05675 F1200.000
G1 X77.724 Y93.272 F12000.000
G1 X77.363 Y92.911 E27.07203 F1200.000
M106 S255
M104 S188 ; set temperature
G1 F1680.000 E25.07203
G92 E0
G1 Z0.560 F12000.000
G1 X92.610 Y93.452 F12000.000
G1 E2.00000 F1680.000
G1 X90.687 Y94.850 E2.05940 F1060.629
G1 X88.515 Y95.817 E2.11879
G1 X86.189 Y96.311 E2.17819
G1 X83.811 Y96.311 E2.23759
G1 X81.485 Y95.817 E2.29698
G1 X79.313 Y94.850 E2.35638
G1 X77.390 Y93.452 E2.41578
G1 X75.799 Y91.685 E2.47517
G1 X74.610 Y89.626 E2.53457
G1 X73.875 Y87.365 E2.59397
G1 X73.626 Y85.000 E2.65336
G1 X73.875 Y82.635 E2.71276
G1 X74.610 Y80.374 E2.77215
G1 X75.799 Y78.315 E2.83155
G1 X77.390 Y76.548 E2.89095
G1 X79.313 Y75.150 E2.95034
G1 X81.485 Y74.183 E3.00974
G1 X83.811 Y73.689 E3.06914
G1 X86.189 Y73.689 E3.12853
G1 X86.690 Y73.795 E3.14134
G1 X88.515 Y74.183 E3.18793 F1060.629
G1 X90.687 Y75.150 E3.24733
G1 X92.610 Y76.548 E3.30672
G1 X94.201 Y78.315 E3.36612
G1 X95.390 Y80.374 E3.42552
G1 X96.125 Y82.635 E3.48491
G1 X96.374 Y85.000 E3.54431
G1 X96.125 Y87.365 E3.60371
G1 X95.390 Y89.626 E3.66310
G1 X94.201 Y91.685 E3.72250
G1 X92.661 Y93.397 E3.78002
G1 X92.276 Y93.272 F12000.000
G1 X92.637 Y92.911 E3.79276 F1767.715
G1 X90.079 Y94.745 F12000.000
G1 X94.716 Y90.108 E3.95658 F1767.715
G1 X95.297 Y88.804 F12000.000
G1 X88.776 Y95.326 E4.18696 F1767.715
G1 X87.749 Y95.630 E4.21371
G1 X95.645 Y87.733 E4.49267
G1 X95.838 Y86.817 E4.51606
G1 X86.831 Y95.825 E4.83428
G1 X85.963 Y95.969 E4.85624
G1 X95.923 Y86.009 E5.20810
G1 X96.008 Y85.201 E5.22840
G1 X85.240 Y95.969 E5.60881
G1 X84.517 Y95.969 E5.62687
G1 X95.978 Y84.508 E6.03174
G1 X95.909 Y83.854 E6.04818
G1 X83.803 Y95.959 E6.47584
G1 X83.207 Y95.833 E6.49107
G1 X95.840 Y83.199 E6.93737
G1 X95.744 Y82.572 E6.95323
G1 X82.610 Y95.706 E7.41722
G1 X82.014 Y95.579 E7.43245
G1 X95.567 Y82.026 E7.91125
G1 X95.390 Y81.480 E7.92559
G1 X81.446 Y95.424 E8.41820
G1 X80.945 Y95.202 E8.43188
G1 X95.212 Y80.934 E8.93590
G1 X95.015 Y80.409 E8.94993
G1 X80.445 Y94.979 E9.46465
G1 X79.945 Y94.756 E9.47834
G1 X94.750 Y79.950 E10.00139
G1 X94.486 Y79.492 E10.01461
G1 X79.451 Y94.527 E10.54575
G1 X79.032 Y94.222 E10.55868
G1 X94.221 Y79.033 E11.09527
G1 X93.956 Y78.575 E11.10849
G1 X78.613 Y93.918 E11.65052
G1 X78.194 Y93.614 E11.66345
G1 X93.623 Y78.185 E12.20852
G1 X93.281 Y77.804 E12.22132
G1 X77.775 Y93.309 E12.76908
G1 X77.407 Y92.955 E12.78185
G1 X92.938 Y77.423 E13.33054
G1 X92.593 Y77.045 E13.34332
G1 X77.062 Y92.577 E13.89200
G1 X76.719 Y92.196 E13.90480
G1 X92.225 Y76.691 E14.45256
G1 X91.806 Y76.386 E14.46549
G1 X76.377 Y91.815 E15.01056
G1 X76.044 Y91.425 E15.02338
G1 X91.387 Y76.082 E15.56541
G1 X90.968 Y75.778 E15.57834
G1 X75.779 Y90.967 E16.11492
G1 X75.514 Y90.508 E16.12815
G1 X90.549 Y75.473 E16.65929
G1 X90.055 Y75.244 E16.67289
G1 X75.250 Y90.050 E17.19594
G1 X74.985 Y89.591 E17.20916
G1 X89.555 Y75.021 E17.72388
G1 X89.055 Y74.798 E17.73757
G1 X74.788 Y89.066 E18.24159
G1 X74.610 Y88.520 E18.25592
G1 X88.554 Y74.576 E18.74853
G1 X87.986 Y74.421 E18.76325
G1 X74.433 Y87.974 E19.24204
G1 X74.256 Y87.428 E19.25638
G1 X87.390 Y74.294 E19.72037
G1 X86.793 Y74.167 E19.73560
G1 X74.160 Y86.801 E20.18190
G1 X74.091 Y86.146 E20.19834
G1 X86.197 Y74.041 E20.62600
G1 X85.483 Y74.031 E20.64384
G1 X74.022 Y85.492 E21.04871
G1 X73.992 Y84.799 E21.06603
G1 X84.760 Y74.031 E21.44643
G1 X84.037 Y74.031 E21.46450
G1 X74.077 Y83.991 E21.81636
G1 X74.162 Y83.183 E21.83665
G1 X83.169 Y74.175 E22.15488
G1 X82.251 Y74.370 E22.17833
G1 X74.355 Y82.267 E22.45729
G1 X74.703 Y81.196 E22.48543
G1 X81.224 Y74.674 E22.71581
G1 X79.921 Y75.255 F12000.000
G1 X75.284 Y79.892 E22.87962 F1767.715
G1 X77.363 Y77.089 F12000.000
G1 X77.724 Y76.728 E22.89236 F1767.715
G1 F1680.000 E20.89236
G92 E0
G1 Z0.860 F12000.000
G1 X92.610 Y93.452 F12000.000
G1 E2.00000 F1680.000
G1 X90.687 Y94.850 E2.05940 F1366.666
G1 X88.515 Y95.817 E2.11879
G1 X86.189 Y96.311 E2.17819
G1 X83.811 Y96.311 E2.23759
G1 X81.485 Y95.817 E2.29698
G1 X79.313 Y94.850 E2.35638
G1 X77.390 Y93.452 E2.41578
G1 X75.799 Y91.685 E2.47517
G1 X74.610 Y89.626 E2.53457
G1 X73.875 Y87.365 E2.59397
G1 X73.626 Y85.000 E2.65336
G1 X73.875 Y82.635 E2.71276
G1 X74.610 Y80.374 E2.77215
G1 X75.799 Y78.315 E2.83155
G1 X77.390 Y76.548 E2.89095
G1 X79.313 Y75.150 E2.95034
G1 X81.485 Y74.183 E3.00974
G1 X83.811 Y73.689 E3.06914
G1 X86.189 Y73.689 E3.12853
G1 X87.000 Y73.861 E3.14926
G1 X88.515 Y74.183 E3.18793 F1366.666
G1 X90.687 Y75.150 E3.24733
G1 X92.610 Y76.548 E3.30672
G1 X94.201 Y78.315 E3.36612
G1 X95.390 Y80.374 E3.42552
G1 X96.125 Y82.635 E3.48491
G1 X96.374 Y85.000 E3.54431
G1 X96.125 Y87.365 E3.60371
G1 X95.390 Y89.626 E3.66310
G1 X94.201 Y91.685 E3.72250
G1 X92.661 Y93.397 E3.78002
G1 X81.224 Y95.326 F12000.000
G1 X74.703 Y88.804 E4.01040 F1708.332
G1 X74.355 Y87.733 E4.03854
G1 X82.251 Y95.630 E4.31750
G1 X83.169 Y95.825 E4.34095
G1 X74.162 Y86.817 E4.65918
G1 X74.077 Y86.009 E4.67947
G1 X84.037 Y95.969 E5.03133
G1 X84.760 Y95.969 E5.04940
G1 X73.992 Y85.201 E5.42980
G1 X74.022 Y84.508 E5.44712
G1 X85.483 Y95.969 E5.85199
G1 X86.197 Y95.959 E5.86983
G1 X74.091 Y83.854 E6.29749
G1 X74.160 Y83.199 E6.31392
G1 X86.793 Y95.833 E6.76023
G1 X87.390 Y95.706 E6.77546
G1 X74.256 Y82.572 E7.23945
G1 X74.433 Y82.026 E7.25378
G1 X87.986 Y95.579 E7.73258
G1 X88.554 Y95.424 E7.74729
G1 X74.610 Y81.480 E8.23990
G1 X74.788 Y80.934 E8.25424
G1 X89.055 Y95.202 E8.75826
G1 X89.555 Y94.979 E8.77194
G1 X74.985 Y80.409 E9.28667
G1 X75.250 Y79.950 E9.29989
G1 X90.055 Y94.756 E9.82294
G1 X90.549 Y94.527 E9.83654
G1 X75.514 Y79.492 E10.36768
G1 X75.779 Y79.033 E10.38090
G1 X90.968 Y94.222 E10.91749
G1 X91.387 Y93.918 E10.93042
G1 X76.044 Y78.575 E11.47245
G1 X76.377 Y78.185 E11.48526
G1 X91.806 Y93.614 E12.03033
G1 X92.225 Y93.309 E12.04327
G1 X76.719 Y77.804 E12.59103
G1 X77.062 Y77.423 E12.60382
G1 X92.593 Y92.955 E13.15250
G1 X92.938 Y92.577 E13.16529
G1 X77.407 Y77.045 E13.71397
G1 X77.775 Y76.691 E13.72674
G1 X93.281 Y92.196 E14.27451
G1 X93.623 Y91.815 E14.28730
G1 X78.194 Y76.386 E14.83237
G1 X78.613 Y76.082 E14.84530
G1 X93.956 Y91.425 E15.38733
G1 X94.221 Y90.967 E15.40055
G1 X79.032 Y75.778 E15.93714
G1 X79.451 Y75.474 E15.95007
G1 X94.486 Y90.508 E16.48121
G1 X94.750 Y90.050 E16.49443
G1 X79.945 Y75.244 E17.01748
G1 X80.445 Y75.021 E17.03117
G1 X95.015 Y89.591 E17.54589
G1 X95.212 Y89.066 E17.55992
G1 X80.945 Y74.798 E18.06394
G1 X81.446 Y74.576 E18.07762
G1 X95.390 Y88.520 E18.57023
G1 X95.567 Y87.974 E18.58457
G1 X82.014 Y74.421 E19.06336
G1 X82.610 Y74.294 E19.07859
G1 X95.744 Y87.428 E19.54258
G1 X95.840 Y86.801 E19.55844
G1 X83.207 Y74.167 E20.00474
G1 X83.803 Y74.041 E20.01997
G1 X95.909 Y86.146 E20.44763
G1 X95.978 Y85.492 E20.46407
G1 X84.517 Y74.031 E20.86895
G1 X85.240 Y74.031 E20.88701
G1 X96.008 Y84.799 E21.26742
G1 X95.923 Y83.991 E21.28771
G1 X85.963 Y74.031 E21.63957
G1 X86.831 Y74.175 E21.66153
G1 X95.838 Y83.183 E21.97975
G1 X95.645 Y82.267 E22.00314
G1 X87.749 Y74.370 E22.28210
G1 X88.776 Y74.674 E22.30886
G1 X95.297 Y81.196 E22.53924
G1 X94.716 Y79.892 F12000.000
G1 X90.079 Y75.255 E22.70305 F1708.332
G1 X92.276 Y76.728 F12000.000
G1 X92.637 Y77.089 E22.71579 F1708.332
G1 X75.284 Y90.108 F12000.000
G1 X79.921 Y94.745 E22.87960 F1708.332
G1 X77.724 Y93.272 F12000.000
G1 X77.363 Y92.911 E22.89234 F1708.332
G1 F1680.000 E20.89234
G92 E0
G1 Z1.160 F12000.000
G1 X92.610 Y93.452 F12000.000
G1 E2.00000 F1680.000
G1 X90.687 Y94.850 E2.05940 F1366.666
G1 X88.515 Y95.817 E2.11879
G1 X86.189 Y96.311 E2.17819
G1 X83.811 Y96.311 E2.23759
G1 X81.485 Y95.817 E2.29698
G1 X79.313 Y94.850 E2.35638
G1 X77.390 Y93.452 E2.41578
G1 X75.799 Y91.685 E2.47517
G1 X74.610 Y89.626 E2.53457
G1 X73.875 Y87.365 E2.59397
G1 X73.626 Y85.000 E2.65336
G1 X73.875 Y82.635 E2.71276
G1 X74.610 Y80.374 E2.77215
G1 X75.799 Y78.315 E2.83155
G1 X77.390 Y76.548 E2.89095
G1 X79.313 Y75.150 E2.95034
G1 X81.485 Y74.183 E3.00974
G1 X83.811 Y73.689 E3.06914
G1 X86.189 Y73.689 E3.12853
G1 X87.310 Y73.927 E3.15718
G1 X88.515 Y74.183 E3.18793 F1366.666
G1 X90.687 Y75.150 E3.24733
G1 X92.610 Y76.548 E3.30672
G1 X94.201 Y78.315 E3.36612
G1 X95.390 Y80.374 E3.42552
G1 X96.125 Y82.635 E3.48491
G1 X96.374 Y85.000 E3.54431
G1 X96.125 Y87.365 E3.60371
G1 X95.390 Y89.626 E3.66310
G1 X94.201 Y91.685 E3.72250
G1 X92.661 Y93.397 E3.78002
G1 X92.276 Y93.272 F12000.000
G1 X92.637 Y92.911 E3.79276 F1708.332
G1 X90.079 Y94.745 F12000.000
G1 X94.716 Y90.108 E3.95658 F1708.332
G1 X95.297 Y88.804 F12000.000
G1 X88.776 Y95.326 E4.18696 F1708.332
G1 X87.749 Y95.630 E4.21371
G1 X95.645 Y87.733 E4.49267
G1 X95.838 Y86.817 E4.51606
G1 X86.831 Y95.825 E4.83428
G1 X85.963 Y95.969 E4.85624
G1 X95.923 Y86.009 E5.20810
G1 X96.008 Y85.201 E5.22840
G1 X85.240 Y95.969 E5.60880
G1 X84.517 Y95.969 E5.62687
G1 X95.978 Y84.508 E6.03174
G1 X95.909 Y83.854 E6.04818
G1 X83.803 Y95.959 E6.47584
G1 X83.207 Y95.833 E6.49107
G1 X95.840 Y83.199 E6.93737
G1 X95.744 Y82.572 E6.95323
G1 X82.610 Y95.706 E7.41722
G1 X82.014 Y95.579 E7.43245
G1 X95.567 Y82.026 E7.91125
G1 X95.390 Y81.480 E7.92558
G1 X81.446 Y95.424 E8.41819
G1 X80.945 Y95.202 E8.43187
G1 X95.212 Y80.934 E8.93589
G1 X95.015 Y80.409 E8.94992
G1 X80.445 Y94.979 E9.46465
G1 X79.945 Y94.756 E9.47833
G1 X94.750 Y79.950 E10.00138
G1 X94.486 Y79.492 E10.01460
G1 X79.451 Y94.527 E10.54574
G1 X79.032 Y94.222 E10.55867
G1 X94.221 Y79.033 E11.09526
G1 X93.956 Y78.575 E11.10848
G1 X78.613 Y93.918 E11.65051
G1 X78.194 Y93.614 E11.66345
G1 X93.623 Y78.185 E12.20852
G1 X93.281 Y77.804 E12.22131
G1 X77.775 Y93.309 E12.76907
G1 X77.407 Y92.955 E12.78185
G1 X92.938 Y77.423 E13.33053
G1 X92.593 Y77.045 E13.34331
G1 X77.062 Y92.577 E13.89199
G1 X76.719 Y92.196 E13.90479
G1 X92.225 Y76.691 E14.45255
