; generated by Slic3r 1.2.1 on 2014-12-07 at 23:42:12

; external perimeters extrusion width = 0.50mm
; perimeters extrusion width = 0.50mm
; infill extrusion width = 0.50mm
; solid infill extrusion width = 0.50mm
; top infill extrusion width = 0.50mm

M104 S190 ; set temperature
G28 ; home all axes
G1 Z15 F120 ; lift nozzle
M109 S190 ; wait for temperature to be reached
G21 ; set units to millimeters
G90 ; use absolute coordinates
M82 ; use absolute distances for extrusion
G92 E0
M106 S102
G1 E-2.00000 F1680.000
G92 E0
G1 Z0.400 F12000.000
G1 X53.121 Y61.331 F12000.000
G1 E2.00000 F1680.000
G1 X54.866 Y59.900 E2.06758 F1200.000
G1 X58.000 Y59.082 E2.16457
G1 X78.512 Y59.091 E2.77879
G1 X109.959 Y61.046 E3.72227 F1200.000
G1 X110.666 Y61.115 E3.74352
G1 X111.750 Y61.326 E3.77660
G1 X112.162 Y61.444 E3.78943
G1 X113.194 Y61.838 E3.82250
G1 X113.580 Y62.024 E3.83533
G1 X114.529 Y62.589 E3.86841
G1 X114.877 Y62.839 E3.88124
G1 X115.715 Y63.559 E3.91431
G1 X116.015 Y63.865 E3.92715
G1 X116.717 Y64.717 E3.96022
G1 X116.960 Y65.070 E3.97306
G1 X117.506 Y66.030 E4.00612
G1 X117.685 Y66.420 E4.01895
G1 X118.058 Y67.459 E4.05202
G1 X118.168 Y67.873 E4.06485
G1 X118.357 Y68.962 E4.09793
G1 X118.418 Y69.941 E4.12730
G1 X118.418 Y94.306 E4.85691
G1 X118.356 Y95.292 E4.88649
G1 X118.162 Y96.393 E4.91997
G1 X118.051 Y96.807 E4.93278
G1 X117.668 Y97.858 E4.96628
G1 X117.488 Y98.246 E4.97910
G1 X116.928 Y99.214 E5.01258
G1 X116.704 Y99.535 E5.02432
G1 X115.964 Y100.422 E5.05889
G1 X115.662 Y100.724 E5.07169
G1 X114.805 Y101.443 E5.10519
G1 X114.454 Y101.688 E5.11800
G1 X113.908 Y102.031 E5.13731
G1 X99.640 Y110.008 E5.62678
G1 X98.478 Y110.489 E5.66444
G1 X98.103 Y110.603 E5.67618
G1 X96.869 Y110.848 E5.71385
G1 X96.479 Y110.887 E5.72559
G1 X95.850 Y110.918 E5.74445
G1 X58.000 Y110.918 E6.87783
G1 X55.778 Y110.521 E6.94542
G1 X53.831 Y109.379 E7.01300
G1 X52.400 Y107.634 E7.08059
G1 X51.582 Y104.500 E7.17758
G1 X51.582 Y65.500 E8.34539
G1 X51.979 Y63.278 E8.41298
G1 X53.083 Y61.396 E8.47832
G1 E6.47832 F1680.000
G92 E0
G1 X61.138 Y77.248 F12000.000
G1 E2.00000 F1680.000
G1 X61.561 Y77.120 E2.01242 F1200.000
G1 X62.057 Y77.082 E2.02643
G1 X62.439 Y77.120 E2.03724 F1200.000
G1 X62.861 Y77.248 E2.04967
G1 X63.251 Y77.456 E2.06209
G1 X63.592 Y77.736 E2.07452
G1 X63.872 Y78.077 E2.08694
G1 X64.080 Y78.466 E2.09936
G1 X64.208 Y78.889 E2.11179
G1 X64.250 Y79.316 E2.12386
G1 X64.250 Y90.512 E2.43907
G1 X64.208 Y90.939 E2.45115
G1 X64.080 Y91.362 E2.46357
G1 X63.872 Y91.751 E2.47600
G1 X63.592 Y92.092 E2.48842
G1 X63.251 Y92.372 E2.50084
G1 X62.861 Y92.580 E2.51327
G1 X62.439 Y92.708 E2.52569
G1 X62.000 Y92.751 E2.53811
G1 X61.561 Y92.708 E2.55054
G1 X61.138 Y92.580 E2.56296
G1 X60.749 Y92.372 E2.57539
G1 X60.408 Y92.092 E2.58781
G1 X60.128 Y91.751 E2.60023
G1 X59.920 Y91.362 E2.61266
G1 X59.792 Y90.939 E2.62508
G1 X59.750 Y90.512 E2.63716
G1 X59.750 Y79.316 E2.95237
G1 X59.792 Y78.889 E2.96444
G1 X59.920 Y78.466 E2.97687
G1 X60.128 Y78.077 E2.98929
G1 X60.408 Y77.736 E3.00171
G1 X60.749 Y77.456 E3.01414
G1 X61.072 Y77.283 E3.02445
G1 E1.02445 F1680.000
G92 E0
G1 X107.560 Y68.806 F12000.000
G1 E2.00000 F1680.000
G1 X107.788 Y68.486 E2.01106 F1200.000
G1 X108.070 Y68.209 E2.02219
G1 X108.396 Y67.986 E2.03331
G1 X108.757 Y67.825 E2.04444
G1 X109.140 Y67.729 E2.05557
G1 X109.545 Y67.701 E2.06698
G1 X109.938 Y67.743 E2.07811
G1 X110.308 Y67.849 E2.08895
G1 X110.655 Y68.017 E2.09980
G1 X110.968 Y68.242 E2.11065
G1 X111.228 Y68.507 E2.12110
G1 X111.457 Y68.834 E2.13234
G1 X111.617 Y69.184 E2.14319
G1 X111.716 Y69.557 E2.15404
G1 X111.750 Y69.951 E2.16519
G1 X111.750 Y94.296 E2.85052
G1 X111.716 Y94.689 E2.86164
G1 X111.616 Y95.060 E2.87245
G1 X111.454 Y95.408 E2.88325
G1 X111.242 Y95.711 E2.89368
G1 X110.962 Y95.994 E2.90487
G1 X110.648 Y96.214 E2.91567
G1 X110.300 Y96.376 E2.92648
G1 X109.929 Y96.476 E2.93729
G1 X109.501 Y96.510 E2.94938
G1 X109.101 Y96.475 E2.96068
G1 X108.724 Y96.374 E2.97166
G1 X108.370 Y96.209 E2.98265
G1 X108.051 Y95.985 E2.99364
G1 X107.775 Y95.709 E3.00463
G1 X107.551 Y95.390 E3.01561
G1 X107.386 Y95.036 E3.02660
G1 X107.285 Y94.659 E3.03759
G1 X107.250 Y94.259 E3.04888
G1 X107.250 Y86.904 E3.25593
G1 X107.204 Y86.554 E3.26587
G1 X107.062 Y86.213 E3.27627
G1 X106.838 Y85.920 E3.28668
G1 X106.544 Y85.695 E3.29708
G1 X106.203 Y85.553 E3.30749
G1 X105.853 Y85.507 E3.31742
G1 X84.952 Y85.507 E3.90582
G1 X84.247 Y85.548 E3.92569
G1 X83.545 Y85.672 E3.94577
G1 X82.862 Y85.877 E3.96585
G1 X82.207 Y86.159 E3.98593
G1 X81.589 Y86.516 E4.00601
G1 X81.017 Y86.942 E4.02609
G1 X80.498 Y87.431 E4.04616
G1 X80.086 Y87.923 E4.06423
G1 X79.648 Y88.573 E4.08631
G1 X79.328 Y89.211 E4.10639
G1 X79.084 Y89.881 E4.12647
G1 X78.919 Y90.575 E4.14654
G1 X78.837 Y91.283 E4.16662
G1 X78.837 Y91.997 E4.18670
G1 X78.911 Y92.634 E4.20477
G1 X79.084 Y93.399 E4.22685
G1 X79.328 Y94.069 E4.24693
G1 X79.648 Y94.707 E4.26700
G1 X80.040 Y95.303 E4.28708
G1 X80.498 Y95.849 E4.30716
G1 X81.017 Y96.338 E4.32724
G1 X81.589 Y96.764 E4.34732
G1 X82.207 Y97.121 E4.36740
G1 X82.862 Y97.403 E4.38748
G1 X83.545 Y97.608 E4.40755
G1 X84.247 Y97.732 E4.42763
G1 X84.952 Y97.773 E4.44751
G1 X95.816 Y97.773 E4.75335
G1 X96.174 Y97.805 E4.76346
G1 X96.505 Y97.902 E4.77318
G1 X96.811 Y98.062 E4.78290
G1 X97.079 Y98.279 E4.79263
G1 X97.300 Y98.545 E4.80235
G1 X97.464 Y98.849 E4.81207
G1 X97.565 Y99.179 E4.82179
G1 X97.600 Y99.535 E4.83186
G1 X97.600 Y102.488 E4.91497
G1 X97.565 Y102.841 E4.92497
G1 X97.466 Y103.169 E4.93462
G1 X97.304 Y103.472 E4.94427
G1 X97.086 Y103.737 E4.95392
G1 X96.821 Y103.954 E4.96358
G1 X96.519 Y104.116 E4.97323
G1 X96.191 Y104.215 E4.98288
G1 X95.838 Y104.250 E4.99288
G1 X58.250 Y104.250 E6.05104
G1 X58.250 Y65.750 E7.13489
G1 X78.172 Y65.750 E7.69572
G1 X78.787 Y65.782 E7.71307
G1 X79.475 Y65.886 E7.73266 F1200.000
G1 X80.106 Y66.055 E7.75104
G1 X80.716 Y66.289 E7.76942
G1 X81.297 Y66.585 E7.78781
G1 X81.845 Y66.941 E7.80619
G1 X82.352 Y67.352 E7.82457
G1 X82.814 Y67.813 E7.84295
G1 X83.225 Y68.321 E7.86133
G1 X83.580 Y68.868 E7.87971
G1 X83.877 Y69.450 E7.89809
G1 X84.111 Y70.060 E7.91647
G1 X84.280 Y70.690 E7.93485
G1 X84.381 Y71.335 E7.95323
G1 X84.416 Y71.994 E7.97180
G1 X84.416 Y73.508 E8.01441
G1 X84.454 Y74.133 E8.03204
G1 X84.568 Y74.757 E8.04989
G1 X84.737 Y75.299 E8.06590
G1 X85.017 Y75.940 E8.08558
G1 X85.345 Y76.483 E8.10343
G1 X85.736 Y76.982 E8.12128
G1 X86.184 Y77.430 E8.13913
G1 X86.683 Y77.821 E8.15698
G1 X87.226 Y78.149 E8.17482
G1 X87.804 Y78.409 E8.19267
G1 X88.736 Y78.700 E8.22015
G1 X88.736 Y78.658 E8.22133
G1 X89.033 Y78.712 E8.22984
G1 X89.658 Y78.750 E8.24747
G1 X105.809 Y78.756 E8.70214
G1 X106.205 Y78.704 E8.71340
G1 X106.546 Y78.563 E8.72378
G1 X106.839 Y78.339 E8.73416
G1 X107.063 Y78.046 E8.74454
G1 X107.204 Y77.705 E8.75492
G1 X107.250 Y77.356 E8.76483
G1 X107.250 Y69.951 E8.97330
G1 X107.286 Y69.547 E8.98473
G1 X107.389 Y69.165 E8.99586
G1 X107.527 Y68.873 E9.00495
G1 X110.695 Y68.371 F12000.000
G1 X111.085 Y68.761 E9.02049 F2400.000
G1 X111.462 Y69.694 F12000.000
G1 X109.758 Y67.990 E9.08832 F2400.000
G1 X109.203 Y67.990 E9.10396
G1 X111.485 Y70.272 E9.19484
G1 X111.485 Y70.828 E9.21047
G1 X108.768 Y68.110 E9.31868
G1 X108.405 Y68.303 E9.33024
G1 X111.485 Y71.383 E9.45289
G1 X111.485 Y71.939 E9.46853
G1 X108.099 Y68.552 E9.60336
G1 X107.848 Y68.857 E9.61447
G1 X111.485 Y72.494 E9.75927
G1 X111.485 Y73.049 E9.77491
G1 X107.656 Y69.220 E9.92736
G1 X107.541 Y69.661 E9.94018
G1 X111.485 Y73.605 E10.09719
G1 X111.485 Y74.160 E10.11283
G1 X107.515 Y70.190 E10.27091
G1 X107.515 Y70.745 E10.28655
G1 X111.485 Y74.716 E10.44463
G1 X111.485 Y75.271 E10.46026
G1 X107.515 Y71.300 E10.61835
G1 X107.515 Y71.856 E10.63398
G1 X111.485 Y75.826 E10.79206
G1 X111.485 Y76.382 E10.80770
G1 X107.515 Y72.411 E10.96578
G1 X107.515 Y72.967 E10.98142
G1 X111.485 Y76.937 E11.13950
G1 X111.485 Y77.493 E11.15513
G1 X107.515 Y73.522 E11.31321
G1 X107.515 Y74.077 E11.32885
G1 X111.485 Y78.048 E11.48693
G1 X111.485 Y78.604 E11.50257
G1 X107.515 Y74.633 E11.66065
G1 X107.515 Y75.188 E11.67629
G1 X111.485 Y79.159 E11.83437
G1 X111.485 Y79.714 E11.85000
G1 X107.515 Y75.744 E12.00808
G1 X107.515 Y76.299 E12.02372
G1 X111.485 Y80.270 E12.18180
G1 X111.485 Y80.825 E12.19744
G1 X107.515 Y76.855 E12.35552
G1 X107.510 Y77.406 E12.37104
G1 X111.485 Y81.381 E12.52929
G1 X111.485 Y81.936 E12.54492
G1 X107.421 Y77.872 E12.70671
G1 X107.242 Y78.248 E12.71844
G1 X111.485 Y82.491 E12.88739
G1 X111.485 Y83.047 E12.90302
G1 X106.993 Y78.554 E13.08189
G1 X106.678 Y78.795 E13.09304
G1 X111.485 Y83.602 E13.28444
G1 X111.485 Y84.158 E13.30007
G1 X106.285 Y78.958 E13.50710
G1 X105.793 Y79.021 E13.52107
G1 X111.485 Y84.713 E13.74769
G1 X111.485 Y85.268 E13.76332
G1 X105.238 Y79.021 E14.01206
G1 X104.682 Y79.021 E14.02770
G1 X111.485 Y85.824 E14.29856
G1 X111.485 Y86.379 E14.31419
G1 X104.126 Y79.020 E14.60717
G1 X103.571 Y79.020 E14.62282
G1 X111.485 Y86.935 E14.93792
G1 X111.485 Y87.490 E14.95355
G1 X103.015 Y79.020 E15.29077
G1 X102.460 Y79.020 E15.30641
G1 X111.485 Y88.045 E15.66576
G1 X111.485 Y88.601 E15.68139
G1 X101.904 Y79.019 E16.06286
G1 X101.348 Y79.019 E16.07850
G1 X111.485 Y89.156 E16.48208
G1 X111.485 Y89.712 E16.49772
G1 X100.793 Y79.019 E16.92342
G1 X100.237 Y79.019 E16.93906
G1 X106.695 Y85.477 E17.19618
G1 X105.911 Y85.248 E17.21919
G1 X99.681 Y79.019 E17.46720
G1 X99.126 Y79.018 E17.48284
G1 X105.350 Y85.243 E17.73065
G1 X104.795 Y85.243 E17.74628
G1 X98.570 Y79.018 E17.99410
G1 X98.015 Y79.018 E18.00974
G1 X104.239 Y85.243 E18.25756
G1 X103.684 Y85.243 E18.27320
G1 X97.459 Y79.018 E18.52103
G1 X96.903 Y79.017 E18.53667
G1 X103.128 Y85.243 E18.78451
G1 X102.573 Y85.243 E18.80015
G1 X96.348 Y79.017 E19.04800
G1 X95.792 Y79.017 E19.06364
G1 X102.018 Y85.243 E19.31149
G1 X101.462 Y85.243 E19.32713
G1 X95.236 Y79.017 E19.57499
G1 X94.681 Y79.017 E19.59064
G1 X100.907 Y85.243 E19.83851
G1 X100.351 Y85.243 E19.85415
G1 X94.125 Y79.016 E20.10203
G1 X93.570 Y79.016 E20.11767
G1 X99.796 Y85.243 E20.36556
G1 X99.241 Y85.243 E20.38120
G1 X93.014 Y79.016 E20.62910
G1 X92.458 Y79.016 E20.64474
G1 X98.685 Y85.243 E20.89265
G1 X98.130 Y85.243 E20.90828
G1 X91.903 Y79.016 E21.15620
G1 X91.347 Y79.015 E21.17184
G1 X97.574 Y85.243 E21.41977
G1 X97.019 Y85.243 E21.43540
G1 X90.791 Y79.015 E21.68334
G1 X90.236 Y79.015 E21.69898
G1 X96.464 Y85.243 E21.94692
G1 X95.908 Y85.243 E21.96256
G1 X89.680 Y79.015 E22.21051
G1 X89.091 Y78.981 E22.22712
G1 X95.353 Y85.243 E22.47642
G1 X94.797 Y85.243 E22.49206
G1 X88.439 Y78.884 E22.74519
G1 X87.613 Y78.613 E22.76968
G1 X94.242 Y85.243 E23.03360
G1 X93.686 Y85.243 E23.04924
G1 X86.304 Y77.861 E23.34314
G1 X85.305 Y76.861 F12000.000
G1 X74.459 Y66.015 E23.77497 F2400.000
G1 X75.014 Y66.015 E23.79061
G1 X84.564 Y75.565 E24.17083
G1 X84.296 Y74.741 E24.19521
G1 X75.569 Y66.015 E24.54264
G1 X76.125 Y66.015 E24.55828
G1 X84.185 Y74.075 E24.87917
G1 X84.151 Y73.486 E24.89579
G1 X76.680 Y66.015 E25.19323
G1 X77.236 Y66.015 E25.20886
G1 X84.151 Y72.930 E25.48419
G1 X84.151 Y72.375 E25.49982
G1 X77.791 Y66.015 E25.75303
G1 X78.356 Y66.025 E25.76895
G1 X84.141 Y71.809 E25.99926
G1 X84.093 Y71.206 E26.01630
G1 X78.964 Y66.076 E26.22052
G1 X79.649 Y66.207 E26.24017
G1 X83.959 Y70.516 E26.41175
G1 X83.684 Y69.686 E26.43638
G1 X80.480 Y66.482 E26.56394
G1 X81.791 Y67.237 F12000.000
G1 X82.928 Y68.375 E26.60923 F2400.000
G1 X73.903 Y66.015 F12000.000
G1 X93.131 Y85.243 E27.37474 F2400.000
G1 X92.576 Y85.243 E27.39038
G1 X73.348 Y66.015 E28.15590
G1 X72.792 Y66.015 E28.17153
G1 X92.020 Y85.243 E28.93705
G1 X91.465 Y85.243 E28.95269
G1 X72.237 Y66.015 E29.71820
G1 X71.682 Y66.015 E29.73384
G1 X90.909 Y85.243 E30.49936
G1 X90.354 Y85.243 E30.51499
G1 X71.126 Y66.015 E31.28051
G1 X70.571 Y66.015 E31.29615
G1 X89.799 Y85.243 E32.06166
G1 X89.243 Y85.243 E32.07730
G1 X70.015 Y66.015 E32.84282
G1 X69.460 Y66.015 E32.85845
G1 X88.688 Y85.243 E33.62397
G1 X88.132 Y85.243 E33.63961
G1 X68.904 Y66.015 E34.40512
G1 X68.349 Y66.015 E34.42076
G1 X87.577 Y85.243 E35.18628
G1 X87.022 Y85.243 E35.20191
G1 X67.794 Y66.015 E35.96743
G1 X67.238 Y66.015 E35.98307
G1 X86.466 Y85.243 E36.74858
G1 X85.911 Y85.243 E36.76422
G1 X66.683 Y66.015 E37.52974
G1 X66.127 Y66.015 E37.54537
G1 X85.355 Y85.243 E38.31089
G1 X84.808 Y85.251 E38.32630
G1 X65.572 Y66.015 E39.09214
G1 X65.017 Y66.015 E39.10777
G1 X84.283 Y85.281 E39.87483
G1 X83.804 Y85.358 E39.88848
G1 X64.461 Y66.015 E40.65858
G1 X63.906 Y66.015 E40.67421
G1 X83.346 Y85.455 E41.44820
G1 X82.919 Y85.583 E41.46076
G1 X63.350 Y66.015 E42.23984
G1 X62.795 Y66.015 E42.25548
G1 X82.517 Y85.737 E43.04068
G1 X82.129 Y85.904 E43.05257
G1 X62.240 Y66.015 E43.84444
G1 X61.684 Y66.015 E43.86008
G1 X81.773 Y86.104 E44.65988
G1 X81.423 Y86.309 E44.67131
G1 X61.129 Y66.015 E45.47929
G1 X60.573 Y66.015 E45.49493
G1 X81.105 Y86.546 E46.31235
G1 X80.793 Y86.789 E46.32349
G1 X60.018 Y66.015 E47.15059
G1 X59.463 Y66.015 E47.16623
G1 X80.507 Y87.059 E48.00406
G1 X80.231 Y87.338 E48.01512
G1 X58.907 Y66.015 E48.86407
G1 X58.515 Y66.178 E48.87603
G1 X79.977 Y87.640 E49.73052
G1 X79.742 Y87.960 E49.74170
G1 X58.515 Y66.733 E50.58681
G1 X58.515 Y67.288 E50.60244
G1 X79.518 Y88.292 E51.43865
G1 X79.316 Y88.645 E51.45011
G1 X58.515 Y67.844 E52.27826
G1 X58.515 Y68.399 E52.29390
G1 X79.130 Y89.015 E53.11465
G1 X78.973 Y89.413 E53.12670
G1 X58.515 Y68.955 E53.94119
G1 X58.515 Y69.510 E53.95682
G1 X78.826 Y89.821 E54.76547
G1 X78.720 Y90.270 E54.77846
G1 X58.515 Y70.065 E55.58288
G1 X58.515 Y70.621 E55.59851
G1 X78.634 Y90.740 E56.39950
G1 X78.575 Y91.237 E56.41360
G1 X58.515 Y71.176 E57.21227
G1 X58.515 Y71.732 E57.22791
G1 X78.572 Y91.789 E58.02644
G1 X78.616 Y92.388 E58.04336
G1 X58.515 Y72.287 E58.84364
G1 X58.515 Y72.843 E58.85928
G1 X62.549 Y76.877 E59.01988
G1 X61.934 Y76.817 E59.03727
G1 X58.515 Y73.398 E59.17340
G1 X58.515 Y73.953 E59.18904
G1 X61.448 Y76.887 E59.30583
G1 X61.018 Y77.012 E59.31844
G1 X58.515 Y74.509 E59.41811
G1 X58.515 Y75.064 E59.43374
G1 X60.656 Y77.206 E59.51900
G1 X60.343 Y77.447 E59.53015
G1 X58.515 Y75.620 E59.60293
G1 X58.515 Y76.175 E59.61856
G1 X60.070 Y77.731 E59.68049
G1 X59.840 Y78.055 E59.69171
G1 X58.515 Y76.730 E59.74446
G1 X58.515 Y77.286 E59.76010
G1 X59.656 Y78.427 E59.80552
G1 X59.529 Y78.856 E59.81811
G1 X58.515 Y77.841 E59.85851
G1 X58.515 Y78.397 E59.87414
G1 X59.485 Y79.367 E59.91279
G1 X59.485 Y79.923 E59.92842
G1 X58.515 Y78.952 E59.96706
G1 X58.515 Y79.507 E59.98270
G1 X59.485 Y80.478 E60.02134
G1 X59.485 Y81.033 E60.03698
G1 X58.515 Y80.063 E60.07562
G1 X58.515 Y80.618 E60.09126
G1 X59.485 Y81.589 E60.12990
G1 X59.485 Y82.144 E60.14554
G1 X58.515 Y81.174 E60.18418
G1 X58.515 Y81.729 E60.19982
G1 X59.485 Y82.700 E60.23846
G1 X59.485 Y83.255 E60.25410
G1 X58.515 Y82.284 E60.29274
G1 X58.515 Y82.840 E60.30838
G1 X59.485 Y83.810 E60.34702
G1 X59.485 Y84.366 E60.36265
G1 X58.515 Y83.395 E60.40130
G1 X58.515 Y83.951 E60.41693
G1 X59.485 Y84.921 E60.45558
G1 X59.485 Y85.477 E60.47121
G1 X58.515 Y84.506 E60.50986
G1 X58.515 Y85.061 E60.52549
G1 X59.485 Y86.032 E60.56414
G1 X59.485 Y86.588 E60.57977
G1 X58.515 Y85.617 E60.61841
G1 X58.515 Y86.172 E60.63405
G1 X59.485 Y87.143 E60.67269
G1 X59.485 Y87.698 E60.68833
G1 X58.515 Y86.728 E60.72697
G1 X58.515 Y87.283 E60.74261
G1 X59.485 Y88.254 E60.78125
G1 X59.485 Y88.809 E60.79689
G1 X58.515 Y87.839 E60.83553
G1 X58.515 Y88.394 E60.85117
G1 X59.485 Y89.365 E60.88981
G1 X59.485 Y89.920 E60.90545
G1 X58.515 Y88.949 E60.94409
G1 X58.515 Y89.505 E60.95972
G1 X59.485 Y90.475 E60.99837
G1 X59.568 Y91.114 E61.01650
G1 X58.515 Y90.060 E61.05845
G1 X58.515 Y90.616 E61.07408
G1 X71.884 Y103.985 E61.60637
G1 X72.440 Y103.985 E61.62201
G1 X61.386 Y92.932 E62.06209
G1 X62.025 Y93.015 E62.08022
G1 X72.995 Y103.985 E62.51699
G1 X73.551 Y103.985 E62.53262
G1 X62.524 Y92.959 E62.97162
G1 X62.950 Y92.830 E62.98416
G1 X74.106 Y103.985 E63.42830
G1 X74.661 Y103.985 E63.44394
G1 X63.314 Y92.638 E63.89570
G1 X63.632 Y92.401 E63.90688
G1 X75.217 Y103.985 E64.36808
G1 X75.772 Y103.985 E64.38372
G1 X63.905 Y92.118 E64.85619
G1 X64.144 Y91.802 E64.86735
