; generated by Slic3r 0.9.10b on 2013-10-24 at 11:11:39

; layer_height = 0.3
; perimeters = 2
; top_solid_layers = 3
; bottom_solid_layers = 3
; fill_density = 0.5
; perimeter_speed = 30
; infill_speed = 30
; travel_speed = 200
; nozzle_diameter = 0.5
; filament_diameter = 2.98
; extrusion_multiplier = 0.9
; perimeters extrusion width = 0.70mm
; infill extrusion width = 0.70mm
; solid infill extrusion width = 0.70mm
; top infill extrusion width = 0.70mm

G21 ; set units to millimeters
M107
M104 S190 ; set temperature
G28 ; home all axes
G1 Z15 F120 ; lift nozzle
M109 S190 ; wait for temperature to be reached
G90 ; use absolute coordinates
G92 E0
M82 ; use absolute distances for extrusion
G1 F1680.000 E-2.00000
G92 E0
G1 Z0.450 F12000.000
G1 X59.810 Y46.540
G1 F1680.000 E2.00000
G1 X60.790 Y45.280 F900.000 E2.06067
G1 X66.280 Y39.790 E2.35574
G1 X67.290 Y38.970 E2.40518
G1 X68.440 Y38.350 E2.45483
G1 X69.690 Y37.970 E2.50449
G1 X70.990 Y37.850 E2.55410
G1 X92.990 Y37.850 E3.39021
G1 X94.290 Y37.970 E3.43983
G1 X95.530 Y38.350 E3.48912
G1 X96.680 Y38.960 E3.53859
G1 X97.690 Y39.790 E3.58828
G1 X103.200 Y45.290 E3.88416
G1 X104.190 Y46.540 E3.94476
G1 X104.840 Y47.990 E4.00515
G1 X117.340 Y87.490 E5.57972
G1 X117.580 Y88.480 E5.61844
G1 X117.650 Y89.500 E5.65729
G1 X117.650 Y108.990 E6.39801
G1 X117.530 Y110.290 E6.44763
G1 X117.150 Y111.540 E6.49728
G1 X116.530 Y112.690 E6.54693
G1 X115.710 Y113.700 E6.59638
G1 X111.200 Y118.210 E6.83878
G1 X110.190 Y119.030 E6.88822
G1 X109.040 Y119.650 E6.93787
G1 X107.790 Y120.030 E6.98753
G1 X106.490 Y120.150 E7.03714
G1 X57.490 Y120.150 E8.89939
G1 X56.190 Y120.030 E8.94901
G1 X54.940 Y119.650 E8.99866
G1 X53.780 Y119.030 E9.04865
G1 X52.770 Y118.190 E9.09857
G1 X48.280 Y113.680 E9.34044
G1 X47.460 Y112.680 E9.38959
G1 X46.850 Y111.530 E9.43906
G1 X46.470 Y110.280 E9.48871
G1 X46.350 Y108.990 E9.53795
G1 X46.350 Y89.500 E10.27867
G1 X46.420 Y88.480 E10.31753
G1 X46.660 Y87.490 E10.35624
G1 X59.160 Y47.980 E11.93118
G1 X59.770 Y46.629 E11.98749
G1 F1680.000 E9.98749
G92 E0
G1 X73.018 Y51.370 F12000.000
G1 F1680.000 E2.00000
G1 X78.982 Y51.370 F900.000 E2.22664
G1 X78.982 Y61.630 E2.61660
G1 X73.018 Y61.630 E2.84325
G1 X73.018 Y51.468 E3.22948
G1 X73.673 Y52.024 F12000.000
G1 X78.327 Y52.024 F900.000 E3.40637
G1 X78.327 Y60.976 E3.74658
G1 X73.673 Y60.976 E3.92348
G1 X73.673 Y52.122 E4.25996
G1 X74.240 Y52.351 F12000.000
G1 F1680.000 E2.25996
G92 E0
G1 X85.018 Y51.370 F12000.000
G1 F1680.000 E2.00000
G1 X90.982 Y51.370 F900.000 E2.22664
G1 X90.982 Y61.630 E2.61660
G1 X85.018 Y61.630 E2.84325
G1 X85.018 Y51.468 E3.22948
G1 X85.673 Y52.024 F12000.000
G1 X90.327 Y52.024 F900.000 E3.40637
G1 X90.327 Y60.976 E3.74658
G1 X85.673 Y60.976 E3.92348
G1 X85.673 Y52.122 E4.25996
G1 X86.240 Y52.351 F12000.000
G1 F1680.000 E2.25996
G92 E0
G1 X94.000 Y77.737 F12000.000
G1 F1680.000 E2.00000
G1 X95.953 Y78.547 F900.000 E2.08036
G1 X96.763 Y80.500 E2.16072
G1 X95.953 Y82.453 E2.24108
G1 X94.000 Y83.263 E2.32144
G1 X92.047 Y82.454 E2.40179
G1 X91.237 Y80.500 E2.48215
G1 X92.047 Y78.546 E2.56251
G1 X93.909 Y77.775 E2.63914
G1 X94.000 Y78.446 F12000.000
G1 X95.453 Y79.047 F900.000 E2.69889
G1 X96.054 Y80.500 E2.75865
G1 X95.453 Y81.953 E2.81840
G1 X94.000 Y82.554 E2.87815
G1 X92.547 Y81.953 E2.93790
G1 X91.946 Y80.500 E2.99766
G1 X92.547 Y79.047 E3.05741
G1 X93.909 Y78.483 E3.11343
G1 X94.250 Y79.050 F12000.000
G1 F1680.000 E1.11343
G92 E0
G1 X72.763 Y80.500 F12000.000
G1 F1680.000 E2.00000
G1 X71.954 Y82.453 F900.000 E2.08036
G1 X70.000 Y83.263 E2.16072
G1 X68.047 Y82.454 E2.24107
G1 X67.237 Y80.500 E2.32143
G1 X68.047 Y78.546 E2.40180
G1 X70.000 Y77.737 E2.48215
G1 X71.954 Y78.547 E2.56251
G1 X72.725 Y80.409 E2.63914
G1 X72.054 Y80.500 F12000.000
G1 X71.453 Y81.953 F900.000 E2.69889
G1 X70.000 Y82.554 E2.75865
G1 X68.547 Y81.953 E2.81840
G1 X67.946 Y80.500 E2.87815
G1 X68.547 Y79.047 E2.93790
G1 X70.000 Y78.446 E2.99766
G1 X71.453 Y79.047 E3.05741
G1 X72.017 Y80.409 E3.11343
G1 X71.450 Y80.750 F12000.000
G1 F1680.000 E1.11343
G92 E0
G1 X66.482 Y96.370 F12000.000
G1 F1680.000 E2.00000
G1 X66.482 Y106.630 F900.000 E2.38996
G1 X60.518 Y106.630 E2.61660
G1 X60.518 Y96.370 E3.00656
G1 X66.384 Y96.370 E3.22947
G1 X65.827 Y97.024 F12000.000
G1 X65.827 Y105.976 F900.000 E3.56969
G1 X61.173 Y105.976 E3.74658
G1 X61.173 Y97.024 E4.08679
G1 X65.729 Y97.024 E4.25995
G1 X65.500 Y97.591 F12000.000
G1 X72.518 Y96.370
G1 X78.482 Y96.370 F900.000 E4.48660
G1 X78.482 Y106.630 E4.87656
G1 X72.518 Y106.630 E5.10320
G1 X72.518 Y96.468 E5.48943
G1 X73.173 Y97.024 F12000.000
G1 X77.827 Y97.024 F900.000 E5.66632
G1 X77.827 Y105.976 E6.00653
G1 X73.173 Y105.976 E6.18343
G1 X73.173 Y97.122 E6.51991
G1 X73.740 Y97.351 F12000.000
G1 F1680.000 E4.51991
G92 E0
G1 X85.518 Y96.370 F12000.000
G1 F1680.000 E2.00000
G1 X91.482 Y96.370 F900.000 E2.22664
G1 X91.482 Y106.630 E2.61660
G1 X85.518 Y106.630 E2.84325
G1 X85.518 Y96.468 E3.22947
G1 X86.173 Y97.024 F12000.000
G1 X90.827 Y97.024 F900.000 E3.40637
G1 X90.827 Y105.976 E3.74658
G1 X86.173 Y105.976 E3.92347
G1 X86.173 Y97.122 E4.25995
G1 X86.740 Y97.351 F12000.000
G1 F1680.000 E2.25995
G92 E0
G1 X97.518 Y96.370 F12000.000
G1 F1680.000 E2.00000
G1 X103.482 Y96.370 F900.000 E2.22664
G1 X103.482 Y106.630 E2.61660
G1 X97.518 Y106.630 E2.84325
G1 X97.518 Y96.468 E3.22947
G1 X98.173 Y97.024 F12000.000
G1 X102.827 Y97.024 F900.000 E3.40637
G1 X102.827 Y105.976 E3.74658
G1 X98.173 Y105.976 E3.92347
G1 X98.173 Y97.122 E4.25995
G1 X98.740 Y97.351 F12000.000
G1 F1680.000 E2.25995
G92 E0
G1 X57.907 Y112.518 F12000.000
G1 F1680.000 E2.00000
G1 X53.982 Y108.593 F900.000 E2.21095
G1 X53.982 Y90.482 E2.89928
G1 X66.482 Y90.482 E3.37435
G1 X66.482 Y50.407 E4.89740
G1 X71.407 Y45.482 E5.16210
G1 X92.593 Y45.482 E5.96731
G1 X97.518 Y50.407 E6.23201
G1 X97.518 Y90.482 E7.75506
G1 X110.018 Y90.482 E8.23012
G1 X110.018 Y108.593 E8.91846
G1 X106.093 Y112.518 E9.12941
G1 X58.005 Y112.518 E10.95702
G1 X57.636 Y113.173 F12000.000
G1 X53.327 Y108.864 F720.000 E11.18857
G1 X53.327 Y89.827 E11.91208
G1 X65.827 Y89.827 E12.38715
G1 X65.827 Y50.136 E13.89563
G1 X71.136 Y44.827 E14.18094
G1 X92.864 Y44.827 E15.00675
G1 X98.173 Y50.136 E15.29205
G1 X98.173 Y89.827 E16.80054
G1 X110.673 Y89.827 E17.27560
G1 X110.673 Y108.864 E17.99911
G1 X106.364 Y113.173 E18.23067
G1 X57.734 Y113.173 E20.07888
G1 X57.636 Y112.518 F12000.000
G1 X58.144 Y112.044
G1 X54.456 Y108.356 F1200.000 E20.27711
G1 X54.456 Y107.431 E20.31231
G1 X59.069 Y112.044 E20.56031
G1 X59.995 Y112.044 E20.59550
G1 X54.456 Y106.505 E20.89327
G1 X54.456 Y105.579 E20.92846
G1 X60.921 Y112.044 E21.27600
G1 X61.847 Y112.044 E21.31119
G1 X54.456 Y104.653 E21.70850
G1 X54.456 Y103.727 E21.74370
G1 X62.773 Y112.044 E22.19078
G1 X63.698 Y112.044 E22.22597
G1 X54.456 Y102.802 E22.72282
G1 X54.456 Y101.876 E22.75801
G1 X64.624 Y112.044 E23.30463
G1 X65.550 Y112.044 E23.33982
G1 X60.611 Y107.105 E23.60534
G1 X60.044 Y106.538 F12000.000
G1 X54.456 Y100.950 F1200.000 E23.90573
G1 X54.456 Y100.024 E23.94093
G1 X60.044 Y105.612 E24.24131
G1 X60.044 Y104.686 E24.27651
G1 X54.456 Y99.098 E24.57690
G1 X54.456 Y98.173 E24.61209
G1 X60.044 Y103.760 E24.91248
G1 X60.044 Y102.835 E24.94767
G1 X54.456 Y97.247 E25.24806
G1 X54.456 Y96.321 E25.28325
G1 X60.044 Y101.909 E25.58364
G1 X60.044 Y100.983 E25.61884
G1 X54.456 Y95.395 E25.91922
G1 X54.456 Y94.469 E25.95442
G1 X60.044 Y100.057 E26.25481
G1 X60.044 Y99.131 E26.29000
G1 X54.456 Y93.544 E26.59039
G1 X54.456 Y92.618 E26.62558
G1 X60.044 Y98.206 E26.92597
G1 X60.044 Y97.280 E26.96116
G1 X54.456 Y91.692 E27.26155
G1 X54.646 Y90.956 E27.29044
G1 X60.044 Y96.354 E27.58063
G1 X60.511 Y95.895 E27.60551
G1 X55.572 Y90.956 E27.87103
G1 X56.498 Y90.956 E27.90622
G1 X61.437 Y95.895 E28.17174
G1 X62.363 Y95.895 E28.20694
G1 X57.423 Y90.956 E28.47246
G1 X58.349 Y90.956 E28.50765
G1 X63.288 Y95.895 E28.77317
G1 X64.214 Y95.895 E28.80836
G1 X59.275 Y90.956 E29.07388
G1 X60.201 Y90.956 E29.10908
G1 X65.140 Y95.895 E29.37460
G1 X66.066 Y95.895 E29.40979
G1 X61.127 Y90.956 E29.67531
G1 X62.052 Y90.956 E29.71050
G1 X72.044 Y100.948 E30.24763
G1 X72.044 Y100.022 E30.28282
G1 X62.978 Y90.956 E30.77018
G1 X63.904 Y90.956 E30.80537
G1 X72.044 Y99.096 E31.24296
G1 X72.044 Y98.170 E31.27816
G1 X64.830 Y90.956 E31.66597
G1 X65.756 Y90.956 E31.70117
G1 X72.044 Y97.244 E32.03921
G1 X72.044 Y96.319 E32.07441
G1 X66.681 Y90.956 E32.36269
G1 X66.956 Y90.305 E32.38955
G1 X72.546 Y95.895 E32.69007
G1 X73.472 Y95.895 E32.72526
G1 X66.956 Y89.379 E33.07555
G1 X66.956 Y88.453 E33.11075
G1 X74.398 Y95.895 E33.51081
G1 X75.324 Y95.895 E33.54600
G1 X66.956 Y87.528 E33.99583
G1 X66.956 Y86.602 E34.03103
G1 X76.250 Y95.895 E34.53063
G1 X77.175 Y95.895 E34.56582
G1 X66.956 Y85.676 E35.11519
G1 X66.956 Y84.750 E35.15038
G1 X78.101 Y95.895 E35.74953
G1 X78.956 Y96.750 F12000.000
G1 X85.044 Y102.838 F1200.000 E36.07680
G1 X85.044 Y101.912 E36.11199
G1 X66.956 Y83.824 E37.08436
G1 X66.956 Y82.899 E37.11956
G1 X85.044 Y100.986 E38.09193
G1 X85.044 Y100.061 E38.12712
G1 X67.882 Y82.899 E39.04971
G1 X69.463 Y83.553 E39.11474
G1 X85.044 Y99.135 E39.95237
G1 X85.044 Y98.209 E39.98756
G1 X70.432 Y83.597 E40.77308
G1 X71.087 Y83.326 E40.80001
G1 X85.044 Y97.283 E41.55034
G1 X85.044 Y96.357 E41.58553
G1 X71.741 Y83.055 E42.30066
G1 X72.349 Y82.737 E42.32674
G1 X85.508 Y95.895 E43.03410
G1 X86.433 Y95.895 E43.06929
G1 X72.621 Y82.083 E43.81185
G1 X72.892 Y81.428 E43.83878
G1 X87.359 Y95.895 E44.61653
G1 X88.285 Y95.895 E44.65173
G1 X73.163 Y80.773 E45.46467
G1 X72.895 Y79.579 E45.51119
G1 X89.211 Y95.895 E46.38832
G1 X90.137 Y95.895 E46.42351
G1 X66.956 Y72.715 E47.66966
G1 X66.956 Y71.789 E47.70485
G1 X91.062 Y95.895 E49.00078
G1 X91.956 Y96.789 F12000.000
G1 X97.044 Y101.877 F1200.000 E49.27429
G1 X97.044 Y100.951 E49.30948
G1 X66.956 Y70.863 E50.92696
G1 X66.956 Y69.937 E50.96215
G1 X97.044 Y100.025 E52.57963
G1 X97.044 Y99.099 E52.61483
G1 X66.956 Y69.012 E54.23231
G1 X66.956 Y68.086 E54.26750
G1 X97.044 Y98.174 E55.88498
G1 X97.044 Y97.248 E55.92017
G1 X66.956 Y67.160 E57.53765
G1 X66.956 Y66.234 E57.57285
G1 X97.044 Y96.322 E59.19033
G1 X97.543 Y95.895 E59.21529
G1 X66.956 Y65.308 E60.85960
G1 X66.956 Y64.383 E60.89479
G1 X98.469 Y95.895 E62.58887
G1 X99.395 Y95.895 E62.62406
G1 X66.956 Y63.457 E64.36792
G1 X66.956 Y62.531 E64.40311
G1 X100.320 Y95.895 E66.19673
G1 X101.246 Y95.895 E66.23192
G1 X66.956 Y61.605 E68.07531
G1 X66.956 Y60.679 E68.11050
G1 X97.044 Y90.767 E69.72799
G1 X97.233 Y90.956 F12000.000
G1 X102.172 Y95.895 F1200.000 E69.99351
G1 X103.098 Y95.895 E70.02870
G1 X98.159 Y90.956 E70.29422
G1 X99.084 Y90.956 E70.32941
G1 X109.544 Y101.416 E70.89170
G1 X109.544 Y100.490 E70.92689
G1 X100.010 Y90.956 E71.43941
G1 X100.936 Y90.956 E71.47460
G1 X109.544 Y99.564 E71.93735
G1 X109.544 Y98.638 E71.97254
G1 X101.862 Y90.956 E72.38552
G1 X102.788 Y90.956 E72.42071
G1 X109.544 Y97.712 E72.78392
G1 X109.544 Y96.787 E72.81911
G1 X103.713 Y90.956 E73.13255
G1 X104.639 Y90.956 E73.16774
G1 X109.544 Y95.861 E73.43141
G1 X109.544 Y94.935 E73.46660
G1 X105.565 Y90.956 E73.68050
G1 X106.491 Y90.956 E73.71569
G1 X109.544 Y94.009 E73.87982
G1 X109.544 Y93.083 E73.91501
G1 X107.417 Y90.956 E74.02937
G1 X108.342 Y90.956 E74.06456
G1 X109.544 Y92.158 E74.12914
G1 X109.544 Y91.232 E74.16434
G1 X109.268 Y90.956 E74.17915
G1 X103.956 Y96.754 F12000.000
G1 X109.544 Y102.341 F1200.000 E74.47954
G1 X109.544 Y103.267 E74.51474
G1 X103.956 Y97.679 E74.81513
G1 X103.956 Y98.605 E74.85032
G1 X109.544 Y104.193 E75.15071
G1 X109.544 Y105.119 E75.18590
G1 X103.956 Y99.531 E75.48629
G1 X103.956 Y100.457 E75.52148
G1 X109.544 Y106.045 E75.82187
G1 X109.544 Y106.970 E75.85707
G1 X103.956 Y101.383 E76.15745
G1 X103.956 Y102.308 E76.19265
G1 X109.544 Y107.896 E76.49304
G1 X109.331 Y108.609 E76.52133
G1 X103.956 Y103.234 E76.81029
G1 X103.956 Y104.160 E76.84548
G1 X108.868 Y109.072 E77.10956
G1 X108.405 Y109.535 E77.13444
G1 X103.956 Y105.086 E77.37364
G1 X103.956 Y106.012 E77.40883
G1 X107.943 Y109.998 E77.62314
G1 X107.480 Y110.461 E77.64802
G1 X103.956 Y106.937 E77.83744
G1 X103.198 Y107.105 E77.86697
G1 X107.017 Y110.924 E78.07228
G1 X106.554 Y111.387 E78.09717
G1 X102.272 Y107.105 E78.32737
G1 X101.346 Y107.105 E78.36256
G1 X106.091 Y111.850 E78.61764
G1 X105.359 Y112.044 E78.64642
G1 X100.420 Y107.105 E78.91194
G1 X99.494 Y107.105 E78.94713
G1 X104.434 Y112.044 E79.21265
G1 X103.508 Y112.044 E79.24784
G1 X98.569 Y107.105 E79.51336
G1 X97.643 Y107.105 E79.54856
G1 X102.582 Y112.044 E79.81408
G1 X101.656 Y112.044 E79.84927
G1 X91.956 Y102.344 E80.37073
G1 X91.956 Y103.270 E80.40592
G1 X100.730 Y112.044 E80.87761
G1 X99.805 Y112.044 E80.91281
G1 X91.956 Y104.195 E81.33473
G1 X91.956 Y105.121 E81.36992
G1 X98.879 Y112.044 E81.74207
G1 X97.953 Y112.044 E81.77727
G1 X91.956 Y106.047 E82.09965
G1 X91.956 Y106.973 E82.13484
G1 X97.027 Y112.044 E82.40745
G1 X96.101 Y112.044 E82.44264
G1 X91.162 Y107.105 E82.70816
G1 X90.236 Y107.105 E82.74336
G1 X95.176 Y112.044 E83.00888
G1 X94.250 Y112.044 E83.04407
G1 X89.311 Y107.105 E83.30959
G1 X88.385 Y107.105 E83.34478
G1 X93.324 Y112.044 E83.61030
G1 X92.398 Y112.044 E83.64550
G1 X87.459 Y107.105 E83.91102
G1 X86.533 Y107.105 E83.94621
G1 X91.472 Y112.044 E84.21173
G1 X90.547 Y112.044 E84.24692
G1 X85.607 Y107.105 E84.51244
G1 X85.044 Y106.541 F12000.000
G1 X78.956 Y100.453 F1200.000 E84.83971
G1 X78.956 Y99.528 E84.87490
G1 X85.044 Y105.615 E85.20217
G1 X85.044 Y104.690 E85.23736
G1 X78.956 Y98.602 E85.56463
G1 X78.956 Y97.676 E85.59983
G1 X85.044 Y103.764 E85.92709
G1 X78.956 Y104.157 F12000.000
G1 X86.843 Y112.044 F1200.000 E86.35110
G1 X85.918 Y112.044 E86.38629
G1 X78.956 Y105.082 E86.76053
G1 X78.956 Y106.008 E86.79572
G1 X84.992 Y112.044 E87.12019
G1 X84.066 Y112.044 E87.15538
G1 X78.956 Y106.934 E87.43008
G1 X78.201 Y107.105 E87.45951
G1 X83.140 Y112.044 E87.72503
G1 X82.214 Y112.044 E87.76022
G1 X77.275 Y107.105 E88.02574
G1 X76.349 Y107.105 E88.06094
G1 X81.289 Y112.044 E88.32646
G1 X80.363 Y112.044 E88.36165
G1 X75.424 Y107.105 E88.62717
G1 X74.498 Y107.105 E88.66236
G1 X79.437 Y112.044 E88.92788
G1 X78.511 Y112.044 E88.96307
G1 X73.572 Y107.105 E89.22859
G1 X72.646 Y107.105 E89.26379
G1 X77.585 Y112.044 E89.52931
G1 X76.660 Y112.044 E89.56450
G1 X66.956 Y102.340 E90.08614
G1 X66.956 Y101.415 E90.12134
G1 X72.044 Y106.502 E90.39485
G1 X72.044 Y105.577 E90.43004
G1 X66.956 Y100.489 E90.70355
G1 X66.956 Y99.563 E90.73874
G1 X72.044 Y104.651 E91.01225
G1 X72.044 Y103.725 E91.04744
G1 X66.956 Y98.637 E91.32095
G1 X66.956 Y97.711 E91.35615
G1 X72.044 Y102.799 E91.62966
G1 X72.044 Y101.873 E91.66485
G1 X66.956 Y96.786 E91.93836
G1 X66.956 Y103.266 F12000.000
G1 X75.734 Y112.044 F1200.000 E92.41023
G1 X74.808 Y112.044 E92.44543
G1 X66.956 Y104.192 E92.86753
G1 X66.956 Y105.118 E92.90272
G1 X73.882 Y112.044 E93.27506
G1 X72.956 Y112.044 E93.31025
G1 X66.956 Y106.044 E93.63281
G1 X66.956 Y106.969 E93.66801
G1 X72.031 Y112.044 E93.94080
G1 X71.105 Y112.044 E93.97599
G1 X66.166 Y107.105 E94.24151
G1 X65.240 Y107.105 E94.27671
G1 X70.179 Y112.044 E94.54223
G1 X69.253 Y112.044 E94.57742
G1 X64.314 Y107.105 E94.84294
G1 X63.388 Y107.105 E94.87813
G1 X68.327 Y112.044 E95.14365
G1 X67.402 Y112.044 E95.17884
G1 X62.462 Y107.105 E95.44436
G1 X61.537 Y107.105 E95.47956
G1 X66.476 Y112.044 E95.74508
G1 F1680.000 E93.74508
G92 E0
G1 X78.956 Y103.231 F12000.000
G1 F1680.000 E2.00000
G1 X87.769 Y112.044 F1200.000 E2.47378
G1 X88.695 Y112.044 E2.50897
G1 X78.956 Y102.305 E3.03252
G1 X78.956 Y101.379 E3.06771
G1 X89.621 Y112.044 E3.64103
G1 X97.044 Y106.506 F12000.000
G1 X91.956 Y101.418 F1200.000 E3.91454
G1 X91.956 Y100.492 E3.94973
G1 X97.044 Y105.580 E4.22324
G1 X97.044 Y104.654 E4.25843
G1 X91.956 Y99.566 E4.53194
G1 X91.956 Y98.641 E4.56713
G1 X97.044 Y103.728 E4.84064
G1 X97.044 Y102.803 E4.87584
G1 X91.956 Y97.715 E5.14935
G1 X97.044 Y89.841 F12000.000
G1 X66.956 Y59.754 F1200.000 E6.76683
G1 X66.956 Y58.828 E6.80202
G1 X97.044 Y88.916 E8.41950
G1 X97.044 Y87.990 E8.45469
G1 X92.003 Y82.949 E8.72568
G1 X91.551 Y82.497 F12000.000
