; generated by Slic3r 0.9.10b on 2013-10-21 at 15:23:36

; layer_height = 0.3
; perimeters = 1
; top_solid_layers = 3
; bottom_solid_layers = 3
; fill_density = 0.5
; perimeter_speed = 30
; infill_speed = 30
; travel_speed = 200
; nozzle_diameter = 0.5
; filament_diameter = 2.98
; extrusion_multiplier = 0.9
; perimeters extrusion width = 0.70mm
; infill extrusion width = 0.70mm
; solid infill extrusion width = 0.70mm
; top infill extrusion width = 0.70mm

G21 ; set units to millimeters
M107
M104 S190 ; set temperature
G28 ; home all axes
G1 Z15 F120 ; lift nozzle
M109 S190 ; wait for temperature to be reached
G90 ; use absolute coordinates
G92 E0
M82 ; use absolute distances for extrusion
G1 F1680.000 E-2.00000
G92 E0
G1 Z0.450 F12000.000
G1 X58.790 Y55.030
G1 F1680.000 E2.00000
G1 X68.780 Y45.040 F900.000 E2.53694
G1 X69.790 Y44.220 E2.58638
G1 X70.940 Y43.600 E2.63603
G1 X72.190 Y43.220 E2.68568
G1 X73.490 Y43.100 E2.73530
G1 X96.490 Y43.100 E3.60942
G1 X97.790 Y43.220 E3.65903
G1 X99.030 Y43.600 E3.70832
G1 X100.180 Y44.210 E3.75780
G1 X101.190 Y45.040 E3.80748
G1 X111.200 Y55.030 E4.34495
G1 X112.020 Y56.030 E4.39410
G1 X112.640 Y57.170 E4.44342
G1 X113.020 Y58.400 E4.49235
G1 X120.520 Y94.900 E5.90851
G1 X120.620 Y95.570 E5.93426
G1 X120.650 Y96.240 E5.95975
G1 X120.650 Y113.740 E6.62484
G1 X120.530 Y115.040 E6.67445
G1 X120.150 Y116.290 E6.72410
G1 X119.530 Y117.440 E6.77376
G1 X118.710 Y118.450 E6.82320
G1 X112.200 Y124.960 E7.17310
G1 X111.190 Y125.780 E7.22254
G1 X110.040 Y126.400 E7.27219
G1 X108.790 Y126.780 E7.32184
G1 X107.490 Y126.900 E7.37146
G1 X62.490 Y126.900 E9.08169
G1 X61.190 Y126.780 E9.13130
G1 X59.940 Y126.400 E9.18096
G1 X58.790 Y125.780 E9.23061
G1 X57.780 Y124.950 E9.28029
G1 X51.290 Y118.440 E9.62965
G1 X50.460 Y117.430 E9.67934
G1 X49.850 Y116.280 E9.72881
G1 X49.470 Y115.040 E9.77810
G1 X49.350 Y113.740 E9.82771
G1 X49.350 Y96.240 E10.49280
G1 X49.380 Y95.570 E10.51829
G1 X49.480 Y94.900 E10.54404
G1 X56.980 Y58.400 E11.96020
G1 X57.360 Y57.170 E12.00913
G1 X57.970 Y56.030 E12.05827
G1 X58.728 Y55.106 E12.10369
G1 F1680.000 E10.10369
G92 E0
G1 X98.313 Y84.123 F12000.000
G1 F1680.000 E2.00000
G1 X98.565 Y83.815 F900.000 E2.01511
G1 X98.873 Y83.563 E2.03023
G1 X99.224 Y83.376 E2.04534
G1 X99.604 Y83.260 E2.06046
G1 X100.000 Y83.221 E2.07557
G1 X100.396 Y83.260 E2.09069
G1 X100.776 Y83.376 E2.10581
G1 X101.127 Y83.563 E2.12092
G1 X101.435 Y83.815 E2.13603
G1 X101.687 Y84.123 E2.15115
G1 X101.874 Y84.473 E2.16626
G1 X101.990 Y84.854 E2.18138
G1 X102.029 Y85.250 E2.19650
G1 X101.990 Y85.646 E2.21161
G1 X101.874 Y86.027 E2.22673
G1 X101.687 Y86.377 E2.24185
G1 X101.435 Y86.685 E2.25696
G1 X101.127 Y86.937 E2.27207
G1 X100.776 Y87.124 E2.28719
G1 X100.396 Y87.240 E2.30230
G1 X100.000 Y87.279 E2.31742
G1 X99.604 Y87.240 E2.33253
G1 X99.224 Y87.124 E2.34765
G1 X98.873 Y86.937 E2.36276
G1 X98.565 Y86.685 E2.37788
G1 X98.313 Y86.377 E2.39299
G1 X98.126 Y86.026 E2.40811
G1 X98.010 Y85.646 E2.42322
G1 X97.971 Y85.250 E2.43834
G1 X98.010 Y84.854 E2.45346
G1 X98.126 Y84.474 E2.46858
G1 X98.267 Y84.209 E2.47996
G1 X93.327 Y67.726 F12000.000
G1 X88.673 Y67.726 F900.000 E2.65686
G1 X88.673 Y58.774 E2.99707
G1 X93.327 Y58.774 E3.17396
G1 X93.327 Y67.628 E3.51044
G1 F1680.000 E1.51044
G92 E0
G1 X81.327 Y67.726 F12000.000
G1 F1680.000 E2.00000
G1 X76.673 Y67.726 F900.000 E2.17689
G1 X76.673 Y58.774 E2.51711
G1 X81.327 Y58.774 E2.69400
G1 X81.327 Y67.628 E3.03048
G1 F1680.000 E1.03048
G92 E0
G1 X71.127 Y83.563 F12000.000
G1 F1680.000 E2.00000
G1 X71.435 Y83.815 F900.000 E2.01511
G1 X71.687 Y84.123 E2.03023
G1 X71.874 Y84.474 E2.04534
G1 X71.990 Y84.854 E2.06046
G1 X72.029 Y85.250 E2.07558
G1 X71.990 Y85.646 E2.09069
G1 X71.874 Y86.026 E2.10581
G1 X71.687 Y86.377 E2.12092
G1 X71.435 Y86.685 E2.13604
G1 X71.127 Y86.937 E2.15115
G1 X70.776 Y87.124 E2.16627
G1 X70.396 Y87.240 E2.18138
G1 X70.000 Y87.279 E2.19650
G1 X69.604 Y87.240 E2.21162
G1 X69.224 Y87.124 E2.22673
G1 X68.873 Y86.937 E2.24185
G1 X68.565 Y86.685 E2.25696
G1 X68.313 Y86.377 E2.27208
G1 X68.126 Y86.026 E2.28719
G1 X68.010 Y85.646 E2.30231
G1 X67.971 Y85.250 E2.31742
G1 X68.010 Y84.854 E2.33254
G1 X68.126 Y84.474 E2.34765
G1 X68.313 Y84.123 E2.36277
G1 X68.565 Y83.815 E2.37789
G1 X68.873 Y83.563 E2.39300
G1 X69.224 Y83.376 E2.40811
G1 X69.604 Y83.260 E2.42323
G1 X70.000 Y83.221 E2.43834
G1 X70.396 Y83.260 E2.45346
G1 X70.776 Y83.376 E2.46858
G1 X71.041 Y83.517 E2.47996
G1 F1680.000 E0.47996
G92 E0
G1 X68.827 Y103.774 F12000.000
G1 F1680.000 E2.00000
G1 X68.827 Y112.726 F900.000 E2.34021
G1 X64.173 Y112.726 E2.51711
G1 X64.173 Y103.774 E2.85732
G1 X68.729 Y103.774 E3.03048
G1 X76.173 Y103.774 F12000.000
G1 X80.827 Y103.774 F900.000 E3.20737
G1 X80.827 Y112.726 E3.54759
G1 X76.173 Y112.726 E3.72448
G1 X76.173 Y103.872 E4.06096
G1 F1680.000 E2.06096
G92 E0
G1 X89.173 Y103.774 F12000.000
G1 F1680.000 E2.00000
G1 X93.827 Y103.774 F900.000 E2.17689
G1 X93.827 Y112.726 E2.51711
G1 X89.173 Y112.726 E2.69400
G1 X89.173 Y103.872 E3.03048
G1 F1680.000 E1.03048
G92 E0
G1 X101.173 Y103.774 F12000.000
G1 F1680.000 E2.00000
G1 X105.827 Y103.774 F900.000 E2.17689
G1 X105.827 Y112.726 E2.51711
G1 X101.173 Y112.726 E2.69400
G1 X101.173 Y103.872 E3.03048
G1 F1680.000 E1.03048
G92 E0
G1 X113.525 Y96.112 F12000.000
G1 F1680.000 E2.00000
G1 X113.673 Y96.345 F720.000 E2.01049
G1 X113.673 Y113.614 E2.66682
G1 X107.364 Y119.923 E3.00588
G1 X62.636 Y119.923 E4.70580
G1 X56.327 Y113.614 E5.04486
G1 X56.327 Y96.345 E5.70119
G1 X63.827 Y84.503 E6.23391
G1 X63.827 Y59.886 E7.16949
G1 X73.636 Y50.077 E7.69666
G1 X96.364 Y50.077 E8.56048
G1 X106.173 Y59.886 E9.08765
G1 X106.173 Y84.503 E10.02323
G1 X113.472 Y96.029 E10.54173
G1 X113.198 Y103.734 F12000.000
G1 X77.665 Y68.200 F1200.000 E12.45481
G1 X76.738 Y68.200 F12000.000
G1 X113.198 Y104.661 F1200.000 E14.41781
G1 X113.198 Y105.588 E14.45311
G1 X65.997 Y58.387 E16.99437
G1 X65.533 Y58.850 E17.01933
G1 X113.198 Y106.515 E19.58556
G1 X113.198 Y107.443 E19.62086
G1 X65.070 Y59.314 E22.21204
G1 X64.606 Y59.778 E22.23700
G1 X113.198 Y108.370 E24.85314
G1 X107.841 Y118.775 F12000.000
G1 X102.267 Y113.200 F1200.000 E25.15327
G1 X103.194 Y113.200 E25.18857
G1 X108.305 Y118.311 E25.46374
G1 X108.769 Y117.848 E25.48870
G1 X104.121 Y113.200 E25.73891
G1 X105.048 Y113.200 E25.77420
G1 X109.232 Y117.384 E25.99945
G1 X109.696 Y116.920 E26.02441
G1 X105.976 Y113.200 E26.22470
G1 X106.302 Y112.599 E26.25074
G1 X110.159 Y116.457 E26.45844
G1 X110.623 Y115.993 E26.48340
G1 X106.302 Y111.672 E26.71605
G1 X106.302 Y110.745 E26.75135
G1 X111.087 Y115.530 E27.00897
G1 X111.550 Y115.066 E27.03392
G1 X106.302 Y109.818 E27.31650
G1 X106.302 Y108.890 E27.35180
G1 X112.014 Y114.603 E27.65933
G1 X112.477 Y114.139 E27.68429
G1 X106.302 Y107.963 E28.01678
G1 X106.302 Y107.036 E28.05208
G1 X112.941 Y113.675 E28.40953
G1 X113.198 Y113.006 E28.43685
G1 X106.302 Y106.109 E28.80816
G1 X106.302 Y105.182 E28.84346
G1 X113.198 Y112.078 E29.21477
G1 X113.198 Y111.151 E29.25006
G1 X106.302 Y104.255 E29.62137
G1 X106.302 Y103.327 E29.65667
G1 X113.198 Y110.224 E30.02798
G1 X113.198 Y109.297 E30.06328
G1 X64.302 Y60.400 E32.69582
G1 X64.302 Y61.327 E32.73112
G1 X106.274 Y103.300 E34.99086
G1 X105.347 Y103.300 E35.02615
G1 X64.302 Y62.255 E37.23598
G1 X64.302 Y63.182 E37.27127
G1 X104.420 Y103.300 E39.43118
G1 X103.492 Y103.300 E39.46648
G1 X64.302 Y64.109 E41.57646
G1 X64.302 Y65.036 E41.61176
G1 X102.565 Y103.300 E43.67183
G1 X101.638 Y103.300 E43.70713
G1 X64.302 Y65.963 E45.71728
G1 X64.302 Y66.890 E45.75257
G1 X100.711 Y103.300 E47.71281
G1 X100.698 Y104.214 E47.74763
G1 X64.302 Y67.818 E49.70718
G1 X64.302 Y68.745 E49.74248
G1 X100.698 Y105.141 E51.70203
G1 X100.698 Y106.069 E51.73733
G1 X64.302 Y69.672 E53.69688
G1 X64.302 Y70.599 E53.73218
G1 X100.698 Y106.996 E55.69174
G1 X100.698 Y107.923 E55.72703
G1 X64.302 Y71.526 E57.68659
G1 X64.302 Y72.453 E57.72188
G1 X100.698 Y108.850 E59.68144
G1 X100.698 Y109.777 E59.71673
G1 X94.302 Y103.381 E60.06113
G1 X94.302 Y104.308 E60.09642
G1 X100.698 Y110.705 E60.44081
G1 X100.698 Y111.632 E60.47611
G1 X94.302 Y105.235 E60.82050
G1 X94.302 Y106.162 E60.85580
G1 X100.698 Y112.559 E61.20019
G1 X101.340 Y113.200 F12000.000
G1 X107.378 Y119.238 F1200.000 E61.52528
G1 X106.661 Y119.448 E61.55373
G1 X94.302 Y107.089 E62.21912
G1 X94.302 Y108.017 E62.25442
G1 X105.733 Y119.448 E62.86990
G1 X104.806 Y119.448 E62.90519
G1 X94.302 Y108.944 E63.47075
G1 X94.302 Y109.871 E63.50605
G1 X103.879 Y119.448 E64.02169
G1 X102.952 Y119.448 E64.05699
G1 X94.302 Y110.798 E64.52271
G1 X94.302 Y111.725 E64.55800
G1 X102.025 Y119.448 E64.97381
G1 X101.098 Y119.448 E65.00911
G1 X94.302 Y112.652 E65.37499
G1 X93.922 Y113.200 E65.40036
G1 X100.170 Y119.448 E65.73675
G1 X99.243 Y119.448 E65.77205
G1 X92.995 Y113.200 E66.10844
G1 X92.068 Y113.200 E66.14373
G1 X98.316 Y119.448 E66.48012
G1 X97.389 Y119.448 E66.51542
G1 X91.141 Y113.200 E66.85181
G1 X90.214 Y113.200 E66.88711
G1 X96.462 Y119.448 E67.22350
G1 X95.535 Y119.448 E67.25879
G1 X89.286 Y113.200 E67.59518
G1 X88.698 Y112.612 F12000.000
G1 X81.302 Y105.215 F1200.000 E67.99341
G1 X81.302 Y106.143 E68.02871
G1 X94.607 Y119.448 E68.74507
G1 X93.680 Y119.448 E68.78037
G1 X81.302 Y107.070 E69.44682
G1 X81.302 Y107.997 E69.48211
G1 X92.753 Y119.448 E70.09864
G1 X91.826 Y119.448 E70.13394
G1 X81.302 Y108.924 E70.70055
G1 X81.302 Y109.851 E70.73585
G1 X90.899 Y119.448 E71.25254
G1 X89.971 Y119.448 E71.28783
G1 X81.302 Y110.779 E71.75461
G1 X81.302 Y111.706 E71.78990
G1 X89.044 Y119.448 E72.20676
G1 X88.117 Y119.448 E72.24206
G1 X81.302 Y112.633 E72.60899
G1 X80.942 Y113.200 E72.63457
G1 X87.190 Y119.448 E72.97096
G1 X86.263 Y119.448 E73.00626
G1 X80.015 Y113.200 E73.34265
G1 X79.087 Y113.200 E73.37794
G1 X85.336 Y119.448 E73.71433
G1 X84.408 Y119.448 E73.74963
G1 X78.160 Y113.200 E74.08602
G1 X77.233 Y113.200 E74.12132
G1 X83.481 Y119.448 E74.45771
G1 X82.554 Y119.448 E74.49301
G1 X76.306 Y113.200 E74.82940
G1 X75.698 Y112.593 F12000.000
G1 X69.302 Y106.196 F1200.000 E75.17379
G1 X69.302 Y105.269 E75.20908
G1 X75.698 Y111.665 E75.55348
G1 X75.698 Y110.738 E75.58877
G1 X69.302 Y104.342 E75.93316
G1 X69.302 Y103.414 E75.96846
G1 X75.698 Y109.811 E76.31285
G1 X75.698 Y108.884 E76.34815
G1 X59.320 Y92.506 E77.22993
G1 X58.961 Y93.073 E77.25551
G1 X69.187 Y103.300 E77.80608
G1 X68.260 Y103.300 E77.84138
G1 X58.601 Y93.641 E78.36138
G1 X58.242 Y94.209 E78.38696
G1 X67.333 Y103.300 E78.87641
G1 X66.405 Y103.300 E78.91171
G1 X57.882 Y94.776 E79.37059
G1 X57.523 Y95.344 E79.39617
G1 X65.478 Y103.300 E79.82449
G1 X64.551 Y103.300 E79.85979
G1 X57.163 Y95.912 E80.25755
G1 X56.804 Y96.479 E80.28313
G1 X63.698 Y103.374 E80.65434
G1 X63.698 Y104.301 E80.68963
G1 X56.802 Y97.405 E81.06094
G1 X56.802 Y98.332 E81.09624
G1 X63.698 Y105.229 E81.46755
G1 X63.698 Y106.156 E81.50285
G1 X56.802 Y99.259 E81.87416
G1 X56.802 Y100.186 E81.90946
G1 X63.698 Y107.083 E82.28077
G1 X63.698 Y108.010 E82.31607
G1 X56.802 Y101.113 E82.68738
G1 X56.802 Y102.041 E82.72267
G1 X63.698 Y108.937 E83.09398
G1 X63.698 Y109.864 E83.12928
G1 X56.802 Y102.968 E83.50059
G1 X56.802 Y103.895 E83.53589
G1 X63.698 Y110.792 E83.90720
G1 X63.698 Y111.719 E83.94250
G1 X56.802 Y104.822 E84.31381
G1 X56.802 Y105.749 E84.34911
G1 X63.698 Y112.646 E84.72042
G1 X64.253 Y113.200 F12000.000
G1 X70.501 Y119.448 F1200.000 E85.05681
G1 X69.574 Y119.448 E85.09210
G1 X56.802 Y106.676 E85.77973
G1 X56.802 Y107.604 E85.81503
G1 X68.646 Y119.448 E86.45273
G1 X67.719 Y119.448 E86.48803
G1 X56.802 Y108.531 E87.07582
G1 X56.802 Y109.458 E87.11112
G1 X66.792 Y119.448 E87.64899
G1 X65.865 Y119.448 E87.68429
G1 X56.802 Y110.385 E88.17224
G1 X56.802 Y111.312 E88.20754
G1 X64.938 Y119.448 E88.64558
G1 X64.011 Y119.448 E88.68087
G1 X56.802 Y112.239 E89.06899
G1 X56.802 Y113.167 E89.10429
G1 X63.083 Y119.448 E89.44249
G1 X71.428 Y119.448 F12000.000
G1 X65.180 Y113.200 F1200.000 E89.77888
G1 X66.107 Y113.200 E89.81417
G1 X72.355 Y119.448 E90.15056
G1 X73.282 Y119.448 E90.18586
G1 X67.034 Y113.200 E90.52225
G1 X67.961 Y113.200 E90.55755
G1 X74.209 Y119.448 E90.89394
G1 X75.137 Y119.448 E90.92924
G1 X68.889 Y113.200 E91.26563
G1 X69.302 Y112.686 E91.29073
G1 X76.064 Y119.448 E91.65480
G1 X76.991 Y119.448 E91.69010
G1 X69.302 Y111.759 E92.10408
G1 X69.302 Y110.832 E92.13938
G1 X77.918 Y119.448 E92.60328
G1 X78.845 Y119.448 E92.63858
G1 X69.302 Y109.905 E93.15240
G1 X69.302 Y108.977 E93.18770
G1 X79.773 Y119.448 E93.75144
G1 X80.700 Y119.448 E93.78674
G1 X69.302 Y108.050 E94.40040
G1 X69.302 Y107.123 F12000.000
G1 X81.627 Y119.448 F1200.000 E95.06397
G1 X88.698 Y111.685 F12000.000
G1 X81.302 Y104.288 F1200.000 E95.46220
G1 X81.302 Y103.361 F12000.000
G1 X88.698 Y110.758 F1200.000 E95.86043
G1 X88.698 Y109.831 E95.89573
G1 X63.994 Y85.126 E97.22578
G1 X64.302 Y84.507 E97.25212
G1 X88.698 Y108.903 E98.56561
G1 F1680.000 E96.56561
G92 E0
G1 X91.439 Y103.300 F12000.000
G1 F1680.000 E2.00000
G1 X72.182 Y84.042 F1200.000 E3.03679
G1 X72.502 Y85.289 E3.08580
G1 X90.512 Y103.300 E4.05546
G1 X89.585 Y103.300 E4.09076
G1 X72.356 Y86.071 E5.01831
G1 X72.046 Y86.688 E5.04459
G1 X88.698 Y103.340 E5.94115
G1 X88.698 Y104.268 E5.97645
G1 X71.596 Y87.166 E6.89720
G1 X71.030 Y87.527 E6.92276
G1 X88.698 Y105.195 E7.87399
G1 X88.698 Y106.122 E7.90929
G1 X70.302 Y87.726 E8.89972
G1 X69.289 Y87.640 E8.93841
G1 X88.698 Y107.049 E9.98337
G1 X88.698 Y107.976 E10.01867
G1 X64.302 Y83.580 E11.33216
G1 X64.302 Y82.652 E11.36746
G1 X67.610 Y85.961 E11.54557
G1 X67.524 Y84.948 E11.58427
G1 X64.302 Y81.725 E11.75777
G1 X64.302 Y80.798 E11.79307
G1 X67.723 Y84.220 E11.97729
G1 X68.084 Y83.654 E12.00285
G1 X64.302 Y79.871 E12.20651
G1 X64.302 Y78.944 E12.24181
G1 X68.562 Y83.204 E12.47119
G1 X69.179 Y82.893 E12.49747
G1 X64.302 Y78.017 E12.76004
G1 X64.302 Y77.089 E12.79534
G1 X69.961 Y82.748 E13.10001
G1 X71.208 Y83.068 E13.14902
G1 X64.302 Y76.162 E13.52083
G1 X64.302 Y75.235 E13.55613
G1 X92.366 Y103.300 E15.06710
G1 X93.294 Y103.300 E15.10240
G1 X64.302 Y74.308 E16.66329
G1 X64.302 Y73.381 E16.69858
G1 X94.221 Y103.300 E18.30939
G1 F1680.000 E16.30939
G92 E0
G1 X81.240 Y103.300 F12000.000
G1 F1680.000 E2.00000
G1 X63.634 Y85.694 F1200.000 E2.94788
G1 X63.275 Y86.262 E2.97346
G1 X80.313 Y103.300 E3.89077
G1 X79.386 Y103.300 E3.92607
G1 X62.915 Y86.829 E4.81282
G1 X62.556 Y87.397 E4.83840
G1 X78.459 Y103.300 E5.69459
G1 X77.532 Y103.300 E5.72989
G1 X62.196 Y87.965 E6.55552
G1 X61.837 Y88.532 E6.58110
G1 X76.604 Y103.300 E7.37616
G1 X75.698 Y103.321 E7.41067
G1 X61.477 Y89.100 E8.17631
G1 X61.118 Y89.668 E8.20189
G1 X75.698 Y104.248 E8.98689
G1 X75.698 Y105.175 E9.02218
G1 X60.758 Y90.235 E9.82654
G1 X60.399 Y90.803 E9.85212
G1 X75.698 Y106.102 E10.67583
G1 X75.698 Y107.030 E10.71113
G1 X60.039 Y91.370 E11.55419
G1 X59.680 Y91.938 E11.57977
G1 X75.698 Y107.957 E12.44220
G1 X76.198 Y67.661 F12000.000
G1 X66.461 Y57.923 F1200.000 E12.96647
G1 X66.924 Y57.460 E12.99143
G1 X76.198 Y66.734 E13.49074
G1 X76.198 Y65.807 E13.52604
G1 X67.388 Y56.996 E14.00040
G1 X67.851 Y56.532 E14.02536
G1 X76.198 Y64.879 E14.47475
G1 X76.198 Y63.952 E14.51005
G1 X68.315 Y56.069 E14.93449
G1 X68.778 Y55.605 E14.95944
G1 X76.198 Y63.025 E15.35892
G1 X76.198 Y62.098 E15.39422
G1 X69.242 Y55.142 E15.76874
G1 X69.706 Y54.678 E15.79370
G1 X76.198 Y61.171 E16.14326
G1 X76.198 Y60.244 E16.17856
G1 X70.169 Y54.214 E16.50316
G1 X70.633 Y53.751 E16.52812
G1 X76.198 Y59.316 E16.82776
G1 X76.198 Y58.389 E16.86306
G1 X71.096 Y53.287 E17.13774
G1 X71.560 Y52.824 E17.16270
G1 X77.036 Y58.300 E17.45752
G1 X77.963 Y58.300 E17.49282
G1 X72.024 Y52.360 E17.81260
G1 X72.487 Y51.897 E17.83756
G1 X78.890 Y58.300 E18.18230
G1 X79.818 Y58.300 E18.21759
G1 X72.951 Y51.433 E18.58729
G1 X73.414 Y50.969 E18.61225
G1 X80.745 Y58.300 E19.00691
G1 X81.672 Y58.300 E19.04221
G1 X73.924 Y50.552 E19.45936
G1 X74.851 Y50.552 E19.49465
G1 X88.198 Y63.899 E20.21326
G1 X88.198 Y62.972 E20.24856
G1 X75.778 Y50.552 E20.91724
G1 X76.705 Y50.552 E20.95254
G1 X88.198 Y62.045 E21.57131
G1 X88.198 Y61.117 E21.60661
G1 X77.633 Y50.552 E22.17546
