; generated by Slic3r 1.2.6 on 2015-04-05 at 23:51:47

; external perimeters extrusion width = 0.50mm
; perimeters extrusion width = 0.50mm
; infill extrusion width = 0.50mm
; solid infill extrusion width = 0.50mm
; top infill extrusion width = 0.50mm

M104 S190 ; set temperature
G28 ; home all axes
G1 Z15 F120 ; lift nozzle
M109 S190 ; wait for temperature to be reached
G21 ; set units to millimeters
G90 ; use absolute coordinates
M82 ; use absolute distances for extrusion
G92 E0
M106 S102
G1 E-2.00000 F1680.00000
G92 E0
G1 Z0.350 F12000.000
G1 X43.799 Y14.871 F12000.000
G1 E2.00000 F1680.00000
G1 X44.620 Y12.765 E2.06363 F1200.000
G1 X46.119 Y11.073 E2.12726
G1 X48.793 Y9.820 E2.21041
G1 X49.676 Y9.636 E2.23579
G1 X51.154 Y9.406 E2.27792
G1 X93.775 Y4.382 E3.48608
G1 X95.198 Y4.270 E3.52627
G1 X96.060 Y4.246 E3.55053
G1 X96.753 Y4.265 E3.57006
G1 X98.919 Y4.439 E3.63124 F1200.000
G1 X100.192 Y4.672 E3.66766
G1 X116.774 Y9.475 E4.15366
G1 X117.959 Y9.876 E4.18887
G1 X118.786 Y10.229 E4.21420
G1 X119.588 Y10.639 E4.23954
G1 X120.358 Y11.104 E4.26488
G1 X121.078 Y11.610 E4.28966
G1 X121.794 Y12.195 E4.31567
G1 X122.432 Y12.797 E4.34038
G1 X123.055 Y13.476 E4.36632
G1 X123.607 Y14.172 E4.39132
G1 X124.115 Y14.913 E4.41660
G1 X124.576 Y15.699 E4.44227
G1 X124.953 Y16.448 E4.46588
G1 X125.324 Y17.324 E4.49267
G1 X125.589 Y18.075 E4.51506
G1 X125.959 Y19.424 E4.55446
G1 X137.997 Y74.850 E6.15118
G1 X138.143 Y76.216 E6.18985
G1 X138.143 Y84.811 E6.43182
G1 X138.107 Y85.872 E6.46170
G1 X138.071 Y86.339 E6.47490
G1 X134.004 Y122.519 E7.49985
G1 X133.700 Y123.876 E7.53900
G1 X124.008 Y152.314 E8.38480
G1 X123.758 Y153.028 E8.40608
G1 X123.360 Y153.933 E8.43390
G1 X123.044 Y154.524 E8.45280
G1 X122.474 Y155.409 E8.48242
G1 X122.073 Y155.932 E8.50097
G1 X121.321 Y156.754 E8.53235
G1 X120.828 Y157.206 E8.55117
G1 X119.949 Y157.884 E8.58243
G1 X119.357 Y158.264 E8.60223
G1 X118.493 Y158.729 E8.62984
G1 X117.802 Y159.036 E8.65114
G1 X116.945 Y159.345 E8.67678
G1 X116.147 Y159.572 E8.70013
G1 X115.339 Y159.745 E8.72339
G1 X73.941 Y165.632 E9.90056
G1 X73.262 Y165.713 E9.91979
G1 X72.010 Y165.736 E9.95505
G1 X53.096 Y164.237 E10.48918
G1 X51.833 Y164.078 E10.52502
G1 X50.587 Y163.849 E10.56070
G1 X48.476 Y163.040 E10.62433
G1 X46.776 Y161.551 E10.68797
G1 X45.645 Y159.411 E10.75610
G1 X36.046 Y128.035 E11.67981
G1 X35.783 Y126.651 E11.71947
G1 X31.876 Y76.395 E13.13854
G1 X31.979 Y74.647 E13.18782
G1 X43.785 Y14.945 E14.90110
G1 E12.90110 F1680.00000
G92 E0
G1 X46.191 Y94.032 F12000.000
G1 E2.00000 F1680.00000
G1 X45.729 Y93.037 E2.02857 F900.000
G1 X44.523 Y90.328 E2.10574
G1 X43.933 Y88.943 E2.14494
G1 X42.739 Y86.018 E2.22715
G1 X41.549 Y82.948 E2.31286
G1 X40.900 Y81.218 E2.36096
G1 X39.217 Y76.536 E2.49046
G1 X64.324 Y76.165 E3.14404
G1 X67.093 Y76.168 E3.21611
G1 X125.958 Y76.229 E4.74830 F900.000
G1 X127.174 Y76.255 E4.77997
G1 X128.292 Y76.332 E4.80913
G1 X129.326 Y76.460 E4.83626
G1 X131.054 Y76.759 E4.88189
G1 X131.054 Y84.798 E5.09115
G1 X131.024 Y85.567 E5.11118
G1 X130.936 Y86.273 E5.12970
G1 X130.792 Y86.923 E5.14702
G1 X130.590 Y87.500 E5.16293
G1 X130.323 Y88.000 E5.17770
G1 X129.989 Y88.435 E5.19197
G1 X129.580 Y88.811 E5.20642
G1 X129.078 Y89.133 E5.22196
G1 X128.474 Y89.401 E5.23915
G1 X127.763 Y89.602 E5.25838
G1 X85.974 Y95.532 E6.35702
G1 X69.879 Y96.233 E6.77635
G1 X46.266 Y94.039 E7.39362
G1 X46.229 Y94.441 F12000.000
G1 X45.923 Y94.412 E7.40160 F720.000
G1 X45.362 Y93.204 E7.43629
G1 X44.153 Y90.489 E7.51364
G1 X43.560 Y89.098 E7.55300
G1 X42.364 Y86.168 E7.63538
G1 X41.172 Y83.092 E7.72124
G1 X40.522 Y81.357 E7.76947
G1 X38.647 Y76.141 E7.91375
G1 X64.321 Y75.762 E8.58211
G1 X67.093 Y75.765 E8.65426
G1 X125.962 Y75.826 E10.18656 F720.000
G1 X127.192 Y75.852 E10.21858
G1 X128.331 Y75.930 E10.24828
G1 X129.383 Y76.061 E10.27588
G1 X130.310 Y76.209 E10.30032
G1 X131.457 Y76.424 E10.33069
G1 X131.457 Y84.806 E10.54888
G1 X131.426 Y85.600 E10.56956
G1 X131.334 Y86.341 E10.58901
G1 X131.181 Y87.033 E10.60746
G1 X130.961 Y87.662 E10.62480
G1 X130.663 Y88.219 E10.64124
G1 X130.288 Y88.709 E10.65729
G1 X129.827 Y89.132 E10.67356
G1 X129.270 Y89.489 E10.69081
G1 X128.612 Y89.781 E10.70955
G1 X127.847 Y89.998 E10.73023
G1 X86.510 Y95.876 E11.81702
G1 X86.006 Y95.935 E11.83024
G1 X69.869 Y96.637 E12.25066
G1 X46.303 Y94.448 E12.86669
G1 X46.101 Y94.162 F12000.000
G1 X46.517 Y93.830 F12000.000
G1 X46.283 Y93.596 E12.87532 F1200.000
G1 X45.798 Y92.540 F12000.000
G1 X47.146 Y93.889 E12.92496 F1200.000
G1 X47.776 Y93.947 E12.94141
G1 X45.340 Y91.512 E13.03107
G1 X44.882 Y90.483 F12000.000
G1 X48.405 Y94.006 E13.16075 F1200.000
G1 X49.034 Y94.064 E13.17720
G1 X44.447 Y89.477 E13.34609
G1 X44.031 Y88.490 F12000.000
G1 X49.663 Y94.123 E13.55345 F1200.000
G1 X50.292 Y94.181 E13.56990
G1 X43.637 Y87.526 E13.81491
G1 X43.243 Y86.562 F12000.000
G1 X50.921 Y94.240 E14.09758 F1200.000
G1 X51.550 Y94.298 E14.11403
G1 X42.857 Y85.605 E14.43407
G1 X42.496 Y84.673 F12000.000
G1 X52.179 Y94.356 E14.79058 F1200.000
G1 X52.808 Y94.415 E14.80703
G1 X42.135 Y83.742 E15.19999
G1 X41.774 Y82.810 F12000.000
G1 X53.437 Y94.473 E15.62940 F1200.000
G1 X54.067 Y94.532 E15.64585
G1 X41.430 Y81.896 E16.11108
G1 X41.089 Y80.984 F12000.000
G1 X54.696 Y94.590 E16.61203 F1200.000
G1 X55.325 Y94.649 E16.62848
G1 X40.769 Y80.093 E17.16438
G1 X40.449 Y79.202 F12000.000
G1 X55.954 Y94.707 E17.73524 F1200.000
G1 X56.583 Y94.766 E17.75169
G1 X40.128 Y78.311 E18.35750
G1 X39.808 Y77.420 F12000.000
G1 X57.212 Y94.824 E18.99826 F1200.000
G1 X57.841 Y94.883 E19.01471
G1 X39.709 Y76.750 E19.68229
G1 X40.271 Y76.742 E19.69693
G1 X58.470 Y94.941 E20.36698
G1 X59.099 Y94.999 E20.38342
G1 X40.833 Y76.734 E21.05592
G1 X41.396 Y76.725 E21.07056
G1 X59.728 Y95.058 E21.74552
G1 X60.358 Y95.116 E21.76197
G1 X41.958 Y76.717 E22.43938
G1 X42.520 Y76.709 E22.45402
G1 X60.987 Y95.175 E23.13390
G1 X61.616 Y95.233 E23.15035
G1 X43.083 Y76.700 E23.83267
G1 X43.645 Y76.692 E23.84732
G1 X62.245 Y95.292 E24.53210
G1 X62.874 Y95.350 E24.54855
G1 X44.208 Y76.684 E25.23580
G1 X44.770 Y76.676 E25.25044
G1 X63.503 Y95.409 E25.94014
G1 X64.132 Y95.467 E25.95659
G1 X45.332 Y76.667 E26.64875
G1 X45.895 Y76.659 E26.66339
G1 X64.761 Y95.526 E27.35801
G1 X65.390 Y95.584 E27.37446
G1 X46.457 Y76.651 E28.07154
G1 X47.019 Y76.642 E28.08618
G1 X66.019 Y95.643 E28.78571
G1 X66.648 Y95.701 E28.80216
G1 X47.582 Y76.634 E29.50415
G1 X48.144 Y76.626 E29.51879
G1 X67.278 Y95.759 E30.22324
G1 X67.907 Y95.818 E30.23969
G1 X48.706 Y76.617 E30.94660
G1 X49.269 Y76.609 E30.96124
G1 X68.536 Y95.876 E31.67060
G1 X69.165 Y95.935 E31.68705
G1 X49.831 Y76.601 E32.39887
G1 X50.393 Y76.593 E32.41352
G1 X69.794 Y95.993 E33.12780
G1 X70.364 Y95.993 E33.14264
G1 X50.956 Y76.584 E33.85720
G1 X51.518 Y76.576 E33.87185
G1 X70.911 Y95.969 E34.58584
G1 X71.458 Y95.945 E34.60009
G1 X52.080 Y76.568 E35.31351
G1 X52.643 Y76.559 E35.32815
G1 X72.005 Y95.921 E36.04100
G1 X72.551 Y95.897 E36.05525
G1 X53.205 Y76.551 E36.76753
G1 X53.767 Y76.543 E36.78218
G1 X73.098 Y95.874 E37.49388
G1 X73.645 Y95.850 E37.50813
G1 X54.330 Y76.534 E38.21927
G1 X54.892 Y76.526 E38.23391
G1 X74.192 Y95.826 E38.94448
G1 X74.739 Y95.802 E38.95873
G1 X55.454 Y76.518 E39.66872
G1 X56.017 Y76.510 E39.68336
G1 X75.285 Y95.778 E40.39279
G1 X75.832 Y95.755 E40.40703
G1 X56.579 Y76.501 E41.11589
G1 X57.141 Y76.493 E41.13053
G1 X76.379 Y95.731 E41.83881
G1 X76.926 Y95.707 E41.85306
G1 X57.704 Y76.485 E42.56077
G1 X58.266 Y76.476 E42.57541
G1 X77.473 Y95.683 E43.28254
G1 X78.020 Y95.659 E43.29679
G1 X58.828 Y76.468 E44.00336
G1 X59.391 Y76.460 E44.01800
G1 X78.566 Y95.635 E44.72399
G1 X79.113 Y95.612 E44.73824
G1 X59.953 Y76.452 E45.44367
G1 X60.515 Y76.443 E45.45831
G1 X79.660 Y95.588 E46.16316
G1 X80.207 Y95.564 E46.17741
G1 X61.078 Y76.435 E46.88169
G1 X61.640 Y76.427 E46.89633
G1 X80.754 Y95.540 E47.60004
G1 X81.300 Y95.516 E47.61429
G1 X62.202 Y76.418 E48.31742
G1 X62.765 Y76.410 E48.33207
G1 X81.847 Y95.493 E49.03463
G1 X82.394 Y95.469 E49.04888
G1 X63.327 Y76.402 E49.75087
G1 X63.889 Y76.393 E49.76552
G1 X82.941 Y95.445 E50.46694
G1 X83.488 Y95.421 E50.48119
G1 X64.455 Y76.388 E51.18192
G1 X65.026 Y76.389 E51.19679
G1 X84.035 Y95.397 E51.89662
G1 X84.581 Y95.373 E51.91087
G1 X65.598 Y76.390 E52.60980
G1 X66.169 Y76.390 E52.62467
G1 X85.128 Y95.350 E53.32270
G1 X85.675 Y95.326 E53.33695
G1 X66.740 Y76.391 E54.03408
G1 X67.311 Y76.391 E54.04895
G1 X86.205 Y95.286 E54.74458
G1 X86.705 Y95.215 E54.75772
G1 X67.883 Y76.392 E55.45072
G1 X68.454 Y76.393 E55.46559
G1 X87.205 Y95.144 E56.15595
G1 X87.705 Y95.073 E56.16909
G1 X69.025 Y76.393 E56.85682
G1 X69.596 Y76.394 E56.87169
G1 X88.204 Y95.002 E57.55679
G1 X88.704 Y94.931 E57.56993
G1 X70.167 Y76.394 E58.25240
G1 X70.739 Y76.395 E58.26727
G1 X89.204 Y94.860 E58.94710
G1 X89.704 Y94.789 E58.96024
G1 X71.310 Y76.396 E59.63744
G1 X71.881 Y76.396 E59.65231
G1 X90.203 Y94.718 E60.32688
G1 X90.703 Y94.647 E60.34002
G1 X72.452 Y76.397 E61.01196
G1 X73.024 Y76.397 E61.02683
G1 X91.203 Y94.576 E61.69613
G1 X91.702 Y94.506 E61.70927
G1 X73.595 Y76.398 E62.37594
G1 X74.166 Y76.399 E62.39081
G1 X92.202 Y94.435 E63.05485
G1 X92.702 Y94.364 E63.06799
G1 X74.737 Y76.399 E63.72940
G1 X75.309 Y76.400 E63.74427
G1 X93.202 Y94.293 E64.40304
G1 X93.701 Y94.222 E64.41618
G1 X75.880 Y76.400 E65.07232
G1 X76.451 Y76.401 E65.08719
G1 X94.201 Y94.151 E65.74070
G1 X94.701 Y94.080 E65.75384
G1 X77.022 Y76.402 E66.40472
G1 X77.594 Y76.402 E66.41959
G1 X95.201 Y94.009 E67.06783
G1 X95.700 Y93.938 E67.08097
G1 X78.165 Y76.403 E67.72658
G1 X78.736 Y76.403 E67.74145
G1 X96.200 Y93.867 E68.38443
G1 X96.700 Y93.796 E68.39757
G1 X79.307 Y76.404 E69.03791
G1 X79.878 Y76.405 E69.05279
G1 X97.199 Y93.726 E69.69050
G1 X97.699 Y93.655 E69.70364
G1 X80.450 Y76.405 E70.33872
G1 X81.021 Y76.406 E70.35359
G1 X98.199 Y93.584 E70.98604
G1 X98.699 Y93.513 E70.99918
G1 X81.592 Y76.406 E71.62899
G1 X82.163 Y76.407 E71.64386
G1 X99.198 Y93.442 E72.27105
G1 X99.698 Y93.371 E72.28419
G1 X82.735 Y76.407 E72.90874
G1 X83.306 Y76.408 E72.92361
G1 X100.198 Y93.300 E73.54552
G1 X100.698 Y93.229 E73.55867
G1 X83.877 Y76.409 E74.17795
G1 X84.448 Y76.409 E74.19282
G1 X101.197 Y93.158 E74.80947
G1 X101.697 Y93.087 E74.82261
G1 X85.020 Y76.410 E75.43663
G1 X85.591 Y76.410 E75.45150
G1 X102.197 Y93.016 E76.06289
G1 X102.696 Y92.946 E76.07603
G1 X86.162 Y76.411 E76.68479
G1 X86.733 Y76.412 E76.69966
G1 X103.196 Y92.875 E77.30578
G1 X103.696 Y92.804 E77.31892
G1 X87.304 Y76.412 E77.92241
G1 X87.876 Y76.413 E77.93728
G1 X104.196 Y92.733 E78.53814
G1 X104.695 Y92.662 E78.55128
G1 X88.447 Y76.413 E79.14950
G1 X89.018 Y76.414 E79.16437
G1 X105.195 Y92.591 E79.75997
G1 X105.695 Y92.520 E79.77311
G1 X89.589 Y76.415 E80.36607
G1 X90.161 Y76.415 E80.38094
G1 X106.195 Y92.449 E80.97126
G1 X106.694 Y92.378 E80.98440
G1 X90.732 Y76.416 E81.57210
G1 X91.303 Y76.416 E81.58697
G1 X107.194 Y92.307 E82.17203
G1 X107.694 Y92.236 E82.18517
G1 X91.874 Y76.417 E82.76760
G1 X92.446 Y76.418 E82.78247
G1 X108.194 Y92.166 E83.36227
G1 X108.693 Y92.095 E83.37541
G1 X93.017 Y76.418 E83.95257
G1 X93.588 Y76.419 E83.96744
G1 X109.193 Y92.024 E84.54198
G1 X109.693 Y91.953 E84.55512
G1 X94.159 Y76.419 E85.12702
G1 X94.730 Y76.420 E85.14189
G1 X110.192 Y91.882 E85.71115
G1 X110.692 Y91.811 E85.72429
G1 X95.302 Y76.421 E86.29093
G1 X95.873 Y76.421 E86.30580
G1 X111.192 Y91.740 E86.86980
G1 X111.692 Y91.669 E86.88294
G1 X96.444 Y76.422 E87.44431
G1 X97.015 Y76.422 E87.45918
G1 X112.191 Y91.598 E88.01792
G1 X112.691 Y91.527 E88.03106
G1 X97.587 Y76.423 E88.58716
G1 X98.158 Y76.423 E88.60203
G1 X113.191 Y91.456 E89.15550
G1 X113.691 Y91.386 E89.16864
G1 X98.729 Y76.424 E89.71948
G1 X99.300 Y76.425 E89.73435
G1 X114.190 Y91.315 E90.28256
G1 X114.690 Y91.244 E90.29570
G1 X99.872 Y76.425 E90.84128
G1 X100.443 Y76.426 E90.85615
G1 X115.190 Y91.173 E91.39909
G1 X115.689 Y91.102 E91.41223
G1 X101.014 Y76.426 E91.95254
G1 X101.585 Y76.427 E91.96741
G1 X116.189 Y91.031 E92.50508
G1 X116.689 Y90.960 E92.51822
G1 X102.156 Y76.428 E93.05327
G1 X102.728 Y76.428 E93.06814
G1 X117.189 Y90.889 E93.60055
G1 X117.688 Y90.818 E93.61369
G1 X103.299 Y76.429 E94.14347
G1 X103.870 Y76.429 E94.15834
G1 X118.188 Y90.747 E94.68549
G1 X118.688 Y90.676 E94.69863
G1 X104.441 Y76.430 E95.22314
G1 X105.013 Y76.431 E95.23801
G1 X119.188 Y90.605 E95.75989
G1 X119.687 Y90.535 E95.77303
G1 X105.584 Y76.431 E96.29228
G1 X106.155 Y76.432 E96.30715
G1 X120.187 Y90.464 E96.82377
G1 X120.687 Y90.393 E96.83691
G1 X106.726 Y76.432 E97.35089
G1 X107.298 Y76.433 E97.36576
G1 X121.186 Y90.322 E97.87711
G1 X121.686 Y90.251 E97.89025
G1 X107.869 Y76.434 E98.39897
G1 X108.440 Y76.434 E98.41384
G1 X122.186 Y90.180 E98.91993
G1 X122.686 Y90.109 E98.93307
G1 X109.011 Y76.435 E99.43652
G1 X109.583 Y76.435 E99.45140
G1 X123.185 Y90.038 E99.95222
G1 X123.685 Y89.967 E99.96536
G1 X110.154 Y76.436 E100.46354
G1 X110.725 Y76.437 E100.47842
G1 X124.185 Y89.896 E100.97397
G1 X124.685 Y89.825 E100.98711
G1 X111.296 Y76.437 E101.48003
G1 X111.867 Y76.438 E101.49491
G1 X125.184 Y89.755 E101.98520
G1 X125.684 Y89.684 E101.99834
G1 X112.439 Y76.438 E102.48599
G1 X113.010 Y76.439 E102.50087
G1 X126.184 Y89.613 E102.98589
G1 X126.683 Y89.542 E102.99903
G1 X113.581 Y76.439 E103.48142
G1 X114.152 Y76.440 E103.49630
G1 X127.183 Y89.471 E103.97606
G1 X127.683 Y89.400 E103.98920
G1 X114.724 Y76.441 E104.46632
G1 X115.295 Y76.441 E104.48120
G1 X128.139 Y89.285 E104.95408
G1 X128.569 Y89.145 E104.96586
G1 X115.866 Y76.442 E105.43356
G1 X116.437 Y76.442 E105.44843
G1 X128.964 Y88.970 E105.90964
G1 X129.318 Y88.753 E105.92044
G1 X117.009 Y76.443 E106.37366
G1 X117.580 Y76.444 E106.38853
G1 X129.633 Y88.497 E106.83230
G1 X129.918 Y88.212 E106.84280
G1 X118.151 Y76.444 E107.27604
G1 X118.722 Y76.445 E107.29091
G1 X130.165 Y87.887 E107.71220
G1 X130.364 Y87.516 E107.72317
G1 X119.293 Y76.445 E108.13075
G1 X119.865 Y76.446 E108.14562
G1 X130.519 Y87.100 E108.53788
G1 X130.641 Y86.652 E108.54999
G1 X120.436 Y76.447 E108.92571
G1 X121.007 Y76.447 E108.94058
G1 X130.734 Y86.174 E109.29868
G1 X130.797 Y85.666 E109.31199
G1 X121.578 Y76.448 E109.65139
G1 X122.150 Y76.448 E109.66626
G1 X130.821 Y85.120 E109.98553
G1 X130.831 Y84.559 E110.00014
G1 X122.721 Y76.449 E110.29873
G1 X123.292 Y76.450 E110.31360
G1 X130.831 Y83.988 E110.59115
G1 X130.831 Y83.418 E110.60601
G1 X123.863 Y76.450 E110.86253
G1 X124.435 Y76.451 E110.87740
G1 X130.831 Y82.847 E111.11289
G1 X130.831 Y82.276 E111.12775
G1 X125.006 Y76.451 E111.34221
G1 X125.577 Y76.452 E111.35708
G1 X130.831 Y81.706 E111.55051
G1 X130.831 Y81.135 E111.56537
G1 X126.154 Y76.458 E111.73756
G1 X126.737 Y76.471 E111.75274
G1 X130.831 Y80.564 E111.90346
G1 X130.831 Y79.994 E111.91831
G1 X127.333 Y76.496 E112.04711
G1 X127.945 Y76.538 E112.06310
G1 X130.831 Y79.423 E112.16934
G1 X130.831 Y78.853 E112.18419
G1 X128.582 Y76.604 E112.26699
G1 X129.235 Y76.687 E112.28414
G1 X130.831 Y78.282 E112.34287
G1 X130.831 Y77.711 E112.35773
G1 X129.925 Y76.806 E112.39107
G1 X130.615 Y76.925 E112.40929
G1 X130.831 Y77.141 E112.41724
G1 E110.41724 F1680.00000
G92 E0
G1 Z0.350 F12000.000
G1 X67.937 Y126.375 F12000.000
G1 E2.00000 F1680.00000
G1 X46.741 Y125.935 E2.55185 F900.000
G1 X45.374 Y125.874 E2.58747
G1 X44.458 Y125.804 E2.61136
G1 X43.565 Y125.701 E2.63477
G1 X42.854 Y125.592 E2.65349
G1 X42.854 Y108.496 E3.09848
G1 X43.126 Y108.433 E3.10575
G1 X43.969 Y108.303 E3.12795
G1 X44.904 Y108.216 E3.15239
G1 X46.891 Y108.128 E3.20417
G1 X65.931 Y107.925 E3.69978
G1 X67.177 Y107.928 E3.73222
