; generated by Slic3r 1.2.6 on 2015-04-05 at 23:53:26

; external perimeters extrusion width = 0.50mm
; perimeters extrusion width = 0.50mm
; infill extrusion width = 0.50mm
; solid infill extrusion width = 0.50mm
; top infill extrusion width = 0.50mm

M104 S190 ; set temperature
G28 ; home all axes
G1 Z15 F120 ; lift nozzle
M109 S190 ; wait for temperature to be reached
G21 ; set units to millimeters
G90 ; use absolute coordinates
M82 ; use absolute distances for extrusion
G92 E0
M106 S102
G1 E-2.00000 F1680.00000
G92 E0
G1 Z0.350 F12000.000
G1 X24.228 Y20.094 F12000.000
G1 E2.00000 F1680.00000
G1 X25.737 Y18.411 E2.06363 F1200.000
G1 X27.735 Y17.354 E2.12726
G1 X29.255 Y17.062 E2.17085
G1 X85.996 Y13.133 E3.77204
G1 X87.580 Y13.063 E3.81668
G1 X139.601 Y13.064 E5.28117
G1 X151.581 Y13.450 E5.61860 F1200.000
G1 X153.792 Y13.920 E5.68223
G1 X155.704 Y15.125 E5.74586
G1 X157.285 Y17.348 E5.82264
G1 X162.085 Y28.548 E6.16568
G1 X162.469 Y29.765 E6.20160
G1 X163.045 Y32.517 E6.28076
G1 X163.173 Y34.157 E6.32709
G1 X157.403 Y149.214 E9.57021
G1 X156.895 Y151.416 E9.63385
G1 X155.657 Y153.307 E9.69748
G1 X153.841 Y154.654 E9.76111
G1 X151.134 Y155.326 E9.83963
G1 X86.044 Y156.936 E11.67262
G1 X19.289 Y155.400 E13.55239
G1 X17.073 Y154.952 E13.61602
G1 X15.149 Y153.765 E13.67965
G1 X13.754 Y151.987 E13.74328
G1 X13.068 Y149.891 E13.80538
G1 X6.965 Y107.916 E14.99947
G1 X6.907 Y107.329 E15.01608
G1 X6.827 Y105.818 E15.05868
G1 X6.826 Y105.172 E15.07686
G1 X6.898 Y103.661 E15.11943
G1 X6.967 Y102.979 E15.13875
G1 X7.237 Y101.290 E15.18690
G1 X23.394 Y22.195 E17.45955
G1 X24.200 Y20.164 E17.52107
G1 E15.52107 F1680.00000
G92 E0
G1 X130.502 Y111.323 F12000.000
G1 E2.00000 F1680.00000
G1 X132.427 Y64.859 E3.21045 F900.000
G1 X132.497 Y63.665 E3.24158
G1 X132.699 Y62.553 E3.27098
G1 X133.035 Y61.491 E3.29998
G1 X133.498 Y60.501 E3.32843
G1 X134.084 Y59.605 E3.35631
G1 X134.795 Y58.796 E3.38433
G1 X135.626 Y58.085 E3.41281
G1 X136.576 Y57.478 E3.44215
G1 X137.646 Y56.977 E3.47289
G1 X138.832 Y56.605 E3.50526
G1 X140.142 Y56.380 E3.53985
G1 X141.582 Y56.304 E3.57739
G1 X142.959 Y56.370 E3.61326
G1 X144.343 Y56.578 E3.64970 F900.000
G1 X145.533 Y56.916 E3.68188
G1 X146.601 Y57.374 E3.71214
G1 X147.543 Y57.937 E3.74071
G1 X148.362 Y58.603 E3.76818
G1 X149.060 Y59.371 E3.79519
G1 X149.638 Y60.241 E3.82239
G1 X150.098 Y61.220 E3.85054
G1 X150.433 Y62.296 E3.87986
G1 X150.636 Y63.452 E3.91043
G1 X150.705 Y64.710 E3.94321
G1 X150.705 Y80.833 E4.36288
G1 X150.641 Y127.677 E5.58218
G1 X150.331 Y148.238 E6.11742
G1 X143.023 Y148.238 E6.30765
G1 X142.126 Y148.208 E6.33100
G1 X141.295 Y148.119 E6.35274
G1 X140.527 Y147.973 E6.37309
G1 X139.842 Y147.764 E6.39175
G1 X139.244 Y147.482 E6.40894
G1 X138.726 Y147.130 E6.42526
G1 X138.282 Y146.699 E6.44136
G1 X137.905 Y146.175 E6.45815
G1 X129.746 Y129.571 E6.93970
G1 X130.499 Y111.398 E7.41314
G1 X130.096 Y111.381 F12000.000
G1 X132.024 Y64.839 E8.62563 F720.000
G1 X132.095 Y63.617 E8.65749
G1 X132.307 Y62.456 E8.68819
G1 X132.658 Y61.344 E8.71855
G1 X133.145 Y60.304 E8.74843
G1 X133.762 Y59.360 E8.77780
G1 X134.511 Y58.508 E8.80731
G1 X135.385 Y57.760 E8.83727
G1 X136.381 Y57.124 E8.86803
G1 X137.499 Y56.601 E8.90017
G1 X138.738 Y56.212 E8.93395
G1 X140.097 Y55.979 E8.96986
G1 X141.581 Y55.900 E9.00854
G1 X142.998 Y55.968 E9.04547
G1 X144.428 Y56.183 E9.08311 F720.000
G1 X145.668 Y56.535 E9.11664
G1 X146.784 Y57.014 E9.14827
G1 X147.775 Y57.606 E9.17830
G1 X148.640 Y58.309 E9.20732
G1 X149.379 Y59.122 E9.23592
G1 X149.990 Y60.043 E9.26469
G1 X150.475 Y61.074 E9.29434
G1 X150.826 Y62.200 E9.32505
G1 X151.037 Y63.406 E9.35692
G1 X151.108 Y64.699 E9.39062
G1 X151.108 Y80.833 E9.81058
G1 X151.044 Y127.680 E11.02995
G1 X150.728 Y148.641 E11.57561
G1 X143.016 Y148.641 E11.77636
G1 X142.097 Y148.610 E11.80028
G1 X141.236 Y148.518 E11.82283
G1 X140.430 Y148.365 E11.84417
G1 X139.696 Y148.141 E11.86416
G1 X139.044 Y147.834 E11.88293
G1 X138.470 Y147.444 E11.90098
G1 X137.975 Y146.964 E11.91893
G1 X137.558 Y146.384 E11.93753
G1 X129.339 Y129.657 E12.42263
G1 X130.093 Y111.456 E12.89679
G1 X130.539 Y111.149 F12000.000
G1 X130.451 Y130.395 F12000.000
G1 X148.071 Y148.015 E13.54708 F1200.000
G1 X148.643 Y148.015 E13.56201
G1 X129.975 Y129.347 E14.25099
G1 X129.998 Y128.798 E14.26534
G1 X149.215 Y148.015 E14.97460
G1 X149.787 Y148.015 E14.98953
G1 X130.021 Y128.249 E15.71905
G1 X130.043 Y127.699 E15.73340
G1 X150.116 Y147.772 E16.47424
G1 X150.125 Y147.209 E16.48895
G1 X130.066 Y127.150 E17.22927
G1 X130.089 Y126.601 E17.24361
G1 X150.133 Y146.645 E17.98340
G1 X150.142 Y146.082 E17.99811
G1 X130.112 Y126.051 E18.73737
G1 X130.134 Y125.502 E18.75172
G1 X150.150 Y145.518 E19.49045
G1 X150.159 Y144.955 E19.50516
G1 X130.157 Y124.953 E20.24337
G1 X130.180 Y124.404 E20.25772
G1 X150.167 Y144.391 E20.99540
G1 X150.176 Y143.827 E21.01011
G1 X130.203 Y123.854 E21.74727
G1 X130.225 Y123.305 E21.76162
G1 X150.184 Y143.264 E22.49825
G1 X150.193 Y142.700 E22.51296
G1 X130.248 Y122.756 E23.24906
G1 X130.271 Y122.206 E23.26341
G1 X150.201 Y142.137 E23.99899
G1 X150.210 Y141.573 E24.01370
G1 X130.294 Y121.657 E24.74875
G1 X130.316 Y121.108 E24.76310
G1 X150.218 Y141.010 E25.49763
G1 X150.227 Y140.446 E25.51234
G1 X130.339 Y120.559 E26.24634
G1 X130.362 Y120.009 E26.26069
G1 X150.235 Y139.883 E26.99416
G1 X150.244 Y139.319 E27.00887
G1 X130.385 Y119.460 E27.74182
G1 X130.407 Y118.911 E27.75617
G1 X150.252 Y138.756 E28.48859
G1 X150.261 Y138.192 E28.50330
G1 X130.430 Y118.362 E29.23520
G1 X130.453 Y117.812 E29.24954
G1 X150.269 Y137.629 E29.98091
G1 X150.278 Y137.065 E29.99562
G1 X130.476 Y117.263 E30.72647
G1 X130.498 Y116.714 E30.74082
G1 X150.286 Y136.502 E31.47114
G1 X150.295 Y135.938 E31.48584
G1 X130.521 Y116.164 E32.21564
G1 X130.544 Y115.615 E32.22998
G1 X150.303 Y135.374 E32.95925
G1 X150.312 Y134.811 E32.97396
G1 X130.567 Y115.066 E33.70270
G1 X130.589 Y114.517 E33.71705
G1 X150.320 Y134.247 E34.44526
G1 X150.329 Y133.684 E34.45997
G1 X130.612 Y113.967 E35.18766
G1 X130.635 Y113.418 E35.20201
G1 X150.337 Y133.120 E35.92917
G1 X150.346 Y132.557 E35.94388
G1 X130.658 Y112.869 E36.67052
G1 X130.680 Y112.319 E36.68486
G1 X150.354 Y131.993 E37.41097
G1 X150.363 Y131.430 E37.42568
G1 X130.703 Y111.770 E38.15127
G1 X130.726 Y111.221 E38.16562
G1 X150.371 Y130.866 E38.89067
G1 X150.380 Y130.303 E38.90538
G1 X130.749 Y110.672 E39.62992
G1 X130.771 Y110.122 E39.64426
G1 X150.388 Y129.739 E40.36827
G1 X150.397 Y129.176 E40.38298
G1 X130.794 Y109.573 E41.10646
G1 X130.817 Y109.024 E41.12081
G1 X150.405 Y128.612 E41.84376
G1 X150.414 Y128.049 E41.85847
G1 X130.840 Y108.474 E42.58090
G1 X130.863 Y107.925 E42.59524
G1 X150.419 Y127.481 E43.31701
G1 X150.419 Y126.910 E43.33192
G1 X130.885 Y107.376 E44.05287
G1 X130.908 Y106.827 E44.06722
G1 X150.420 Y126.339 E44.78736
G1 X150.421 Y125.767 E44.80227
G1 X130.931 Y106.277 E45.52160
G1 X130.954 Y105.728 E45.53594
G1 X150.422 Y125.196 E46.25446
G1 X150.422 Y124.625 E46.26937
G1 X130.976 Y105.179 E46.98708
G1 X130.999 Y104.630 E47.00143
G1 X150.423 Y124.054 E47.71832
G1 X150.424 Y123.482 E47.73323
G1 X131.022 Y104.080 E48.44932
G1 X131.045 Y103.531 E48.46367
G1 X150.425 Y122.911 E49.17894
G1 X150.426 Y122.340 E49.19385
G1 X131.067 Y102.982 E49.90831
G1 X131.090 Y102.432 E49.92266
G1 X150.426 Y121.769 E50.63631
G1 X150.427 Y121.197 E50.65122
G1 X131.113 Y101.883 E51.36407
G1 X131.136 Y101.334 E51.37841
G1 X150.428 Y120.626 E52.09044
G1 X150.429 Y120.055 E52.10535
G1 X131.158 Y100.785 E52.81657
G1 X131.181 Y100.235 E52.83092
G1 X150.430 Y119.484 E53.54133
G1 X150.430 Y118.912 E53.55624
G1 X131.204 Y99.686 E54.26583
G1 X131.227 Y99.137 E54.28018
G1 X150.431 Y118.341 E54.98897
G1 X150.432 Y117.770 E55.00388
G1 X131.249 Y98.587 E55.71185
G1 X131.272 Y98.038 E55.72620
G1 X150.433 Y117.199 E56.43337
G1 X150.433 Y116.627 E56.44827
G1 X131.295 Y97.489 E57.15463
G1 X131.318 Y96.940 E57.16897
G1 X150.434 Y116.056 E57.87452
G1 X150.435 Y115.485 E57.88943
G1 X131.340 Y96.390 E58.59416
G1 X131.363 Y95.841 E58.60850
G1 X150.436 Y114.914 E59.31243
G1 X150.437 Y114.342 E59.32733
G1 X131.386 Y95.292 E60.03044
G1 X131.409 Y94.742 E60.04479
G1 X150.437 Y113.771 E60.74709
G1 X150.438 Y113.200 E60.76200
G1 X131.431 Y94.193 E61.46349
G1 X131.454 Y93.644 E61.47783
G1 X150.439 Y112.629 E62.17851
G1 X150.440 Y112.057 E62.19342
G1 X131.477 Y93.095 E62.89328
G1 X131.500 Y92.545 E62.90763
G1 X150.440 Y111.486 E63.60668
G1 X150.441 Y110.915 E63.62159
G1 X131.522 Y91.996 E64.31984
G1 X131.545 Y91.447 E64.33418
G1 X150.442 Y110.344 E65.03162
G1 X150.443 Y109.772 E65.04652
G1 X131.568 Y90.897 E65.74315
G1 X131.591 Y90.348 E65.75749
G1 X150.444 Y109.201 E66.45330
G1 X150.444 Y108.630 E66.46821
G1 X131.613 Y89.799 E67.16321
G1 X131.636 Y89.250 E67.17756
G1 X150.445 Y108.059 E67.87175
G1 X150.446 Y107.487 E67.88665
G1 X131.659 Y88.700 E68.58003
G1 X131.682 Y88.151 E68.59438
G1 X150.447 Y106.916 E69.28695
G1 X150.447 Y106.345 E69.30185
G1 X131.704 Y87.602 E69.99361
G1 X131.727 Y87.053 E70.00796
G1 X150.448 Y105.774 E70.69890
G1 X150.449 Y105.202 E70.71381
G1 X131.750 Y86.503 E71.40394
G1 X131.773 Y85.954 E71.41829
G1 X150.450 Y104.631 E72.10761
G1 X150.451 Y104.060 E72.12252
G1 X131.795 Y85.405 E72.81103
G1 X131.818 Y84.855 E72.82538
G1 X150.451 Y103.489 E73.51308
G1 X150.452 Y102.917 E73.52799
G1 X131.841 Y84.306 E74.21487
G1 X131.864 Y83.757 E74.22922
G1 X150.453 Y102.346 E74.91530
G1 X150.454 Y101.775 E74.93021
G1 X131.886 Y83.208 E75.61548
G1 X131.909 Y82.658 E75.62982
G1 X150.454 Y101.204 E76.31428
G1 X150.455 Y100.632 E76.32919
G1 X131.932 Y82.109 E77.01283
G1 X131.955 Y81.560 E77.02718
G1 X150.456 Y100.061 E77.71001
G1 X150.457 Y99.490 E77.72492
G1 X131.978 Y81.010 E78.40694
G1 X132.000 Y80.461 E78.42129
G1 X150.458 Y98.919 E79.10250
G1 X150.458 Y98.347 E79.11741
G1 X132.023 Y79.912 E79.79781
G1 X132.046 Y79.363 E79.81216
G1 X150.459 Y97.776 E80.49175
G1 X150.460 Y97.205 E80.50666
G1 X132.069 Y78.813 E81.18543
G1 X132.091 Y78.264 E81.19978
G1 X150.461 Y96.633 E81.87775
G1 X150.462 Y96.062 E81.89266
G1 X132.114 Y77.715 E82.56981
G1 X132.137 Y77.165 E82.58416
G1 X150.462 Y95.491 E83.26051
G1 X150.463 Y94.920 E83.27541
G1 X132.160 Y76.616 E83.95095
G1 X132.182 Y76.067 E83.96530
G1 X150.464 Y94.348 E84.64002
G1 X150.465 Y93.777 E84.65493
G1 X132.205 Y75.518 E85.32884
G1 X132.228 Y74.968 E85.34319
G1 X150.465 Y93.206 E86.01629
G1 X150.466 Y92.635 E86.03120
G1 X132.251 Y74.419 E86.70349
G1 X132.273 Y73.870 E86.71783
G1 X150.467 Y92.063 E87.38931
G1 X150.468 Y91.492 E87.40422
G1 X132.296 Y73.321 E88.07489
G1 X132.319 Y72.771 E88.08924
G1 X150.469 Y90.921 E88.75909
G1 X150.469 Y90.350 E88.77400
G1 X132.342 Y72.222 E89.44305
G1 X132.364 Y71.673 E89.45740
G1 X150.470 Y89.778 E90.12563
G1 X150.471 Y89.207 E90.14054
G1 X132.387 Y71.123 E90.80796
G1 X132.410 Y70.574 E90.82231
G1 X150.472 Y88.636 E91.48892
G1 X150.472 Y88.065 E91.50383
G1 X132.433 Y70.025 E92.16963
G1 X132.455 Y69.476 E92.18398
G1 X150.473 Y87.493 E92.84897
G1 X150.474 Y86.922 E92.86388
G1 X132.478 Y68.926 E93.52806
G1 X132.501 Y68.377 E93.54241
G1 X150.475 Y86.351 E94.20578
G1 X150.476 Y85.780 E94.22068
G1 X132.524 Y67.828 E94.88324
G1 X132.546 Y67.278 E94.89759
G1 X150.476 Y85.208 E95.55934
G1 X150.477 Y84.637 E95.57424
G1 X132.569 Y66.729 E96.23518
G1 X132.592 Y66.180 E96.24953
G1 X150.478 Y84.066 E96.90965
G1 X150.479 Y83.495 E96.92456
G1 X132.615 Y65.631 E97.58387
G1 X132.637 Y65.081 E97.59822
G1 X150.479 Y82.923 E98.25672
G1 X150.480 Y82.352 E98.27163
G1 X132.664 Y64.536 E98.92917
G1 X132.696 Y63.996 E98.94330
G1 X150.481 Y81.781 E99.59971
G1 X150.482 Y81.210 E99.61462
G1 X132.744 Y63.472 E100.26927
G1 X132.832 Y62.988 E100.28211
G1 X150.482 Y80.638 E100.93353
G1 X150.482 Y80.066 E100.94846
G1 X132.924 Y62.508 E101.59648
G1 X133.061 Y62.073 E101.60838
G1 X150.482 Y79.494 E102.25133
G1 X150.482 Y78.922 E102.26626
G1 X133.199 Y61.638 E102.90415
G1 X133.369 Y61.236 E102.91554
G1 X150.482 Y78.350 E103.54715
G1 X150.482 Y77.778 E103.56208
G1 X133.551 Y60.847 E104.18697
G1 X133.746 Y60.469 E104.19805
G1 X150.482 Y77.206 E104.81575
G1 X150.482 Y76.634 E104.83068
G1 X133.972 Y60.123 E105.44004
G1 X134.198 Y59.777 E105.45082
G1 X150.482 Y76.062 E106.05183
G1 X150.482 Y75.490 E106.06676
G1 X134.457 Y59.464 E106.65821
G1 X134.725 Y59.160 E106.66879
G1 X150.482 Y74.918 E107.25035
G1 X150.482 Y74.346 E107.26528
G1 X135.011 Y58.874 E107.83628
G1 X135.310 Y58.602 E107.84684
G1 X150.482 Y73.774 E108.40679
G1 X150.482 Y73.201 E108.42172
G1 X135.619 Y58.338 E108.97030
G1 X135.954 Y58.101 E108.98101
G1 X150.482 Y72.629 E109.51721
G1 X150.482 Y72.057 E109.53214
G1 X136.303 Y57.878 E110.05547
G1 X136.653 Y57.657 E110.06629
G1 X150.482 Y71.485 E110.57667
G1 X150.482 Y70.913 E110.59160
G1 X137.043 Y57.474 E111.08760
G1 X137.433 Y57.292 E111.09883
G1 X150.482 Y70.341 E111.58045
G1 X150.482 Y69.769 E111.59537
G1 X137.840 Y57.127 E112.06196
G1 X138.276 Y56.991 E112.07387
G1 X150.482 Y69.197 E112.52438
G1 X150.482 Y68.625 E112.53931
G1 X138.711 Y56.854 E112.97374
G1 X139.186 Y56.757 E112.98640
G1 X150.482 Y68.053 E113.40330
G1 X150.482 Y67.481 E113.41823
G1 X139.674 Y56.673 E113.81712
G1 X140.171 Y56.598 E113.83022
G1 X150.482 Y66.909 E114.21079
G1 X150.482 Y66.337 E114.22572
G1 X140.714 Y56.569 E114.58624
G1 X141.257 Y56.540 E114.60044
G1 X150.482 Y65.765 E114.94090
G1 X150.482 Y65.193 E114.95583
G1 X141.833 Y56.544 E115.27506
G1 X142.433 Y56.572 E115.29075
G1 X150.472 Y64.610 E115.58742
G1 X150.438 Y64.005 E115.60324
G1 X143.057 Y56.624 E115.87565
G1 X143.731 Y56.725 E115.89342
G1 X150.380 Y63.374 E116.13882
G1 X150.258 Y62.681 E116.15719
G1 X144.444 Y56.866 E116.37179
G1 X145.243 Y57.093 E116.39346
G1 X150.044 Y61.895 E116.57067
G1 X149.679 Y60.958 F12000.000
G1 X146.219 Y57.497 E116.69839 F1200.000
G1 X147.912 Y58.619 F12000.000
G1 X148.519 Y59.225 E116.72076 F1200.000
G1 X131.004 Y131.520 F12000.000
G1 X147.499 Y148.015 E117.32955 F1200.000
G1 X146.927 Y148.015 E117.34448
G1 X131.557 Y132.645 E117.91176
G1 X132.109 Y133.769 F12000.000
G1 X146.355 Y148.015 E118.43753 F1200.000
G1 X145.783 Y148.015 E118.45245
G1 X132.662 Y134.894 E118.93672
G1 X133.214 Y136.019 F12000.000
G1 X145.211 Y148.015 E119.37947 F1200.000
G1 X144.639 Y148.015 E119.39440
G1 X133.767 Y137.143 E119.79564
G1 X134.320 Y138.268 F12000.000
G1 X144.067 Y148.015 E120.15538 F1200.000
G1 X143.495 Y148.015 E120.17031
G1 X134.872 Y139.393 E120.48854
G1 X135.425 Y140.517 F12000.000
G1 X142.916 Y148.008 E120.76502 F1200.000
G1 X142.324 Y147.988 E120.78048
G1 X135.977 Y141.642 E121.01470
G1 X136.530 Y142.767 F12000.000
G1 X141.691 Y147.927 E121.20517 F1200.000
G1 X141.012 Y147.820 E121.22311
G1 X137.083 Y143.891 E121.36811
G1 X137.635 Y145.016 F12000.000
G1 X140.242 Y147.623 E121.46433 F1200.000
G1 X139.056 Y147.009 F12000.000
G1 X138.358 Y146.311 E121.49011 F1200.000
G1 E119.49011 F1680.00000
G92 E0
G1 Z0.350 F12000.000
G1 X150.932 Y20.523 F12000.000
G1 E2.00000 F1680.00000
G1 X155.543 Y31.281 E2.30465 F900.000
G1 X155.981 Y33.371 E2.36025
G1 X127.760 Y39.466 E3.11174
G1 X127.326 Y39.516 E3.12312
G1 X91.076 Y37.999 E4.06749
G1 X84.269 Y23.449 E4.48560
G1 X83.279 Y21.280 E4.54766
G1 X83.949 Y20.927 E4.56738
G1 X84.698 Y20.612 E4.58853
G1 X85.552 Y20.358 E4.61171
G1 X86.508 Y20.205 E4.63692
G1 X87.596 Y20.153 E4.66526
G1 X139.494 Y20.153 E6.01611
G1 X150.857 Y20.520 E6.31205 F900.000
G1 X150.871 Y20.117 F12000.000
G1 X151.202 Y20.128 E6.32069 F720.000
G1 X155.930 Y31.159 E6.63306
G1 X156.454 Y33.662 E6.69963
G1 X155.766 Y33.839 E6.71812
G1 X127.826 Y39.864 E7.46209
G1 X127.341 Y39.920 E7.47480
G1 X90.814 Y38.392 E8.42638
G1 X83.903 Y23.618 E8.85091
G1 X82.775 Y21.146 E8.92164
G1 X83.127 Y20.904 E8.93276
G1 X83.777 Y20.562 E8.95188
G1 X84.562 Y20.232 E8.97406
G1 X85.462 Y19.964 E8.99850
G1 X86.467 Y19.803 E9.02498
G1 X87.586 Y19.749 E9.05415
G1 X139.500 Y19.749 E10.40543
G1 X150.796 Y20.115 E10.69958 F720.000
G1 X151.027 Y20.410 F12000.000
G1 X150.837 Y20.968 F12000.000
G1 X150.607 Y20.738 E10.70809 F1200.000
G1 X150.014 Y20.719 E10.72360
G1 X151.267 Y21.971 E10.76993
G1 X151.697 Y22.975 F12000.000
