; generated by Slic3r 1.2.6 on 2015-04-05 at 23:54:53

; external perimeters extrusion width = 0.50mm
; perimeters extrusion width = 0.50mm
; infill extrusion width = 0.50mm
; solid infill extrusion width = 0.50mm
; top infill extrusion width = 0.50mm

M104 S190 ; set temperature
G28 ; home all axes
G1 Z15 F120 ; lift nozzle
M109 S190 ; wait for temperature to be reached
G21 ; set units to millimeters
G90 ; use absolute coordinates
M82 ; use absolute distances for extrusion
G92 E0
M106 S102
G1 E-2.00000 F1680.00000
G92 E0
G1 Z0.350 F12000.000
G1 X35.270 Y29.873 F12000.000
G1 E2.00000 F1680.00000
G1 X40.973 Y23.140 E2.24841 F1200.000
G1 X42.714 Y21.698 E2.31204
G1 X45.812 Y20.864 E2.40236
G1 X74.367 Y20.543 E3.20630
G1 X122.057 Y20.545 E4.54887
G1 X123.600 Y20.585 E4.59231 F1200.000
G1 X125.101 Y20.698 E4.63468
G1 X126.391 Y20.861 E4.67130
G1 X128.187 Y21.162 E4.72257
G1 X128.933 Y21.310 E4.74396
G1 X131.036 Y22.138 E4.80759
G1 X132.859 Y23.822 E4.87746
G1 X155.851 Y55.280 E5.97438
G1 X156.843 Y57.311 E6.03802
G1 X157.091 Y59.078 E6.08825
G1 X157.086 Y67.925 E6.33731
G1 X157.054 Y68.734 E6.36011
G1 X157.010 Y69.277 E6.37543
G1 X156.915 Y70.040 E6.39710
G1 X156.813 Y70.631 E6.41398
G1 X156.636 Y71.430 E6.43701
G1 X142.817 Y130.497 E8.14476
G1 X142.444 Y131.800 E8.18291
G1 X142.172 Y132.548 E8.20532
G1 X141.793 Y133.417 E8.23202
G1 X141.421 Y134.143 E8.25498
G1 X140.955 Y134.925 E8.28060
G1 X140.459 Y135.641 E8.30513
G1 X139.905 Y136.336 E8.33013
G1 X139.287 Y137.007 E8.35582
G1 X138.649 Y137.609 E8.38051
G1 X137.916 Y138.205 E8.40712
G1 X137.196 Y138.706 E8.43182
G1 X136.488 Y139.135 E8.45510
G1 X122.292 Y146.530 E8.90573
G1 X119.485 Y147.255 E8.98735
G1 X34.520 Y149.454 E11.38007
G1 X33.291 Y149.413 E11.41468
G1 X23.815 Y148.736 E11.68214
G1 X21.624 Y148.182 E11.74577
G1 X19.759 Y146.904 E11.80940
G1 X18.186 Y144.405 E11.89252
G1 X17.912 Y143.565 E11.91742
G1 X17.691 Y142.733 E11.94163
G1 X17.533 Y142.039 E11.96168
G1 X17.335 Y140.943 E11.99303
G1 X17.175 Y139.485 E12.03432
G1 X12.924 Y76.653 E13.80721
G1 X12.909 Y76.218 E13.81945
G1 X12.909 Y58.632 E14.31453
G1 X13.306 Y56.407 E14.37816
G1 X14.434 Y54.472 E14.44121
G1 X35.221 Y29.930 E15.34664
G1 E13.34664 F1680.00000
G92 E0
G1 X118.993 Y107.460 F12000.000
G1 E2.00000 F1680.00000
G1 X100.001 Y111.556 E2.50572 F900.000
G1 X99.566 Y111.606 E2.51709
G1 X63.317 Y110.089 E3.46147
G1 X56.510 Y95.539 E3.87958
G1 X55.520 Y93.370 E3.94164
G1 X56.190 Y93.017 E3.96135
G1 X56.939 Y92.702 E3.98250
G1 X57.793 Y92.449 E4.00569
G1 X58.749 Y92.295 E4.03090
G1 X59.837 Y92.243 E4.05923
G1 X111.735 Y92.243 E5.41009
G1 X123.173 Y92.613 E5.70798 F900.000
G1 X127.784 Y103.371 E6.01263
G1 X128.221 Y105.462 E6.06823
G1 X119.066 Y107.444 E6.31205
G1 X119.151 Y107.839 F12000.000
G1 X100.066 Y111.954 E6.82023 F720.000
G1 X99.581 Y112.011 E6.83294
G1 X63.055 Y110.482 E7.78452
G1 X56.144 Y95.708 E8.20905
G1 X55.015 Y93.236 E8.27978
G1 X55.368 Y92.994 E8.29090
G1 X56.018 Y92.652 E8.31003
G1 X56.803 Y92.322 E8.33221
G1 X57.703 Y92.054 E8.35665
G1 X58.708 Y91.894 E8.38312
G1 X59.827 Y91.839 E8.41229
G1 X111.741 Y91.840 E9.76357
G1 X123.443 Y92.218 E10.06831 F720.000
G1 X128.171 Y103.249 E10.38069
G1 X128.694 Y105.752 E10.44726
G1 X128.006 Y105.929 E10.46575
G1 X119.225 Y107.823 E10.69958
G1 X118.816 Y107.468 F12000.000
G1 X127.378 Y103.092 F12000.000
G1 X116.922 Y92.637 E11.08638 F1200.000
G1 X116.330 Y92.617 E11.10188
G1 X127.656 Y103.944 E11.52090
G1 X127.808 Y104.669 E11.54028
G1 X115.737 Y92.598 E11.98684
G1 X115.145 Y92.579 E12.00235
G1 X127.888 Y105.322 E12.47376
G1 X127.416 Y105.424 E12.48638
G1 X114.552 Y92.560 E12.96227
G1 X113.960 Y92.541 E12.97778
G1 X126.945 Y105.526 E13.45815
G1 X126.473 Y105.628 E13.47077
G1 X113.367 Y92.522 E13.95561
G1 X112.775 Y92.502 E13.97112
G1 X126.002 Y105.730 E14.46044
G1 X125.530 Y105.831 E14.47306
G1 X112.182 Y92.483 E14.96685
G1 X111.591 Y92.466 E14.98231
G1 X125.058 Y105.933 E15.48051
G1 X124.587 Y106.035 E15.49313
G1 X111.018 Y92.466 E15.99510
G1 X110.444 Y92.466 E16.01010
G1 X124.115 Y106.137 E16.51584
G1 X123.644 Y106.239 E16.52846
G1 X109.871 Y92.466 E17.03797
G1 X109.298 Y92.466 E17.05297
G1 X123.172 Y106.340 E17.56624
G1 X122.701 Y106.442 E17.57886
G1 X108.724 Y92.466 E18.09590
G1 X108.151 Y92.466 E18.11090
G1 X122.229 Y106.544 E18.63171
G1 X121.758 Y106.646 E18.64432
G1 X107.578 Y92.466 E19.16890
G1 X107.004 Y92.466 E19.18390
G1 X121.286 Y106.748 E19.71224
G1 X120.814 Y106.850 E19.72486
G1 X106.431 Y92.466 E20.25697
G1 X105.857 Y92.466 E20.27197
G1 X120.343 Y106.951 E20.80784
G1 X119.871 Y107.053 E20.82046
G1 X105.284 Y92.466 E21.36011
G1 X104.711 Y92.466 E21.37511
G1 X119.400 Y107.155 E21.91852
G1 X118.928 Y107.257 E21.93114
G1 X104.137 Y92.466 E22.47831
G1 X103.564 Y92.466 E22.49331
G1 X118.457 Y107.359 E23.04426
G1 X117.985 Y107.461 E23.05688
G1 X102.991 Y92.466 E23.61159
G1 X102.417 Y92.466 E23.62659
G1 X117.514 Y107.562 E24.18507
G1 X117.042 Y107.664 E24.19769
G1 X101.844 Y92.466 E24.75993
G1 X101.270 Y92.466 E24.77493
G1 X116.571 Y107.766 E25.34095
G1 X116.099 Y107.868 E25.35357
G1 X100.697 Y92.466 E25.92335
G1 X100.124 Y92.466 E25.93835
G1 X115.627 Y107.970 E26.51189
G1 X115.156 Y108.072 E26.52451
G1 X99.550 Y92.466 E27.10183
G1 X98.977 Y92.466 E27.11683
G1 X114.684 Y108.173 E27.69791
G1 X114.213 Y108.275 E27.71053
G1 X98.403 Y92.466 E28.29538
G1 X97.830 Y92.466 E28.31038
G1 X113.741 Y108.377 E28.89900
G1 X113.270 Y108.479 E28.91161
G1 X97.257 Y92.466 E29.50400
G1 X96.683 Y92.466 E29.51900
G1 X112.798 Y108.581 E30.11515
G1 X112.327 Y108.683 E30.12777
G1 X96.110 Y92.466 E30.72769
G1 X95.537 Y92.466 E30.74269
G1 X111.855 Y108.784 E31.34637
G1 X111.384 Y108.886 E31.35899
G1 X94.963 Y92.466 E31.96645
G1 X94.390 Y92.466 E31.98144
G1 X110.912 Y108.988 E32.59266
G1 X110.440 Y109.090 E32.60528
G1 X93.816 Y92.466 E33.22027
G1 X93.243 Y92.466 E33.23527
G1 X109.969 Y109.192 E33.85403
G1 X109.497 Y109.294 E33.86664
G1 X92.670 Y92.466 E34.48917
G1 X92.096 Y92.466 E34.50417
G1 X109.026 Y109.395 E35.13045
G1 X108.554 Y109.497 E35.14307
G1 X91.523 Y92.466 E35.77313
G1 X90.950 Y92.466 E35.78813
G1 X108.083 Y109.599 E36.42195
G1 X107.611 Y109.701 E36.43457
G1 X90.376 Y92.466 E37.07216
G1 X89.803 Y92.466 E37.08716
G1 X107.140 Y109.803 E37.72852
G1 X106.668 Y109.904 E37.74114
G1 X89.229 Y92.466 E38.38626
G1 X88.656 Y92.466 E38.40126
G1 X106.197 Y110.006 E39.05016
G1 X105.725 Y110.108 E39.06278
G1 X88.083 Y92.466 E39.71544
G1 X87.509 Y92.466 E39.73043
G1 X105.253 Y110.210 E40.38686
G1 X104.782 Y110.312 E40.39948
G1 X86.936 Y92.466 E41.05967
G1 X86.362 Y92.466 E41.07467
G1 X104.310 Y110.414 E41.73863
G1 X103.839 Y110.515 E41.75125
G1 X85.789 Y92.466 E42.41898
G1 X85.216 Y92.466 E42.43398
G1 X103.367 Y110.617 E43.10548
G1 X102.896 Y110.719 E43.11810
G1 X84.642 Y92.466 E43.79336
G1 X84.069 Y92.466 E43.80836
G1 X102.424 Y110.821 E44.48739
G1 X101.953 Y110.923 E44.50001
G1 X83.496 Y92.466 E45.18281
G1 X82.922 Y92.466 E45.19780
G1 X101.481 Y111.025 E45.88437
G1 X101.010 Y111.126 E45.89699
G1 X82.349 Y92.466 E46.58732
G1 X81.775 Y92.466 E46.60232
G1 X100.538 Y111.228 E47.29642
G1 X100.066 Y111.330 E47.30904
G1 X81.202 Y92.466 E48.00690
G1 X80.629 Y92.466 E48.02190
G1 X99.541 Y111.379 E48.72156
G1 X98.943 Y111.353 E48.73723
G1 X80.055 Y92.466 E49.43596
G1 X79.482 Y92.466 E49.45096
G1 X98.345 Y111.328 E50.14877
G1 X97.746 Y111.303 E50.16443
G1 X78.909 Y92.466 E50.86131
G1 X78.335 Y92.466 E50.87631
G1 X97.148 Y111.278 E51.57226
G1 X96.549 Y111.253 E51.58793
G1 X77.762 Y92.466 E52.28296
G1 X77.188 Y92.466 E52.29796
G1 X95.951 Y111.228 E52.99206
G1 X95.353 Y111.203 E53.00773
G1 X76.615 Y92.466 E53.70090
G1 X76.042 Y92.466 E53.71590
G1 X94.754 Y111.178 E54.40814
G1 X94.156 Y111.153 E54.42381
G1 X75.468 Y92.466 E55.11513
G1 X74.895 Y92.466 E55.13013
G1 X93.557 Y111.128 E55.82053
G1 X92.959 Y111.103 E55.83619
G1 X74.321 Y92.466 E56.52566
G1 X73.748 Y92.466 E56.54066
G1 X92.360 Y111.078 E57.22920
G1 X91.762 Y111.053 E57.24487
G1 X73.175 Y92.466 E57.93249
G1 X72.601 Y92.466 E57.94748
G1 X91.164 Y111.028 E58.63417
G1 X90.565 Y111.003 E58.64984
G1 X72.028 Y92.466 E59.33560
G1 X71.455 Y92.466 E59.35060
G1 X89.967 Y110.978 E60.03544
G1 X89.368 Y110.953 E60.05111
G1 X70.881 Y92.466 E60.73501
G1 X70.308 Y92.466 E60.75001
G1 X88.770 Y110.928 E61.43300
G1 X88.171 Y110.903 E61.44866
G1 X69.734 Y92.466 E62.13072
G1 X69.161 Y92.466 E62.14572
G1 X87.573 Y110.878 E62.82685
G1 X86.975 Y110.853 E62.84252
G1 X68.588 Y92.466 E63.52272
G1 X68.014 Y92.466 E63.53772
G1 X86.376 Y110.828 E64.21700
G1 X85.778 Y110.802 E64.23266
G1 X67.441 Y92.466 E64.91102
G1 X66.868 Y92.466 E64.92601
G1 X85.179 Y110.777 E65.60344
G1 X84.581 Y110.752 E65.61911
G1 X66.294 Y92.466 E66.29560
G1 X65.721 Y92.466 E66.31060
G1 X83.982 Y110.727 E66.98617
G1 X83.384 Y110.702 E67.00184
G1 X65.147 Y92.466 E67.67649
G1 X64.574 Y92.466 E67.69149
G1 X82.786 Y110.677 E68.36520
G1 X82.187 Y110.652 E68.38087
G1 X64.001 Y92.466 E69.05366
G1 X63.427 Y92.466 E69.06866
G1 X81.589 Y110.627 E69.74053
G1 X80.990 Y110.602 E69.75620
G1 X62.854 Y92.466 E70.42714
G1 X62.280 Y92.466 E70.44214
G1 X80.392 Y110.577 E71.11215
G1 X79.794 Y110.552 E71.12782
G1 X61.707 Y92.466 E71.79690
G1 X61.134 Y92.466 E71.81190
G1 X79.195 Y110.527 E72.48006
G1 X78.597 Y110.502 E72.49573
G1 X60.560 Y92.466 E73.16296
G1 X59.987 Y92.466 E73.17796
G1 X77.998 Y110.477 E73.84427
G1 X77.400 Y110.452 E73.85994
G1 X59.430 Y92.482 E74.52473
G1 X58.883 Y92.508 E74.53905
G1 X76.801 Y110.427 E75.20193
G1 X76.203 Y110.402 E75.21760
G1 X58.370 Y92.569 E75.87729
G1 X57.876 Y92.648 E75.89039
G1 X75.605 Y110.377 E76.54622
G1 X75.006 Y110.352 E76.56189
G1 X57.424 Y92.769 E77.21233
G1 X56.982 Y92.901 E77.22440
G1 X74.408 Y110.327 E77.86905
G1 X73.809 Y110.302 E77.88472
G1 X56.576 Y93.068 E78.52225
G1 X56.177 Y93.242 E78.53364
G1 X73.211 Y110.276 E79.16381
G1 X72.612 Y110.251 E79.17948
G1 X55.881 Y93.520 E79.79844
G1 X56.362 Y94.575 F12000.000
G1 X72.014 Y110.226 E80.37746 F1200.000
G1 X71.416 Y110.201 E80.39312
G1 X56.850 Y95.636 E80.93195
G1 X57.354 Y96.714 F12000.000
G1 X70.817 Y110.176 E81.42999 F1200.000
G1 X70.219 Y110.151 E81.44566
G1 X57.858 Y97.791 E81.90291
G1 X58.362 Y98.868 F12000.000
G1 X69.620 Y110.126 E82.31938 F1200.000
G1 X69.022 Y110.101 E82.33505
G1 X58.866 Y99.946 E82.71074
G1 X59.370 Y101.023 F12000.000
G1 X68.423 Y110.076 E83.04565 F1200.000
G1 X67.825 Y110.051 E83.06131
G1 X59.874 Y102.100 E83.35543
G1 X60.378 Y103.178 F12000.000
G1 X67.227 Y110.026 E83.60877 F1200.000
G1 X66.628 Y110.001 E83.62444
G1 X60.883 Y104.255 E83.83700
G1 X61.387 Y105.333 F12000.000
G1 X66.030 Y109.976 E84.00877 F1200.000
G1 X65.431 Y109.951 E84.02443
G1 X61.891 Y106.410 E84.15542
G1 X62.395 Y107.487 F12000.000
G1 X64.833 Y109.926 E84.24563 F1200.000
G1 X64.234 Y109.901 E84.26129
G1 X62.899 Y108.565 E84.31071
G1 X63.403 Y109.642 F12000.000
G1 X63.636 Y109.876 E84.31935 F1200.000
G1 X123.077 Y93.058 F12000.000
G1 X122.848 Y92.828 E84.32786 F1200.000
G1 X122.255 Y92.809 E84.34337
G1 X123.508 Y94.061 E84.38970
G1 X123.938 Y95.065 F12000.000
G1 X121.663 Y92.790 E84.47386 F1200.000
G1 X121.070 Y92.771 E84.48937
G1 X124.368 Y96.068 E84.61136
G1 X124.798 Y97.072 F12000.000
G1 X120.477 Y92.752 E84.77118 F1200.000
G1 X119.885 Y92.732 E84.78669
G1 X125.228 Y98.075 E84.98434
G1 X125.658 Y99.079 F12000.000
G1 X119.292 Y92.713 E85.21982 F1200.000
G1 X118.700 Y92.694 E85.23532
G1 X126.088 Y100.082 E85.50863
G1 X126.518 Y101.085 F12000.000
G1 X118.107 Y92.675 E85.81977 F1200.000
G1 X117.515 Y92.656 E85.83527
G1 X126.948 Y102.089 E86.18424
G1 E84.18424 F1680.00000
G92 E0
G1 Z0.350 F12000.000
G1 X119.168 Y140.163 F12000.000
G1 E2.00000 F1680.00000
G1 X48.973 Y137.946 E3.82802 F900.000
G1 X48.717 Y135.756 E3.88540
G1 X48.566 Y134.271 E3.92425
G1 X48.289 Y131.147 E4.00589
G1 X48.046 Y127.901 E4.09062
G1 X47.830 Y124.606 E4.17658
G1 X47.603 Y120.475 E4.28426
G1 X75.401 Y120.163 E5.00785
G1 X106.286 Y120.099 E5.81178
G1 X129.982 Y120.101 E6.42855
G1 X130.860 Y120.155 E6.45145 F900.000
G1 X131.700 Y120.319 E6.47373
G1 X132.484 Y120.590 E6.49531
G1 X133.203 Y120.958 E6.51635
G1 X133.847 Y121.411 E6.53684
G1 X134.417 Y121.949 E6.55724
G1 X134.912 Y122.572 E6.57795
G1 X135.328 Y123.282 E6.59937
G1 X135.667 Y124.082 E6.62198
G1 X135.917 Y124.961 E6.64576
G1 X136.069 Y125.909 E6.67075
G1 X136.119 Y126.928 E6.69731
G1 X136.067 Y127.944 E6.72380
G1 X135.912 Y128.885 E6.74861
G1 X135.655 Y129.755 E6.77222
G1 X135.310 Y130.548 E6.79475
G1 X134.888 Y131.256 E6.81620
G1 X134.391 Y131.880 E6.83696
G1 X133.821 Y132.416 E6.85732
G1 X133.176 Y132.866 E6.87781
G1 X119.235 Y140.128 E7.28696
G1 X119.421 Y140.486 F12000.000
G1 X119.261 Y140.569 E7.29166 F720.000
G1 X48.613 Y138.338 E9.13148
G1 X48.316 Y135.800 E9.19799
G1 X48.164 Y134.310 E9.23699
G1 X47.887 Y131.180 E9.31877
G1 X47.644 Y127.930 E9.40361
G1 X47.427 Y124.630 E9.48967
G1 X47.177 Y120.076 E9.60839
G1 X75.398 Y119.759 E10.34299
G1 X106.286 Y119.695 E11.14698
G1 X129.994 Y119.698 E11.76408
G1 X130.911 Y119.754 E11.78799 F720.000
G1 X131.806 Y119.928 E11.81170
G1 X132.642 Y120.218 E11.83476
G1 X133.412 Y120.612 E11.85727
G1 X134.103 Y121.098 E11.87925
G1 X134.715 Y121.676 E11.90116
G1 X135.245 Y122.344 E11.92336
G1 X135.690 Y123.101 E11.94620
G1 X136.048 Y123.948 E11.97015
G1 X136.312 Y124.873 E11.99520
G1 X136.470 Y125.867 E12.02138
G1 X136.523 Y126.928 E12.04904
G1 X136.469 Y127.987 E12.07665
G1 X136.306 Y128.975 E12.10271
G1 X136.035 Y129.893 E12.12761
G1 X135.669 Y130.733 E12.15146
G1 X135.220 Y131.486 E12.17430
G1 X134.688 Y132.154 E12.19651
G1 X134.077 Y132.730 E12.21839
G1 X133.385 Y133.212 E12.24033
G1 X119.487 Y140.451 E12.64820
G1 X119.269 Y140.389 F12000.000
G1 X135.595 Y124.739 F12000.000
G1 X131.352 Y120.496 E12.80521 F1200.000
G1 X130.653 Y120.371 E12.82377
G1 X135.759 Y125.477 E13.01271
G1 X135.853 Y126.144 E13.03033
G1 X130.042 Y120.334 E13.24533
G1 X129.459 Y120.324 E13.26059
G1 X135.883 Y126.748 E13.49828
G1 X135.880 Y127.319 E13.51322
G1 X128.886 Y120.324 E13.77204
G1 X128.312 Y120.324 E13.78705
G1 X135.852 Y127.864 E14.06605
G1 X135.784 Y128.370 E14.07939
G1 X127.739 Y120.324 E14.37709
G1 X127.165 Y120.324 E14.39210
G1 X135.703 Y128.862 E14.70802
G1 X135.576 Y129.309 E14.72017
G1 X126.591 Y120.324 E15.05263
G1 X126.018 Y120.324 E15.06763
G1 X135.444 Y129.750 E15.41642
G1 X135.270 Y130.149 E15.42782
G1 X125.444 Y120.324 E15.79139
G1 X124.871 Y120.324 E15.80640
G1 X135.090 Y130.543 E16.18454
G1 X134.876 Y130.903 E16.19549
G1 X124.297 Y120.324 E16.58693
G1 X123.724 Y120.324 E16.60194
G1 X134.651 Y131.251 E17.00628
G1 X134.397 Y131.570 E17.01696
G1 X123.150 Y120.323 E17.43311
G1 X122.576 Y120.323 E17.44812
G1 X134.115 Y131.862 E17.87506
G1 X133.828 Y132.148 E17.88567
G1 X122.003 Y120.323 E18.32322
G1 X121.429 Y120.323 E18.33823
G1 X133.509 Y132.403 E18.78521
G1 X133.171 Y132.639 E18.79598
G1 X120.856 Y120.323 E19.25168
G1 X120.282 Y120.323 E19.26669
G1 X132.802 Y132.843 E19.72996
G1 X132.425 Y133.040 E19.74108
G1 X119.709 Y120.323 E20.21162
G1 X119.135 Y120.323 E20.22663
G1 X132.048 Y133.236 E20.70444
G1 X131.671 Y133.432 E20.71556
G1 X118.562 Y120.323 E21.20065
G1 X117.988 Y120.323 E21.21565
G1 X131.294 Y133.629 E21.70800
G1 X130.917 Y133.825 E21.71913
G1 X117.414 Y120.323 E22.21875
G1 X116.841 Y120.323 E22.23376
G1 X130.540 Y134.022 E22.74065
G1 X130.163 Y134.218 E22.75177
G1 X116.267 Y120.323 E23.26593
G1 X115.694 Y120.323 E23.28094
G1 X129.786 Y134.415 E23.80237
G1 X129.409 Y134.611 E23.81350
G1 X115.120 Y120.323 E24.34220
G1 X114.547 Y120.322 E24.35721
G1 X129.031 Y134.807 E24.89318
G1 X128.654 Y135.004 E24.90431
G1 X113.973 Y120.322 E25.44755
G1 X113.399 Y120.322 E25.46256
G1 X128.277 Y135.200 E26.01307
G1 X127.900 Y135.397 E26.02420
G1 X112.826 Y120.322 E26.58198
G1 X112.252 Y120.322 E26.59699
G1 X127.523 Y135.593 E27.16204
G1 X127.146 Y135.790 E27.17317
G1 X111.679 Y120.322 E27.74549
G1 X111.105 Y120.322 E27.76050
G1 X126.769 Y135.986 E28.34009
G1 X126.392 Y136.182 E28.35122
G1 X110.532 Y120.322 E28.93808
G1 X109.958 Y120.322 E28.95309
G1 X126.015 Y136.379 E29.54723
G1 X125.638 Y136.575 E29.55835
