; generated by Slic3r 1.2.6 on 2015-04-05 at 23:56:17

; external perimeters extrusion width = 0.50mm
; perimeters extrusion width = 0.50mm
; infill extrusion width = 0.50mm
; solid infill extrusion width = 0.50mm
; top infill extrusion width = 0.50mm

M104 S190 ; set temperature
G28 ; home all axes
G1 Z15 F120 ; lift nozzle
M109 S190 ; wait for temperature to be reached
G21 ; set units to millimeters
G90 ; use absolute coordinates
M82 ; use absolute distances for extrusion
G92 E0
M106 S102
G1 E-2.00000 F1680.00000
G92 E0
G1 Z0.350 F12000.000
G1 X11.552 Y25.493 F12000.000
G1 E2.00000 F1680.00000
G1 X12.526 Y25.052 E2.03009 F1200.000
G1 X13.308 Y24.757 E2.05363
G1 X14.444 Y24.411 E2.08705
G1 X15.082 Y24.252 E2.10558
G1 X39.630 Y19.452 E2.80973
G1 X41.160 Y19.237 E2.85324
G1 X42.366 Y19.146 E2.88728
G1 X43.427 Y19.120 E2.91715
G1 X135.401 Y19.459 E5.50640
G1 X136.755 Y19.531 E5.54458 F1200.000
G1 X137.593 Y19.638 E5.56836
G1 X138.520 Y19.818 E5.59496
G1 X139.394 Y20.053 E5.62043
G1 X140.265 Y20.354 E5.64636
G1 X141.093 Y20.708 E5.67170
G1 X141.894 Y21.118 E5.69705
G1 X142.665 Y21.583 E5.72240
G1 X143.385 Y22.090 E5.74717
G1 X144.099 Y22.673 E5.77315
G1 X144.738 Y23.276 E5.79787
G1 X145.361 Y23.955 E5.82382
G1 X145.913 Y24.651 E5.84883
G1 X146.421 Y25.392 E5.87412
G1 X146.883 Y26.178 E5.89979
G1 X147.259 Y26.927 E5.92336
G1 X147.630 Y27.803 E5.95015
G1 X147.895 Y28.554 E5.97256
G1 X148.167 Y29.509 E6.00052
G1 X148.296 Y30.051 E6.01621
G1 X166.525 Y124.635 E8.72794
G1 X166.724 Y125.860 E8.76288
G1 X166.797 Y126.554 E8.78251
G1 X166.851 Y127.641 E8.81316
G1 X166.851 Y128.292 E8.83149
G1 X166.795 Y129.379 E8.86211
G1 X166.717 Y130.096 E8.88242
G1 X166.550 Y131.112 E8.91143
G1 X166.373 Y131.886 E8.93376
G1 X166.093 Y132.833 E8.96156
G1 X165.821 Y133.582 E8.98401
G1 X165.442 Y134.451 E9.01069
G1 X165.070 Y135.177 E9.03366
G1 X164.604 Y135.959 E9.05928
G1 X164.108 Y136.675 E9.08381
G1 X163.554 Y137.370 E9.10881
G1 X162.936 Y138.041 E9.13450
G1 X162.298 Y138.642 E9.15918
G1 X161.565 Y139.238 E9.18578
G1 X160.845 Y139.740 E9.21048
G1 X160.137 Y140.169 E9.23377
G1 X145.941 Y147.564 E9.68441
G1 X143.132 Y148.289 E9.76609
G1 X41.775 Y150.878 E12.62039
G1 X40.893 Y150.840 E12.64524
G1 X24.308 Y148.979 E13.11508
G1 X22.733 Y148.712 E13.16004
G1 X21.969 Y148.528 E13.18218
G1 X20.844 Y148.182 E13.21532
G1 X20.060 Y147.884 E13.23892
G1 X19.000 Y147.400 E13.27171
G1 X18.204 Y146.967 E13.29724
G1 X17.232 Y146.344 E13.32973
G1 X16.506 Y145.804 E13.35521
G1 X15.621 Y145.043 E13.38807
G1 X14.974 Y144.402 E13.41372
G1 X14.191 Y143.508 E13.44717
G1 X13.637 Y142.776 E13.47302
G1 X12.972 Y141.752 E13.50737
G1 X12.555 Y141.006 E13.53144
G1 X12.007 Y139.853 E13.56736
G1 X11.687 Y139.041 E13.59195
G1 X11.280 Y137.759 E13.62982
G1 X11.072 Y136.909 E13.65445
G1 X10.828 Y135.498 E13.69476
G1 X10.755 Y134.919 E13.71119
G1 X3.243 Y42.144 E16.33153
G1 X3.150 Y40.424 E16.38001
G1 X3.150 Y39.745 E16.39915
G1 X3.231 Y38.203 E16.44261
G1 X3.316 Y37.448 E16.46399
G1 X3.560 Y36.033 E16.50443
G1 X3.765 Y35.189 E16.52887
G1 X4.173 Y33.899 E16.56694
G1 X4.485 Y33.100 E16.59112
G1 X5.030 Y31.941 E16.62716
G1 X5.436 Y31.206 E16.65081
G1 X6.092 Y30.182 E16.68503
G1 X6.641 Y29.448 E16.71084
G1 X7.408 Y28.559 E16.74389
G1 X8.071 Y27.897 E16.77026
G1 X8.942 Y27.144 E16.80269
G1 X9.688 Y26.589 E16.82885
G1 X10.656 Y25.971 E16.86118
G1 X11.484 Y25.524 E16.88767
G1 E14.88767 F1680.00000
G92 E0
G1 X64.463 Y79.859 F12000.000
G1 E2.00000 F1680.00000
G1 X48.546 Y79.450 E2.41446 F900.000
G1 X48.290 Y77.264 E2.47175
G1 X48.139 Y75.779 E2.51060
G1 X47.862 Y72.655 E2.59224
G1 X47.620 Y69.409 E2.67697
G1 X47.403 Y66.114 E2.76293
G1 X47.176 Y61.983 E2.87061
G1 X74.973 Y61.670 E3.59418
G1 X133.628 Y61.672 E5.12089
G1 X134.788 Y61.696 E5.15110 F900.000
G1 X135.906 Y61.773 E5.18026
G1 X136.938 Y61.901 E5.20733
G1 X138.667 Y62.190 E5.25298
G1 X138.667 Y70.239 E5.46249
G1 X138.637 Y71.008 E5.48252
G1 X138.549 Y71.714 E5.50104
G1 X138.406 Y72.364 E5.51836
G1 X138.204 Y72.941 E5.53427
G1 X137.937 Y73.441 E5.54903
G1 X137.603 Y73.876 E5.56331
G1 X137.194 Y74.252 E5.57776
G1 X136.692 Y74.574 E5.59329
G1 X136.088 Y74.842 E5.61048
G1 X135.355 Y75.050 E5.63032
G1 X108.172 Y80.919 E6.35417
G1 X107.733 Y80.971 E6.36568
G1 X64.538 Y79.861 E7.49036
G1 X64.528 Y80.264 F12000.000
G1 X48.186 Y79.845 E7.91587 F720.000
G1 X47.889 Y77.308 E7.98235
G1 X47.738 Y75.817 E8.02135
G1 X47.460 Y72.688 E8.10313
G1 X47.217 Y69.437 E8.18797
G1 X47.000 Y66.138 E8.27403
G1 X46.751 Y61.584 E8.39275
G1 X74.971 Y61.267 E9.12734
G1 X133.632 Y61.268 E10.65423
G1 X134.806 Y61.293 E10.68479 F720.000
G1 X135.944 Y61.371 E10.71449
G1 X136.996 Y61.501 E10.74207
G1 X139.071 Y61.862 E10.79689
G1 X139.071 Y70.247 E11.01515
G1 X139.040 Y71.041 E11.03583
G1 X138.947 Y71.782 E11.05528
G1 X138.795 Y72.474 E11.07373
G1 X138.575 Y73.103 E11.09108
G1 X138.277 Y73.660 E11.10751
G1 X137.902 Y74.150 E11.12356
G1 X137.441 Y74.573 E11.13983
G1 X136.884 Y74.930 E11.15708
G1 X136.226 Y75.222 E11.17582
G1 X135.452 Y75.441 E11.19673
G1 X108.238 Y81.318 E11.92142
G1 X107.751 Y81.375 E11.93419
G1 X64.603 Y80.266 E13.05765
G1 X64.289 Y79.825 F12000.000
G1 X48.730 Y79.021 F12000.000
G1 X48.945 Y79.235 E13.06555 F1200.000
G1 X49.531 Y79.250 E13.08081
G1 X48.655 Y78.375 E13.11307
G1 X48.579 Y77.728 E13.13001
G1 X50.117 Y79.266 E13.18663
G1 X50.702 Y79.281 E13.20188
G1 X48.505 Y77.083 E13.28282
G1 X48.440 Y76.448 E13.29944
G1 X51.288 Y79.296 E13.40432
G1 X51.874 Y79.311 E13.41958
G1 X48.376 Y75.812 E13.54841
G1 X48.318 Y75.184 E13.56484
G1 X52.460 Y79.326 E13.71736
G1 X53.046 Y79.341 E13.73262
G1 X48.262 Y74.558 E13.90876
G1 X48.207 Y73.931 E13.92513
G1 X53.631 Y79.356 E14.12489
G1 X54.217 Y79.371 E14.14015
G1 X48.151 Y73.305 E14.36352
G1 X48.096 Y72.679 E14.37989
G1 X54.803 Y79.386 E14.62688
G1 X55.389 Y79.401 E14.64214
G1 X48.048 Y72.060 E14.91248
G1 X48.002 Y71.443 E14.92858
G1 X55.975 Y79.416 E15.22218
G1 X56.560 Y79.431 E15.23744
G1 X47.956 Y70.826 E15.55431
G1 X47.910 Y70.209 E15.57042
G1 X57.146 Y79.446 E15.91056
G1 X57.732 Y79.461 E15.92582
G1 X47.864 Y69.593 E16.28923
G1 X47.821 Y68.979 E16.30525
G1 X58.318 Y79.476 E16.69181
G1 X58.904 Y79.491 E16.70707
G1 X47.780 Y68.368 E17.11668
G1 X47.740 Y67.757 E17.13263
G1 X59.489 Y79.506 E17.56529
G1 X60.075 Y79.521 E17.58055
G1 X47.700 Y67.146 E18.03628
G1 X47.660 Y66.535 E18.05222
G1 X60.661 Y79.536 E18.53099
G1 X61.247 Y79.551 E18.54625
G1 X47.621 Y65.925 E19.04804
G1 X47.587 Y65.321 E19.06379
G1 X61.833 Y79.566 E19.58837
G1 X62.418 Y79.582 E19.60363
G1 X47.554 Y64.717 E20.15101
G1 X47.521 Y64.114 E20.16675
G1 X63.004 Y79.597 E20.73692
G1 X63.590 Y79.612 E20.75218
G1 X47.488 Y63.510 E21.34514
G1 X47.455 Y62.906 E21.36088
G1 X64.176 Y79.627 E21.97663
G1 X64.762 Y79.642 E21.99189
G1 X47.422 Y62.302 E22.63043
G1 X47.887 Y62.197 E22.64286
G1 X65.348 Y79.657 E23.28583
G1 X65.933 Y79.672 E23.30109
G1 X48.452 Y62.190 E23.94485
G1 X49.016 Y62.184 E23.95954
G1 X66.519 Y79.687 E24.60409
G1 X67.105 Y79.702 E24.61935
G1 X49.581 Y62.178 E25.26468
G1 X50.145 Y62.171 E25.27938
G1 X67.691 Y79.717 E25.92550
G1 X68.277 Y79.732 E25.94076
G1 X50.709 Y62.165 E26.58767
G1 X51.274 Y62.159 E26.60237
G1 X68.862 Y79.747 E27.25007
G1 X69.448 Y79.762 E27.26533
G1 X51.838 Y62.152 E27.91381
G1 X52.403 Y62.146 E27.92851
G1 X70.034 Y79.777 E28.57778
G1 X70.620 Y79.792 E28.59304
G1 X52.967 Y62.140 E29.24310
G1 X53.532 Y62.133 E29.25780
G1 X71.206 Y79.807 E29.90865
G1 X71.791 Y79.822 E29.92391
G1 X54.096 Y62.127 E30.57554
G1 X54.660 Y62.121 E30.59024
G1 X72.377 Y79.837 E31.24266
G1 X72.963 Y79.852 E31.25792
G1 X55.225 Y62.114 E31.91113
G1 X55.789 Y62.108 E31.92583
G1 X73.549 Y79.867 E32.57983
G1 X74.135 Y79.882 E32.59509
G1 X56.354 Y62.101 E33.24987
G1 X56.918 Y62.095 E33.26457
G1 X74.720 Y79.898 E33.92014
G1 X75.306 Y79.913 E33.93540
G1 X57.483 Y62.089 E34.59176
G1 X58.047 Y62.082 E34.60646
G1 X75.892 Y79.928 E35.26361
G1 X76.478 Y79.943 E35.27887
G1 X58.611 Y62.076 E35.93681
G1 X59.176 Y62.070 E35.95150
G1 X77.064 Y79.958 E36.61023
G1 X77.649 Y79.973 E36.62549
G1 X59.740 Y62.063 E37.28500
G1 X60.305 Y62.057 E37.29970
G1 X78.235 Y79.988 E37.95999
G1 X78.821 Y80.003 E37.97525
G1 X60.869 Y62.051 E38.63634
G1 X61.433 Y62.044 E38.65104
G1 X79.407 Y80.018 E39.31291
G1 X79.993 Y80.033 E39.32817
G1 X61.998 Y62.038 E39.99083
G1 X62.562 Y62.032 E40.00553
G1 X80.579 Y80.048 E40.66898
G1 X81.164 Y80.063 E40.68424
G1 X63.127 Y62.025 E41.34848
G1 X63.691 Y62.019 E41.36317
G1 X81.750 Y80.078 E42.02820
G1 X82.336 Y80.093 E42.04346
G1 X64.256 Y62.013 E42.70927
G1 X64.820 Y62.006 E42.72397
G1 X82.922 Y80.108 E43.39057
G1 X83.508 Y80.123 E43.40583
G1 X65.384 Y62.000 E44.07321
G1 X65.949 Y61.994 E44.08791
G1 X84.093 Y80.138 E44.75609
G1 X84.679 Y80.153 E44.77135
G1 X66.513 Y61.987 E45.44031
G1 X67.078 Y61.981 E45.45501
G1 X85.265 Y80.168 E46.12476
G1 X85.851 Y80.183 E46.14002
G1 X67.642 Y61.975 E46.81055
G1 X68.206 Y61.968 E46.82525
G1 X86.437 Y80.198 E47.49658
G1 X87.022 Y80.213 E47.51184
G1 X68.771 Y61.962 E48.18395
G1 X69.335 Y61.956 E48.19865
G1 X87.608 Y80.229 E48.87155
G1 X88.194 Y80.244 E48.88681
G1 X69.900 Y61.949 E49.56050
G1 X70.464 Y61.943 E49.57519
G1 X88.780 Y80.259 E50.24967
G1 X89.366 Y80.274 E50.26493
G1 X71.029 Y61.937 E50.94019
G1 X71.593 Y61.930 E50.95489
G1 X89.951 Y80.289 E51.63094
G1 X90.537 Y80.304 E51.64620
G1 X72.157 Y61.924 E52.32304
G1 X72.722 Y61.918 E52.33774
G1 X91.123 Y80.319 E53.01536
G1 X91.709 Y80.334 E53.03062
G1 X73.286 Y61.911 E53.70904
G1 X73.851 Y61.905 E53.72373
G1 X92.295 Y80.349 E54.40294
G1 X92.880 Y80.364 E54.41820
G1 X74.415 Y61.899 E55.09818
G1 X74.981 Y61.893 E55.11291
G1 X93.466 Y80.379 E55.79365
G1 X94.052 Y80.394 E55.80891
G1 X75.551 Y61.893 E56.49020
G1 X76.122 Y61.893 E56.50506
G1 X94.638 Y80.409 E57.18691
G1 X95.224 Y80.424 E57.20217
G1 X76.693 Y61.893 E57.88457
G1 X77.264 Y61.893 E57.89943
G1 X95.810 Y80.439 E58.58239
G1 X96.395 Y80.454 E58.59764
G1 X77.834 Y61.893 E59.28115
G1 X78.405 Y61.893 E59.29601
G1 X96.981 Y80.469 E59.98008
G1 X97.567 Y80.484 E59.99533
G1 X78.976 Y61.893 E60.67995
G1 X79.547 Y61.893 E60.69481
G1 X98.153 Y80.499 E61.37998
G1 X98.739 Y80.514 E61.39524
G1 X80.117 Y61.893 E62.08096
G1 X80.688 Y61.893 E62.09583
G1 X99.324 Y80.529 E62.78210
G1 X99.910 Y80.545 E62.79736
G1 X81.259 Y61.893 E63.48419
G1 X81.830 Y61.893 E63.49905
G1 X100.496 Y80.560 E64.18644
G1 X101.082 Y80.575 E64.20170
G1 X82.401 Y61.893 E64.88963
G1 X82.971 Y61.893 E64.90450
G1 X101.668 Y80.590 E65.59299
G1 X102.253 Y80.605 E65.60825
G1 X83.542 Y61.893 E66.29729
G1 X84.113 Y61.893 E66.31215
G1 X102.839 Y80.620 E67.00175
G1 X103.425 Y80.635 E67.01701
G1 X84.684 Y61.893 E67.70716
G1 X85.254 Y61.893 E67.72202
G1 X104.011 Y80.650 E68.41273
G1 X104.597 Y80.665 E68.42799
G1 X85.825 Y61.893 E69.11925
G1 X86.396 Y61.893 E69.13411
G1 X105.182 Y80.680 E69.82592
G1 X105.768 Y80.695 E69.84118
G1 X86.967 Y61.893 E70.53355
G1 X87.538 Y61.894 E70.54841
G1 X106.354 Y80.710 E71.24133
G1 X106.940 Y80.725 E71.25659
G1 X88.108 Y61.894 E71.95006
G1 X88.679 Y61.894 E71.96493
G1 X107.526 Y80.740 E72.65895
G1 X108.072 Y80.716 E72.67321
G1 X89.250 Y61.894 E73.36635
G1 X89.821 Y61.894 E73.38121
G1 X108.553 Y80.626 E74.07103
G1 X109.022 Y80.524 E74.08353
G1 X90.391 Y61.894 E74.76962
G1 X90.962 Y61.894 E74.78448
G1 X109.492 Y80.423 E75.46683
G1 X109.961 Y80.322 E75.47934
G1 X91.533 Y61.894 E76.15795
G1 X92.104 Y61.894 E76.17282
G1 X110.430 Y80.220 E76.84770
G1 X110.900 Y80.119 E76.86021
G1 X92.674 Y61.894 E77.53136
G1 X93.245 Y61.894 E77.54622
G1 X111.369 Y80.018 E78.21364
G1 X111.839 Y79.916 E78.22614
G1 X93.816 Y61.894 E78.88983
G1 X94.387 Y61.894 E78.90469
G1 X112.308 Y79.815 E79.56464
G1 X112.777 Y79.714 E79.57715
G1 X94.958 Y61.894 E80.23337
G1 X95.528 Y61.894 E80.24823
G1 X113.247 Y79.612 E80.90072
G1 X113.716 Y79.511 E80.91322
G1 X96.099 Y61.894 E81.56198
G1 X96.670 Y61.894 E81.57684
G1 X114.186 Y79.409 E82.22186
G1 X114.655 Y79.308 E82.23436
G1 X97.241 Y61.894 E82.87565
G1 X97.811 Y61.894 E82.89051
G1 X115.124 Y79.207 E83.52807
G1 X115.594 Y79.105 E83.54057
G1 X98.382 Y61.894 E84.17439
G1 X98.953 Y61.894 E84.18926
G1 X116.063 Y79.004 E84.81934
G1 X116.533 Y78.903 E84.83185
G1 X99.524 Y61.894 E85.45820
G1 X100.094 Y61.894 E85.47307
G1 X117.002 Y78.801 E86.09569
G1 X117.471 Y78.700 E86.10819
G1 X100.665 Y61.894 E86.72708
G1 X101.236 Y61.894 E86.74195
G1 X117.941 Y78.599 E87.35710
G1 X118.410 Y78.497 E87.36961
G1 X101.807 Y61.894 E87.98103
G1 X102.378 Y61.894 E87.99589
G1 X118.880 Y78.396 E88.60358
G1 X119.349 Y78.295 E88.61609
G1 X102.948 Y61.894 E89.22004
G1 X103.519 Y61.894 E89.23491
G1 X119.818 Y78.193 E89.83513
G1 X120.288 Y78.092 E89.84763
G1 X104.090 Y61.894 E90.44413
G1 X104.661 Y61.894 E90.45899
G1 X120.757 Y77.990 E91.05175
G1 X121.227 Y77.889 E91.06425
G1 X105.231 Y61.894 E91.65328
G1 X105.802 Y61.894 E91.66814
G1 X121.696 Y77.788 E92.25343
G1 X122.165 Y77.686 E92.26593
G1 X106.373 Y61.894 E92.84749
G1 X106.944 Y61.894 E92.86236
G1 X122.635 Y77.585 E93.44018
G1 X123.104 Y77.484 E93.45269
G1 X107.515 Y61.894 E94.02678
G1 X108.085 Y61.894 E94.04164
G1 X123.574 Y77.382 E94.61200
G1 X124.043 Y77.281 E94.62451
G1 X108.656 Y61.894 E95.19113
G1 X109.227 Y61.894 E95.20600
G1 X124.512 Y77.180 E95.76889
G1 X124.982 Y77.078 E95.78139
G1 X109.798 Y61.894 E96.34055
G1 X110.368 Y61.894 E96.35542
G1 X125.451 Y76.977 E96.91084
G1 X125.921 Y76.875 E96.92335
G1 X110.939 Y61.894 E97.47504
G1 X111.510 Y61.894 E97.48991
G1 X126.390 Y76.774 E98.03787
G1 X126.859 Y76.673 E98.05037
G1 X112.081 Y61.894 E98.59460
G1 X112.651 Y61.894 E98.60946
G1 X127.329 Y76.571 E99.14996
G1 X127.798 Y76.470 E99.16246
G1 X113.222 Y61.894 E99.69923
G1 X113.793 Y61.894 E99.71409
G1 X128.268 Y76.369 E100.24712
G1 X128.737 Y76.267 E100.25962
G1 X114.364 Y61.894 E100.78892
G1 X114.935 Y61.894 E100.80378
G1 X129.206 Y76.166 E101.32934
G1 X129.676 Y76.065 E101.34185
G1 X115.505 Y61.894 E101.86368
G1 X116.076 Y61.894 E101.87854
G1 X130.145 Y75.963 E102.39664
G1 X130.615 Y75.862 E102.40914
G1 X116.647 Y61.894 E102.92351
G1 X117.218 Y61.894 E102.93837
G1 X131.084 Y75.760 E103.44900
G1 X131.553 Y75.659 E103.46151
G1 X117.788 Y61.894 E103.96840
G1 X118.359 Y61.894 E103.98327
G1 X132.023 Y75.558 E104.48643
G1 X132.492 Y75.456 E104.49894
G1 X118.930 Y61.894 E104.99837
G1 X119.501 Y61.894 E105.01323
G1 X132.962 Y75.355 E105.50893
G1 X133.431 Y75.254 E105.52143
G1 X120.071 Y61.894 E106.01340
G1 X120.642 Y61.894 E106.02826
G1 X133.900 Y75.152 E106.51650
G1 X134.370 Y75.051 E106.52900
G1 X121.213 Y61.894 E107.01350
G1 X121.784 Y61.894 E107.02836
G1 X134.839 Y74.950 E107.50913
G1 X135.309 Y74.848 E107.52163
G1 X122.355 Y61.894 E107.99867
G1 X122.925 Y61.894 E108.01353
G1 X135.756 Y74.725 E108.48603
G1 X136.186 Y74.584 E108.49781
G1 X123.496 Y61.894 E108.96513
G1 X124.067 Y61.894 E108.98000
G1 X136.582 Y74.409 E109.44085
G1 X136.935 Y74.192 E109.45166
G1 X124.638 Y61.894 E109.90452
G1 X125.208 Y61.894 E109.91938
G1 X137.249 Y73.935 E110.36279
G1 X137.535 Y73.650 E110.37330
G1 X125.779 Y61.894 E110.80620
G1 X126.350 Y61.894 E110.82106
G1 X137.781 Y73.325 E111.24199
G1 X137.979 Y72.953 E111.25297
G1 X126.921 Y61.894 E111.66020
G1 X127.492 Y61.894 E111.67507
G1 X138.134 Y72.537 E112.06699
G1 X138.256 Y72.088 E112.07911
G1 X128.062 Y61.894 E112.45448
G1 X128.633 Y61.894 E112.46934
G1 X138.348 Y71.609 E112.82710
G1 X138.411 Y71.102 E112.84042
G1 X129.204 Y61.894 E113.17947
G1 X129.775 Y61.894 E113.19434
G1 X138.435 Y70.555 E113.51327
G1 X138.445 Y69.994 E113.52789
G1 X130.345 Y61.894 E113.82614
G1 X130.916 Y61.894 E113.84101
