; generated by Slic3r 1.2.6 on 2015-04-06 at 00:00:14

; external perimeters extrusion width = 0.50mm
; perimeters extrusion width = 0.50mm
; infill extrusion width = 0.50mm
; solid infill extrusion width = 0.50mm
; top infill extrusion width = 0.50mm

M104 S190 ; set temperature
G28 ; home all axes
G1 Z15 F120 ; lift nozzle
M109 S190 ; wait for temperature to be reached
G21 ; set units to millimeters
G90 ; use absolute coordinates
M82 ; use absolute distances for extrusion
G92 E0
M106 S102
G1 E-2.00000 F1680.00000
G92 E0
G1 Z0.350 F12000.000
G1 X29.142 Y32.893 F12000.000
G1 E2.00000 F1680.00000
G1 X38.157 Y24.906 E2.33909 F1200.000
G1 X39.343 Y24.073 E2.37989
G1 X40.138 Y23.665 E2.40505
G1 X40.913 Y23.322 E2.42889
G1 X41.554 Y23.074 E2.44823
G1 X42.671 Y22.708 E2.48132
G1 X43.447 Y22.498 E2.50397
G1 X44.303 Y22.307 E2.52867
G1 X45.169 Y22.152 E2.55343
G1 X46.127 Y22.025 E2.58062
G1 X47.180 Y21.942 E2.61037
G1 X48.347 Y21.909 E2.64322
G1 X125.436 Y21.488 E4.81345
G1 X148.328 Y21.549 E5.45791 F1200.000
G1 X149.686 Y21.577 E5.49614
G1 X151.140 Y21.670 E5.53718
G1 X152.554 Y21.835 E5.57725
G1 X153.814 Y22.033 E5.61316
G1 X155.322 Y22.316 E5.65636
G1 X157.426 Y23.144 E5.71999
G1 X159.113 Y24.648 E5.78363
G1 X160.176 Y26.643 E5.84726
G1 X160.489 Y28.626 E5.90377
G1 X160.489 Y37.221 E6.14573
G1 X160.432 Y38.595 E6.18444
G1 X152.362 Y130.218 E8.77380
G1 X152.202 Y131.183 E8.80134
G1 X149.632 Y141.683 E9.10567
G1 X148.718 Y143.751 E9.16930
G1 X147.787 Y144.845 E9.20977
G1 X145.736 Y146.770 E9.28894
G1 X143.843 Y148.004 E9.35257
G1 X141.091 Y148.510 E9.43134
G1 X56.939 Y145.374 E11.80201
G1 X55.402 Y145.129 E11.84582
G1 X23.605 Y135.987 E12.77722
G1 X22.944 Y135.756 E12.79695
G1 X22.039 Y135.358 E12.82478
G1 X21.447 Y135.042 E12.84367
G1 X20.563 Y134.472 E12.87330
G1 X20.039 Y134.070 E12.89186
G1 X19.217 Y133.318 E12.92323
G1 X18.765 Y132.825 E12.94207
G1 X18.088 Y131.947 E12.97330
G1 X17.708 Y131.354 E12.99310
G1 X17.243 Y130.491 E13.02070
G1 X16.936 Y129.800 E13.04200
G1 X16.676 Y129.112 E13.06270
G1 X9.805 Y107.173 E13.70991
G1 X9.515 Y105.019 E13.77108
G1 X11.307 Y54.863 E15.18399
G1 X11.488 Y52.670 E15.24592
G1 X11.741 Y51.353 E15.28369
G1 X12.223 Y49.763 E15.33046
G1 X12.899 Y48.262 E15.37679
G1 X13.702 Y46.953 E15.42003
G1 X14.893 Y45.528 E15.47231
G1 X29.086 Y32.943 E16.00631
G1 E14.00631 F1680.00000
G92 E0
G1 X138.841 Y59.913 F12000.000
G1 E2.00000 F1680.00000
G1 X139.959 Y59.990 E2.02916 F900.000
G1 X140.991 Y60.118 E2.05623
G1 X142.721 Y60.407 E2.10188
G1 X142.721 Y68.456 E2.31139
G1 X142.691 Y69.225 E2.33142
G1 X142.603 Y69.931 E2.34993
G1 X142.460 Y70.581 E2.36726
G1 X142.257 Y71.158 E2.38317
G1 X141.990 Y71.658 E2.39793
G1 X141.656 Y72.093 E2.41221
G1 X141.247 Y72.469 E2.42666
G1 X140.719 Y72.808 E2.44300
G1 X128.130 Y79.885 E2.81891
G1 X83.259 Y77.805 E3.98811
G1 X82.331 Y77.754 E4.01229
G1 X81.420 Y77.676 E4.03611
G1 X80.298 Y77.509 E4.06562
G1 X80.298 Y60.197 E4.51624
G1 X100.240 Y59.888 E5.03537
G1 X137.681 Y59.889 E6.00993
G1 X138.766 Y59.912 E6.03818 F900.000
G1 X138.775 Y59.508 F12000.000
G1 X139.998 Y59.588 E6.07008 F720.000
G1 X141.049 Y59.719 E6.09766
G1 X143.124 Y60.079 E6.15248
G1 X143.124 Y68.464 E6.37074
G1 X143.093 Y69.258 E6.39142
G1 X143.001 Y70.000 E6.41087
G1 X142.848 Y70.692 E6.42931
G1 X142.628 Y71.321 E6.44666
G1 X142.330 Y71.877 E6.46310
G1 X141.955 Y72.367 E6.47915
G1 X141.495 Y72.790 E6.49542
G1 X140.927 Y73.154 E6.51298
G1 X128.227 Y80.293 E6.89220
G1 X83.238 Y78.207 E8.06446
G1 X82.303 Y78.157 E8.08884
G1 X81.375 Y78.077 E8.11308
G1 X80.508 Y77.960 E8.13586
G1 X79.894 Y77.843 E8.15211
G1 X79.894 Y59.800 E8.62176
G1 X100.237 Y59.484 E9.15131
G1 X137.685 Y59.485 E10.12606
G1 X138.700 Y59.507 E10.15247 F720.000
G1 X139.003 Y59.954 F12000.000
G1 X142.498 Y60.791 F12000.000
G1 X142.282 Y60.575 E10.16042 F1200.000
G1 X141.596 Y60.460 E10.17857
G1 X142.498 Y61.362 E10.21183
G1 X142.498 Y61.934 E10.22673
G1 X140.910 Y60.346 E10.28531
G1 X140.255 Y60.262 E10.30252
G1 X142.498 Y62.506 E10.38524
G1 X142.498 Y63.077 E10.40014
G1 X139.617 Y60.196 E10.50639
G1 X139.003 Y60.154 E10.52243
G1 X142.498 Y63.649 E10.65132
G1 X142.498 Y64.220 E10.66622
G1 X138.406 Y60.129 E10.81711
G1 X137.822 Y60.116 E10.83234
G1 X142.498 Y64.792 E11.00476
G1 X142.498 Y65.363 E11.01967
G1 X137.246 Y60.112 E11.21335
G1 X136.674 Y60.111 E11.22826
G1 X142.498 Y65.935 E11.44302
G1 X142.498 Y66.507 E11.45792
G1 X136.103 Y60.111 E11.69377
G1 X135.531 Y60.111 E11.70867
G1 X142.498 Y67.078 E11.96560
G1 X142.498 Y67.650 E11.98050
G1 X134.960 Y60.111 E12.25850
G1 X134.388 Y60.111 E12.27341
G1 X142.498 Y68.221 E12.57249
G1 X142.488 Y68.783 E12.58714
G1 X133.816 Y60.111 E12.90695
G1 X133.245 Y60.111 E12.92185
G1 X142.463 Y69.330 E13.26181
G1 X142.400 Y69.838 E13.27517
G1 X132.673 Y60.111 E13.63387
G1 X132.102 Y60.111 E13.64878
G1 X142.307 Y70.316 E14.02512
G1 X142.184 Y70.765 E14.03725
G1 X131.530 Y60.111 E14.43015
G1 X130.958 Y60.111 E14.44505
G1 X142.027 Y71.180 E14.85325
G1 X141.828 Y71.553 E14.86427
G1 X130.387 Y60.111 E15.28621
G1 X129.815 Y60.111 E15.30111
G1 X141.579 Y71.876 E15.73496
G1 X141.294 Y72.161 E15.74550
G1 X129.244 Y60.111 E16.18989
G1 X128.672 Y60.111 E16.20479
G1 X140.977 Y72.416 E16.65858
G1 X140.628 Y72.639 E16.66938
G1 X128.100 Y60.111 E17.13137
G1 X127.529 Y60.111 E17.14628
G1 X140.262 Y72.845 E17.61586
G1 X139.896 Y73.050 E17.62681
G1 X126.957 Y60.111 E18.10397
G1 X126.386 Y60.111 E18.11888
G1 X139.530 Y73.256 E18.60363
G1 X139.164 Y73.462 E18.61458
G1 X125.814 Y60.111 E19.10692
G1 X125.242 Y60.111 E19.12183
G1 X138.798 Y73.667 E19.62175
G1 X138.433 Y73.873 E19.63270
G1 X124.671 Y60.111 E20.14021
G1 X124.099 Y60.111 E20.15512
G1 X138.067 Y74.079 E20.67022
G1 X137.701 Y74.284 E20.68116
G1 X123.528 Y60.111 E21.20385
G1 X122.956 Y60.111 E21.21875
G1 X137.335 Y74.490 E21.74902
G1 X136.969 Y74.696 E21.75997
G1 X122.384 Y60.111 E22.29782
G1 X121.813 Y60.111 E22.31273
G1 X136.603 Y74.901 E22.85817
G1 X136.237 Y75.107 E22.86912
G1 X121.241 Y60.111 E23.42215
G1 X120.670 Y60.111 E23.43705
G1 X135.871 Y75.313 E23.99767
G1 X135.505 Y75.518 E24.00861
G1 X120.098 Y60.111 E24.57681
G1 X119.526 Y60.111 E24.59172
G1 X135.139 Y75.724 E25.16751
G1 X134.774 Y75.930 E25.17845
G1 X118.955 Y60.111 E25.76183
G1 X118.383 Y60.111 E25.77673
G1 X134.408 Y76.136 E26.36769
G1 X134.042 Y76.341 E26.37864
G1 X117.812 Y60.111 E26.97718
G1 X117.240 Y60.111 E26.99209
G1 X133.676 Y76.547 E27.59822
G1 X133.310 Y76.753 E27.60916
G1 X116.668 Y60.111 E28.22288
G1 X116.097 Y60.111 E28.23779
G1 X132.944 Y76.958 E28.85909
G1 X132.578 Y77.164 E28.87004
G1 X115.525 Y60.111 E29.49893
G1 X114.953 Y60.111 E29.51383
G1 X132.212 Y77.370 E30.15031
G1 X131.846 Y77.575 E30.16125
G1 X114.382 Y60.111 E30.80531
G1 X113.810 Y60.111 E30.82022
G1 X131.481 Y77.781 E31.47187
G1 X131.115 Y77.987 E31.48281
G1 X113.239 Y60.111 E32.14205
G1 X112.667 Y60.111 E32.15695
G1 X130.749 Y78.192 E32.82377
G1 X130.383 Y78.398 E32.83472
G1 X112.095 Y60.111 E33.50912
G1 X111.524 Y60.111 E33.52403
G1 X130.017 Y78.604 E34.20602
G1 X129.651 Y78.809 E34.21697
G1 X110.952 Y60.111 E34.90654
G1 X110.381 Y60.111 E34.92145
G1 X129.285 Y79.015 E35.61861
G1 X128.919 Y79.221 E35.62956
G1 X109.809 Y60.111 E36.33431
G1 X109.237 Y60.111 E36.34921
G1 X128.553 Y79.426 E37.06155
G1 X128.187 Y79.632 E37.07250
G1 X108.666 Y60.111 E37.79242
G1 X108.094 Y60.111 E37.80732
G1 X127.617 Y79.634 E38.52731
G1 X127.018 Y79.606 E38.54295
G1 X107.523 Y60.111 E39.26191
G1 X106.951 Y60.111 E39.27682
G1 X126.419 Y79.578 E39.99475
G1 X125.819 Y79.550 E40.01040
G1 X106.379 Y60.111 E40.72731
G1 X105.808 Y60.111 E40.74221
G1 X125.220 Y79.523 E41.45810
G1 X124.621 Y79.495 E41.47374
G1 X105.236 Y60.111 E42.18861
G1 X104.665 Y60.110 E42.20351
G1 X124.021 Y79.467 E42.91735
G1 X123.422 Y79.439 E42.93300
G1 X104.093 Y60.110 E43.64581
G1 X103.521 Y60.110 E43.66071
G1 X122.822 Y79.412 E44.37250
G1 X122.223 Y79.384 E44.38815
G1 X102.950 Y60.110 E45.09892
G1 X102.378 Y60.110 E45.11382
G1 X121.624 Y79.356 E45.82356
G1 X121.024 Y79.328 E45.83921
G1 X101.807 Y60.110 E46.54793
G1 X101.235 Y60.110 E46.56283
G1 X120.425 Y79.300 E47.27053
G1 X119.826 Y79.273 E47.28617
G1 X100.663 Y60.110 E47.99284
G1 X100.093 Y60.111 E48.00772
G1 X119.226 Y79.245 E48.71333
G1 X118.627 Y79.217 E48.72898
G1 X99.530 Y60.120 E49.43324
G1 X98.967 Y60.129 E49.44792
G1 X118.028 Y79.189 E50.15084
G1 X117.428 Y79.161 E50.16648
G1 X98.404 Y60.138 E50.86805
G1 X97.841 Y60.146 E50.88273
G1 X116.829 Y79.134 E51.58295
G1 X116.229 Y79.106 E51.59860
G1 X97.279 Y60.155 E52.29747
G1 X96.716 Y60.164 E52.31215
G1 X115.630 Y79.078 E53.00967
G1 X115.031 Y79.050 E53.02532
G1 X96.153 Y60.173 E53.72150
G1 X95.590 Y60.181 E53.73618
G1 X114.431 Y79.023 E54.43101
G1 X113.832 Y78.995 E54.44665
G1 X95.027 Y60.190 E55.14014
G1 X94.464 Y60.199 E55.15482
G1 X113.233 Y78.967 E55.84695
G1 X112.633 Y78.939 E55.86260
G1 X93.902 Y60.208 E56.55339
G1 X93.339 Y60.216 E56.56807
G1 X112.034 Y78.911 E57.25751
G1 X111.434 Y78.884 E57.27316
G1 X92.776 Y60.225 E57.96125
G1 X92.213 Y60.234 E57.97593
G1 X110.835 Y78.856 E58.66268
G1 X110.236 Y78.828 E58.67833
G1 X91.650 Y60.243 E59.36373
G1 X91.087 Y60.251 E59.37841
G1 X109.636 Y78.800 E60.06246
G1 X109.037 Y78.772 E60.07811
G1 X90.525 Y60.260 E60.76081
G1 X89.962 Y60.269 E60.77549
G1 X108.438 Y78.745 E61.45685
G1 X107.838 Y78.717 E61.47250
G1 X89.399 Y60.278 E62.15251
G1 X88.836 Y60.286 E62.16719
G1 X107.239 Y78.689 E62.84585
G1 X106.640 Y78.661 E62.86150
G1 X88.273 Y60.295 E63.53881
G1 X87.710 Y60.304 E63.55349
G1 X106.040 Y78.634 E64.22946
G1 X105.441 Y78.606 E64.24511
G1 X87.148 Y60.313 E64.91973
G1 X86.585 Y60.321 E64.93441
G1 X104.841 Y78.578 E65.60769
G1 X104.242 Y78.550 E65.62333
G1 X86.022 Y60.330 E66.29526
G1 X85.459 Y60.339 E66.30994
G1 X103.643 Y78.522 E66.98052
G1 X103.043 Y78.495 E66.99617
G1 X84.896 Y60.348 E67.66540
G1 X84.333 Y60.356 E67.68008
G1 X102.444 Y78.467 E68.34797
G1 X101.845 Y78.439 E68.36361
G1 X83.771 Y60.365 E69.03015
G1 X83.208 Y60.374 E69.04483
G1 X101.245 Y78.411 E69.71002
G1 X100.646 Y78.383 E69.72567
G1 X82.645 Y60.382 E70.38951
G1 X82.082 Y60.391 E70.40419
G1 X100.046 Y78.356 E71.06669
G1 X99.447 Y78.328 E71.08234
G1 X81.519 Y60.400 E71.74349
G1 X80.956 Y60.409 E71.75817
G1 X98.848 Y78.300 E72.41797
G1 X98.248 Y78.272 E72.43362
G1 X80.521 Y60.545 E73.08738
G1 X80.521 Y61.116 E73.10229
G1 X97.649 Y78.245 E73.73395
G1 X97.050 Y78.217 E73.74960
G1 X80.521 Y61.688 E74.35915
G1 X80.521 Y62.259 E74.37406
G1 X96.450 Y78.189 E74.96151
G1 X95.851 Y78.161 E74.97716
G1 X80.521 Y62.831 E75.54251
G1 X80.521 Y63.403 E75.55742
G1 X95.251 Y78.133 E76.10066
G1 X94.652 Y78.106 E76.11631
G1 X80.521 Y63.974 E76.63745
G1 X80.521 Y64.546 E76.65236
G1 X94.053 Y78.078 E77.15140
G1 X93.453 Y78.050 E77.16704
G1 X80.521 Y65.117 E77.64398
G1 X80.521 Y65.689 E77.65888
G1 X92.854 Y78.022 E78.11372
G1 X92.255 Y77.994 E78.12936
G1 X80.521 Y66.260 E78.56209
G1 X80.521 Y66.832 E78.57700
G1 X91.655 Y77.967 E78.98762
G1 X91.056 Y77.939 E79.00327
G1 X80.521 Y67.404 E79.39179
G1 X80.521 Y67.975 E79.40669
G1 X90.457 Y77.911 E79.77311
G1 X89.857 Y77.883 E79.78876
G1 X80.521 Y68.547 E80.13307
G1 X80.521 Y69.118 E80.14798
G1 X89.258 Y77.856 E80.47019
G1 X88.658 Y77.828 E80.48583
G1 X80.521 Y69.690 E80.78594
G1 X80.521 Y70.262 E80.80084
G1 X88.059 Y77.800 E81.07885
G1 X87.460 Y77.772 E81.09449
G1 X80.521 Y70.833 E81.35039
G1 X80.521 Y71.405 E81.36530
G1 X86.860 Y77.744 E81.59909
G1 X86.261 Y77.717 E81.61474
G1 X80.521 Y71.976 E81.82643
G1 X80.521 Y72.548 E81.84133
G1 X85.662 Y77.689 E82.03092
G1 X85.062 Y77.661 E82.04657
G1 X80.521 Y73.120 E82.21405
G1 X80.521 Y73.691 E82.22896
G1 X84.463 Y77.633 E82.37434
G1 X83.863 Y77.605 E82.38998
G1 X80.521 Y74.263 E82.51326
G1 X80.521 Y74.834 E82.52816
G1 X83.263 Y77.577 E82.62931
G1 X82.659 Y77.544 E82.64509
G1 X80.521 Y75.406 E82.72394
G1 X80.521 Y75.977 E82.73885
G1 X82.041 Y77.498 E82.79492
G1 X81.407 Y77.435 E82.81155
G1 X80.521 Y76.549 E82.84423
G1 X80.521 Y77.121 E82.85913
G1 X80.736 Y77.335 E82.86705
G1 E80.86705 F1680.00000
G92 E0
G1 Z0.350 F12000.000
G1 X137.328 Y43.717 F12000.000
G1 E2.00000 F1680.00000
G1 X117.012 Y46.404 E2.53341 F900.000
G1 X99.865 Y46.404 E2.97974
G1 X100.666 Y44.083 E3.04366
G1 X101.820 Y40.899 E3.13180
G1 X103.032 Y37.716 E3.22045
G1 X104.287 Y34.579 E3.30839
G1 X105.574 Y31.534 E3.39446
G1 X106.728 Y28.950 E3.46811
G1 X124.346 Y28.575 E3.92680
G1 X125.417 Y28.578 E3.95467
G1 X148.303 Y28.639 E4.55037 F900.000
G1 X149.519 Y28.665 E4.58205
G1 X150.637 Y28.742 E4.61121
G1 X151.669 Y28.869 E4.63828
G1 X153.399 Y29.159 E4.68393
G1 X153.399 Y37.208 E4.89344
G1 X153.369 Y37.977 E4.91347
G1 X153.281 Y38.683 E4.93199
G1 X153.138 Y39.333 E4.94931
G1 X152.936 Y39.909 E4.96522
G1 X152.668 Y40.410 E4.97998
G1 X152.335 Y40.845 E4.99426
G1 X151.926 Y41.220 E5.00871
G1 X151.423 Y41.543 E5.02425
G1 X150.820 Y41.811 E5.04143
G1 X150.107 Y42.013 E5.06072
G1 X149.241 Y42.141 E5.08350
G1 X137.402 Y43.707 E5.39434
G1 X137.455 Y44.107 F12000.000
G1 X117.038 Y46.808 E5.93040 F720.000
G1 X99.299 Y46.808 E6.39214
G1 X100.285 Y43.948 E6.47088
G1 X101.442 Y40.759 E6.55919
G1 X102.656 Y37.569 E6.64801
G1 X103.914 Y34.426 E6.73614
G1 X105.204 Y31.373 E6.82242
G1 X106.464 Y28.552 E6.90282
G1 X124.342 Y28.172 E7.36829
G1 X125.418 Y28.174 E7.39629
G1 X148.307 Y28.236 E7.99209 F720.000
G1 X149.538 Y28.262 E8.02411
G1 X150.676 Y28.340 E8.05381
G1 X151.727 Y28.470 E8.08139
G1 X153.802 Y28.830 E8.13621
G1 X153.802 Y37.216 E8.35447
G1 X153.771 Y38.009 E8.37515
G1 X153.679 Y38.751 E8.39460
G1 X153.527 Y39.443 E8.41305
G1 X153.306 Y40.072 E8.43039
G1 X153.009 Y40.629 E8.44683
G1 X152.633 Y41.118 E8.46288
G1 X152.173 Y41.541 E8.47915
G1 X151.615 Y41.899 E8.49640
G1 X150.957 Y42.191 E8.51513
G1 X150.192 Y42.408 E8.53584
G1 X149.297 Y42.541 E8.55938
G1 X137.530 Y44.097 E8.86835
G1 X137.151 Y43.711 F12000.000
G1 X153.176 Y29.542 F12000.000
G1 X152.961 Y29.327 E8.87632 F1200.000
G1 X152.272 Y29.212 E8.89459
G1 X153.176 Y30.116 E8.92804
G1 X153.176 Y30.689 E8.94304
G1 X151.583 Y29.096 E9.00197
G1 X150.927 Y29.013 E9.01928
G1 X153.176 Y31.263 E9.10250
G1 X153.176 Y31.836 E9.11750
G1 X150.287 Y28.947 E9.22438
G1 X149.672 Y28.905 E9.24053
G1 X153.176 Y32.409 E9.37019
G1 X153.176 Y32.983 E9.38519
G1 X149.073 Y28.880 E9.53698
G1 X148.488 Y28.868 E9.55231
G1 X153.176 Y33.556 E9.72578
G1 X153.176 Y34.130 E9.74078
G1 X147.907 Y28.861 E9.93570
G1 X147.333 Y28.859 E9.95074
G1 X153.176 Y34.703 E10.16694
G1 X153.176 Y35.277 E10.18194
G1 X146.758 Y28.858 E10.41941
G1 X146.183 Y28.856 E10.43445
G1 X153.176 Y35.850 E10.69319
G1 X153.176 Y36.423 E10.70820
G1 X145.608 Y28.855 E10.98821
G1 X145.033 Y28.853 E11.00325
G1 X153.176 Y36.997 E11.30453
G1 X153.166 Y37.560 E11.31926
G1 X144.458 Y28.852 E11.64142
G1 X143.883 Y28.850 E11.65646
G1 X153.138 Y38.106 E11.99889
G1 X153.075 Y38.616 E12.01233
G1 X143.308 Y28.849 E12.37368
G1 X142.733 Y28.847 E12.38872
G1 X152.979 Y39.093 E12.76780
G1 X152.853 Y39.541 E12.77997
G1 X142.158 Y28.846 E13.17567
G1 X141.583 Y28.844 E13.19071
G1 X152.693 Y39.954 E13.60176
G1 X152.493 Y40.328 E13.61285
G1 X141.008 Y28.843 E14.03778
G1 X140.433 Y28.841 E14.05282
G1 X152.238 Y40.646 E14.48958
G1 X151.952 Y40.933 E14.50019
G1 X139.858 Y28.839 E14.94762
G1 X139.283 Y28.838 E14.96266
G1 X151.629 Y41.184 E15.41944
G1 X151.269 Y41.397 E15.43039
G1 X138.708 Y28.836 E15.89510
G1 X138.133 Y28.835 E15.91014
G1 X150.872 Y41.574 E16.38143
G1 X150.434 Y41.709 E16.39342
G1 X137.558 Y28.833 E16.86979
G1 X136.983 Y28.832 E16.88483
G1 X149.971 Y41.819 E17.36533
G1 X149.472 Y41.894 E17.37853
