; generated by Slic3r 1.2.6 on 2015-04-13 at 18:34:26

; external perimeters extrusion width = 0.50mm
; perimeters extrusion width = 0.50mm
; infill extrusion width = 0.50mm
; solid infill extrusion width = 0.50mm
; top infill extrusion width = 0.50mm

M104 S190 ; set temperature
G28 ; home all axes
G1 Z15 F120 ; lift nozzle
M109 S190 ; wait for temperature to be reached
G21 ; set units to millimeters
G90 ; use absolute coordinates
M82 ; use absolute distances for extrusion
G92 E0
M106 S102
G1 E-2.00000 F1680.00000
G92 E0
G1 Z0.400 F12000.000
G1 X34.614 Y17.273 F12000.000
G1 E2.00000 F1680.00000
G1 X36.291 Y15.585 E2.07125 F1200.000
G1 X36.828 Y15.216 E2.09077
G1 X37.473 Y14.826 E2.11333
G1 X38.145 Y14.472 E2.13610
G1 X38.651 Y14.233 E2.15284
G1 X39.459 Y13.894 E2.17909
G1 X40.116 Y13.659 E2.19996
G1 X41.044 Y13.383 E2.22898
G1 X41.858 Y13.198 E2.25396
G1 X42.892 Y13.032 E2.28532
G1 X43.596 Y12.959 E2.30653
G1 X45.046 Y12.896 E2.34999
G1 X97.067 Y12.897 E3.90770
G1 X109.047 Y13.284 E4.26660 F1200.000
G1 X111.254 Y13.753 E4.33419
G1 X113.163 Y14.958 E4.40177
G1 X114.734 Y17.170 E4.48301
G1 X119.612 Y28.559 E4.85401
G1 X160.711 Y133.573 E8.23080
G1 X161.016 Y134.597 E8.26280
G1 X161.592 Y137.349 E8.34699
G1 X161.659 Y139.605 E8.41457
G1 X160.941 Y141.744 E8.48216
G1 X159.526 Y143.503 E8.54974
G1 X157.279 Y144.772 E8.62702
G1 X156.661 Y144.958 E8.64633
G1 X155.835 Y145.163 E8.67183
G1 X155.224 Y145.288 E8.69048
G1 X154.422 Y145.419 E8.71484
G1 X100.586 Y152.955 E10.34262
G1 X100.173 Y153.000 E10.35505
G1 X45.336 Y157.086 E12.00166
G1 X44.195 Y157.069 E12.03581
G1 X14.026 Y153.933 E12.94408
G1 X11.857 Y153.309 E13.01166
G1 X10.038 Y151.972 E13.07924
G1 X8.795 Y150.089 E13.14683
G1 X8.272 Y147.550 E13.22444
G1 X8.272 Y128.798 E13.78595
G1 X8.404 Y127.503 E13.82492
G1 X15.556 Y92.803 E14.88585
G1 X33.696 Y19.335 E17.15182
G1 X34.583 Y17.342 E17.21716
G1 E15.21716 F1680.00000
G92 E0
G1 X80.933 Y54.466 F12000.000
G1 E2.00000 F1680.00000
G1 X82.728 Y54.254 E2.05088 F1200.000
G1 X83.561 Y54.184 E2.07442
G1 X84.510 Y54.170 E2.10114
G1 X86.531 Y54.333 E2.15820
G1 X103.082 Y59.126 E2.64331 F1200.000
G1 X103.930 Y59.420 E2.66856
G1 X104.700 Y59.814 E2.69291
G1 X105.391 Y60.300 E2.71668
G1 X106.003 Y60.877 E2.74038
G1 X106.533 Y61.546 E2.76438
G1 X106.977 Y62.302 E2.78909
G1 X107.336 Y63.149 E2.81499
G1 X107.599 Y64.075 E2.84209
G1 X107.758 Y65.069 E2.87041
G1 X107.811 Y66.130 E2.90032
G1 X107.756 Y67.189 E2.93018
G1 X107.593 Y68.177 E2.95836
G1 X107.323 Y69.094 E2.98530
G1 X106.957 Y69.935 E3.01110
G1 X106.508 Y70.688 E3.03579
G1 X105.976 Y71.355 E3.05981
G1 X105.364 Y71.932 E3.08348
G1 X104.674 Y72.413 E3.10715
G1 X103.905 Y72.799 E3.13139
G1 X103.070 Y73.082 E3.15619
G1 X102.175 Y73.253 E3.18185
G1 X59.000 Y79.068 E4.40828
G1 X40.121 Y77.571 E4.94144
G1 X39.213 Y77.450 E4.96721
G1 X38.538 Y77.320 E4.98658
G1 X38.538 Y59.554 E5.48673
G1 X39.214 Y59.412 E5.50620
G1 X40.116 Y59.277 E5.53186
G1 X80.859 Y54.474 E6.68679
G1 X103.730 Y59.611 F12000.000
G1 X106.908 Y62.789 E6.81354 F2400.000
G1 X107.235 Y63.672 F12000.000
G1 X102.881 Y59.319 E6.98713 F2400.000
G1 X102.098 Y59.092 E7.01011
G1 X107.422 Y64.416 E7.22240
G1 X107.528 Y65.078 E7.24130
G1 X101.315 Y58.865 E7.48901
G1 X100.532 Y58.639 E7.51200
G1 X107.569 Y65.675 E7.79259
G1 X107.594 Y66.256 E7.80898
G1 X99.749 Y58.412 E8.12178
G1 X98.967 Y58.185 E8.14476
G1 X107.567 Y66.785 E8.48769
G1 X107.532 Y67.307 E8.50243
G1 X98.184 Y57.958 E8.87521
G1 X97.401 Y57.732 E8.89819
G1 X107.453 Y67.784 E9.29905
G1 X107.368 Y68.255 E9.31254
G1 X96.618 Y57.505 E9.74120
G1 X95.835 Y57.278 E9.76419
G1 X107.241 Y68.685 E10.21902
G1 X107.111 Y69.110 E10.23158
G1 X95.052 Y57.051 E10.71243
G1 X94.269 Y56.825 E10.73542
G1 X106.942 Y69.498 E11.24076
G1 X106.773 Y69.885 E11.25267
G1 X93.486 Y56.598 E11.78249
G1 X92.703 Y56.371 E11.80548
G1 X106.565 Y70.233 E12.35824
G1 X106.357 Y70.582 E12.36968
G1 X91.920 Y56.144 E12.94537
G1 X91.137 Y55.918 E12.96835
G1 X106.113 Y70.894 E13.56552
G1 X105.855 Y71.192 E13.57664
G1 X90.354 Y55.691 E14.19476
G1 X89.571 Y55.464 E14.21775
G1 X105.577 Y71.470 E14.85600
G1 X105.298 Y71.747 E14.86709
G1 X88.788 Y55.237 E15.52541
G1 X88.005 Y55.011 E15.54840
G1 X104.975 Y71.981 E16.22510
G1 X104.648 Y72.210 E16.23636
G1 X87.222 Y54.784 E16.93121
G1 X86.439 Y54.557 E16.95420
G1 X104.283 Y72.401 E17.66572
G1 X103.912 Y72.587 E17.67740
G1 X85.824 Y54.498 E18.39870
G1 X85.219 Y54.449 E18.41581
G1 X103.502 Y72.733 E19.14486
G1 X103.086 Y72.873 E19.15723
G1 X84.613 Y54.400 E19.89384
G1 X84.047 Y54.390 E19.90981
G1 X102.621 Y72.964 E20.65044
G1 X102.151 Y73.051 E20.66390
G1 X83.499 Y54.399 E21.40766
G1 X82.985 Y54.441 E21.42219
G1 X101.661 Y73.117 E22.16689
G1 X101.171 Y73.183 E22.18083
G1 X82.478 Y54.490 E22.92620
G1 X81.981 Y54.549 E22.94033
G1 X100.681 Y73.249 E23.68599
G1 X100.191 Y73.315 E23.69994
G1 X81.483 Y54.607 E24.44589
G1 X80.986 Y54.666 E24.46002
G1 X99.700 Y73.381 E25.20627
G1 X99.210 Y73.447 E25.22021
G1 X80.488 Y54.725 E25.96676
G1 X79.990 Y54.783 E25.98088
G1 X98.720 Y73.513 E26.72772
G1 X98.230 Y73.579 E26.74167
G1 X79.493 Y54.842 E27.48880
G1 X78.995 Y54.901 E27.50292
G1 X97.740 Y73.645 E28.25035
G1 X97.249 Y73.711 E28.26430
G1 X78.498 Y54.959 E29.01201
G1 X78.000 Y55.018 E29.02614
G1 X96.759 Y73.777 E29.77415
G1 X96.269 Y73.843 E29.78810
G1 X77.503 Y55.077 E30.53641
G1 X77.005 Y55.135 E30.55053
G1 X95.779 Y73.909 E31.29913
G1 X95.288 Y73.975 E31.31308
G1 X76.507 Y55.194 E32.06197
G1 X76.010 Y55.253 E32.07610
G1 X94.798 Y74.041 E32.82529
G1 X94.308 Y74.107 E32.83923
G1 X75.512 Y55.311 E33.58871
G1 X75.015 Y55.370 E33.60284
G1 X93.818 Y74.173 E34.35262
G1 X93.328 Y74.239 E34.36656
G1 X74.517 Y55.428 E35.11663
G1 X74.020 Y55.487 E35.13076
G1 X92.837 Y74.305 E35.88112
G1 X92.347 Y74.371 E35.89507
G1 X73.522 Y55.546 E36.64572
G1 X73.024 Y55.604 E36.65985
G1 X91.857 Y74.437 E37.41080
G1 X91.367 Y74.503 E37.42475
G1 X72.527 Y55.663 E38.17599
G1 X72.029 Y55.722 E38.19012
G1 X90.877 Y74.569 E38.94165
G1 X90.386 Y74.635 E38.95560
G1 X71.532 Y55.780 E39.70743
G1 X71.034 Y55.839 E39.72156
G1 X89.896 Y74.701 E40.47368
G1 X89.406 Y74.767 E40.48763
G1 X70.536 Y55.898 E41.24005
G1 X70.039 Y55.956 E41.25418
G1 X88.916 Y74.833 E42.00689
G1 X88.426 Y74.899 E42.02084
G1 X69.541 Y56.015 E42.77384
G1 X69.044 Y56.074 E42.78797
G1 X87.935 Y74.965 E43.54127
G1 X87.445 Y75.031 E43.55522
G1 X68.546 Y56.132 E44.30881
G1 X68.049 Y56.191 E44.32294
G1 X86.955 Y75.097 E45.07682
G1 X86.465 Y75.163 E45.09077
G1 X67.551 Y56.250 E45.84495
G1 X67.053 Y56.308 E45.85908
G1 X85.974 Y75.229 E46.61355
G1 X85.484 Y75.295 E46.62750
G1 X66.556 Y56.367 E47.38227
G1 X66.058 Y56.425 E47.39640
G1 X84.994 Y75.361 E48.15146
G1 X84.504 Y75.427 E48.16541
G1 X65.561 Y56.484 E48.92076
G1 X65.063 Y56.543 E48.93489
G1 X84.014 Y75.493 E49.69054
G1 X83.523 Y75.559 E49.70449
G1 X64.566 Y56.601 E50.46043
G1 X64.068 Y56.660 E50.47456
G1 X83.033 Y75.625 E51.23080
G1 X82.543 Y75.691 E51.24474
G1 X63.570 Y56.719 E52.00127
G1 X63.073 Y56.777 E52.01540
G1 X82.053 Y75.757 E52.77223
G1 X81.563 Y75.823 E52.78617
G1 X62.575 Y56.836 E53.54329
G1 X62.078 Y56.895 E53.55742
G1 X81.072 Y75.889 E54.31483
G1 X80.582 Y75.955 E54.32878
G1 X61.580 Y56.953 E55.08649
G1 X61.082 Y57.012 E55.10061
G1 X80.092 Y76.021 E55.85861
G1 X79.602 Y76.087 E55.87256
G1 X60.585 Y57.071 E56.63086
G1 X60.087 Y57.129 E56.64498
G1 X79.112 Y76.153 E57.40357
G1 X78.621 Y76.220 E57.41752
G1 X59.590 Y57.188 E58.17640
G1 X59.092 Y57.247 E58.19053
G1 X78.131 Y76.286 E58.94970
G1 X77.641 Y76.352 E58.96365
G1 X58.595 Y57.305 E59.72312
G1 X58.097 Y57.364 E59.73724
G1 X77.151 Y76.418 E60.49701
G1 X76.660 Y76.484 E60.51096
G1 X57.599 Y57.422 E61.27101
G1 X57.102 Y57.481 E61.28514
G1 X76.170 Y76.550 E62.04549
G1 X75.680 Y76.616 E62.05944
G1 X56.604 Y57.540 E62.82008
G1 X56.107 Y57.598 E62.83421
G1 X75.190 Y76.682 E63.59515
G1 X74.700 Y76.748 E63.60909
G1 X55.609 Y57.657 E64.37033
G1 X55.112 Y57.716 E64.38445
G1 X74.209 Y76.814 E65.14598
G1 X73.719 Y76.880 E65.15993
G1 X54.614 Y57.774 E65.92175
G1 X54.116 Y57.833 E65.93587
G1 X73.229 Y76.946 E66.69799
G1 X72.739 Y77.012 E66.71193
G1 X53.619 Y57.892 E67.47434
G1 X53.121 Y57.950 E67.48847
G1 X72.249 Y77.078 E68.25117
G1 X71.758 Y77.144 E68.26511
G1 X52.624 Y58.009 E69.02811
G1 X52.126 Y58.068 E69.04224
G1 X71.268 Y77.210 E69.80553
G1 X70.778 Y77.276 E69.81947
G1 X51.628 Y58.126 E70.58305
G1 X51.131 Y58.185 E70.59718
G1 X70.288 Y77.342 E71.36106
G1 X69.798 Y77.408 E71.37500
G1 X50.633 Y58.244 E72.13917
G1 X50.136 Y58.302 E72.15330
G1 X69.307 Y77.474 E72.91777
G1 X68.817 Y77.540 E72.93171
G1 X49.638 Y58.361 E73.69647
G1 X49.141 Y58.420 E73.71060
G1 X68.327 Y77.606 E74.47565
G1 X67.837 Y77.672 E74.48959
G1 X48.643 Y58.478 E75.25494
G1 X48.145 Y58.537 E75.26907
G1 X67.346 Y77.738 E76.03471
G1 X66.856 Y77.804 E76.04865
G1 X47.648 Y58.595 E76.81459
G1 X47.150 Y58.654 E76.82871
G1 X66.366 Y77.870 E77.59494
G1 X65.876 Y77.936 E77.60889
G1 X46.653 Y58.713 E78.37541
G1 X46.155 Y58.771 E78.38953
G1 X65.386 Y78.002 E79.15635
G1 X64.895 Y78.068 E79.17029
G1 X45.658 Y58.830 E79.93740
G1 X45.160 Y58.889 E79.95153
G1 X64.405 Y78.134 E80.71893
G1 X63.915 Y78.200 E80.73288
G1 X44.662 Y58.947 E81.50057
G1 X44.165 Y59.006 E81.51470
G1 X63.425 Y78.266 E82.28269
G1 X62.935 Y78.332 E82.29664
G1 X43.667 Y59.065 E83.06492
G1 X43.170 Y59.123 E83.07905
G1 X62.444 Y78.398 E83.84762
G1 X61.954 Y78.464 E83.86157
G1 X42.672 Y59.182 E84.63044
G1 X42.174 Y59.241 E84.64457
G1 X61.464 Y78.530 E85.41373
G1 X60.974 Y78.596 E85.42768
G1 X41.677 Y59.299 E86.19714
G1 X41.179 Y59.358 E86.21126
G1 X60.484 Y78.662 E86.98101
G1 X59.993 Y78.728 E86.99496
G1 X40.682 Y59.417 E87.76501
G1 X40.184 Y59.475 E87.77913
G1 X59.503 Y78.794 E88.54947
G1 X58.998 Y78.846 E88.56378
G1 X39.698 Y59.545 E89.33340
G1 X39.214 Y59.618 E89.34718
G1 X58.394 Y78.798 E90.11200
G1 X57.790 Y78.750 E90.12908
G1 X38.771 Y59.730 E90.88749
G1 X38.752 Y60.268 E90.90266
G1 X57.186 Y78.702 E91.63772
G1 X56.582 Y78.654 E91.65481
G1 X38.752 Y60.824 E92.36578
G1 X38.752 Y61.380 E92.38146
G1 X55.978 Y78.606 E93.06834
G1 X55.374 Y78.558 E93.08543
G1 X38.752 Y61.937 E93.74822
G1 X38.752 Y62.493 E93.76390
G1 X54.770 Y78.510 E94.40261
G1 X54.166 Y78.463 E94.41970
G1 X38.752 Y63.049 E95.03431
G1 X38.752 Y63.605 E95.04999
G1 X53.561 Y78.415 E95.64052
G1 X52.957 Y78.367 E95.65761
G1 X38.752 Y64.161 E96.22405
G1 X38.752 Y64.718 E96.23973
G1 X52.353 Y78.319 E96.78208
G1 X51.749 Y78.271 E96.79917
G1 X38.752 Y65.274 E97.31743
G1 X38.752 Y65.830 E97.33311
G1 X51.145 Y78.223 E97.82728
G1 X50.541 Y78.175 E97.84437
G1 X38.752 Y66.386 E98.31445
G1 X38.752 Y66.943 E98.33013
G1 X49.937 Y78.127 E98.77613
G1 X49.333 Y78.080 E98.79321
G1 X38.752 Y67.499 E99.21512
G1 X38.752 Y68.055 E99.23080
G1 X48.729 Y78.032 E99.62862
G1 X48.124 Y77.984 E99.64570
G1 X38.752 Y68.611 E100.01943
G1 X38.752 Y69.167 E100.03511
G1 X47.520 Y77.936 E100.38475
G1 X46.916 Y77.888 E100.40184
G1 X38.752 Y69.724 E100.72739
G1 X38.752 Y70.280 E100.74307
G1 X46.312 Y77.840 E101.04453
G1 X45.708 Y77.792 E101.06162
G1 X38.752 Y70.836 E101.33899
G1 X38.752 Y71.392 E101.35467
G1 X45.104 Y77.744 E101.60796
G1 X44.500 Y77.696 E101.62504
G1 X38.752 Y71.949 E101.85424
G1 X38.752 Y72.505 E101.86992
G1 X43.896 Y77.649 E102.07503
G1 X43.292 Y77.601 E102.09211
G1 X38.752 Y73.061 E102.27313
G1 X38.752 Y73.617 E102.28881
G1 X42.687 Y77.553 E102.44574
G1 X42.083 Y77.505 E102.46283
G1 X38.752 Y74.174 E102.59566
G1 X38.752 Y74.730 E102.61135
G1 X41.479 Y77.457 E102.72010
G1 X40.875 Y77.409 E102.73718
G1 X38.752 Y75.286 E102.82185
G1 X38.752 Y75.842 E102.83753
G1 X40.271 Y77.361 E102.89810
G1 X39.631 Y77.278 E102.91629
G1 X38.752 Y76.398 E102.95135
G1 X38.752 Y76.955 E102.96704
G1 X38.964 Y77.166 E102.97548
G1 X105.191 Y60.516 F12000.000
G1 X105.975 Y61.300 E103.00675 F2400.000
G1 E101.00675 F1680.00000
G92 E0
G1 Z0.400 F12000.000
G1 X48.223 Y19.564 F12000.000
G1 E2.00000 F1680.00000
G1 X96.969 Y19.564 E3.37229 F1200.000
G1 X108.668 Y19.943 E3.70181 F1200.000
G1 X113.396 Y30.973 E4.03967
G1 X113.920 Y33.477 E4.11166
G1 X113.232 Y33.654 E4.13166
G1 X85.292 Y39.679 E4.93631
G1 X84.807 Y39.735 E4.95005
G1 X48.280 Y38.206 E5.97924
G1 X41.369 Y23.433 E6.43840
G1 X40.241 Y20.961 E6.51490
G1 X40.593 Y20.719 E6.52693
G1 X41.243 Y20.377 E6.54761
G1 X42.029 Y20.047 E6.57160
G1 X42.929 Y19.779 E6.59803
G1 X43.933 Y19.618 E6.62667
G1 X45.052 Y19.564 E6.65822
G1 X48.148 Y19.564 E6.74537
G1 X41.493 Y23.087 F12000.000
G1 X56.749 Y38.343 E7.35605 F2400.000
G1 X56.167 Y38.318 E7.37256
G1 X41.981 Y24.133 E7.94039
G1 X42.472 Y25.182 F12000.000
G1 X55.584 Y38.294 E8.46524 F2400.000
G1 X55.001 Y38.270 E8.48175
G1 X42.963 Y26.231 E8.96362
G1 X43.453 Y27.280 F12000.000
G1 X54.418 Y38.245 E9.40253 F2400.000
G1 X53.835 Y38.221 E9.41904
G1 X43.944 Y28.330 E9.81496
G1 X44.435 Y29.379 F12000.000
G1 X53.253 Y38.196 E10.16792 F2400.000
G1 X52.670 Y38.172 E10.18443
G1 X44.926 Y30.428 E10.49441
G1 X45.417 Y31.477 F12000.000
G1 X52.087 Y38.148 E10.76142 F2400.000
G1 X51.504 Y38.123 E10.77793
G1 X45.908 Y32.526 E11.00196
G1 X46.398 Y33.576 F12000.000
G1 X50.922 Y38.099 E11.18302 F2400.000
G1 X50.339 Y38.074 E11.19953
G1 X46.889 Y34.625 E11.33762
G1 X47.380 Y35.674 F12000.000
G1 X49.756 Y38.050 E11.43273 F2400.000
G1 X49.173 Y38.026 E11.44924
G1 X47.871 Y36.723 E11.50138
G1 X48.362 Y37.772 F12000.000
G1 X48.591 Y38.001 E11.51054 F2400.000
G1 X41.024 Y22.059 F12000.000
G1 X57.332 Y38.367 E12.16332 F2400.000
G1 X57.915 Y38.392 E12.17983
G1 X40.555 Y21.032 E12.87470
G1 X40.866 Y20.784 E12.88594
G1 X58.498 Y38.416 E13.59171
G1 X59.080 Y38.440 E13.60822
G1 X41.232 Y20.592 E14.32267
G1 X41.621 Y20.422 E14.33468
G1 X59.663 Y38.465 E15.05688
G1 X60.246 Y38.489 E15.07339
G1 X42.014 Y20.257 E15.80318
G1 X42.441 Y20.126 E15.81583
G1 X60.829 Y38.514 E16.55184
G1 X61.411 Y38.538 E16.56835
G1 X42.872 Y19.998 E17.31045
G1 X43.348 Y19.917 E17.32414
G1 X61.994 Y38.562 E18.07050
G1 X62.577 Y38.587 E18.08701
G1 X43.830 Y19.839 E18.83743
G1 X44.357 Y19.808 E18.85237
G1 X63.160 Y38.611 E19.60502
G1 X63.742 Y38.635 E19.62153
G1 X44.889 Y19.782 E20.37618
G1 X45.444 Y19.778 E20.39187
G1 X64.325 Y38.660 E21.14767
G1 X64.908 Y38.684 E21.16418
G1 X46.002 Y19.778 E21.92095
G1 X46.560 Y19.778 E21.93676
G1 X65.491 Y38.709 E22.69451
G1 X66.073 Y38.733 E22.71102
G1 X47.119 Y19.778 E23.46975
G1 X47.677 Y19.778 E23.48555
G1 X66.656 Y38.757 E24.24526
G1 X67.239 Y38.782 E24.26177
G1 X48.235 Y19.778 E25.02245
G1 X48.794 Y19.778 E25.03825
G1 X67.822 Y38.806 E25.79991
G1 X68.404 Y38.831 E25.81642
G1 X49.352 Y19.778 E26.57905
G1 X49.911 Y19.778 E26.59486
G1 X68.987 Y38.855 E27.35847
G1 X69.570 Y38.879 E27.37498
G1 X50.469 Y19.778 E28.13956
G1 X51.027 Y19.778 E28.15537
G1 X70.153 Y38.904 E28.92093
G1 X70.736 Y38.928 E28.93744
G1 X51.586 Y19.778 E29.70398
G1 X52.144 Y19.778 E29.71978
G1 X71.318 Y38.953 E30.48730
G1 X71.901 Y38.977 E30.50381
G1 X52.702 Y19.778 E31.27230
G1 X53.261 Y19.778 E31.28810
G1 X72.484 Y39.001 E32.05757
G1 X73.067 Y39.026 E32.07408
G1 X53.819 Y19.778 E32.84452
G1 X54.378 Y19.778 E32.86032
G1 X73.649 Y39.050 E33.63174
G1 X74.232 Y39.075 E33.64825
G1 X54.936 Y19.778 E34.42065
G1 X55.494 Y19.778 E34.43645
G1 X74.815 Y39.099 E35.20982
G1 X75.398 Y39.123 E35.22633
G1 X56.053 Y19.778 E36.00068
G1 X56.611 Y19.778 E36.01648
G1 X75.980 Y39.148 E36.79181
G1 X76.563 Y39.172 E36.80832
G1 X57.169 Y19.778 E37.58462
G1 X57.728 Y19.778 E37.60042
G1 X77.146 Y39.196 E38.37770
G1 X77.729 Y39.221 E38.39421
G1 X58.286 Y19.778 E39.17246
G1 X58.845 Y19.778 E39.18826
G1 X78.311 Y39.245 E39.96749
G1 X78.894 Y39.270 E39.98400
G1 X59.403 Y19.778 E40.76421
G1 X59.961 Y19.778 E40.78001
G1 X79.477 Y39.294 E41.56119
G1 X80.060 Y39.318 E41.57770
G1 X60.520 Y19.778 E42.35986
G1 X61.078 Y19.778 E42.37566
G1 X80.642 Y39.343 E43.15879
G1 X81.225 Y39.367 E43.17530
G1 X61.636 Y19.778 E43.95941
G1 X62.195 Y19.778 E43.97522
G1 X81.808 Y39.392 E44.76030
G1 X82.391 Y39.416 E44.77681
G1 X62.753 Y19.778 E45.56287
G1 X63.311 Y19.778 E45.57868
G1 X82.973 Y39.440 E46.36572
G1 X83.556 Y39.465 E46.38223
G1 X63.870 Y19.778 E47.17024
