; generated by Slic3r 1.2.6 on 2015-04-10 at 23:54:14

; external perimeters extrusion width = 0.50mm
; perimeters extrusion width = 0.50mm
; infill extrusion width = 0.50mm
; solid infill extrusion width = 0.50mm
; top infill extrusion width = 0.50mm

M104 S190 ; set temperature
G28 ; home all axes
G1 Z15 F120 ; lift nozzle
M109 S190 ; wait for temperature to be reached
G21 ; set units to millimeters
G90 ; use absolute coordinates
M82 ; use absolute distances for extrusion
G92 E0
M106 S102
G1 E-2.00000 F1680.00000
G92 E0
G1 Z0.400 F12000.000
G1 X37.754 Y69.653 F12000.000
G1 E2.00000 F1680.00000
G1 X38.817 Y69.154 E2.03517 F1200.000
G1 X39.637 Y68.835 E2.06150
G1 X40.795 Y68.474 E2.09783
G1 X41.597 Y68.280 E2.12255
G1 X42.834 Y68.063 E2.16013
G1 X43.589 Y67.976 E2.18291
G1 X45.256 Y67.894 E2.23287
G1 X127.362 Y67.906 E4.69146
G1 X128.347 Y67.966 E4.72102 F1200.000
G1 X129.182 Y68.073 E4.74624
G1 X130.110 Y68.254 E4.77454
G1 X130.982 Y68.488 E4.80157
G1 X131.852 Y68.789 E4.82914
G1 X132.678 Y69.141 E4.85602
G1 X133.479 Y69.551 E4.88297
G1 X134.247 Y70.015 E4.90985
G1 X134.967 Y70.522 E4.93620
G1 X135.680 Y71.104 E4.96378
G1 X136.319 Y71.707 E4.99006
G1 X136.940 Y72.384 E5.01757
G1 X137.492 Y73.080 E5.04417
G1 X137.998 Y73.818 E5.07099
G1 X138.460 Y74.604 E5.09828
G1 X138.835 Y75.351 E5.12332
G1 X139.207 Y76.228 E5.15182
G1 X139.470 Y76.975 E5.17555
G1 X139.742 Y77.930 E5.20529
G1 X139.907 Y78.675 E5.22812
G1 X140.070 Y79.696 E5.25909
G1 X140.142 Y80.387 E5.27990
G1 X140.196 Y81.475 E5.31252
G1 X140.196 Y82.125 E5.33197
G1 X140.140 Y83.211 E5.36454
G1 X140.063 Y83.925 E5.38606
G1 X139.895 Y84.942 E5.41691
G1 X139.718 Y85.713 E5.44060
G1 X139.439 Y86.660 E5.47017
G1 X139.167 Y87.407 E5.49396
G1 X138.789 Y88.276 E5.52234
G1 X138.417 Y89.001 E5.54673
G1 X137.951 Y89.783 E5.57399
G1 X137.457 Y90.496 E5.59997
G1 X136.904 Y91.190 E5.62656
G1 X136.287 Y91.860 E5.65382
G1 X135.649 Y92.462 E5.68008
G1 X134.917 Y93.056 E5.70830
G1 X134.198 Y93.558 E5.73458
G1 X133.492 Y93.985 E5.75926
G1 X119.296 Y101.380 E6.23859
G1 X116.169 Y102.104 E6.33469
G1 X45.228 Y100.312 E8.45964
G1 X43.777 Y100.231 E8.50314
G1 X43.002 Y100.138 E8.52653
G1 X41.811 Y99.921 E8.56278
G1 X41.026 Y99.727 E8.58699
G1 X39.883 Y99.365 E8.62288
G1 X39.096 Y99.059 E8.64817
G1 X38.025 Y98.557 E8.68357
G1 X37.235 Y98.117 E8.71065
G1 X36.261 Y97.480 E8.74551
G1 X35.534 Y96.927 E8.77287
G1 X34.656 Y96.155 E8.80788
G1 X34.018 Y95.510 E8.83505
G1 X33.247 Y94.608 E8.87056
G1 X32.713 Y93.889 E8.89738
G1 X32.059 Y92.864 E8.93379
G1 X31.655 Y92.130 E8.95889
G1 X31.118 Y90.982 E8.99685
G1 X30.807 Y90.182 E9.02254
G1 X30.409 Y88.912 E9.06240
G1 X30.207 Y88.079 E9.08807
G1 X29.968 Y86.688 E9.13032
G1 X29.884 Y85.939 E9.15289
G1 X29.805 Y84.428 E9.19820
G1 X29.803 Y83.784 E9.21748
G1 X29.875 Y82.273 E9.26277
G1 X29.944 Y81.593 E9.28325
G1 X30.161 Y80.203 E9.32538
G1 X30.328 Y79.436 E9.34887
G1 X30.689 Y78.166 E9.38841
G1 X30.965 Y77.389 E9.41311
G1 X31.457 Y76.242 E9.45048
G1 X31.845 Y75.482 E9.47603
G1 X32.454 Y74.461 E9.51161
G1 X32.984 Y73.704 E9.53931
G1 X33.711 Y72.810 E9.57381
G1 X34.374 Y72.109 E9.60268
G1 X35.215 Y71.345 E9.63671
G1 X35.982 Y70.747 E9.66585
G1 X36.934 Y70.115 E9.70006
G1 X37.689 Y69.690 E9.72600
G1 E7.72600 F1680.00000
G92 E0
G1 X102.773 Y74.564 F12000.000
G1 E2.00000 F1680.00000
G1 X127.012 Y74.565 E2.68237 F1200.000
G1 X127.924 Y74.621 E2.70809 F1200.000
G1 X128.818 Y74.795 E2.73373
G1 X129.655 Y75.085 E2.75867
G1 X130.425 Y75.479 E2.78302
G1 X131.116 Y75.965 E2.80679
G1 X131.728 Y76.542 E2.83049
G1 X132.258 Y77.210 E2.85449
G1 X132.702 Y77.967 E2.87920
G1 X133.061 Y78.814 E2.90510
G1 X133.325 Y79.740 E2.93220
G1 X133.483 Y80.733 E2.96051
G1 X133.536 Y81.795 E2.99043
G1 X133.482 Y82.854 E3.02029
G1 X133.319 Y83.842 E3.04847
G1 X133.048 Y84.759 E3.07541
G1 X132.682 Y85.600 E3.10120
G1 X132.233 Y86.353 E3.12590
G1 X131.701 Y87.020 E3.14992
G1 X131.089 Y87.597 E3.17359
G1 X130.398 Y88.079 E3.19731
G1 X116.273 Y95.436 E3.64568
G1 X45.400 Y93.646 E5.64151
G1 X44.180 Y93.575 E5.67591
G1 X43.020 Y93.364 E5.70912
G1 X41.908 Y93.013 E5.74195
G1 X40.868 Y92.526 E5.77426
G1 X39.923 Y91.909 E5.80603
G1 X39.072 Y91.160 E5.83795
G1 X38.323 Y90.286 E5.87035
G1 X37.687 Y89.289 E5.90363
G1 X37.164 Y88.171 E5.93838
G1 X36.776 Y86.933 E5.97491
G1 X36.542 Y85.573 E6.01375
G1 X36.464 Y84.089 E6.05559
G1 X36.535 Y82.605 E6.09743
G1 X36.747 Y81.243 E6.13623
G1 X37.099 Y80.003 E6.17252
G1 X37.578 Y78.886 E6.20673
G1 X38.169 Y77.896 E6.23921
G1 X38.873 Y77.030 E6.27060
G1 X39.686 Y76.291 E6.30153
G1 X40.606 Y75.680 E6.33264
G1 X41.637 Y75.196 E6.36471
G1 X42.764 Y74.844 E6.39793
G1 X43.970 Y74.633 E6.43239
G1 X45.262 Y74.562 E6.46884
G1 X102.698 Y74.564 E8.08577
G1 X129.454 Y75.275 F12000.000
G1 X132.634 Y78.456 E8.21274 F2400.000
G1 X132.961 Y79.339 F12000.000
G1 X128.612 Y74.991 E8.38634 F2400.000
G1 X127.921 Y74.856 E8.40623
G1 X133.148 Y80.083 E8.61492
G1 X133.254 Y80.746 E8.63387
G1 X127.311 Y74.803 E8.87114
G1 X126.730 Y74.779 E8.88755
G1 X133.295 Y81.344 E9.14964
G1 X133.319 Y81.925 E9.16606
G1 X126.173 Y74.779 E9.45136
G1 X125.616 Y74.779 E9.46709
G1 X133.292 Y82.455 E9.77353
G1 X133.257 Y82.977 E9.78830
G1 X125.059 Y74.779 E10.11558
G1 X124.502 Y74.779 E10.13131
G1 X133.178 Y83.455 E10.47768
G1 X133.092 Y83.925 E10.49119
G1 X123.945 Y74.779 E10.85635
G1 X123.388 Y74.779 E10.87207
G1 X132.965 Y84.356 E11.25441
G1 X132.833 Y84.781 E11.26699
G1 X122.831 Y74.779 E11.66632
G1 X122.274 Y74.779 E11.68204
G1 X132.664 Y85.169 E12.09686
G1 X132.494 Y85.556 E12.10879
G1 X121.718 Y74.779 E12.53907
G1 X121.161 Y74.779 E12.55479
G1 X132.286 Y85.905 E12.99899
G1 X132.078 Y86.254 E13.01046
G1 X120.604 Y74.779 E13.46859
G1 X120.047 Y74.779 E13.48431
G1 X131.833 Y86.565 E13.95487
G1 X131.574 Y86.864 E13.96602
G1 X119.490 Y74.779 E14.44850
G1 X118.933 Y74.779 E14.46422
G1 X131.296 Y87.142 E14.95781
G1 X131.016 Y87.419 E14.96893
G1 X118.376 Y74.779 E15.47358
G1 X117.819 Y74.779 E15.48930
G1 X130.692 Y87.652 E16.00327
G1 X130.364 Y87.881 E16.01456
G1 X117.262 Y74.779 E16.53766
G1 X116.705 Y74.779 E16.55338
G1 X130.002 Y88.076 E17.08427
G1 X129.636 Y88.267 E17.09593
G1 X116.148 Y74.779 E17.63443
G1 X115.591 Y74.779 E17.65015
G1 X129.270 Y88.458 E18.19627
G1 X128.904 Y88.648 E18.20793
G1 X115.034 Y74.779 E18.76166
G1 X114.477 Y74.779 E18.77739
G1 X128.537 Y88.839 E19.33874
G1 X128.171 Y89.030 E19.35039
G1 X113.920 Y74.779 E19.91936
G1 X113.363 Y74.779 E19.93508
G1 X127.805 Y89.220 E20.51167
G1 X127.439 Y89.411 E20.52332
G1 X112.806 Y74.779 E21.10752
G1 X112.249 Y74.779 E21.12325
G1 X127.073 Y89.602 E21.71506
G1 X126.706 Y89.793 E21.72672
G1 X111.692 Y74.779 E22.32615
G1 X111.136 Y74.779 E22.34188
G1 X126.340 Y89.983 E22.94893
G1 X125.974 Y90.174 E22.96058
G1 X110.579 Y74.779 E23.57525
G1 X110.022 Y74.779 E23.59097
G1 X125.608 Y90.365 E24.21325
G1 X125.242 Y90.556 E24.22491
G1 X109.465 Y74.779 E24.85480
G1 X108.908 Y74.779 E24.87053
G1 X124.875 Y90.746 E25.50804
G1 X124.509 Y90.937 E25.51970
G1 X108.351 Y74.779 E26.16483
G1 X107.794 Y74.779 E26.18055
G1 X124.143 Y91.128 E26.83330
G1 X123.777 Y91.319 E26.84495
G1 X107.237 Y74.779 E27.50531
G1 X106.680 Y74.779 E27.52104
G1 X123.411 Y91.509 E28.18902
G1 X123.045 Y91.700 E28.20067
G1 X106.123 Y74.779 E28.87627
G1 X105.566 Y74.779 E28.89199
G1 X122.678 Y91.891 E29.57520
G1 X122.312 Y92.082 E29.58686
G1 X105.009 Y74.779 E30.27768
G1 X104.452 Y74.779 E30.29341
G1 X121.946 Y92.272 E30.99185
G1 X121.580 Y92.463 E31.00351
G1 X103.895 Y74.778 E31.70957
G1 X103.338 Y74.778 E31.72529
G1 X121.214 Y92.654 E32.43896
G1 X120.847 Y92.845 E32.45062
G1 X102.781 Y74.778 E33.17191
G1 X102.224 Y74.778 E33.18764
G1 X120.481 Y93.035 E33.91654
G1 X120.115 Y93.226 E33.92820
G1 X101.667 Y74.778 E34.66472
G1 X101.110 Y74.778 E34.68045
G1 X119.749 Y93.417 E35.42459
G1 X119.383 Y93.608 E35.43624
G1 X100.554 Y74.778 E36.18800
G1 X99.997 Y74.778 E36.20372
G1 X119.017 Y93.798 E36.96310
G1 X118.650 Y93.989 E36.97475
G1 X99.440 Y74.778 E37.74174
G1 X98.883 Y74.778 E37.75746
G1 X118.284 Y94.180 E38.53207
G1 X117.918 Y94.371 E38.54373
G1 X98.326 Y74.778 E39.32595
G1 X97.769 Y74.778 E39.34167
G1 X117.552 Y94.561 E40.13151
G1 X117.186 Y94.752 E40.14316
G1 X97.212 Y74.778 E40.94062
G1 X96.655 Y74.778 E40.95634
G1 X116.819 Y94.943 E41.76141
G1 X116.453 Y95.133 E41.77307
G1 X96.098 Y74.778 E42.58575
G1 X95.541 Y74.778 E42.60148
G1 X115.975 Y95.212 E43.41731
G1 X115.404 Y95.198 E43.43345
G1 X94.984 Y74.778 E44.24871
G1 X94.427 Y74.778 E44.26443
G1 X114.832 Y95.184 E45.07912
G1 X114.261 Y95.169 E45.09525
G1 X93.870 Y74.778 E45.90936
G1 X93.313 Y74.778 E45.92509
G1 X113.690 Y95.155 E46.73862
G1 X113.118 Y95.140 E46.75476
G1 X92.756 Y74.778 E47.56772
G1 X92.199 Y74.778 E47.58344
G1 X112.547 Y95.126 E48.39583
G1 X111.976 Y95.111 E48.41196
G1 X91.642 Y74.778 E49.22377
G1 X91.085 Y74.778 E49.23949
G1 X111.404 Y95.097 E50.05073
G1 X110.833 Y95.082 E50.06686
G1 X90.528 Y74.778 E50.87752
G1 X89.972 Y74.778 E50.89325
G1 X110.262 Y95.068 E51.70333
G1 X109.690 Y95.054 E51.71946
G1 X89.415 Y74.778 E52.52897
G1 X88.858 Y74.778 E52.54469
G1 X109.119 Y95.039 E53.35363
G1 X108.548 Y95.025 E53.36976
G1 X88.301 Y74.778 E54.17812
G1 X87.744 Y74.778 E54.19384
G1 X107.976 Y95.010 E55.00162
G1 X107.405 Y94.996 E55.01776
G1 X87.187 Y74.778 E55.82496
G1 X86.630 Y74.778 E55.84069
G1 X106.833 Y94.981 E56.64732
G1 X106.262 Y94.967 E56.66345
G1 X86.073 Y74.778 E57.46951
G1 X85.516 Y74.778 E57.48523
G1 X105.691 Y94.953 E58.29071
G1 X105.119 Y94.938 E58.30685
G1 X84.959 Y74.778 E59.11175
G1 X84.402 Y74.778 E59.12747
G1 X104.548 Y94.924 E59.93180
G1 X103.977 Y94.909 E59.94794
G1 X83.845 Y74.778 E60.75169
G1 X83.288 Y74.778 E60.76741
G1 X103.405 Y94.895 E61.57059
G1 X102.834 Y94.880 E61.58673
G1 X82.731 Y74.778 E62.38933
G1 X82.174 Y74.778 E62.40505
G1 X102.263 Y94.866 E63.20708
G1 X101.691 Y94.852 E63.22322
G1 X81.617 Y74.778 E64.02467
G1 X81.060 Y74.778 E64.04039
G1 X101.120 Y94.837 E64.84127
G1 X100.548 Y94.823 E64.85740
G1 X80.503 Y74.778 E65.65770
G1 X79.946 Y74.778 E65.67343
G1 X99.977 Y94.808 E66.47315
G1 X99.406 Y94.794 E66.48929
G1 X79.390 Y74.778 E67.28844
G1 X78.833 Y74.778 E67.30416
G1 X98.834 Y94.779 E68.10274
G1 X98.263 Y94.765 E68.11887
G1 X78.276 Y74.778 E68.91687
G1 X77.719 Y74.778 E68.93259
G1 X97.692 Y94.751 E69.73002
G1 X97.120 Y94.736 E69.74615
G1 X77.162 Y74.778 E70.54300
G1 X76.605 Y74.777 E70.55873
G1 X96.549 Y94.722 E71.35500
G1 X95.978 Y94.707 E71.37113
G1 X76.048 Y74.777 E72.16683
G1 X75.491 Y74.777 E72.18256
G1 X95.406 Y94.693 E72.97768
G1 X94.835 Y94.678 E72.99381
G1 X74.934 Y74.777 E73.78836
G1 X74.377 Y74.777 E73.80408
G1 X94.264 Y94.664 E74.59805
G1 X93.692 Y94.650 E74.61419
G1 X73.820 Y74.777 E75.40759
G1 X73.263 Y74.777 E75.42331
G1 X93.121 Y94.635 E76.21613
G1 X92.549 Y94.621 E76.23227
G1 X72.706 Y74.777 E77.02451
G1 X72.149 Y74.777 E77.04023
G1 X91.978 Y94.606 E77.83190
G1 X91.407 Y94.592 E77.84804
G1 X71.592 Y74.777 E78.63913
G1 X71.035 Y74.777 E78.65486
G1 X90.835 Y94.577 E79.44538
G1 X90.264 Y94.563 E79.46151
G1 X70.478 Y74.777 E80.25145
G1 X69.921 Y74.777 E80.26718
G1 X89.693 Y94.548 E81.05655
G1 X89.121 Y94.534 E81.07268
G1 X69.364 Y74.777 E81.86147
G1 X68.808 Y74.777 E81.87720
G1 X88.550 Y94.520 E82.66541
G1 X87.979 Y94.505 E82.68155
G1 X68.251 Y74.777 E83.46919
G1 X67.694 Y74.777 E83.48492
G1 X87.407 Y94.491 E84.27198
G1 X86.836 Y94.476 E84.28812
G1 X67.137 Y74.777 E85.07461
G1 X66.580 Y74.777 E85.09033
G1 X86.265 Y94.462 E85.87625
G1 X85.693 Y94.447 E85.89238
G1 X66.023 Y74.777 E86.67772
G1 X65.466 Y74.777 E86.69345
G1 X85.122 Y94.433 E87.47821
G1 X84.550 Y94.419 E87.49435
G1 X64.909 Y74.777 E88.27854
G1 X64.352 Y74.777 E88.29426
G1 X83.979 Y94.404 E89.07787
G1 X83.408 Y94.390 E89.09401
G1 X63.795 Y74.777 E89.87705
G1 X63.238 Y74.777 E89.89277
G1 X82.836 Y94.375 E90.67523
G1 X82.265 Y94.361 E90.69137
G1 X62.681 Y74.777 E91.47326
G1 X62.124 Y74.777 E91.48898
G1 X81.694 Y94.346 E92.27029
G1 X81.122 Y94.332 E92.28643
G1 X61.567 Y74.777 E93.06716
G1 X61.010 Y74.777 E93.08289
G1 X80.551 Y94.318 E93.86305
G1 X79.980 Y94.303 E93.87919
G1 X60.453 Y74.777 E94.65877
G1 X59.896 Y74.777 E94.67449
G1 X79.408 Y94.289 E95.45351
G1 X78.837 Y94.274 E95.46964
G1 X59.339 Y74.777 E96.24808
G1 X58.782 Y74.777 E96.26380
G1 X78.265 Y94.260 E97.04166
G1 X77.694 Y94.245 E97.05779
G1 X58.226 Y74.777 E97.83508
G1 X57.669 Y74.777 E97.85080
G1 X77.123 Y94.231 E98.62751
G1 X76.551 Y94.217 E98.64365
G1 X57.112 Y74.777 E99.41978
G1 X56.555 Y74.777 E99.43550
G1 X75.980 Y94.202 E100.21106
G1 X75.409 Y94.188 E100.22720
G1 X55.998 Y74.777 E101.00218
G1 X55.441 Y74.777 E101.01790
G1 X74.837 Y94.173 E101.79231
G1 X74.266 Y94.159 E101.80845
G1 X54.884 Y74.777 E102.58228
G1 X54.327 Y74.777 E102.59800
G1 X73.695 Y94.144 E103.37126
G1 X73.123 Y94.130 E103.38739
G1 X53.770 Y74.777 E104.16008
G1 X53.213 Y74.777 E104.17580
G1 X72.552 Y94.116 E104.94790
G1 X71.981 Y94.101 E104.96404
G1 X52.656 Y74.777 E105.73557
G1 X52.099 Y74.777 E105.75129
G1 X71.409 Y94.087 E106.52225
G1 X70.838 Y94.072 E106.53838
G1 X51.542 Y74.777 E107.30876
G1 X50.985 Y74.777 E107.32449
G1 X70.266 Y94.058 E108.09429
G1 X69.695 Y94.043 E108.11043
G1 X50.428 Y74.777 E108.87966
G1 X49.871 Y74.777 E108.89538
G1 X69.124 Y94.029 E109.66403
G1 X68.552 Y94.014 E109.68017
G1 X49.314 Y74.776 E110.44825
G1 X48.757 Y74.776 E110.46397
G1 X67.981 Y94.000 E111.23147
G1 X67.410 Y93.986 E111.24761
G1 X48.200 Y74.776 E112.01453
G1 X47.644 Y74.776 E112.03026
G1 X66.838 Y93.971 E112.79661
G1 X66.267 Y93.957 E112.81275
G1 X47.087 Y74.776 E113.57852
G1 X46.530 Y74.776 E113.59424
G1 X65.696 Y93.942 E114.35945
G1 X65.124 Y93.928 E114.37558
G1 X45.973 Y74.776 E115.14021
G1 X45.416 Y74.776 E115.15593
G1 X64.553 Y93.913 E115.91998
G1 X63.981 Y93.899 E115.93612
G1 X44.876 Y74.793 E116.69891
G1 X44.348 Y74.822 E116.71383
G1 X63.410 Y93.885 E117.47489
G1 X62.839 Y93.870 E117.49102
G1 X43.830 Y74.862 E118.24994
G1 X43.356 Y74.945 E118.26352
G1 X62.267 Y93.856 E119.01854
G1 X61.696 Y93.841 E119.03467
G1 X42.883 Y75.028 E119.78580
G1 X42.444 Y75.146 E119.79862
G1 X61.125 Y93.827 E120.54444
G1 X60.553 Y93.812 E120.56057
G1 X42.020 Y75.279 E121.30053
G1 X41.602 Y75.418 E121.31295
G1 X59.982 Y93.798 E122.04676
G1 X59.411 Y93.784 E122.06289
G1 X41.223 Y75.596 E122.78901
G1 X40.845 Y75.774 E122.80083
G1 X58.839 Y93.769 E123.51927
G1 X58.268 Y93.755 E123.53540
G1 X40.489 Y75.976 E124.24521
G1 X40.155 Y76.198 E124.25655
G1 X57.697 Y93.740 E124.95691
G1 X57.125 Y93.726 E124.97304
G1 X39.820 Y76.421 E125.66395
G1 X39.524 Y76.681 E125.67509
G1 X56.554 Y93.711 E126.35501
G1 X55.982 Y93.697 E126.37114
G1 X39.236 Y76.951 E127.03974
G1 X38.958 Y77.229 E127.05086
G1 X55.411 Y93.683 E127.70777
G1 X54.840 Y93.668 E127.72390
G1 X38.700 Y77.529 E128.36827
G1 X38.450 Y77.836 E128.37945
G1 X54.268 Y93.654 E129.01098
G1 X53.697 Y93.639 E129.02712
G1 X38.222 Y78.164 E129.64495
G1 X38.014 Y78.513 E129.65641
G1 X53.126 Y93.625 E130.25974
G1 X52.554 Y93.610 E130.27588
G1 X37.806 Y78.862 E130.86471
G1 X37.630 Y79.243 E130.87656
G1 X51.983 Y93.596 E131.44961
G1 X51.412 Y93.581 E131.46575
G1 X37.462 Y79.632 E132.02267
G1 X37.296 Y80.022 E132.03465
G1 X50.840 Y93.567 E132.57542
G1 X50.269 Y93.553 E132.59155
G1 X37.172 Y80.456 E133.11443
G1 X37.049 Y80.890 E133.12716
G1 X49.697 Y93.538 E133.63214
G1 X49.126 Y93.524 E133.64828
G1 X36.937 Y81.335 E134.13492
G1 X36.862 Y81.817 E134.14869
G1 X48.555 Y93.509 E134.61551
G1 X47.983 Y93.495 E134.63165
G1 X36.787 Y82.299 E135.07865
G1 X36.736 Y82.804 E135.09300
G1 X47.412 Y93.480 E135.51924
G1 X46.841 Y93.466 E135.53538
G1 X36.711 Y83.336 E135.93982
G1 X36.685 Y83.867 E135.95485
G1 X46.269 Y93.452 E136.33749
G1 X45.698 Y93.437 E136.35363
G1 X36.702 Y84.441 E136.71281
G1 X36.733 Y85.029 E136.72943
G1 X45.114 Y93.410 E137.06405
G1 X44.522 Y93.375 E137.08077
G1 X36.787 Y85.640 E137.38962
G1 X36.902 Y86.312 E137.40888
G1 X43.875 Y93.285 E137.68729
G1 X43.194 Y93.161 E137.70682
G1 X37.060 Y87.027 E137.95174
G1 X37.314 Y87.838 E137.97574
G1 X42.384 Y92.908 E138.17815
G1 X41.419 Y92.499 F12000.000
G1 X37.763 Y88.844 E138.32410 F2400.000
