; generated by Slic3r 1.2.6 on 2015-04-11 at 15:40:44

; external perimeters extrusion width = 0.50mm
; perimeters extrusion width = 0.50mm
; infill extrusion width = 0.50mm
; solid infill extrusion width = 0.50mm
; top infill extrusion width = 0.50mm

M104 S190 ; set temperature
G28 ; home all axes
G1 Z15 F120 ; lift nozzle
M109 S190 ; wait for temperature to be reached
G21 ; set units to millimeters
G90 ; use absolute coordinates
M82 ; use absolute distances for extrusion
G92 E0
M106 S102
G1 E-2.00000 F1680.00000
G92 E0
G1 Z0.400 F12000.000
G1 X33.391 Y10.168 F12000.000
G1 E2.00000 F1680.00000
G1 X34.251 Y8.081 E2.06758 F1200.000
G1 X35.779 Y6.420 E2.13517
G1 X37.788 Y5.392 E2.20275
G1 X39.591 Y5.112 E2.25737
G1 X68.146 Y4.792 E3.11248
G1 X115.836 Y4.793 E4.54052
G1 X117.377 Y4.833 E4.58669 F1200.000
G1 X118.877 Y4.946 E4.63172
G1 X120.167 Y5.110 E4.67066
G1 X121.963 Y5.410 E4.72518
G1 X122.708 Y5.558 E4.74792
G1 X124.808 Y6.385 E4.81551
G1 X126.491 Y7.889 E4.88309
G1 X127.596 Y10.032 E4.95529
G1 X149.732 Y84.977 E7.29529
G1 X149.859 Y85.480 E7.31083
G1 X150.435 Y88.232 E7.39502
G1 X150.502 Y90.488 E7.46261
G1 X149.799 Y92.599 E7.52922
G1 X117.463 Y152.414 E9.56530
G1 X116.909 Y153.268 E9.59579
G1 X116.508 Y153.791 E9.61552
G1 X115.758 Y154.611 E9.64880
G1 X115.265 Y155.063 E9.66882
G1 X114.509 Y155.660 E9.69767
G1 X101.957 Y164.113 E10.15081
G1 X99.893 Y165.025 E10.21839
G1 X97.975 Y165.196 E10.27605
G1 X47.423 Y162.060 E11.79269
G1 X45.230 Y161.526 E11.86028
G1 X43.357 Y160.266 E11.92786
G1 X41.979 Y158.312 E11.99947
G1 X28.627 Y128.967 E12.96487
G1 X28.267 Y127.960 E12.99689
G1 X19.645 Y95.566 E14.00065
G1 X19.429 Y93.916 E14.05051
G1 X19.429 Y75.164 E14.61202
G1 X19.575 Y73.802 E14.65303
G1 X33.375 Y10.241 E16.60064
G1 E14.60064 F1680.00000
G92 E0
G1 X70.557 Y76.604 F12000.000
G1 E2.00000 F1680.00000
G1 X71.185 Y76.273 E2.01996 F1200.000
G1 X71.970 Y75.943 E2.04395
G1 X72.870 Y75.676 E2.07039
G1 X73.875 Y75.515 E2.09902
G1 X74.994 Y75.461 E2.13057
G1 X126.911 Y75.461 E3.59213
G1 X138.610 Y75.839 E3.92165 F1200.000
G1 X143.338 Y86.870 E4.25951
G1 X143.862 Y89.373 E4.33150
G1 X143.174 Y89.550 E4.35150
G1 X115.234 Y95.576 E5.15615
G1 X114.749 Y95.632 E5.16989
G1 X78.222 Y94.103 E6.19908
G1 X71.311 Y79.330 E6.65824
G1 X70.183 Y76.858 E6.73474
G1 X70.494 Y76.644 E6.74537
G1 X70.966 Y77.956 F12000.000
G1 X87.274 Y94.264 E7.39815 F2400.000
G1 X87.857 Y94.288 E7.41466
G1 X70.497 Y76.929 E8.10953
G1 X70.808 Y76.681 E8.12078
G1 X88.439 Y94.313 E8.82654
G1 X89.022 Y94.337 E8.84305
G1 X71.173 Y76.489 E9.55750
G1 X71.563 Y76.319 E9.56951
G1 X89.605 Y94.362 E10.29171
G1 X90.188 Y94.386 E10.30822
G1 X71.956 Y76.154 E11.03801
G1 X72.383 Y76.023 E11.05066
G1 X90.770 Y94.410 E11.78667
G1 X91.353 Y94.435 E11.80318
G1 X72.814 Y75.895 E12.54529
G1 X73.290 Y75.813 E12.55897
G1 X91.936 Y94.459 E13.30533
G1 X92.519 Y94.483 E13.32184
G1 X73.771 Y75.736 E14.07226
G1 X74.299 Y75.705 E14.08721
G1 X93.101 Y94.508 E14.83985
G1 X93.684 Y94.532 E14.85636
G1 X74.831 Y75.679 E15.61102
G1 X75.385 Y75.675 E15.62670
G1 X94.267 Y94.557 E16.38250
G1 X94.850 Y94.581 E16.39901
G1 X75.944 Y75.675 E17.15579
G1 X76.502 Y75.675 E17.17159
G1 X95.432 Y94.605 E17.92935
G1 X96.015 Y94.630 E17.94586
G1 X77.060 Y75.675 E18.70458
G1 X77.619 Y75.675 E18.72039
G1 X96.598 Y94.654 E19.48009
G1 X97.181 Y94.679 E19.49660
G1 X78.177 Y75.675 E20.25728
G1 X78.735 Y75.675 E20.27309
G1 X97.763 Y94.703 E21.03475
G1 X98.346 Y94.727 E21.05126
G1 X79.294 Y75.675 E21.81389
G1 X79.852 Y75.675 E21.82969
G1 X98.929 Y94.752 E22.59330
G1 X99.512 Y94.776 E22.60981
G1 X80.411 Y75.675 E23.37440
G1 X80.969 Y75.675 E23.39020
G1 X100.094 Y94.801 E24.15577
G1 X100.677 Y94.825 E24.17227
G1 X81.527 Y75.675 E24.93881
G1 X82.086 Y75.675 E24.95462
G1 X101.260 Y94.849 E25.72213
G1 X101.843 Y94.874 E25.73864
G1 X82.644 Y75.675 E26.50713
G1 X83.202 Y75.675 E26.52294
G1 X102.426 Y94.898 E27.29240
G1 X103.008 Y94.923 E27.30891
G1 X83.761 Y75.675 E28.07935
G1 X84.319 Y75.675 E28.09516
G1 X103.591 Y94.947 E28.86658
G1 X104.174 Y94.971 E28.88309
G1 X84.878 Y75.675 E29.65548
G1 X85.436 Y75.675 E29.67129
G1 X104.757 Y94.996 E30.44466
G1 X105.339 Y95.020 E30.46117
G1 X85.994 Y75.675 E31.23551
G1 X86.553 Y75.675 E31.25132
G1 X105.922 Y95.044 E32.02664
G1 X106.505 Y95.069 E32.04315
G1 X87.111 Y75.675 E32.81945
G1 X87.669 Y75.675 E32.83526
G1 X107.088 Y95.093 E33.61253
G1 X107.670 Y95.118 E33.62904
G1 X88.228 Y75.675 E34.40729
G1 X88.786 Y75.675 E34.42310
G1 X108.253 Y95.142 E35.20233
G1 X108.836 Y95.166 E35.21884
G1 X89.345 Y75.675 E35.99904
G1 X89.903 Y75.675 E36.01485
G1 X109.419 Y95.191 E36.79603
G1 X110.001 Y95.215 E36.81254
G1 X90.461 Y75.675 E37.59469
G1 X91.020 Y75.675 E37.61050
G1 X110.584 Y95.240 E38.39363
G1 X111.167 Y95.264 E38.41014
G1 X91.578 Y75.675 E39.19425
G1 X92.136 Y75.675 E39.21005
G1 X111.750 Y95.288 E39.99514
G1 X112.332 Y95.313 E40.01165
G1 X92.695 Y75.675 E40.79771
G1 X93.253 Y75.675 E40.81351
G1 X112.915 Y95.337 E41.60055
G1 X113.498 Y95.362 E41.61706
G1 X93.812 Y75.675 E42.40507
G1 X94.370 Y75.675 E42.42088
G1 X114.081 Y95.386 E43.20987
G1 X114.663 Y95.410 E43.22638
G1 X94.928 Y75.675 E44.01634
G1 X95.487 Y75.675 E44.03215
G1 X115.186 Y95.374 E44.82068
G1 X115.652 Y95.282 E44.83413
G1 X96.045 Y75.675 E45.61896
G1 X96.603 Y75.675 E45.63476
G1 X116.111 Y95.183 E46.41563
G1 X116.571 Y95.084 E46.42893
G1 X97.162 Y75.675 E47.20583
G1 X97.720 Y75.675 E47.22164
G1 X117.030 Y94.985 E47.99458
G1 X117.489 Y94.886 E48.00788
G1 X98.279 Y75.675 E48.77685
G1 X98.837 Y75.675 E48.79266
G1 X117.949 Y94.787 E49.55766
G1 X118.408 Y94.688 E49.57096
G1 X99.395 Y75.675 E50.33201
G1 X99.954 Y75.675 E50.34781
G1 X118.867 Y94.589 E51.10489
G1 X119.327 Y94.490 E51.11819
G1 X100.512 Y75.675 E51.87130
G1 X101.070 Y75.675 E51.88711
G1 X119.786 Y94.391 E52.63625
G1 X120.245 Y94.292 E52.64955
G1 X101.629 Y75.675 E53.39474
G1 X102.187 Y75.675 E53.41054
G1 X120.704 Y94.193 E54.15176
G1 X121.164 Y94.094 E54.16506
G1 X102.746 Y75.675 E54.90231
G1 X103.304 Y75.675 E54.91812
G1 X121.623 Y93.994 E55.65140
G1 X122.082 Y93.895 E55.66470
G1 X103.862 Y75.675 E56.39402
G1 X104.421 Y75.675 E56.40983
G1 X122.542 Y93.796 E57.13519
G1 X123.001 Y93.697 E57.14849
G1 X104.979 Y75.675 E57.86988
G1 X105.537 Y75.675 E57.88568
G1 X123.460 Y93.598 E58.60311
G1 X123.920 Y93.499 E58.61641
G1 X106.096 Y75.675 E59.32987
G1 X106.654 Y75.675 E59.34568
G1 X124.379 Y93.400 E60.05517
G1 X124.838 Y93.301 E60.06847
G1 X107.213 Y75.675 E60.77401
G1 X107.771 Y75.675 E60.78981
G1 X125.298 Y93.202 E61.49138
G1 X125.757 Y93.103 E61.50468
G1 X108.329 Y75.675 E62.20228
G1 X108.888 Y75.675 E62.21808
G1 X126.216 Y93.004 E62.91172
G1 X126.676 Y92.905 E62.92502
G1 X109.446 Y75.675 E63.61469
G1 X110.004 Y75.675 E63.63050
G1 X127.135 Y92.806 E64.31620
G1 X127.594 Y92.707 E64.32950
G1 X110.563 Y75.675 E65.01124
G1 X111.121 Y75.675 E65.02705
G1 X128.054 Y92.608 E65.70482
G1 X128.513 Y92.509 E65.71812
G1 X111.679 Y75.675 E66.39194
G1 X112.238 Y75.675 E66.40774
G1 X128.972 Y92.410 E67.07759
G1 X129.431 Y92.311 E67.09089
G1 X112.796 Y75.675 E67.75677
G1 X113.355 Y75.675 E67.77257
G1 X129.891 Y92.212 E68.43449
G1 X130.350 Y92.112 E68.44779
G1 X113.913 Y75.675 E69.10574
G1 X114.471 Y75.675 E69.12154
G1 X130.809 Y92.013 E69.77553
G1 X131.269 Y91.914 E69.78883
G1 X115.030 Y75.675 E70.43885
G1 X115.588 Y75.675 E70.45465
G1 X131.728 Y91.815 E71.10071
G1 X132.187 Y91.716 E71.11401
G1 X116.146 Y75.675 E71.75610
G1 X116.705 Y75.675 E71.77191
G1 X132.647 Y91.617 E72.41003
G1 X133.106 Y91.518 E72.42333
G1 X117.263 Y75.675 E73.05749
G1 X117.822 Y75.675 E73.07330
G1 X133.565 Y91.419 E73.70349
G1 X134.025 Y91.320 E73.71679
G1 X118.380 Y75.675 E74.34302
G1 X118.938 Y75.675 E74.35883
G1 X134.484 Y91.221 E74.98109
G1 X134.943 Y91.122 E74.99439
G1 X119.497 Y75.675 E75.61269
G1 X120.055 Y75.675 E75.62850
G1 X135.403 Y91.023 E76.24283
G1 X135.862 Y90.924 E76.25613
G1 X120.613 Y75.675 E76.86650
G1 X121.172 Y75.675 E76.88231
G1 X136.321 Y90.825 E77.48871
G1 X136.781 Y90.726 E77.50201
G1 X121.730 Y75.675 E78.10445
G1 X122.289 Y75.675 E78.12025
G1 X137.240 Y90.627 E78.71873
G1 X137.699 Y90.528 E78.73203
G1 X122.847 Y75.675 E79.32654
G1 X123.405 Y75.675 E79.34234
G1 X138.158 Y90.429 E79.93289
G1 X138.618 Y90.330 E79.94619
G1 X123.964 Y75.675 E80.53277
G1 X124.522 Y75.675 E80.54857
G1 X139.077 Y90.231 E81.13119
G1 X139.536 Y90.131 E81.14449
G1 X125.080 Y75.675 E81.72314
G1 X125.639 Y75.675 E81.73894
G1 X139.996 Y90.032 E82.31362
G1 X140.455 Y89.933 E82.32692
G1 X126.197 Y75.675 E82.89764
G1 X126.756 Y75.675 E82.91345
G1 X140.914 Y89.834 E83.48020
G1 X141.374 Y89.735 E83.49350
G1 X127.330 Y75.692 E84.05563
G1 X127.907 Y75.711 E84.07198
G1 X141.833 Y89.636 E84.62940
G1 X142.292 Y89.537 E84.64270
G1 X128.484 Y75.729 E85.19541
G1 X129.061 Y75.748 E85.21175
G1 X142.752 Y89.438 E85.75974
G1 X143.210 Y89.338 E85.77303
G1 X129.638 Y75.767 E86.31628
G1 X130.215 Y75.785 E86.33262
G1 X143.576 Y89.145 E86.86741
G1 X143.428 Y88.439 E86.88783
G1 X130.792 Y75.804 E87.39360
G1 X131.370 Y75.822 E87.40994
G1 X143.280 Y87.733 E87.88669
G1 X143.126 Y87.020 E87.90733
G1 X131.947 Y75.841 E88.35482
G1 X132.524 Y75.860 E88.37116
G1 X142.707 Y86.043 E88.77878
G1 X142.288 Y85.066 F12000.000
G1 X133.101 Y75.878 E89.14654 F2400.000
G1 X133.678 Y75.897 E89.16289
G1 X141.869 Y84.089 E89.49079
G1 X141.451 Y83.112 F12000.000
G1 X134.255 Y75.916 E89.77883 F2400.000
G1 X134.832 Y75.934 E89.79517
G1 X141.032 Y82.135 E90.04336
G1 X140.613 Y81.157 F12000.000
G1 X135.409 Y75.953 E90.25168 F2400.000
G1 X135.986 Y75.972 E90.26802
G1 X140.194 Y80.180 E90.43648
G1 X139.775 Y79.203 F12000.000
G1 X136.563 Y75.990 E90.56508 F2400.000
G1 X137.140 Y76.009 E90.58142
G1 X139.357 Y78.226 E90.67017
G1 X138.938 Y77.249 F12000.000
G1 X137.717 Y76.028 E90.71905 F2400.000
G1 X138.294 Y76.046 E90.73539
G1 X138.519 Y76.272 E90.74441
G1 X78.532 Y93.898 F12000.000
G1 X78.303 Y93.669 E90.75357 F2400.000
G1 X77.813 Y92.620 F12000.000
G1 X79.115 Y93.922 E90.80571 F2400.000
G1 X79.698 Y93.947 E90.82222
G1 X77.322 Y91.571 E90.91733
G1 X76.831 Y90.522 F12000.000
G1 X80.281 Y93.971 E91.05542 F2400.000
G1 X80.863 Y93.996 E91.07193
G1 X76.340 Y89.472 E91.25299
G1 X75.849 Y88.423 F12000.000
G1 X81.446 Y94.020 E91.47702 F2400.000
G1 X82.029 Y94.044 E91.49353
G1 X75.358 Y87.374 E91.76054
G1 X74.868 Y86.325 F12000.000
G1 X82.612 Y94.069 E92.07052 F2400.000
G1 X83.194 Y94.093 E92.08703
G1 X74.377 Y85.276 E92.43998
G1 X73.886 Y84.226 F12000.000
G1 X83.777 Y94.118 E92.83591 F2400.000
G1 X84.360 Y94.142 E92.85242
G1 X73.395 Y83.177 E93.29132
G1 X72.904 Y82.128 F12000.000
G1 X84.943 Y94.166 E93.77320 F2400.000
G1 X85.525 Y94.191 E93.78971
G1 X72.414 Y81.079 E94.31456
G1 X71.923 Y80.030 F12000.000
G1 X86.108 Y94.215 E94.88239 F2400.000
G1 X86.691 Y94.240 E94.89889
G1 X71.435 Y78.983 E95.50957
G1 E93.50957 F1680.00000
G92 E0
G1 Z0.400 F12000.000
G1 X48.466 Y93.268 F12000.000
G1 E2.00000 F1680.00000
G1 X43.240 Y96.788 E2.17737 F1200.000
G1 X26.097 Y93.706 E2.66772
G1 X26.097 Y75.411 E3.18279
G1 X51.892 Y75.095 E3.90903
G1 X53.059 Y75.120 E3.94187
G1 X54.197 Y75.198 E3.97399 F1200.000
G1 X55.249 Y75.328 E4.00383
G1 X57.324 Y75.688 E4.06312
G1 X57.324 Y84.074 E4.29918
G1 X57.292 Y84.867 E4.32154
G1 X57.200 Y85.609 E4.34258
G1 X57.048 Y86.301 E4.36253
G1 X56.827 Y86.930 E4.38129
G1 X56.530 Y87.487 E4.39907
G1 X56.154 Y87.976 E4.41643
G1 X55.692 Y88.401 E4.43411
G1 X48.528 Y93.226 E4.67726
G1 X57.109 Y76.059 F12000.000
G1 X56.898 Y75.848 E4.68573 F2400.000
G1 X56.222 Y75.730 E4.70518
G1 X57.109 Y76.618 E4.74076
G1 X57.109 Y77.177 E4.75660
G1 X55.545 Y75.613 E4.81928
G1 X54.883 Y75.510 E4.83827
G1 X57.109 Y77.736 E4.92749
G1 X57.109 Y78.295 E4.94333
G1 X54.245 Y75.431 E5.05811
G1 X53.635 Y75.380 E5.07545
G1 X57.109 Y78.854 E5.21467
G1 X57.109 Y79.413 E5.23051
G1 X53.035 Y75.339 E5.39379
G1 X52.460 Y75.323 E5.41008
G1 X57.109 Y79.972 E5.59639
G1 X57.109 Y80.531 E5.61223
G1 X51.889 Y75.311 E5.82143
G1 X51.334 Y75.315 E5.83715
G1 X57.109 Y81.090 E6.06859
G1 X57.109 Y81.649 E6.08443
G1 X50.782 Y75.322 E6.33800
G1 X50.230 Y75.329 E6.35366
G1 X57.109 Y82.208 E6.62936
G1 X57.109 Y82.767 E6.64520
G1 X49.677 Y75.335 E6.94304
G1 X49.125 Y75.342 E6.95869
G1 X57.109 Y83.326 E7.27866
G1 X57.109 Y83.885 E7.29450
G1 X48.573 Y75.349 E7.63661
G1 X48.021 Y75.356 E7.65226
G1 X57.098 Y84.433 E8.01605
G1 X57.074 Y84.968 E8.03122
G1 X47.468 Y75.362 E8.41616
G1 X46.916 Y75.369 E8.43181
G1 X57.012 Y85.465 E8.83641
G1 X56.925 Y85.937 E8.85001
G1 X46.364 Y75.376 E9.27326
G1 X45.811 Y75.383 E9.28891
G1 X56.815 Y86.386 E9.72988
G1 X56.670 Y86.800 E9.74231
G1 X45.259 Y75.389 E10.19961
G1 X44.707 Y75.396 E10.21526
G1 X56.486 Y87.176 E10.68733
G1 X56.274 Y87.523 E10.69886
G1 X44.155 Y75.403 E11.18457
G1 X43.602 Y75.410 E11.20022
G1 X56.020 Y87.827 E11.69786
G1 X55.740 Y88.107 E11.70906
G1 X43.050 Y75.416 E12.21762
G1 X42.498 Y75.423 E12.23328
G1 X55.431 Y88.357 E12.75161
G1 X55.097 Y88.582 E12.76302
G1 X41.946 Y75.430 E13.29009
G1 X41.393 Y75.437 E13.30575
G1 X54.763 Y88.807 E13.84157
G1 X54.429 Y89.032 E13.85298
G1 X40.841 Y75.444 E14.39755
G1 X40.289 Y75.450 E14.41320
G1 X54.095 Y89.257 E14.96651
G1 X53.761 Y89.482 E14.97793
G1 X39.736 Y75.457 E15.53999
G1 X39.184 Y75.464 E15.55564
G1 X53.427 Y89.707 E16.12644
G1 X53.093 Y89.932 E16.13785
G1 X38.632 Y75.471 E16.71741
G1 X38.080 Y75.477 E16.73306
G1 X52.759 Y90.157 E17.32135
G1 X52.425 Y90.382 E17.33277
G1 X37.527 Y75.484 E17.92981
G1 X36.975 Y75.491 E17.94546
G1 X52.091 Y90.607 E18.55125
G1 X51.757 Y90.832 E18.56266
G1 X36.423 Y75.498 E19.17720
G1 X35.870 Y75.504 E19.19285
G1 X51.423 Y91.057 E19.81613
G1 X51.089 Y91.282 E19.82754
G1 X35.318 Y75.511 E20.45957
G1 X34.766 Y75.518 E20.47522
G1 X50.755 Y91.507 E21.11599
G1 X50.421 Y91.732 E21.12740
G1 X34.214 Y75.525 E21.77692
G1 X33.661 Y75.531 E21.79257
G1 X50.087 Y91.957 E22.45083
G1 X49.753 Y92.182 E22.46225
G1 X33.109 Y75.538 E23.12926
G1 X32.557 Y75.545 E23.14491
G1 X49.419 Y92.407 E23.82066
G1 X49.085 Y92.632 E23.83207
G1 X32.005 Y75.552 E24.51658
G1 X31.452 Y75.558 E24.53223
G1 X48.751 Y92.857 E25.22547
G1 X48.417 Y93.082 E25.23689
G1 X30.900 Y75.565 E25.93888
G1 X30.348 Y75.572 E25.95453
G1 X48.082 Y93.307 E26.66527
G1 X47.748 Y93.532 E26.67668
G1 X29.795 Y75.579 E27.39616
G1 X29.243 Y75.585 E27.41182
G1 X47.414 Y93.757 E28.14005
G1 X47.080 Y93.982 E28.15146
G1 X28.691 Y75.592 E28.88843
G1 X28.139 Y75.599 E28.90408
G1 X46.746 Y94.207 E29.64981
G1 X46.412 Y94.432 E29.66122
G1 X27.586 Y75.606 E30.41569
G1 X27.034 Y75.612 E30.43134
G1 X46.078 Y94.657 E31.19455
G1 X45.744 Y94.882 E31.20596
G1 X26.482 Y75.619 E31.97792
G1 X26.311 Y76.008 E31.98994
G1 X45.410 Y95.107 E32.75535
G1 X45.076 Y95.332 E32.76677
G1 X26.311 Y76.567 E33.51879
G1 X26.311 Y77.126 E33.53463
G1 X44.742 Y95.557 E34.27327
G1 X44.408 Y95.782 E34.28468
G1 X26.311 Y77.685 E35.00993
G1 X26.311 Y78.244 E35.02578
G1 X44.074 Y96.007 E35.73764
G1 X43.740 Y96.231 E35.74905
G1 X26.311 Y78.803 E36.44753
G1 X26.311 Y79.362 E36.46337
G1 X43.406 Y96.456 E37.14846
G1 X42.879 Y96.489 E37.16342
G1 X26.311 Y79.921 E37.82739
G1 X26.311 Y80.480 E37.84323
G1 X42.197 Y96.366 E38.47989
G1 X41.516 Y96.244 E38.49951
G1 X26.311 Y81.039 E39.10886
G1 X26.311 Y81.598 E39.12470
G1 X40.834 Y96.121 E39.70673
G1 X40.153 Y95.999 E39.72635
G1 X26.311 Y82.157 E40.28107
G1 X26.311 Y82.716 E40.29691
G1 X39.471 Y95.876 E40.82432
G1 X38.790 Y95.754 E40.84394
G1 X26.311 Y83.275 E41.34404
G1 X26.311 Y83.834 E41.35988
G1 X38.108 Y95.631 E41.83266
G1 X37.427 Y95.509 E41.85228
G1 X26.311 Y84.393 E42.29775
G1 X26.311 Y84.952 E42.31360
G1 X36.745 Y95.386 E42.73175
G1 X36.064 Y95.264 E42.75138
G1 X26.311 Y85.511 E43.14222
G1 X26.311 Y86.070 E43.15806
G1 X35.382 Y95.141 E43.52160
G1 X34.701 Y95.019 E43.54122
G1 X26.311 Y86.629 E43.87744
G1 X26.311 Y87.188 E43.89328
G1 X34.019 Y94.896 E44.20219
G1 X33.338 Y94.774 E44.22181
G1 X26.311 Y87.747 E44.50340
G1 X26.311 Y88.306 E44.51925
G1 X32.656 Y94.651 E44.77353
G1 X31.975 Y94.529 E44.79315
G1 X26.311 Y88.865 E45.02012
G1 X26.311 Y89.424 E45.03596
G1 X31.293 Y94.406 E45.23562
G1 X30.612 Y94.284 E45.25524
