; generated by Slic3r 1.2.6 on 2015-04-11 at 18:12:20

; external perimeters extrusion width = 0.50mm
; perimeters extrusion width = 0.50mm
; infill extrusion width = 0.50mm
; solid infill extrusion width = 0.50mm
; top infill extrusion width = 0.50mm

M104 S190 ; set temperature
G28 ; home all axes
G1 Z15 F120 ; lift nozzle
M109 S190 ; wait for temperature to be reached
G21 ; set units to millimeters
G90 ; use absolute coordinates
M82 ; use absolute distances for extrusion
G92 E0
M106 S102
G1 E-2.00000 F1680.00000
G92 E0
G1 Z0.400 F12000.000
G1 X43.826 Y11.992 F12000.000
G1 E2.00000 F1680.00000
G1 X44.450 Y9.712 E2.07078 F1200.000
G1 X45.419 Y7.674 E2.13836
G1 X47.034 Y6.097 E2.20595
G1 X49.095 Y5.177 E2.27353
G1 X50.555 Y4.989 E2.31761
G1 X74.773 Y4.668 E3.04287
G1 X129.366 Y4.670 E4.67762
G1 X130.908 Y4.710 E4.72379 F1200.000
G1 X132.408 Y4.822 E4.76884
G1 X133.697 Y4.986 E4.80776
G1 X135.493 Y5.286 E4.86229
G1 X136.238 Y5.434 E4.88503
G1 X138.338 Y6.262 E4.95262
G1 X140.022 Y7.765 E5.02020
G1 X141.324 Y10.808 E5.11930
G1 X159.611 Y137.324 E8.94708
G1 X159.677 Y138.242 E8.97465
G1 X159.677 Y146.837 E9.23202
G1 X159.641 Y147.897 E9.26376
G1 X159.596 Y148.439 E9.28004
G1 X159.501 Y149.202 E9.30309
G1 X159.400 Y149.792 E9.32102
G1 X159.241 Y150.511 E9.34304
G1 X159.031 Y151.249 E9.36604
G1 X158.800 Y151.911 E9.38702
G1 X158.403 Y152.815 E9.41658
G1 X158.086 Y153.407 E9.43668
G1 X157.518 Y154.288 E9.46808
G1 X157.117 Y154.811 E9.48781
G1 X156.367 Y155.630 E9.52109
G1 X155.874 Y156.083 E9.54111
G1 X154.998 Y156.758 E9.57425
G1 X154.406 Y157.138 E9.59531
G1 X153.545 Y157.602 E9.62460
G1 X152.853 Y157.909 E9.64725
G1 X151.999 Y158.218 E9.67445
G1 X150.997 Y158.498 E9.70561
G1 X124.219 Y165.143 E10.53178
G1 X122.378 Y165.325 E10.58716
G1 X16.446 Y160.456 E13.76255
G1 X14.245 Y159.958 E13.83014
G1 X12.352 Y158.728 E13.89772
G1 X11.002 Y156.919 E13.96531
G1 X10.323 Y154.045 E14.05373
G1 X10.323 Y135.293 E14.61524
G1 X10.550 Y133.600 E14.66642
G1 X43.806 Y12.064 E18.43946
G1 E16.43946 F1680.00000
G92 E0
G1 X54.403 Y71.662 F12000.000
G1 E2.00000 F1680.00000
G1 X74.873 Y71.432 E2.57631 F1200.000
G1 X133.540 Y71.433 E4.22790
G1 X134.708 Y71.458 E4.26079 F1200.000
G1 X135.846 Y71.536 E4.29291
G1 X136.898 Y71.666 E4.32274
G1 X138.973 Y72.027 E4.38203
G1 X138.973 Y80.412 E4.61809
G1 X138.942 Y81.206 E4.64046
G1 X138.854 Y81.910 E4.66043
G1 X138.697 Y82.640 E4.68146
G1 X138.477 Y83.268 E4.70020
G1 X138.179 Y83.825 E4.71798
G1 X137.804 Y84.314 E4.73534
G1 X137.343 Y84.737 E4.75294
G1 X136.786 Y85.095 E4.77159
G1 X136.128 Y85.387 E4.79185
G1 X135.355 Y85.606 E4.81448
G1 X108.140 Y91.483 E5.59827
G1 X107.653 Y91.539 E5.61207
G1 X48.088 Y90.010 E7.28950
G1 X47.791 Y87.473 E7.36140
G1 X47.640 Y85.982 E7.40358
G1 X47.362 Y82.853 E7.49203
G1 X47.119 Y79.602 E7.58379
G1 X46.902 Y76.303 E7.67688
G1 X46.653 Y71.749 E7.80527
G1 X54.328 Y71.663 E8.02135
G1 X48.475 Y89.803 F12000.000
G1 X48.265 Y89.593 E8.02975 F2400.000
G1 X48.191 Y88.961 E8.04775
G1 X49.048 Y89.818 E8.08201
G1 X49.621 Y89.832 E8.09821
G1 X48.117 Y88.329 E8.15834
G1 X48.043 Y87.697 E8.17634
G1 X50.193 Y89.847 E8.26233
G1 X50.766 Y89.862 E8.27854
G1 X47.974 Y87.070 E8.39019
G1 X47.911 Y86.449 E8.40785
G1 X51.339 Y89.876 E8.54494
G1 X51.911 Y89.891 E8.56114
G1 X47.849 Y85.829 E8.72364
G1 X47.795 Y85.217 E8.74102
G1 X52.484 Y89.906 E8.92859
G1 X53.057 Y89.921 E8.94480
G1 X47.740 Y84.604 E9.15745
G1 X47.686 Y83.992 E9.17483
G1 X53.629 Y89.935 E9.41257
G1 X54.202 Y89.950 E9.42877
G1 X47.632 Y83.380 E9.69158
G1 X47.578 Y82.767 E9.70897
G1 X54.775 Y89.965 E9.99686
G1 X55.347 Y89.979 E10.01306
G1 X47.532 Y82.164 E10.32567
G1 X47.487 Y81.561 E10.34277
G1 X55.920 Y89.994 E10.68009
G1 X56.493 Y90.009 E10.69630
G1 X47.442 Y80.958 E11.05832
G1 X47.397 Y80.355 E11.07543
G1 X57.065 Y90.023 E11.46216
G1 X57.638 Y90.038 E11.47837
G1 X47.352 Y79.752 E11.88981
G1 X47.310 Y79.152 E11.90681
G1 X58.211 Y90.053 E12.34283
G1 X58.784 Y90.068 E12.35904
G1 X47.271 Y78.555 E12.81954
G1 X47.232 Y77.958 E12.83647
G1 X59.356 Y90.082 E13.32145
G1 X59.929 Y90.097 E13.33765
G1 X47.192 Y77.361 E13.84711
G1 X47.153 Y76.763 E13.86404
G1 X60.502 Y90.112 E14.39798
G1 X61.074 Y90.126 E14.41419
G1 X47.114 Y76.166 E14.97259
G1 X47.082 Y75.576 E14.98931
G1 X61.647 Y90.141 E15.57192
G1 X62.220 Y90.156 E15.58812
G1 X47.050 Y74.986 E16.19493
G1 X47.017 Y74.395 E16.21165
G1 X62.792 Y90.171 E16.84266
G1 X63.365 Y90.185 E16.85887
G1 X46.985 Y73.805 E17.51408
G1 X46.952 Y73.215 E17.53080
G1 X63.938 Y90.200 E18.21021
G1 X64.510 Y90.215 E18.22642
G1 X46.920 Y72.624 E18.93003
G1 X46.888 Y72.034 E18.94675
G1 X65.083 Y90.229 E19.67457
G1 X65.656 Y90.244 E19.69077
G1 X47.366 Y71.954 E20.42237
G1 X47.918 Y71.948 E20.43798
G1 X66.228 Y90.259 E21.17041
G1 X66.801 Y90.274 E21.18661
G1 X48.470 Y71.942 E21.91988
G1 X49.021 Y71.936 E21.93549
G1 X67.374 Y90.288 E22.66959
G1 X67.946 Y90.303 E22.68579
G1 X49.573 Y71.930 E23.42073
G1 X50.125 Y71.923 E23.43634
G1 X68.519 Y90.318 E24.17212
G1 X69.092 Y90.332 E24.18832
G1 X50.677 Y71.917 E24.92493
G1 X51.228 Y71.911 E24.94054
G1 X69.665 Y90.347 E25.67799
G1 X70.237 Y90.362 E25.69419
G1 X51.780 Y71.905 E26.43248
G1 X52.332 Y71.899 E26.44809
G1 X70.810 Y90.377 E27.18721
G1 X71.383 Y90.391 E27.20341
G1 X52.884 Y71.892 E27.94337
G1 X53.435 Y71.886 E27.95898
G1 X71.955 Y90.406 E28.69977
G1 X72.528 Y90.421 E28.71598
G1 X53.987 Y71.880 E29.45761
G1 X54.539 Y71.874 E29.47322
G1 X73.101 Y90.435 E30.21568
G1 X73.673 Y90.450 E30.23189
G1 X55.091 Y71.868 E30.97519
G1 X55.643 Y71.861 E30.99080
G1 X74.246 Y90.465 E31.73494
G1 X74.819 Y90.479 E31.75114
G1 X56.194 Y71.855 E32.49612
G1 X56.746 Y71.849 E32.51173
G1 X75.391 Y90.494 E33.25754
G1 X75.964 Y90.509 E33.27374
G1 X57.298 Y71.843 E34.02039
G1 X57.850 Y71.837 E34.03600
G1 X76.537 Y90.524 E34.78349
G1 X77.109 Y90.538 E34.79969
G1 X58.401 Y71.830 E35.54801
G1 X58.953 Y71.824 E35.56362
G1 X77.682 Y90.553 E36.31278
G1 X78.255 Y90.568 E36.32898
G1 X59.505 Y71.818 E37.07897
G1 X60.057 Y71.812 E37.09458
G1 X78.827 Y90.582 E37.84541
G1 X79.400 Y90.597 E37.86162
G1 X60.609 Y71.806 E38.61328
G1 X61.160 Y71.799 E38.62889
G1 X79.973 Y90.612 E39.38140
G1 X80.546 Y90.627 E39.39760
G1 X61.712 Y71.793 E40.15094
G1 X62.264 Y71.787 E40.16655
G1 X81.118 Y90.641 E40.92072
G1 X81.691 Y90.656 E40.93693
G1 X62.816 Y71.781 E41.69194
G1 X63.367 Y71.775 E41.70755
G1 X82.264 Y90.671 E42.46340
G1 X82.836 Y90.685 E42.47960
G1 X63.919 Y71.768 E43.23629
G1 X64.471 Y71.762 E43.25189
G1 X83.409 Y90.700 E44.00941
G1 X83.982 Y90.715 E44.02562
G1 X65.023 Y71.756 E44.78398
G1 X65.575 Y71.750 E44.79958
G1 X84.554 Y90.730 E45.55878
G1 X85.127 Y90.744 E45.57498
G1 X66.126 Y71.744 E46.33501
G1 X66.678 Y71.737 E46.35062
G1 X85.700 Y90.759 E47.11149
G1 X86.272 Y90.774 E47.12769
G1 X67.230 Y71.731 E47.88939
G1 X67.782 Y71.725 E47.90500
G1 X86.845 Y90.788 E48.66754
G1 X87.418 Y90.803 E48.68375
G1 X68.333 Y71.719 E49.44712
G1 X68.885 Y71.713 E49.46273
G1 X87.990 Y90.818 E50.22694
G1 X88.563 Y90.833 E50.24315
G1 X69.437 Y71.706 E51.00819
G1 X69.989 Y71.700 E51.02380
G1 X89.136 Y90.847 E51.78969
G1 X89.708 Y90.862 E51.80589
G1 X70.541 Y71.694 E52.57261
G1 X71.092 Y71.688 E52.58822
G1 X90.281 Y90.877 E53.35578
G1 X90.854 Y90.891 E53.37198
G1 X71.644 Y71.682 E54.14038
G1 X72.196 Y71.675 E54.15598
G1 X91.427 Y90.906 E54.92521
G1 X91.999 Y90.921 E54.94142
G1 X72.748 Y71.669 E55.71149
G1 X73.299 Y71.663 E55.72709
G1 X92.572 Y90.935 E56.49800
G1 X93.145 Y90.950 E56.51420
G1 X73.851 Y71.657 E57.28594
G1 X74.403 Y71.651 E57.30155
G1 X93.717 Y90.965 E58.07412
G1 X94.290 Y90.980 E58.09033
G1 X74.957 Y71.646 E58.86367
G1 X75.515 Y71.646 E58.87945
G1 X94.863 Y90.994 E59.65338
G1 X95.435 Y91.009 E59.66958
G1 X76.073 Y71.646 E60.44409
G1 X76.631 Y71.646 E60.45988
G1 X96.008 Y91.024 E61.23498
G1 X96.581 Y91.038 E61.25118
G1 X77.189 Y71.646 E62.02687
G1 X77.747 Y71.646 E62.04265
G1 X97.153 Y91.053 E62.81893
G1 X97.726 Y91.068 E62.83514
G1 X78.305 Y71.646 E63.61200
G1 X78.862 Y71.646 E63.62779
G1 X98.299 Y91.083 E64.40524
G1 X98.871 Y91.097 E64.42144
G1 X79.420 Y71.646 E65.19949
G1 X79.978 Y71.646 E65.21527
G1 X99.444 Y91.112 E65.99390
G1 X100.017 Y91.127 E66.01010
G1 X80.536 Y71.646 E66.78932
G1 X81.094 Y71.646 E66.80510
G1 X100.589 Y91.141 E67.58491
G1 X101.162 Y91.156 E67.60111
G1 X81.652 Y71.646 E68.38150
G1 X82.210 Y71.646 E68.39729
G1 X101.735 Y91.171 E69.17827
G1 X102.308 Y91.186 E69.19447
G1 X82.768 Y71.646 E69.97604
G1 X83.326 Y71.646 E69.99182
G1 X102.880 Y91.200 E70.77398
G1 X103.453 Y91.215 E70.79018
G1 X83.884 Y71.646 E71.57293
G1 X84.442 Y71.646 E71.58871
G1 X104.026 Y91.230 E72.37205
G1 X104.598 Y91.244 E72.38825
G1 X85.000 Y71.646 E73.17217
G1 X85.558 Y71.646 E73.18795
G1 X105.171 Y91.259 E73.97246
G1 X105.744 Y91.274 E73.98866
G1 X86.116 Y71.646 E74.77376
G1 X86.674 Y71.647 E74.78954
G1 X106.316 Y91.289 E75.57523
G1 X106.889 Y91.303 E75.59143
G1 X87.232 Y71.647 E76.37770
G1 X87.790 Y71.647 E76.39349
G1 X107.462 Y91.318 E77.18035
G1 X107.995 Y91.293 E77.19544
G1 X88.348 Y71.647 E77.98131
G1 X88.906 Y71.647 E77.99709
G1 X108.468 Y91.209 E78.77958
G1 X108.927 Y91.110 E78.79286
G1 X89.464 Y71.647 E79.57138
G1 X90.022 Y71.647 E79.58717
G1 X109.386 Y91.011 E80.36173
G1 X109.845 Y90.911 E80.37501
G1 X90.580 Y71.647 E81.14560
G1 X91.138 Y71.647 E81.16139
G1 X110.304 Y90.812 E81.92802
G1 X110.763 Y90.713 E81.94130
G1 X91.696 Y71.647 E82.70397
G1 X92.254 Y71.647 E82.71975
G1 X111.222 Y90.614 E83.47846
G1 X111.681 Y90.515 E83.49173
G1 X92.812 Y71.647 E84.24648
G1 X93.370 Y71.647 E84.26226
G1 X112.140 Y90.416 E85.01304
G1 X112.598 Y90.317 E85.02631
G1 X93.928 Y71.647 E85.77313
G1 X94.486 Y71.647 E85.78891
G1 X113.057 Y90.218 E86.53176
G1 X113.516 Y90.119 E86.54504
G1 X95.044 Y71.647 E87.28392
G1 X95.602 Y71.647 E87.29970
G1 X113.975 Y90.020 E88.03462
G1 X114.434 Y89.921 E88.04790
G1 X96.160 Y71.647 E88.77886
G1 X96.718 Y71.647 E88.79464
G1 X114.893 Y89.821 E89.52163
G1 X115.352 Y89.722 E89.53491
G1 X97.276 Y71.647 E90.25794
G1 X97.834 Y71.647 E90.27372
G1 X115.811 Y89.623 E90.99279
G1 X116.269 Y89.524 E91.00607
G1 X98.392 Y71.647 E91.72117
G1 X98.950 Y71.647 E91.73695
G1 X116.728 Y89.425 E92.44808
G1 X117.187 Y89.326 E92.46136
G1 X99.508 Y71.647 E93.16853
G1 X100.066 Y71.647 E93.18432
G1 X117.646 Y89.227 E93.88753
G1 X118.105 Y89.128 E93.90080
G1 X100.624 Y71.647 E94.60005
G1 X101.182 Y71.647 E94.61583
G1 X118.564 Y89.029 E95.31111
G1 X119.023 Y88.930 E95.32439
G1 X101.740 Y71.647 E96.01570
G1 X102.298 Y71.647 E96.03149
G1 X119.482 Y88.831 E96.71884
G1 X119.941 Y88.731 E96.73211
G1 X102.856 Y71.647 E97.41550
G1 X103.414 Y71.647 E97.43128
G1 X120.399 Y88.632 E98.11071
G1 X120.858 Y88.533 E98.12399
G1 X103.972 Y71.647 E98.79944
G1 X104.530 Y71.647 E98.81523
G1 X121.317 Y88.434 E99.48672
G1 X121.776 Y88.335 E99.50000
G1 X105.088 Y71.647 E100.16753
G1 X105.646 Y71.647 E100.18331
G1 X122.235 Y88.236 E100.84688
G1 X122.694 Y88.137 E100.86016
G1 X106.204 Y71.647 E101.51976
G1 X106.762 Y71.647 E101.53554
G1 X123.153 Y88.038 E102.19118
G1 X123.612 Y87.939 E102.20446
G1 X107.320 Y71.647 E102.85613
G1 X107.878 Y71.647 E102.87192
G1 X124.071 Y87.840 E103.51963
G1 X124.529 Y87.741 E103.53290
G1 X108.436 Y71.647 E104.17665
G1 X108.994 Y71.647 E104.19243
G1 X124.988 Y87.641 E104.83221
G1 X125.447 Y87.542 E104.84549
G1 X109.552 Y71.647 E105.48131
G1 X110.110 Y71.647 E105.49709
G1 X125.906 Y87.443 E106.12895
G1 X126.365 Y87.344 E106.14223
G1 X110.668 Y71.647 E106.77011
G1 X111.226 Y71.647 E106.78590
G1 X126.824 Y87.245 E107.40982
G1 X127.283 Y87.146 E107.42310
G1 X111.784 Y71.647 E108.04306
G1 X112.342 Y71.647 E108.05884
G1 X127.742 Y87.047 E108.67484
G1 X128.200 Y86.948 E108.68812
G1 X112.900 Y71.647 E109.30015
G1 X113.458 Y71.647 E109.31593
G1 X128.659 Y86.849 E109.92400
G1 X129.118 Y86.750 E109.93728
G1 X114.016 Y71.647 E110.54139
G1 X114.574 Y71.647 E110.55717
G1 X129.577 Y86.651 E111.15731
G1 X130.036 Y86.551 E111.17059
G1 X115.132 Y71.647 E111.76676
G1 X115.690 Y71.647 E111.78255
G1 X130.495 Y86.452 E112.37476
G1 X130.954 Y86.353 E112.38804
G1 X116.248 Y71.647 E112.97629
G1 X116.806 Y71.647 E112.99207
G1 X131.413 Y86.254 E113.57635
G1 X131.872 Y86.155 E113.58963
G1 X117.364 Y71.647 E114.16995
G1 X117.922 Y71.647 E114.18573
G1 X132.330 Y86.056 E114.76209
G1 X132.789 Y85.957 E114.77537
G1 X118.480 Y71.647 E115.34776
G1 X119.038 Y71.647 E115.36354
G1 X133.248 Y85.858 E115.93197
G1 X133.707 Y85.759 E115.94525
G1 X119.596 Y71.647 E116.50971
G1 X120.154 Y71.647 E116.52549
G1 X134.166 Y85.660 E117.08599
G1 X134.625 Y85.561 E117.09927
G1 X120.712 Y71.647 E117.65581
G1 X121.270 Y71.647 E117.67159
G1 X135.084 Y85.461 E118.22416
G1 X135.533 Y85.353 E118.23724
G1 X121.828 Y71.647 E118.78548
G1 X122.385 Y71.647 E118.80126
G1 X135.968 Y85.230 E119.34456
G1 X136.370 Y85.074 E119.35676
G1 X122.943 Y71.647 E119.89384
G1 X123.501 Y71.647 E119.90962
G1 X136.753 Y84.899 E120.43969
G1 X137.093 Y84.681 E120.45111
G1 X124.059 Y71.647 E120.97246
G1 X124.617 Y71.647 E120.98824
G1 X137.402 Y84.432 E121.49964
G1 X137.681 Y84.153 E121.51080
G1 X125.175 Y71.647 E122.01103
G1 X125.733 Y71.647 E122.02681
G1 X137.934 Y83.848 E122.51483
G1 X138.144 Y83.499 E122.52633
G1 X126.291 Y71.647 E123.00042
G1 X126.849 Y71.647 E123.01620
G1 X138.325 Y83.123 E123.47522
G1 X138.470 Y82.710 E123.48760
G1 X127.407 Y71.647 E123.93009
G1 X127.965 Y71.647 E123.94587
G1 X138.576 Y82.258 E124.37030
G1 X138.663 Y81.787 E124.38384
G1 X128.523 Y71.647 E124.78944
G1 X129.081 Y71.647 E124.80522
G1 X138.725 Y81.291 E125.19096
G1 X138.748 Y80.756 E125.20611
G1 X129.639 Y71.647 E125.57046
G1 X130.197 Y71.647 E125.58624
G1 X138.759 Y80.209 E125.92869
G1 X138.759 Y79.651 E125.94448
G1 X130.755 Y71.647 E126.26461
G1 X131.313 Y71.648 E126.28039
G1 X138.759 Y79.093 E126.57821
G1 X138.759 Y78.535 E126.59399
G1 X131.871 Y71.648 E126.86948
G1 X132.429 Y71.648 E126.88527
G1 X138.759 Y77.977 E127.13844
G1 X138.759 Y77.419 E127.15422
G1 X132.987 Y71.648 E127.38508
G1 X133.547 Y71.650 E127.40092
G1 X138.759 Y76.861 E127.60937
G1 X138.759 Y76.303 E127.62515
G1 X134.117 Y71.662 E127.81081
G1 X134.691 Y71.678 E127.82705
G1 X138.759 Y75.745 E127.98974
G1 X138.759 Y75.187 E128.00552
G1 X135.290 Y71.719 E128.14425
G1 X135.899 Y71.770 E128.16153
G1 X138.759 Y74.629 E128.27591
G1 X138.759 Y74.071 E128.29169
G1 X136.536 Y71.848 E128.38059
G1 X137.197 Y71.952 E128.39952
G1 X138.759 Y73.513 E128.46198
G1 X138.759 Y72.955 E128.47776
G1 X137.872 Y72.069 E128.51321
G1 X138.547 Y72.186 E128.53260
G1 X138.759 Y72.397 E128.54104
G1 E126.54104 F1680.00000
G92 E0
G1 Z0.400 F12000.000
G1 X52.922 Y104.762 F12000.000
G1 E2.00000 F1680.00000
G1 X94.520 Y99.765 E3.17949 F1200.000
G1 X95.353 Y99.695 E3.20302
G1 X96.302 Y99.681 E3.22974
G1 X98.340 Y99.845 E3.28730
G1 X132.702 Y104.759 E4.26449 F1200.000
G1 X132.702 Y112.501 E4.48244
G1 X132.671 Y113.419 E4.50831
G1 X132.579 Y114.280 E4.53269
G1 X132.426 Y115.086 E4.55578
G1 X132.202 Y115.820 E4.57740
G1 X131.894 Y116.473 E4.59770
G1 X131.505 Y117.046 E4.61723
G1 X131.025 Y117.541 E4.63663
G1 X130.444 Y117.959 E4.65677
G1 X129.759 Y118.299 E4.67829
G1 X128.960 Y118.551 E4.70190
G1 X128.027 Y118.705 E4.72851
G1 X71.712 Y123.044 E6.31858
G1 X54.358 Y123.044 E6.80712
G1 X54.062 Y120.513 E6.87886
G1 X53.911 Y119.022 E6.92104
G1 X53.633 Y115.893 E7.00949
G1 X53.390 Y112.642 E7.10126
G1 X53.173 Y109.343 E7.19434
G1 X52.926 Y104.837 E7.32137
G1 X54.744 Y122.829 F12000.000
G1 X54.535 Y122.620 E7.32975 F2400.000
G1 X54.461 Y121.988 E7.34776
G1 X55.302 Y122.829 E7.38142
G1 X55.860 Y122.829 E7.39721
G1 X54.387 Y121.356 E7.45616
G1 X54.313 Y120.724 E7.47417
G1 X56.418 Y122.829 E7.55841
G1 X56.976 Y122.829 E7.57420
G1 X54.244 Y120.097 E7.68352
G1 X54.181 Y119.476 E7.70118
G1 X57.535 Y122.829 E7.83536
G1 X58.093 Y122.829 E7.85115
G1 X54.119 Y118.855 E8.01015
G1 X54.064 Y118.243 E8.02754
G1 X58.651 Y122.829 E8.21104
G1 X59.209 Y122.829 E8.22683
G1 X54.010 Y117.631 E8.43483
G1 X53.956 Y117.018 E8.45223
G1 X59.767 Y122.829 E8.68473
G1 X60.325 Y122.829 E8.70052
G1 X53.901 Y116.406 E8.95753
G1 X53.847 Y115.793 E8.97492
G1 X60.883 Y122.829 E9.25643
