; generated by Slic3r 1.2.6 on 2015-04-11 at 20:33:00

; external perimeters extrusion width = 0.50mm
; perimeters extrusion width = 0.50mm
; infill extrusion width = 0.50mm
; solid infill extrusion width = 0.50mm
; top infill extrusion width = 0.50mm

M104 S190 ; set temperature
G28 ; home all axes
G1 Z15 F120 ; lift nozzle
M109 S190 ; wait for temperature to be reached
G21 ; set units to millimeters
G90 ; use absolute coordinates
M82 ; use absolute distances for extrusion
G92 E0
M106 S102
G1 E-2.00000 F1680.00000
G92 E0
G1 Z0.400 F12000.000
G1 X32.976 Y29.599 F12000.000
G1 E2.00000 F1680.00000
G1 X34.723 Y28.202 E2.06699 F1200.000
G1 X35.722 Y27.699 E2.10047
G1 X36.291 Y27.451 E2.11906
G1 X36.931 Y27.204 E2.13962
G1 X37.576 Y26.983 E2.16002
G1 X38.305 Y26.764 E2.18282
G1 X39.113 Y26.559 E2.20777
G1 X39.679 Y26.437 E2.22511
G1 X40.840 Y26.238 E2.26038
G1 X41.848 Y26.122 E2.29076
G1 X42.553 Y26.072 E2.31194
G1 X43.754 Y26.040 E2.34791
G1 X89.333 Y26.040 E3.71272
G1 X114.083 Y26.104 E4.45383 F1200.000
G1 X115.441 Y26.131 E4.49451
G1 X116.895 Y26.224 E4.53814
G1 X118.307 Y26.389 E4.58073
G1 X119.566 Y26.587 E4.61889
G1 X121.074 Y26.870 E4.66483
G1 X123.886 Y28.206 E4.75805
G1 X157.268 Y55.678 E6.05260
G1 X158.234 Y56.569 E6.09196
G1 X158.855 Y57.247 E6.11949
G1 X159.407 Y57.943 E6.14609
G1 X159.914 Y58.682 E6.17292
G1 X160.375 Y59.468 E6.20021
G1 X160.751 Y60.214 E6.22522
G1 X161.122 Y61.090 E6.25371
G1 X161.386 Y61.838 E6.27748
G1 X161.657 Y62.794 E6.30721
G1 X161.822 Y63.537 E6.33003
G1 X161.985 Y64.559 E6.36100
G1 X162.057 Y65.250 E6.38182
G1 X162.111 Y66.338 E6.41442
G1 X162.111 Y123.531 E8.12702
G1 X162.055 Y124.617 E8.15959
G1 X161.978 Y125.332 E8.18112
G1 X161.810 Y126.349 E8.21198
G1 X161.634 Y127.120 E8.23566
G1 X161.354 Y128.067 E8.26525
G1 X161.083 Y128.815 E8.28905
G1 X160.704 Y129.684 E8.31743
G1 X160.333 Y130.407 E8.34178
G1 X159.867 Y131.189 E8.36904
G1 X159.372 Y131.903 E8.39505
G1 X158.819 Y132.598 E8.42164
G1 X158.202 Y133.267 E8.44889
G1 X157.564 Y133.868 E8.47515
G1 X156.833 Y134.463 E8.50336
G1 X156.113 Y134.964 E8.52963
G1 X155.408 Y135.392 E8.55433
G1 X141.211 Y142.787 E9.03365
G1 X138.285 Y143.512 E9.12392
G1 X64.351 Y143.960 E11.33784
G1 X63.889 Y143.946 E11.35170
G1 X17.861 Y140.900 E12.73297
G1 X16.939 Y140.820 E12.76070
G1 X15.759 Y140.669 E12.79631
G1 X14.595 Y140.462 E12.83171
G1 X12.482 Y139.668 E12.89929
G1 X10.775 Y138.192 E12.96688
G1 X9.684 Y136.216 E13.03446
G1 X9.347 Y134.405 E13.08964
G1 X7.886 Y97.493 E14.19580
G1 X7.890 Y96.900 E14.21354
G1 X7.971 Y95.359 E14.25977
G1 X8.056 Y94.605 E14.28247
G1 X8.300 Y93.190 E14.32549
G1 X8.504 Y92.349 E14.35139
G1 X9.042 Y90.687 E14.40371
G1 X31.808 Y31.530 E16.30174
G1 X32.937 Y29.663 E16.36708
G1 E14.36708 F1680.00000
G92 E0
G1 X81.618 Y99.702 F12000.000
G1 E2.00000 F1680.00000
G1 X81.376 Y100.154 E2.01444 F1200.000
G1 X81.001 Y100.643 E2.03180
G1 X80.540 Y101.066 E2.04940
G1 X79.979 Y101.426 E2.06818
G1 X67.220 Y107.649 E2.46781
G1 X66.791 Y107.814 E2.48076
G1 X66.317 Y107.869 E2.49419
G1 X38.832 Y108.572 E3.26820
G1 X22.272 Y106.714 E3.73732
G1 X21.127 Y106.511 E3.77004
G1 X20.032 Y106.175 E3.80229
G1 X19.003 Y105.705 E3.83413
G1 X18.061 Y105.102 E3.86563
G1 X17.203 Y104.364 E3.89749
G1 X16.444 Y103.497 E3.92994
G1 X15.797 Y102.502 E3.96332
G1 X15.264 Y101.380 E3.99830
G1 X14.867 Y100.130 E4.03521
G1 X14.629 Y98.751 E4.07462
G1 X14.549 Y97.239 E4.11725
G1 X14.629 Y95.725 E4.15992
G1 X14.868 Y94.341 E4.19947
G1 X15.265 Y93.083 E4.23660
G1 X15.795 Y91.954 E4.27170
G1 X16.433 Y90.960 E4.30496
G1 X17.177 Y90.099 E4.33699
G1 X18.021 Y89.370 E4.36839
G1 X18.958 Y88.771 E4.39971
G1 X19.992 Y88.303 E4.43165
G1 X21.097 Y87.967 E4.46417
G1 X22.248 Y87.765 E4.49707
G1 X23.452 Y87.697 E4.53103
G1 X26.107 Y87.700 E4.60576
G1 X76.675 Y87.761 E6.02936 F1200.000
G1 X77.905 Y87.787 E6.06399
G1 X79.043 Y87.865 E6.09611
G1 X80.095 Y87.995 E6.12594
G1 X82.170 Y88.355 E6.18523
G1 X82.170 Y96.741 E6.42130
G1 X82.139 Y97.535 E6.44366
G1 X82.047 Y98.276 E6.46470
G1 X81.894 Y98.968 E6.48465
G1 X81.653 Y99.636 E6.50462
G1 X81.956 Y88.719 F12000.000
G1 X81.744 Y88.507 E6.51312 F2400.000
G1 X81.068 Y88.390 E6.53254
G1 X81.956 Y89.278 E6.56811
G1 X81.956 Y89.837 E6.58396
G1 X80.397 Y88.278 E6.64644
G1 X79.738 Y88.178 E6.66533
G1 X81.956 Y90.396 E6.75424
G1 X81.956 Y90.955 E6.77008
G1 X79.099 Y88.099 E6.88455
G1 X78.489 Y88.048 E6.90191
G1 X81.956 Y91.514 E7.04084
G1 X81.956 Y92.073 E7.05668
G1 X77.889 Y88.007 E7.21967
G1 X77.314 Y87.991 E7.23598
G1 X81.956 Y92.632 E7.42202
G1 X81.956 Y93.191 E7.43786
G1 X76.743 Y87.978 E7.64679
G1 X76.180 Y87.975 E7.66274
G1 X81.956 Y93.751 E7.89423
G1 X81.956 Y94.310 E7.91008
G1 X75.620 Y87.974 E8.16400
G1 X75.060 Y87.973 E8.17987
G1 X81.956 Y94.869 E8.45623
G1 X81.956 Y95.428 E8.47207
G1 X74.501 Y87.973 E8.77086
G1 X73.941 Y87.972 E8.78673
G1 X81.956 Y95.987 E9.10795
G1 X81.956 Y96.546 E9.12380
G1 X73.381 Y87.971 E9.46746
G1 X72.821 Y87.971 E9.48332
G1 X81.945 Y97.094 E9.84898
G1 X81.921 Y97.629 E9.86416
G1 X72.262 Y87.970 E10.25130
G1 X71.702 Y87.969 E10.26716
G1 X81.859 Y98.126 E10.67425
G1 X81.772 Y98.599 E10.68786
G1 X71.142 Y87.969 E11.11392
G1 X70.582 Y87.968 E11.12978
G1 X81.663 Y99.049 E11.57388
G1 X81.518 Y99.463 E11.58632
G1 X70.023 Y87.967 E12.04704
G1 X69.463 Y87.967 E12.06290
G1 X81.335 Y99.839 E12.53873
G1 X81.124 Y100.186 E12.55026
G1 X68.903 Y87.966 E13.04004
G1 X68.343 Y87.965 E13.05591
G1 X80.869 Y100.491 E13.55793
G1 X80.590 Y100.771 E13.56913
G1 X67.784 Y87.965 E14.08239
G1 X67.224 Y87.964 E14.09825
G1 X80.278 Y101.018 E14.62144
G1 X79.937 Y101.236 E14.63291
G1 X66.664 Y87.963 E15.16488
G1 X66.104 Y87.963 E15.18074
G1 X79.564 Y101.422 E15.72017
G1 X79.188 Y101.605 E15.73202
G1 X65.545 Y87.962 E16.27882
G1 X64.985 Y87.961 E16.29469
G1 X78.812 Y101.788 E16.84886
G1 X78.436 Y101.972 E16.86071
G1 X64.425 Y87.961 E17.42226
G1 X63.865 Y87.960 E17.43812
G1 X78.060 Y102.155 E18.00704
G1 X77.685 Y102.338 E18.01889
G1 X63.306 Y87.959 E18.59518
G1 X62.746 Y87.959 E18.61105
G1 X77.309 Y102.521 E19.19471
G1 X76.933 Y102.705 E19.20656
G1 X62.186 Y87.958 E19.79760
G1 X61.626 Y87.957 E19.81346
G1 X76.557 Y102.888 E20.41187
G1 X76.181 Y103.071 E20.42372
G1 X61.067 Y87.956 E21.02950
G1 X60.507 Y87.956 E21.04536
G1 X75.806 Y103.254 E21.65852
G1 X75.430 Y103.438 E21.67036
G1 X59.947 Y87.955 E22.29089
G1 X59.387 Y87.954 E22.30675
G1 X75.054 Y103.621 E22.93465
G1 X74.678 Y103.804 E22.94650
G1 X58.828 Y87.954 E23.58177
G1 X58.268 Y87.953 E23.59763
G1 X74.302 Y103.988 E24.24028
G1 X73.927 Y104.171 E24.25212
G1 X57.708 Y87.952 E24.90214
G1 X57.148 Y87.952 E24.91800
G1 X73.551 Y104.354 E25.57539
G1 X73.175 Y104.537 E25.58724
G1 X56.589 Y87.951 E26.25200
G1 X56.029 Y87.950 E26.26786
G1 X72.799 Y104.721 E26.93999
G1 X72.423 Y104.904 E26.95184
G1 X55.469 Y87.950 E27.63135
G1 X54.909 Y87.949 E27.64721
G1 X72.048 Y105.087 E28.33408
G1 X71.672 Y105.270 E28.34593
G1 X54.350 Y87.948 E29.04018
G1 X53.790 Y87.948 E29.05605
G1 X71.296 Y105.454 E29.75767
G1 X70.920 Y105.637 E29.76952
G1 X53.230 Y87.947 E30.47851
G1 X52.670 Y87.946 E30.49437
G1 X70.544 Y105.820 E31.21074
G1 X70.169 Y106.003 E31.22259
G1 X52.111 Y87.946 E31.94632
G1 X51.551 Y87.945 E31.96219
G1 X69.793 Y106.187 E32.69330
G1 X69.417 Y106.370 E32.70514
G1 X50.991 Y87.944 E33.44363
G1 X50.431 Y87.944 E33.45949
G1 X69.041 Y106.553 E34.20534
G1 X68.665 Y106.737 E34.21719
G1 X49.872 Y87.943 E34.97042
G1 X49.312 Y87.942 E34.98628
G1 X68.289 Y106.920 E35.74688
G1 X67.914 Y107.103 E35.75873
G1 X48.752 Y87.942 E36.52670
G1 X48.193 Y87.941 E36.54257
G1 X67.538 Y107.286 E37.31791
G1 X67.160 Y107.468 E37.32978
G1 X47.633 Y87.940 E38.11243
G1 X47.073 Y87.940 E38.12829
G1 X66.746 Y107.613 E38.91676
G1 X66.233 Y107.659 E38.93135
G1 X46.513 Y87.939 E39.72170
G1 X45.954 Y87.938 E39.73757
G1 X65.688 Y107.673 E40.52851
G1 X65.143 Y107.687 E40.54396
G1 X45.394 Y87.938 E41.33549
G1 X44.834 Y87.937 E41.35135
G1 X64.598 Y107.701 E42.14346
G1 X64.053 Y107.715 E42.15892
G1 X44.274 Y87.936 E42.95162
G1 X43.715 Y87.936 E42.96748
G1 X63.508 Y107.729 E43.76077
G1 X62.962 Y107.743 E43.77622
G1 X43.155 Y87.935 E44.57009
G1 X42.595 Y87.934 E44.58595
G1 X62.417 Y107.757 E45.38041
G1 X61.872 Y107.771 E45.39587
G1 X42.035 Y87.934 E46.19091
G1 X41.476 Y87.933 E46.20677
G1 X61.327 Y107.784 E47.00240
G1 X60.782 Y107.798 E47.01786
G1 X40.916 Y87.932 E47.81407
G1 X40.356 Y87.932 E47.82993
G1 X60.237 Y107.812 E48.62673
G1 X59.692 Y107.826 E48.64219
G1 X39.796 Y87.931 E49.43958
G1 X39.237 Y87.930 E49.45544
G1 X59.147 Y107.840 E50.25341
G1 X58.601 Y107.854 E50.26887
G1 X38.677 Y87.930 E51.06743
G1 X38.117 Y87.929 E51.08329
G1 X58.056 Y107.868 E51.88243
G1 X57.511 Y107.882 E51.89789
G1 X37.557 Y87.928 E52.69762
G1 X36.998 Y87.928 E52.71348
G1 X56.966 Y107.896 E53.51380
G1 X56.421 Y107.910 E53.52925
G1 X36.438 Y87.927 E54.33016
G1 X35.878 Y87.926 E54.34602
G1 X55.876 Y107.924 E55.14751
G1 X55.331 Y107.938 E55.16296
G1 X35.318 Y87.926 E55.96504
G1 X34.759 Y87.925 E55.98090
G1 X54.786 Y107.952 E56.78356
G1 X54.240 Y107.966 E56.79902
G1 X34.199 Y87.924 E57.60226
G1 X33.639 Y87.924 E57.61813
G1 X53.695 Y107.980 E58.42196
G1 X53.150 Y107.994 E58.43742
G1 X33.079 Y87.923 E59.24183
G1 X32.520 Y87.922 E59.25770
G1 X52.605 Y108.008 E60.06270
G1 X52.060 Y108.022 E60.07816
G1 X31.960 Y87.921 E60.88375
G1 X31.400 Y87.921 E60.89961
G1 X51.515 Y108.036 E61.70579
G1 X50.970 Y108.049 E61.72124
G1 X30.840 Y87.920 E62.52801
G1 X30.281 Y87.919 E62.54387
G1 X50.425 Y108.063 E63.35122
G1 X49.879 Y108.077 E63.36667
G1 X29.721 Y87.919 E64.17461
G1 X29.161 Y87.918 E64.19047
G1 X49.334 Y108.091 E64.99899
G1 X48.789 Y108.105 E65.01445
G1 X28.601 Y87.917 E65.82355
G1 X28.042 Y87.917 E65.83942
G1 X48.244 Y108.119 E66.64911
G1 X47.699 Y108.133 E66.66457
G1 X27.482 Y87.916 E67.47484
G1 X26.922 Y87.915 E67.49071
G1 X47.154 Y108.147 E68.30157
G1 X46.609 Y108.161 E68.31703
G1 X26.362 Y87.915 E69.12848
G1 X25.803 Y87.914 E69.14434
G1 X46.064 Y108.175 E69.95638
G1 X45.518 Y108.189 E69.97183
G1 X25.243 Y87.913 E70.78446
G1 X24.683 Y87.913 E70.80032
G1 X44.973 Y108.203 E71.61353
G1 X44.428 Y108.217 E71.62898
G1 X24.123 Y87.912 E72.44278
G1 X23.564 Y87.911 E72.45864
G1 X43.883 Y108.231 E73.27302
G1 X43.338 Y108.245 E73.28848
G1 X23.024 Y87.931 E74.10263
G1 X22.495 Y87.961 E74.11765
G1 X42.793 Y108.259 E74.93117
G1 X42.248 Y108.273 E74.94662
G1 X21.989 Y88.014 E75.75855
G1 X21.514 Y88.098 E75.77224
G1 X41.703 Y108.287 E76.58138
G1 X41.157 Y108.301 E76.59684
G1 X21.043 Y88.186 E77.40301
G1 X20.614 Y88.316 E77.41571
G1 X40.612 Y108.315 E78.21722
G1 X40.067 Y108.328 E78.23268
G1 X20.185 Y88.447 E79.02952
G1 X19.783 Y88.603 E79.04175
G1 X39.522 Y108.342 E79.83287
G1 X38.977 Y108.356 E79.84832
G1 X19.398 Y88.778 E80.63301
G1 X19.014 Y88.952 E80.64498
G1 X38.355 Y108.293 E81.42014
G1 X37.725 Y108.223 E81.43810
G1 X18.673 Y89.170 E82.20170
G1 X18.331 Y89.388 E82.21317
G1 X37.095 Y108.152 E82.96521
G1 X36.466 Y108.081 E82.98317
G1 X18.005 Y89.621 E83.72304
G1 X17.705 Y89.880 E83.73427
G1 X35.836 Y108.011 E84.46092
G1 X35.206 Y107.940 E84.47888
G1 X17.413 Y90.147 E85.19202
G1 X17.133 Y90.426 E85.20323
G1 X34.576 Y107.869 E85.90233
G1 X33.947 Y107.799 E85.92029
G1 X16.873 Y90.725 E86.60457
G1 X16.614 Y91.025 E86.61580
G1 X33.317 Y107.728 E87.28523
G1 X32.687 Y107.657 E87.30319
G1 X16.392 Y91.362 E87.95629
G1 X16.173 Y91.703 E87.96776
G1 X32.057 Y107.587 E88.60438
G1 X31.428 Y107.516 E88.62234
G1 X15.958 Y92.046 E89.24234
G1 X15.779 Y92.427 E89.25425
G1 X30.798 Y107.445 E89.85618
G1 X30.168 Y107.375 E89.87414
G1 X15.601 Y92.807 E90.45799
G1 X15.431 Y93.197 E90.47003
G1 X29.538 Y107.304 E91.03543
G1 X28.909 Y107.233 E91.05339
G1 X15.297 Y93.622 E91.59893
G1 X15.163 Y94.047 E91.61156
G1 X28.279 Y107.163 E92.13724
G1 X27.649 Y107.092 E92.15520
G1 X15.046 Y94.489 E92.66031
G1 X14.964 Y94.966 E92.67402
G1 X27.020 Y107.021 E93.15719
G1 X26.390 Y106.951 E93.17515
G1 X14.882 Y95.443 E93.63638
G1 X14.827 Y95.947 E93.65076
G1 X25.760 Y106.880 E94.08894
G1 X25.130 Y106.809 E94.10690
G1 X14.799 Y96.478 E94.52096
G1 X14.771 Y97.009 E94.53603
G1 X24.501 Y106.739 E94.92598
G1 X23.871 Y106.668 E94.94394
G1 X14.786 Y97.583 E95.30805
G1 X14.817 Y98.173 E95.32480
G1 X23.241 Y106.597 E95.66242
G1 X22.611 Y106.527 E95.68038
G1 X14.867 Y98.783 E95.99075
G1 X14.984 Y99.459 E96.01020
G1 X21.949 Y106.423 E96.28931
G1 X21.267 Y106.300 E96.30895
G1 X15.135 Y100.169 E96.55469
G1 X15.395 Y100.988 E96.57906
G1 X20.460 Y106.052 E96.78203
G1 X19.496 Y105.648 F12000.000
G1 X15.841 Y101.993 E96.92851 F2400.000
G1 X17.130 Y103.841 F12000.000
G1 X17.698 Y104.409 E96.95126 F2400.000
G1 E94.95126 F1680.00000
G92 E0
G1 Z0.400 F12000.000
G1 X16.010 Y123.704 F12000.000
G1 E2.00000 F1680.00000
G1 X16.010 Y115.901 E2.21969 F1200.000
G1 X38.545 Y115.521 E2.85418
G1 X74.184 Y115.524 E3.85749
G1 X75.096 Y115.580 E3.88321 F1200.000
G1 X75.990 Y115.754 E3.90886
G1 X76.827 Y116.043 E3.93379
G1 X77.597 Y116.437 E3.95814
G1 X78.288 Y116.923 E3.98191
G1 X78.900 Y117.501 E4.00561
G1 X79.430 Y118.169 E4.02962
G1 X79.874 Y118.926 E4.05433
G1 X80.233 Y119.773 E4.08022
G1 X80.496 Y120.699 E4.10732
G1 X80.655 Y121.692 E4.13564
G1 X80.708 Y122.754 E4.16556
G1 X80.654 Y123.813 E4.19542
G1 X80.491 Y124.800 E4.22360
G1 X80.220 Y125.718 E4.25053
G1 X79.854 Y126.558 E4.27633
G1 X79.405 Y127.312 E4.30102
G1 X78.873 Y127.979 E4.32504
G1 X78.261 Y128.556 E4.34871
G1 X77.562 Y129.043 E4.37270
G1 X64.249 Y137.288 E4.81354
G1 X18.438 Y134.257 E6.10603
G1 X17.524 Y134.178 E6.13186
G1 X16.649 Y134.061 E6.15670
G1 X16.010 Y133.943 E6.17501
G1 X16.010 Y123.779 E6.46112
G1 X16.224 Y133.575 F12000.000
G1 X16.436 Y133.787 E6.46960 F2400.000
G1 X17.102 Y133.893 E6.48872
G1 X16.224 Y133.016 E6.52389
G1 X16.224 Y132.456 E6.53975
G1 X17.742 Y133.974 E6.60059
G1 X18.355 Y134.027 E6.61803
G1 X16.224 Y131.897 E6.70344
G1 X16.224 Y131.338 E6.71930
G1 X18.958 Y134.071 E6.82889
G1 X19.557 Y134.111 E6.84591
G1 X16.224 Y130.779 E6.97951
G1 X16.224 Y130.219 E6.99537
G1 X20.156 Y134.151 E7.15299
G1 X20.755 Y134.190 E7.17000
G1 X16.224 Y129.660 E7.35163
G1 X16.224 Y129.101 E7.36749
G1 X21.353 Y134.230 E7.57313
G1 X21.952 Y134.269 E7.59015
G1 X16.224 Y128.541 E7.81980
G1 X16.224 Y127.982 E7.83566
G1 X22.551 Y134.309 E8.08933
G1 X23.150 Y134.349 E8.10634
G1 X16.224 Y127.423 E8.38402
G1 X16.224 Y126.864 E8.39988
G1 X23.749 Y134.388 E8.70157
G1 X24.348 Y134.428 E8.71858
G1 X16.224 Y126.304 E9.04429
G1 X16.224 Y125.745 E9.06014
G1 X24.947 Y134.468 E9.40986
G1 X25.546 Y134.507 E9.42687
G1 X16.224 Y125.186 E9.80060
G1 X16.224 Y124.627 E9.81646
G1 X26.145 Y134.547 E10.21420
G1 X26.743 Y134.586 E10.23121
G1 X16.224 Y124.067 E10.65296
G1 X16.224 Y123.508 E10.66882
G1 X27.342 Y134.626 E11.11458
G1 X27.941 Y134.666 E11.13160
G1 X16.224 Y122.949 E11.60137
G1 X16.224 Y122.389 E11.61723
G1 X28.540 Y134.705 E12.11102
G1 X29.139 Y134.745 E12.12803
G1 X16.224 Y121.830 E12.64583
G1 X16.224 Y121.271 E12.66169
G1 X29.738 Y134.784 E13.20350
G1 X30.337 Y134.824 E13.22052
G1 X16.224 Y120.712 E13.78634
G1 X16.224 Y120.152 E13.80220
G1 X30.936 Y134.864 E14.39203
G1 X31.535 Y134.903 E14.40905
G1 X16.224 Y119.593 E15.02290
G1 X16.224 Y119.034 E15.03875
G1 X32.134 Y134.943 E15.67661
G1 X32.732 Y134.983 E15.69363
G1 X16.224 Y118.474 E16.35550
G1 X16.224 Y117.915 E16.37136
G1 X33.331 Y135.022 E17.05724
G1 X33.930 Y135.062 E17.07426
G1 X16.224 Y117.356 E17.78415
G1 X16.224 Y116.797 E17.80001
G1 X34.529 Y135.101 E18.53392
G1 X35.128 Y135.141 E18.55093
G1 X16.224 Y116.237 E19.30885
G1 X16.649 Y116.103 E19.32149
G1 X35.727 Y135.181 E20.08639
G1 X36.326 Y135.220 E20.10340
G1 X17.199 Y116.094 E20.87026
G1 X17.749 Y116.084 E20.88586
G1 X36.925 Y135.260 E21.65468
G1 X37.524 Y135.300 E21.67170
G1 X18.299 Y116.075 E22.44248
G1 X18.849 Y116.066 E22.45807
G1 X38.123 Y135.339 E23.23082
G1 X38.721 Y135.379 E23.24783
G1 X19.399 Y116.056 E24.02253
G1 X19.949 Y116.047 E24.03813
G1 X39.320 Y135.418 E24.81479
G1 X39.919 Y135.458 E24.83181
G1 X20.499 Y116.038 E25.61043
G1 X21.049 Y116.029 E25.62603
G1 X40.518 Y135.498 E26.40661
G1 X41.117 Y135.537 E26.42362
G1 X21.599 Y116.019 E27.20617
