; generated by Slic3r 1.2.6 on 2015-04-13 at 18:18:50

; external perimeters extrusion width = 0.50mm
; perimeters extrusion width = 0.50mm
; infill extrusion width = 0.50mm
; solid infill extrusion width = 0.50mm
; top infill extrusion width = 0.50mm

M104 S190 ; set temperature
G28 ; home all axes
G1 Z15 F120 ; lift nozzle
M109 S190 ; wait for temperature to be reached
G21 ; set units to millimeters
G90 ; use absolute coordinates
M82 ; use absolute distances for extrusion
G92 E0
M106 S102
G1 E-2.00000 F1680.00000
G92 E0
G1 Z0.400 F12000.000
G1 X16.200 Y9.498 F12000.000
G1 E2.00000 F1680.00000
G1 X17.319 Y7.590 E2.06624 F1200.000
G1 X19.064 Y6.159 E2.13382
G1 X20.882 Y5.478 E2.19195
G1 X22.126 Y5.228 E2.22993
G1 X23.038 Y5.091 E2.25756
G1 X24.551 Y4.941 E2.30307
G1 X26.470 Y4.845 E2.36061
G1 X27.479 Y4.829 E2.39082
G1 X53.230 Y4.701 E3.16192
G1 X82.994 Y4.703 E4.05318
G1 X84.535 Y4.743 E4.09935 F1200.000
G1 X86.035 Y4.855 E4.14439
G1 X87.325 Y5.019 E4.18332
G1 X89.121 Y5.320 E4.23785
G1 X89.866 Y5.468 E4.26059
G1 X92.539 Y6.693 E4.34864
G1 X136.651 Y40.995 E6.02191
G1 X138.547 Y43.390 E6.11339
G1 X153.637 Y76.358 E7.19908
G1 X154.219 Y79.029 E7.28094
G1 X154.219 Y87.624 E7.53831
G1 X154.183 Y88.685 E7.57008
G1 X154.138 Y89.226 E7.58633
G1 X154.043 Y89.989 E7.60938
G1 X153.942 Y90.579 E7.62728
G1 X153.784 Y91.297 E7.64931
G1 X153.573 Y92.037 E7.67235
G1 X153.341 Y92.698 E7.69334
G1 X153.183 Y93.106 E7.70645
G1 X126.957 Y154.243 E9.69844
G1 X125.717 Y156.128 E9.76603
G1 X123.142 Y157.783 E9.85767
G1 X122.303 Y158.057 E9.88410
G1 X121.735 Y158.212 E9.90173
G1 X93.537 Y165.115 E10.77103
G1 X91.695 Y165.291 E10.82645
G1 X55.418 Y163.496 E11.91405
G1 X54.164 Y163.424 E11.95167
G1 X53.393 Y163.333 E11.97490
G1 X52.193 Y163.116 E12.01142
G1 X51.406 Y162.923 E12.03568
G1 X50.260 Y162.562 E12.07167
G1 X49.470 Y162.255 E12.09705
G1 X48.399 Y161.755 E12.13246
G1 X47.609 Y161.315 E12.15952
G1 X46.634 Y160.680 E12.19437
G1 X45.907 Y160.128 E12.22169
G1 X45.028 Y159.357 E12.25670
G1 X44.387 Y158.709 E12.28399
G1 X43.616 Y157.809 E12.31950
G1 X43.081 Y157.089 E12.34634
G1 X42.427 Y156.065 E12.38272
G1 X42.023 Y155.331 E12.40782
G1 X41.313 Y153.780 E12.45891
G1 X19.802 Y98.236 E14.24249
G1 X19.418 Y96.706 E14.28972
G1 X19.184 Y94.683 E14.35071
G1 X15.790 Y30.273 E16.28208
G1 X15.781 Y11.759 E16.83645
G1 X16.172 Y9.567 E16.90314
G1 E14.90314 F1680.00000
G92 E0
G1 X63.224 Y95.800 F12000.000
G1 E2.00000 F1680.00000
G1 X33.218 Y99.488 E2.85109 F1200.000
G1 X32.119 Y99.531 E2.88204
G1 X30.290 Y99.373 E2.93374
G1 X28.755 Y98.908 E2.97887
G1 X27.505 Y98.140 E3.02018
G1 X26.584 Y97.111 E3.05908
G1 X26.031 Y95.851 E3.09780
G1 X25.842 Y94.326 E3.14107
G1 X25.463 Y81.725 E3.49596
G1 X26.165 Y81.388 E3.51788
G1 X26.958 Y81.093 E3.54169
G1 X27.930 Y80.816 E3.57015
G1 X29.086 Y80.593 E3.60330
G1 X29.734 Y80.512 E3.62169
G1 X30.427 Y80.463 E3.64123
G1 X31.168 Y80.447 E3.66210
G1 X33.119 Y80.450 E3.71702
G1 X70.239 Y80.511 E4.76203 F1200.000
G1 X71.469 Y80.537 E4.79666
G1 X72.607 Y80.615 E4.82878
G1 X73.659 Y80.745 E4.85861
G1 X75.734 Y81.106 E4.91790
G1 X75.734 Y89.491 E5.15397
G1 X75.703 Y90.285 E5.17633
G1 X75.611 Y91.026 E5.19737
G1 X75.458 Y91.718 E5.21732
G1 X75.238 Y92.347 E5.23608
G1 X74.940 Y92.904 E5.25386
G1 X74.565 Y93.394 E5.27121
G1 X74.104 Y93.817 E5.28882
G1 X73.547 Y94.174 E5.30747
G1 X72.889 Y94.466 E5.32773
G1 X72.123 Y94.683 E5.35013
G1 X71.230 Y94.816 E5.37555
G1 X63.299 Y95.791 E5.60051
G1 X75.520 Y81.476 F12000.000
G1 X75.308 Y81.265 E5.60897 F2400.000
G1 X74.633 Y81.148 E5.62839
G1 X75.520 Y82.035 E5.66390
G1 X75.520 Y82.593 E5.67971
G1 X73.957 Y81.030 E5.74228
G1 X73.295 Y80.927 E5.76123
G1 X75.520 Y83.152 E5.85029
G1 X75.520 Y83.710 E5.86610
G1 X72.658 Y80.848 E5.98067
G1 X72.049 Y80.798 E5.99798
G1 X75.520 Y84.269 E6.13695
G1 X75.520 Y84.827 E6.15276
G1 X71.449 Y80.757 E6.31573
G1 X70.875 Y80.741 E6.33200
G1 X75.520 Y85.386 E6.51797
G1 X75.520 Y85.944 E6.53378
G1 X70.304 Y80.729 E6.74259
G1 X69.742 Y80.725 E6.75851
G1 X75.520 Y86.503 E6.98984
G1 X75.520 Y87.061 E7.00565
G1 X69.182 Y80.724 E7.25938
G1 X68.623 Y80.723 E7.27522
G1 X75.520 Y87.620 E7.55134
G1 X75.520 Y88.178 E7.56715
G1 X68.063 Y80.722 E7.86567
G1 X67.504 Y80.721 E7.88151
G1 X75.520 Y88.737 E8.20242
G1 X75.520 Y89.295 E8.21823
G1 X66.945 Y80.720 E8.56155
G1 X66.385 Y80.719 E8.57738
G1 X75.509 Y89.843 E8.94266
G1 X75.485 Y90.377 E8.95782
G1 X65.826 Y80.718 E9.34454
G1 X65.266 Y80.717 E9.36038
G1 X75.423 Y90.874 E9.76702
G1 X75.337 Y91.346 E9.78061
G1 X64.707 Y80.716 E10.20620
G1 X64.148 Y80.716 E10.22203
G1 X75.228 Y91.796 E10.66566
G1 X75.083 Y92.209 E10.67806
G1 X63.588 Y80.715 E11.13828
G1 X63.029 Y80.714 E11.15412
G1 X74.901 Y92.586 E11.62943
G1 X74.690 Y92.933 E11.64094
G1 X62.469 Y80.713 E12.13021
G1 X61.910 Y80.712 E12.14605
G1 X74.436 Y93.238 E12.64756
G1 X74.157 Y93.517 E12.65874
G1 X61.351 Y80.711 E13.17147
G1 X60.791 Y80.710 E13.18731
G1 X73.846 Y93.765 E13.70999
G1 X73.506 Y93.983 E13.72144
G1 X60.232 Y80.709 E14.25290
G1 X59.672 Y80.708 E14.26873
G1 X73.122 Y94.157 E14.80720
G1 X72.718 Y94.312 E14.81944
G1 X59.113 Y80.707 E15.36414
G1 X58.554 Y80.706 E15.37997
G1 X72.283 Y94.436 E15.92965
G1 X71.813 Y94.524 E15.94318
G1 X57.994 Y80.705 E16.49644
G1 X57.435 Y80.705 E16.51227
G1 X71.327 Y94.596 E17.06846
G1 X70.830 Y94.659 E17.08262
G1 X56.875 Y80.704 E17.64134
G1 X56.316 Y80.703 E17.65717
G1 X70.333 Y94.720 E18.21838
G1 X69.836 Y94.781 E18.23256
G1 X55.757 Y80.702 E18.79625
G1 X55.197 Y80.701 E18.81209
G1 X69.338 Y94.842 E19.37826
G1 X68.841 Y94.903 E19.39245
G1 X54.638 Y80.700 E19.96110
G1 X54.078 Y80.699 E19.97694
G1 X68.344 Y94.964 E20.54808
G1 X67.846 Y95.026 E20.56226
G1 X53.519 Y80.698 E21.13589
G1 X52.960 Y80.697 E21.15172
G1 X67.349 Y95.087 E21.72783
G1 X66.852 Y95.148 E21.74202
G1 X52.400 Y80.696 E22.32061
G1 X51.841 Y80.695 E22.33644
G1 X66.354 Y95.209 E22.91752
G1 X65.857 Y95.270 E22.93170
G1 X51.281 Y80.694 E23.51526
G1 X50.722 Y80.694 E23.53110
G1 X65.360 Y95.331 E24.11714
G1 X64.862 Y95.392 E24.13133
G1 X50.163 Y80.693 E24.71986
G1 X49.603 Y80.692 E24.73569
G1 X64.365 Y95.453 E25.32670
G1 X63.867 Y95.515 E25.34089
G1 X49.044 Y80.691 E25.93438
G1 X48.484 Y80.690 E25.95022
G1 X63.370 Y95.576 E26.54620
G1 X62.873 Y95.637 E26.56039
G1 X47.925 Y80.689 E27.15885
G1 X47.366 Y80.688 E27.17468
G1 X62.375 Y95.698 E27.77563
G1 X61.878 Y95.759 E27.78982
G1 X46.806 Y80.687 E28.39325
G1 X46.247 Y80.686 E28.40908
G1 X61.381 Y95.820 E29.01500
G1 X60.883 Y95.881 E29.02919
G1 X45.687 Y80.685 E29.63758
G1 X45.128 Y80.684 E29.65342
G1 X60.386 Y95.942 E30.26430
G1 X59.889 Y96.004 E30.27849
G1 X44.569 Y80.683 E30.89185
G1 X44.009 Y80.683 E30.90769
G1 X59.391 Y96.065 E31.52354
G1 X58.894 Y96.126 E31.53773
G1 X43.450 Y80.682 E32.15606
G1 X42.890 Y80.681 E32.17190
G1 X58.396 Y96.187 E32.79272
G1 X57.899 Y96.248 E32.80690
G1 X42.331 Y80.680 E33.43020
G1 X41.771 Y80.679 E33.44604
G1 X57.402 Y96.309 E34.07183
G1 X56.904 Y96.370 E34.08601
G1 X41.212 Y80.678 E34.71428
G1 X40.653 Y80.677 E34.73012
G1 X56.407 Y96.431 E35.36087
G1 X55.910 Y96.493 E35.37506
G1 X40.093 Y80.676 E36.00829
G1 X39.534 Y80.675 E36.02413
G1 X55.412 Y96.554 E36.65985
G1 X54.915 Y96.615 E36.67404
G1 X38.974 Y80.674 E37.31224
G1 X38.415 Y80.673 E37.32808
G1 X54.418 Y96.676 E37.96877
G1 X53.920 Y96.737 E37.98296
G1 X37.856 Y80.672 E38.62613
G1 X37.296 Y80.672 E38.64197
G1 X53.423 Y96.798 E39.28762
G1 X52.926 Y96.859 E39.30181
G1 X36.737 Y80.671 E39.94995
G1 X36.177 Y80.670 E39.96579
G1 X52.428 Y96.920 E40.61641
G1 X51.931 Y96.982 E40.63060
G1 X35.618 Y80.669 E41.28371
G1 X35.059 Y80.668 E41.29954
G1 X51.433 Y97.043 E41.95514
G1 X50.936 Y97.104 E41.96932
G1 X34.499 Y80.667 E42.62740
G1 X33.940 Y80.666 E42.64324
G1 X50.439 Y97.165 E43.30380
G1 X49.941 Y97.226 E43.31798
G1 X33.380 Y80.665 E43.98103
G1 X32.821 Y80.664 E43.99686
G1 X49.444 Y97.287 E44.66239
G1 X48.947 Y97.348 E44.67658
G1 X32.262 Y80.663 E45.34459
G1 X31.702 Y80.662 E45.36043
G1 X48.449 Y97.409 E46.03092
G1 X47.952 Y97.471 E46.04511
G1 X31.143 Y80.661 E46.71809
G1 X30.595 Y80.672 E46.73360
G1 X47.455 Y97.532 E47.40859
G1 X46.957 Y97.593 E47.42278
G1 X30.063 Y80.698 E48.09918
G1 X29.548 Y80.742 E48.11381
G1 X46.460 Y97.654 E48.79092
G1 X45.962 Y97.715 E48.80511
G1 X29.051 Y80.804 E49.48217
G1 X28.583 Y80.894 E49.49567
G1 X45.465 Y97.776 E50.17157
G1 X44.968 Y97.837 E50.18576
G1 X28.115 Y80.984 E50.86050
G1 X27.666 Y81.094 E50.87358
G1 X44.470 Y97.898 E51.54637
G1 X43.973 Y97.960 E51.56056
G1 X27.231 Y81.218 E52.23084
G1 X26.807 Y81.352 E52.24344
G1 X43.476 Y98.021 E52.91078
G1 X42.978 Y98.082 E52.92497
G1 X26.400 Y81.504 E53.58870
G1 X26.008 Y81.670 E53.60076
G1 X42.481 Y98.143 E54.26028
G1 X41.984 Y98.204 E54.27447
G1 X25.685 Y81.906 E54.92699
G1 X25.703 Y82.482 E54.94330
G1 X41.486 Y98.265 E55.57522
G1 X40.989 Y98.326 E55.58941
G1 X25.720 Y83.057 E56.20072
G1 X25.737 Y83.633 E56.21703
G1 X40.491 Y98.387 E56.80773
G1 X39.994 Y98.449 E56.82192
G1 X25.755 Y84.209 E57.39202
G1 X25.772 Y84.785 E57.40833
G1 X39.497 Y98.510 E57.95782
G1 X38.999 Y98.571 E57.97201
G1 X25.789 Y85.361 E58.50090
G1 X25.807 Y85.936 E58.51721
G1 X38.502 Y98.632 E59.02549
G1 X38.005 Y98.693 E59.03968
G1 X25.824 Y86.512 E59.52735
G1 X25.841 Y87.088 E59.54366
G1 X37.507 Y98.754 E60.01073
G1 X37.010 Y98.815 E60.02492
G1 X25.859 Y87.664 E60.47138
G1 X25.876 Y88.240 E60.48769
G1 X36.513 Y98.876 E60.91355
G1 X36.015 Y98.938 E60.92774
G1 X25.893 Y88.815 E61.33299
G1 X25.911 Y89.391 E61.34930
G1 X35.518 Y98.999 E61.73394
G1 X35.021 Y99.060 E61.74813
G1 X25.928 Y89.967 E62.11217
G1 X25.945 Y90.543 E62.12848
G1 X34.523 Y99.121 E62.47191
G1 X34.026 Y99.182 E62.48610
G1 X25.962 Y91.119 E62.80893
G1 X25.980 Y91.694 E62.82524
G1 X33.528 Y99.243 E63.12746
G1 X33.011 Y99.284 E63.14215
G1 X25.997 Y92.270 E63.42297
G1 X26.014 Y92.846 E63.43928
G1 X32.474 Y99.305 E63.69789
G1 X31.899 Y99.289 E63.71417
G1 X26.032 Y93.422 E63.94907
G1 X26.049 Y93.998 E63.96538
G1 X31.288 Y99.236 E64.17513
G1 X30.677 Y99.184 E64.19249
G1 X26.104 Y94.611 E64.37556
G1 X26.183 Y95.249 E64.39374
G1 X29.952 Y99.018 E64.54466
G1 X29.151 Y98.775 E64.56837
G1 X26.373 Y95.997 E64.67958
G1 X27.371 Y97.554 F12000.000
G1 X27.855 Y98.038 E64.69896 F2400.000
G1 E62.69896 F1680.00000
G92 E0
G1 Z0.400 F12000.000
G1 X41.892 Y110.698 F12000.000
G1 E2.00000 F1680.00000
G1 X63.493 Y110.379 E2.60819 F1200.000
G1 X66.574 Y110.382 E2.69490
G1 X125.134 Y110.443 E4.34350 F1200.000
G1 X126.364 Y110.469 E4.37813
G1 X127.502 Y110.547 E4.41025
G1 X128.555 Y110.678 E4.44010
G1 X129.482 Y110.826 E4.46654
G1 X130.629 Y111.041 E4.49939
G1 X130.629 Y119.423 E4.73537
G1 X130.598 Y120.217 E4.75773
G1 X130.506 Y120.958 E4.77877
G1 X130.353 Y121.650 E4.79872
G1 X130.133 Y122.279 E4.81748
G1 X129.835 Y122.836 E4.83526
G1 X129.460 Y123.326 E4.85262
G1 X128.999 Y123.749 E4.87022
G1 X128.442 Y124.106 E4.88887
G1 X127.784 Y124.398 E4.90914
G1 X127.019 Y124.615 E4.93151
G1 X85.682 Y130.493 E6.10693
G1 X85.178 Y130.552 E6.12123
G1 X69.041 Y131.254 E6.57594
G1 X45.095 Y129.029 E7.25296
G1 X44.534 Y127.821 E7.29048
G1 X43.325 Y125.106 E7.37413
G1 X42.732 Y123.715 E7.41670
G1 X41.536 Y120.784 E7.50582
G1 X40.931 Y119.242 E7.55246
G1 X39.693 Y115.973 E7.65085
G1 X37.819 Y110.758 E7.80688
G1 X41.817 Y110.699 E7.91945
G1 X38.490 Y111.893 F12000.000
G1 X56.459 Y129.862 E8.63656 F2400.000
G1 X57.072 Y129.919 E8.65395
G1 X38.177 Y111.024 E9.40802
G1 X38.669 Y110.958 E9.42201
G1 X57.686 Y129.976 E10.18096
G1 X58.300 Y130.033 E10.19836
G1 X39.217 Y110.950 E10.95991
G1 X39.766 Y110.942 E10.97539
G1 X58.913 Y130.090 E11.73954
G1 X59.527 Y130.147 E11.75693
G1 X40.314 Y110.934 E12.52368
G1 X40.863 Y110.926 E12.53916
G1 X60.141 Y130.204 E13.30851
G1 X60.755 Y130.261 E13.32590
G1 X41.411 Y110.918 E14.09785
G1 X41.960 Y110.910 E14.11333
G1 X61.368 Y130.318 E14.88788
G1 X61.982 Y130.375 E14.90527
G1 X42.509 Y110.902 E15.68241
G1 X43.057 Y110.894 E15.69790
G1 X62.596 Y130.432 E16.47764
G1 X63.210 Y130.489 E16.49503
G1 X43.606 Y110.886 E17.27737
G1 X44.154 Y110.877 E17.29286
G1 X63.823 Y130.546 E18.07780
G1 X64.437 Y130.603 E18.09519
G1 X44.703 Y110.869 E18.88273
G1 X45.252 Y110.861 E18.89821
G1 X65.051 Y130.660 E19.68835
G1 X65.664 Y130.717 E19.70574
G1 X45.800 Y110.853 E20.49848
G1 X46.349 Y110.845 E20.51396
G1 X66.278 Y130.774 E21.30930
G1 X66.892 Y130.831 E21.32669
G1 X46.897 Y110.837 E22.12463
G1 X47.446 Y110.829 E22.14011
G1 X67.506 Y130.888 E22.94064
G1 X68.119 Y130.945 E22.95804
G1 X47.995 Y110.821 E23.76117
G1 X48.543 Y110.813 E23.77665
G1 X68.733 Y131.002 E24.58238
G1 X69.319 Y131.031 E24.59893
G1 X49.092 Y110.805 E25.40613
G1 X49.640 Y110.797 E25.42162
G1 X69.852 Y131.008 E26.22822
G1 X70.385 Y130.985 E26.24329
G1 X50.189 Y110.788 E27.04929
G1 X50.738 Y110.780 E27.06477
G1 X70.919 Y130.962 E27.87016
G1 X71.452 Y130.938 E27.88523
G1 X51.286 Y110.772 E28.69002
G1 X51.835 Y110.764 E28.70550
G1 X71.986 Y130.915 E29.50969
G1 X72.519 Y130.892 E29.52476
G1 X52.383 Y110.756 E30.32834
G1 X52.932 Y110.748 E30.34382
G1 X73.053 Y130.869 E31.14680
G1 X73.586 Y130.845 E31.16187
G1 X53.481 Y110.740 E31.96424
G1 X54.029 Y110.732 E31.97972
G1 X74.120 Y130.822 E32.78149
G1 X74.653 Y130.799 E32.79656
G1 X54.578 Y110.724 E33.59772
G1 X55.126 Y110.716 E33.61320
G1 X75.187 Y130.776 E34.41376
G1 X75.720 Y130.752 E34.42883
G1 X55.675 Y110.707 E35.22879
G1 X56.224 Y110.699 E35.24427
G1 X76.253 Y130.729 E36.04362
G1 X76.787 Y130.706 E36.05869
G1 X56.772 Y110.691 E36.85744
G1 X57.321 Y110.683 E36.87292
G1 X77.320 Y130.683 E37.67106
G1 X77.854 Y130.660 E37.68613
G1 X57.869 Y110.675 E38.48367
G1 X58.418 Y110.667 E38.49915
G1 X78.387 Y130.636 E39.29609
G1 X78.921 Y130.613 E39.31115
G1 X58.967 Y110.659 E40.10748
G1 X59.515 Y110.651 E40.12297
G1 X79.454 Y130.590 E40.91869
G1 X79.988 Y130.567 E40.93376
G1 X60.064 Y110.643 E41.72888
G1 X60.612 Y110.635 E41.74436
G1 X80.521 Y130.543 E42.53888
G1 X81.054 Y130.520 E42.55395
G1 X61.161 Y110.627 E43.34786
G1 X61.710 Y110.618 E43.36334
G1 X81.588 Y130.497 E44.15665
G1 X82.121 Y130.474 E44.17172
G1 X62.258 Y110.610 E44.96443
G1 X62.807 Y110.602 E44.97991
G1 X82.655 Y130.450 E45.77201
G1 X83.188 Y130.427 E45.78708
G1 X63.355 Y110.594 E46.57857
G1 X63.912 Y110.594 E46.59427
G1 X83.722 Y130.404 E47.38485
G1 X84.255 Y130.381 E47.39992
G1 X64.469 Y110.594 E48.18955
G1 X65.026 Y110.595 E48.20528
G1 X84.789 Y130.357 E48.99396
G1 X85.317 Y130.329 E49.00888
G1 X65.583 Y110.596 E49.79639
G1 X66.141 Y110.596 E49.81211
G1 X85.813 Y130.269 E50.59720
G1 X86.301 Y130.199 E50.61110
G1 X66.698 Y110.597 E51.39340
G1 X67.255 Y110.597 E51.40912
G1 X86.788 Y130.130 E52.18864
G1 X87.275 Y130.061 E52.20253
G1 X67.813 Y110.598 E52.97926
G1 X68.370 Y110.598 E52.99498
G1 X87.763 Y129.992 E53.76892
G1 X88.250 Y129.922 E53.78281
G1 X68.927 Y110.599 E54.55396
G1 X69.484 Y110.600 E54.56968
G1 X88.738 Y129.853 E55.33804
G1 X89.225 Y129.784 E55.35193
G1 X70.042 Y110.600 E56.11750
G1 X70.599 Y110.601 E56.13323
G1 X89.712 Y129.714 E56.89601
G1 X90.200 Y129.645 E56.90990
G1 X71.156 Y110.601 E57.66989
G1 X71.713 Y110.602 E57.68562
G1 X90.687 Y129.576 E58.44282
G1 X91.174 Y129.506 E58.45671
G1 X72.271 Y110.603 E59.21113
G1 X72.828 Y110.603 E59.22685
G1 X91.662 Y129.437 E59.97848
G1 X92.149 Y129.368 E59.99237
G1 X73.385 Y110.604 E60.74120
G1 X73.942 Y110.604 E60.75693
G1 X92.637 Y129.298 E61.50298
G1 X93.124 Y129.229 E61.51687
G1 X74.500 Y110.605 E62.26013
G1 X75.057 Y110.605 E62.27585
G1 X93.611 Y129.160 E63.01632
G1 X94.099 Y129.091 E63.03021
G1 X75.614 Y110.606 E63.76789
G1 X76.172 Y110.607 E63.78362
G1 X94.586 Y129.021 E64.51851
G1 X95.074 Y128.952 E64.53240
G1 X76.729 Y110.607 E65.26451
G1 X77.286 Y110.608 E65.28023
G1 X95.561 Y128.883 E66.00955
G1 X96.048 Y128.813 E66.02344
G1 X77.843 Y110.608 E66.74996
G1 X78.401 Y110.609 E66.76569
G1 X96.536 Y128.744 E67.48943
G1 X97.023 Y128.675 E67.50332
G1 X78.958 Y110.609 E68.22426
G1 X79.515 Y110.610 E68.23999
G1 X97.510 Y128.605 E68.95815
G1 X97.998 Y128.536 E68.97204
G1 X80.072 Y110.611 E69.68741
G1 X80.630 Y110.611 E69.70314
G1 X98.485 Y128.467 E70.41572
G1 X98.973 Y128.398 E70.42961
