; generated by Slic3r 1.2.6 on 2015-03-28 at 19:01:27

; external perimeters extrusion width = 0.50mm
; perimeters extrusion width = 0.50mm
; infill extrusion width = 0.50mm
; solid infill extrusion width = 0.50mm
; top infill extrusion width = 0.50mm
; support material extrusion width = 0.50mm

M104 S190 ; set temperature
G28 ; home all axes
G1 Z15 F120 ; lift nozzle
M109 S190 ; wait for temperature to be reached
G21 ; set units to millimeters
G90 ; use absolute coordinates
M82 ; use absolute distances for extrusion
G92 E0
M106 S102
G1 E-2.00000 F1680.00000
G92 E0
G1 Z0.450 F12000.000
G1 X23.634 Y4.549 F12000.000
G1 E2.00000 F1680.00000
G1 X23.991 Y2.693 E2.05322 F1200.000
G1 X25.160 Y0.758 E2.11685
G1 X26.925 Y-0.654 E2.18048
G1 X30.000 Y-1.436 E2.26981
G1 X50.230 Y-1.432 E2.83932
G1 X52.115 Y-1.348 E2.89244 F1200.000
G1 X53.536 Y-1.196 E2.93267
G1 X53.996 Y-1.129 E2.94577
G1 X55.843 Y-0.779 E2.99867
G1 X57.226 Y-0.426 E3.03888
G1 X59.022 Y0.154 E3.09200
G1 X59.454 Y0.315 E3.10499
G1 X60.781 Y0.866 E3.14543
G1 X61.190 Y1.052 E3.15809
G1 X62.813 Y1.878 E3.20936
G1 X64.089 Y2.635 E3.25111
G1 X64.496 Y2.896 E3.26472
G1 X65.839 Y3.834 E3.31085
G1 X67.122 Y4.862 E3.35711
G1 X67.509 Y5.198 E3.37157
G1 X68.810 Y6.427 E3.42194
G1 X69.825 Y7.517 E3.46386
G1 X70.126 Y7.864 E3.47680
G1 X71.044 Y9.003 E3.51798
G1 X71.313 Y9.365 E3.53069
G1 X72.248 Y10.723 E3.57709
G1 X73.082 Y12.118 E3.62285
G1 X73.302 Y12.521 E3.63578
G1 X74.005 Y13.932 E3.68015
G1 X74.793 Y15.833 E3.73809
G1 X75.301 Y17.347 E3.78305
G1 X75.430 Y17.788 E3.79599
G1 X75.748 Y19.034 E3.83217
G1 X75.902 Y19.739 E3.85249
G1 X76.184 Y21.372 E3.89916
G1 X76.347 Y22.865 E3.94142
G1 X76.379 Y23.296 E3.95360
G1 X76.436 Y25.000 E4.00159
G1 X76.436 Y95.000 E5.97222
G1 X76.039 Y97.225 E6.03586
G1 X74.898 Y99.176 E6.09949
G1 X73.152 Y100.612 E6.16312
G1 X70.000 Y101.436 E6.25484
G1 X50.000 Y101.436 E6.81788
G1 X48.343 Y101.381 E6.86454
G1 X46.466 Y101.196 E6.91766
G1 X44.606 Y100.877 E6.97078
G1 X42.774 Y100.426 E7.02390
G1 X40.978 Y99.846 E7.07703
G1 X40.541 Y99.683 E7.09015
G1 X38.812 Y98.949 E7.14303
G1 X37.534 Y98.309 E7.18327
G1 X35.903 Y97.360 E7.23639
G1 X34.342 Y96.296 E7.28958
G1 X32.870 Y95.131 E7.34242
G1 X32.517 Y94.826 E7.35556
G1 X31.147 Y93.528 E7.40868
G1 X24.993 Y86.843 E7.66448
G1 X23.636 Y84.553 E7.73943
G1 X23.173 Y83.173 E7.78041
G1 X22.809 Y81.955 E7.81619
G1 X22.539 Y80.023 E7.87111
G1 X23.564 Y4.912 E9.98581
G1 X23.620 Y4.623 E9.99412
G1 E7.99412 F1680.00000
G92 E0
G1 X69.750 Y30.601 F12000.000
G1 E2.00000 F1680.00000
G1 X69.750 Y94.750 E3.66973 F720.000
G1 X50.004 Y94.750 E4.18368
G1 X48.591 Y94.700 E4.22050
G1 X47.189 Y94.549 E4.25719
G1 X45.802 Y94.299 E4.29389
G1 X44.436 Y93.950 E4.33059
G1 X43.098 Y93.505 E4.36728
G1 X41.796 Y92.965 E4.40398
G1 X40.535 Y92.334 E4.44068
G1 X39.322 Y91.615 E4.47737
G1 X38.171 Y90.815 E4.51386
G1 X37.067 Y89.926 E4.55077
G1 X36.035 Y88.965 E4.58746
G1 X35.074 Y87.933 E4.62416
G1 X34.182 Y86.826 E4.66117
G1 X33.387 Y85.680 E4.69747
G1 X32.659 Y84.452 E4.73464
G1 X32.037 Y83.209 E4.77080
G1 X31.494 Y81.898 E4.80776
G1 X31.050 Y80.563 E4.84437
G1 X30.702 Y79.200 E4.88099
G1 X30.450 Y77.805 E4.91787
G1 X30.300 Y76.407 E4.95449
G1 X30.250 Y74.996 E4.99124
G1 X30.250 Y5.250 E6.80665
G1 X49.996 Y5.250 E7.32060
G1 X51.401 Y5.300 E7.35721
G1 X52.811 Y5.451 E7.39411 F720.000
G1 X54.198 Y5.701 E7.43081
G1 X55.564 Y6.050 E7.46751
G1 X56.902 Y6.495 E7.50420
G1 X58.212 Y7.039 E7.54112
G1 X59.479 Y7.674 E7.57801
G1 X60.690 Y8.393 E7.61467
G1 X61.823 Y9.180 E7.65057
G1 X62.920 Y10.063 E7.68721
G1 X63.957 Y11.026 E7.72407
G1 X64.926 Y12.066 E7.76106
G1 X65.826 Y13.186 E7.79846
G1 X66.588 Y14.283 E7.83323
G1 X67.327 Y15.522 E7.87079
G1 X67.986 Y16.843 E7.90919
G1 X68.480 Y18.037 E7.94285
G1 X68.954 Y19.450 E7.98163
G1 X69.323 Y20.934 E8.02144
G1 X69.545 Y22.161 E8.05390
G1 X69.698 Y23.571 E8.09080
G1 X69.750 Y25.005 E8.12815
G1 X69.750 Y30.526 E8.27187
G1 X68.188 Y18.016 F12000.000
G1 X56.986 Y6.814 E8.68629 F1200.000
G1 X56.093 Y6.494 F12000.000
G1 X68.503 Y18.904 E9.14540 F1200.000
G1 X68.775 Y19.750 E9.16864
G1 X55.250 Y6.224 E9.66901
G1 X54.480 Y6.028 E9.68979
G1 X68.965 Y20.513 E10.22567
G1 X69.139 Y21.260 E10.24575
G1 X53.741 Y5.862 E10.81540
G1 X53.041 Y5.736 E10.83400
G1 X69.265 Y21.960 E11.43421
G1 X69.362 Y22.630 E11.45192
G1 X52.369 Y5.638 E12.08055
G1 X51.727 Y5.569 E12.09745
G1 X69.432 Y23.273 E12.75243
G1 X69.484 Y23.899 E12.76885
G1 X51.100 Y5.516 E13.44894
G1 X50.506 Y5.494 E13.46451
G1 X69.505 Y24.494 E14.16740
G1 X69.527 Y25.089 E14.18298
G1 X49.911 Y5.473 E14.90867
G1 X49.337 Y5.473 E14.92367
G1 X69.527 Y25.663 E15.67059
G1 X69.527 Y26.236 E15.68559
G1 X48.764 Y5.473 E16.45373
G1 X48.191 Y5.473 E16.46872
G1 X69.527 Y26.809 E17.25807
G1 X69.527 Y27.383 E17.27307
G1 X47.617 Y5.473 E18.08363
G1 X47.044 Y5.473 E18.09863
G1 X69.527 Y27.956 E18.93040
G1 X69.527 Y28.529 E18.94540
G1 X46.471 Y5.473 E19.79839
G1 X45.897 Y5.473 E19.81338
G1 X69.527 Y29.103 E20.68758
G1 X69.527 Y29.676 E20.70258
G1 X45.324 Y5.473 E21.59799
G1 X44.750 Y5.473 E21.61299
G1 X69.527 Y30.250 E22.52962
G1 X69.527 Y30.823 E22.54461
G1 X44.177 Y5.473 E23.48245
G1 X43.604 Y5.473 E23.49745
G1 X69.527 Y31.396 E24.45650
G1 X69.527 Y31.970 E24.47150
G1 X43.030 Y5.473 E25.45176
G1 X42.457 Y5.473 E25.46676
G1 X69.527 Y32.543 E26.46824
G1 X69.527 Y33.117 E26.48323
G1 X41.883 Y5.473 E27.50592
G1 X41.310 Y5.473 E27.52092
G1 X69.527 Y33.690 E28.56482
G1 X69.527 Y34.263 E28.57982
G1 X40.737 Y5.473 E29.64494
G1 X40.163 Y5.473 E29.65993
G1 X69.527 Y34.837 E30.74626
G1 X69.527 Y35.410 E30.76126
G1 X39.590 Y5.473 E31.86880
G1 X39.016 Y5.473 E31.88380
G1 X69.527 Y35.984 E33.01255
G1 X69.527 Y36.557 E33.02755
G1 X38.443 Y5.473 E34.17752
G1 X37.870 Y5.473 E34.19251
G1 X69.527 Y37.130 E35.36369
G1 X69.527 Y37.704 E35.37869
G1 X37.296 Y5.473 E36.57108
G1 X36.723 Y5.473 E36.58608
G1 X69.527 Y38.277 E37.79969
G1 X69.527 Y38.851 E37.81468
G1 X36.149 Y5.473 E39.04950
G1 X35.576 Y5.473 E39.06450
G1 X69.527 Y39.424 E40.32053
G1 X69.527 Y39.997 E40.33553
G1 X35.003 Y5.473 E41.61277
G1 X34.429 Y5.473 E41.62777
G1 X69.527 Y40.571 E42.92623
G1 X69.527 Y41.144 E42.94123
G1 X33.856 Y5.473 E44.26089
G1 X33.282 Y5.473 E44.27589
G1 X69.527 Y41.718 E45.61677
G1 X69.527 Y42.291 E45.63177
G1 X32.709 Y5.473 E46.99387
G1 X32.136 Y5.473 E47.00887
G1 X69.527 Y42.864 E48.39217
G1 X69.527 Y43.438 E48.40717
G1 X31.562 Y5.473 E49.81169
G1 X30.989 Y5.473 E49.82669
G1 X69.527 Y44.011 E51.25242
G1 X69.527 Y44.585 E51.26742
G1 X30.473 Y5.530 E52.71224
G1 X30.473 Y6.104 E52.72724
G1 X69.527 Y45.158 E54.17206
G1 X69.527 Y45.731 E54.18706
G1 X30.473 Y6.677 E55.63188
G1 X30.473 Y7.250 E55.64688
G1 X69.527 Y46.305 E57.09171
G1 X69.527 Y46.878 E57.10671
G1 X30.473 Y7.824 E58.55153
G1 X30.473 Y8.397 E58.56653
G1 X69.527 Y47.452 E60.01135
G1 X69.527 Y48.025 E60.02635
G1 X30.473 Y8.971 E61.47117
G1 X30.473 Y9.544 E61.48617
G1 X69.527 Y48.598 E62.93099
G1 X69.527 Y49.172 E62.94599
G1 X30.473 Y10.117 E64.39081
G1 X30.473 Y10.691 E64.40581
G1 X69.527 Y49.745 E65.85063
G1 X69.527 Y50.319 E65.86563
G1 X30.473 Y11.264 E67.31045
G1 X30.473 Y11.838 E67.32545
G1 X69.527 Y50.892 E68.77028
G1 X69.527 Y51.465 E68.78528
G1 X30.473 Y12.411 E70.23010
G1 X30.473 Y12.984 E70.24510
G1 X69.527 Y52.039 E71.68992
G1 X69.527 Y52.612 E71.70492
G1 X30.473 Y13.558 E73.14974
G1 X30.473 Y14.131 E73.16474
G1 X69.527 Y53.186 E74.60956
G1 X69.527 Y53.759 E74.62456
G1 X30.473 Y14.705 E76.06938
G1 X30.473 Y15.278 E76.08438
G1 X69.527 Y54.332 E77.52920
G1 X69.527 Y54.906 E77.54420
G1 X30.473 Y15.851 E78.98902
G1 X30.473 Y16.425 E79.00402
G1 X69.527 Y55.479 E80.44885
G1 X69.527 Y56.052 E80.46385
G1 X30.473 Y16.998 E81.90867
G1 X30.473 Y17.572 E81.92367
G1 X69.527 Y56.626 E83.36849
G1 X69.527 Y57.199 E83.38349
G1 X30.473 Y18.145 E84.82831
G1 X30.473 Y18.718 E84.84331
G1 X69.527 Y57.773 E86.28813
G1 X69.527 Y58.346 E86.30313
G1 X30.473 Y19.292 E87.74795
G1 X30.473 Y19.865 E87.76295
G1 X69.527 Y58.919 E89.20777
G1 X69.527 Y59.493 E89.22277
G1 X30.473 Y20.438 E90.66759
G1 X30.473 Y21.012 E90.68259
G1 X69.527 Y60.066 E92.12742
G1 X69.527 Y60.640 E92.14242
G1 X30.473 Y21.585 E93.58724
G1 X30.473 Y22.159 E93.60224
G1 X69.527 Y61.213 E95.04706
G1 X69.527 Y61.786 E95.06206
G1 X30.473 Y22.732 E96.50688
G1 X30.473 Y23.305 E96.52188
G1 X69.527 Y62.360 E97.96670
G1 X69.527 Y62.933 E97.98170
G1 X30.473 Y23.879 E99.42652
G1 X30.473 Y24.452 E99.44152
G1 X69.527 Y63.507 E100.88634
G1 X69.527 Y64.080 E100.90134
G1 X30.473 Y25.026 E102.34616
G1 X30.473 Y25.599 E102.36116
G1 X69.527 Y64.653 E103.80599
G1 X69.527 Y65.227 E103.82099
G1 X30.473 Y26.172 E105.26581
G1 X30.473 Y26.746 E105.28081
G1 X69.527 Y65.800 E106.72563
G1 X69.527 Y66.374 E106.74063
G1 X30.473 Y27.319 E108.18545
G1 X30.473 Y27.893 E108.20045
G1 X69.527 Y66.947 E109.64527
G1 X69.527 Y67.520 E109.66027
G1 X30.473 Y28.466 E111.10509
G1 X30.473 Y29.039 E111.12009
G1 X69.527 Y68.094 E112.56491
G1 X69.527 Y68.667 E112.57991
G1 X30.473 Y29.613 E114.02473
G1 X30.473 Y30.186 E114.03973
G1 X69.527 Y69.241 E115.48456
G1 X69.527 Y69.814 E115.49956
G1 X30.473 Y30.760 E116.94438
G1 X30.473 Y31.333 E116.95938
G1 X69.527 Y70.387 E118.40420
G1 X69.527 Y70.961 E118.41920
G1 X30.473 Y31.906 E119.86402
G1 X30.473 Y32.480 E119.87902
G1 X69.527 Y71.534 E121.32384
G1 X69.527 Y72.108 E121.33884
G1 X30.473 Y33.053 E122.78366
G1 X30.473 Y33.627 E122.79866
G1 X69.527 Y72.681 E124.24348
G1 X69.527 Y73.254 E124.25848
G1 X30.473 Y34.200 E125.70330
G1 X30.473 Y34.773 E125.71830
G1 X69.527 Y73.828 E127.16313
G1 X69.527 Y74.401 E127.17813
G1 X30.473 Y35.347 E128.62295
G1 X30.473 Y35.920 E128.63795
G1 X69.527 Y74.975 E130.08277
G1 X69.527 Y75.548 E130.09777
G1 X30.473 Y36.494 E131.54259
G1 X30.473 Y37.067 E131.55759
G1 X69.527 Y76.121 E133.00241
G1 X69.527 Y76.695 E133.01741
G1 X30.473 Y37.640 E134.46223
G1 X30.473 Y38.214 E134.47723
G1 X69.527 Y77.268 E135.92205
G1 X69.527 Y77.842 E135.93705
G1 X30.473 Y38.787 E137.38187
G1 X30.473 Y39.361 E137.39687
G1 X69.527 Y78.415 E138.84170
G1 X69.527 Y78.988 E138.85670
G1 X30.473 Y39.934 E140.30152
G1 X30.473 Y40.507 E140.31652
G1 X69.527 Y79.562 E141.76134
G1 X69.527 Y80.135 E141.77634
G1 X30.473 Y41.081 E143.22116
G1 X30.473 Y41.654 E143.23616
G1 X69.527 Y80.709 E144.68098
G1 X69.527 Y81.282 E144.69598
G1 X30.473 Y42.228 E146.14080
G1 X30.473 Y42.801 E146.15580
G1 X69.527 Y81.855 E147.60062
G1 X69.527 Y82.429 E147.61562
G1 X30.473 Y43.374 E149.06044
G1 X30.473 Y43.948 E149.07544
G1 X69.527 Y83.002 E150.52027
G1 X69.527 Y83.575 E150.53527
G1 X30.473 Y44.521 E151.98009
G1 X30.473 Y45.095 E151.99509
G1 X69.527 Y84.149 E153.43991
G1 X69.527 Y84.722 E153.45491
G1 X30.473 Y45.668 E154.89973
G1 X30.473 Y46.241 E154.91473
G1 X69.527 Y85.296 E156.35955
G1 X69.527 Y85.869 E156.37455
G1 X30.473 Y46.815 E157.81937
G1 X30.473 Y47.388 E157.83437
G1 X69.527 Y86.442 E159.27919
G1 X69.527 Y87.016 E159.29419
G1 X30.473 Y47.961 E160.73901
G1 X30.473 Y48.535 E160.75401
G1 X69.527 Y87.589 E162.19884
G1 X69.527 Y88.163 E162.21384
G1 X30.473 Y49.108 E163.65866
G1 X30.473 Y49.682 E163.67366
G1 X69.527 Y88.736 E165.11848
G1 X69.527 Y89.309 E165.13348
G1 X30.473 Y50.255 E166.57830
G1 X30.473 Y50.828 E166.59330
G1 X69.527 Y89.883 E168.03812
G1 X69.527 Y90.456 E168.05312
G1 X30.473 Y51.402 E169.49794
G1 X30.473 Y51.975 E169.51294
G1 X69.527 Y91.030 E170.95776
G1 X69.527 Y91.603 E170.97276
G1 X30.473 Y52.549 E172.41758
G1 X30.473 Y53.122 E172.43258
G1 X69.527 Y92.176 E173.87741
G1 X69.527 Y92.750 E173.89241
G1 X30.473 Y53.695 E175.33723
G1 X30.473 Y54.269 E175.35223
G1 X69.527 Y93.323 E176.79705
G1 X69.527 Y93.897 E176.81205
G1 X30.473 Y54.842 E178.25687
G1 X30.473 Y55.416 E178.27187
G1 X69.527 Y94.470 E179.71669
G1 X69.011 Y94.527 E179.73028
G1 X30.473 Y55.989 E181.15600
G1 X30.473 Y56.562 E181.17100
G1 X68.438 Y94.527 E182.57551
G1 X67.864 Y94.527 E182.59051
G1 X30.473 Y57.136 E183.97381
G1 X30.473 Y57.709 E183.98881
G1 X67.291 Y94.527 E185.35090
G1 X66.717 Y94.527 E185.36590
G1 X30.473 Y58.283 E186.70677
G1 X30.473 Y58.856 E186.72177
G1 X66.144 Y94.527 E188.04143
G1 X65.571 Y94.527 E188.05643
G1 X30.473 Y59.429 E189.35487
G1 X30.473 Y60.003 E189.36987
G1 X64.997 Y94.527 E190.64711
G1 X64.424 Y94.527 E190.66211
G1 X30.473 Y60.576 E191.91813
G1 X30.473 Y61.150 E191.93313
G1 X63.850 Y94.527 E193.16794
G1 X63.277 Y94.527 E193.18294
G1 X30.473 Y61.723 E194.39653
G1 X30.473 Y62.296 E194.41153
G1 X62.704 Y94.527 E195.60391
G1 X62.130 Y94.527 E195.61891
G1 X30.473 Y62.870 E196.79008
G1 X30.473 Y63.443 E196.80508
G1 X61.557 Y94.527 E197.95504
G1 X60.983 Y94.527 E197.97004
G1 X30.473 Y64.017 E199.09878
G1 X30.473 Y64.590 E199.11378
G1 X60.410 Y94.527 E200.22131
G1 X59.837 Y94.527 E200.23631
G1 X30.473 Y65.163 E201.32263
G1 X30.473 Y65.737 E201.33763
G1 X59.263 Y94.527 E202.40274
G1 X58.690 Y94.527 E202.41774
G1 X30.473 Y66.310 E203.46163
G1 X30.473 Y66.884 E203.47663
G1 X58.116 Y94.527 E204.49931
G1 X57.543 Y94.527 E204.51431
G1 X30.473 Y67.457 E205.51578
G1 X30.473 Y68.030 E205.53078
G1 X56.970 Y94.527 E206.51103
G1 X56.396 Y94.527 E206.52603
G1 X30.473 Y68.604 E207.48507
G1 X30.473 Y69.177 E207.50007
G1 X55.823 Y94.527 E208.43790
G1 X55.249 Y94.527 E208.45290
G1 X30.473 Y69.751 E209.36951
G1 X30.473 Y70.324 E209.38451
G1 X54.676 Y94.527 E210.27992
G1 X54.103 Y94.527 E210.29492
G1 X30.473 Y70.897 E211.16911
G1 X30.473 Y71.471 E211.18411
G1 X53.529 Y94.527 E212.03708
G1 X52.956 Y94.527 E212.05208
G1 X30.473 Y72.044 E212.88385
G1 X30.473 Y72.618 E212.89885
G1 X52.382 Y94.527 E213.70940
G1 X51.809 Y94.527 E213.72440
G1 X30.473 Y73.191 E214.51373
G1 X30.473 Y73.764 E214.52873
G1 X51.236 Y94.527 E215.29686
G1 X50.662 Y94.527 E215.31186
G1 X30.473 Y74.338 E216.05877
G1 X30.473 Y74.911 E216.07378
G1 X50.089 Y94.527 E216.79946
G1 X49.494 Y94.506 E216.81502
G1 X30.494 Y75.506 E217.51792
G1 X30.515 Y76.101 E217.53349
G1 X48.899 Y94.484 E218.21360
G1 X48.273 Y94.432 E218.23005
G1 X30.568 Y76.727 E218.88503
G1 X30.637 Y77.369 E218.90193
G1 X47.631 Y94.362 E219.53059
G1 X46.959 Y94.264 E219.54836
G1 X30.736 Y78.042 E220.14851
G1 X30.862 Y78.741 E220.16710
G1 X46.259 Y94.138 E220.73671
G1 X45.520 Y93.972 E220.75652
G1 X31.028 Y79.480 E221.29266
G1 X31.224 Y80.250 E221.31344
G1 X44.750 Y93.775 E221.81382
G1 X43.907 Y93.506 E221.83697
G1 X31.494 Y81.093 E222.29620
G1 X31.814 Y81.987 F12000.000
G1 X43.014 Y93.186 E222.71052 F1200.000
G1 X42.035 Y92.781 F12000.000
G1 X32.220 Y82.966 E223.07362 F1200.000
G1 X32.789 Y84.108 F12000.000
G1 X40.891 Y92.210 E223.37335 F1200.000
G1 X39.488 Y91.380 F12000.000
G1 X33.620 Y85.512 E223.59043 F1200.000
G1 X35.786 Y88.252 F12000.000
G1 X36.748 Y89.214 E223.62603 F1200.000
G1 X67.779 Y17.034 F12000.000
G1 X57.966 Y7.220 E223.98909 F1200.000
G1 X59.110 Y7.791 F12000.000
G1 X67.209 Y15.890 E224.28869 F1200.000
G1 X66.383 Y14.491 F12000.000
G1 X60.511 Y8.618 E224.50594 F1200.000
G1 X63.252 Y10.787 F12000.000
G1 X64.211 Y11.745 E224.54139 F1200.000
G1 E222.54139 F1680.00000
G92 E0
G1 Z0.450 F12000.000
G1 X29.519 Y79.025 F12000.000
G1 E2.00000 F1680.00000
G1 X28.975 Y80.111 E2.03161 F1200.000
G1 X29.988 Y80.033 E2.05806
G1 X29.339 Y81.328 E2.09577
G1 X30.324 Y81.307 E2.12141
G1 X29.732 Y82.489 E2.15582
G1 X30.749 Y82.404 E2.18238
G1 X30.455 Y82.992 E2.19948
M104 S188 ; set temperature
G1 E0.19948 F1680.00000
G92 E0
G1 Z0.750 F12000.000
G1 X30.250 Y33.769 F12000.000
G1 E2.00000 F1680.00000
G1 X30.250 Y5.250 E2.53437 F1440.000
G1 X49.996 Y5.250 E2.90435
G1 X51.388 Y5.300 E2.93045
G1 X52.811 Y5.451 E2.95727 F1440.000
G1 X54.198 Y5.702 E2.98369
