; generated by Slic3r 0.9.10b on 2013-11-15 at 15:13:33

; layer_height = 0.3
; perimeters = 1
; top_solid_layers = 2
; bottom_solid_layers = 2
; fill_density = 0.5
; perimeter_speed = 30
; infill_speed = 30
; travel_speed = 200
; nozzle_diameter = 0.5
; filament_diameter = 2.98
; extrusion_multiplier = 0.9
; perimeters extrusion width = 0.50mm
; infill extrusion width = 0.50mm
; solid infill extrusion width = 0.50mm
; top infill extrusion width = 0.50mm

G21 ; set units to millimeters
M107
M104 S190 ; set temperature
G28 ; home all axes
G1 Z15 F120 ; lift nozzle
M109 S190 ; wait for temperature to be reached
G90 ; use absolute coordinates
G92 E0
M82 ; use absolute distances for extrusion
G1 F1680.000 E-2.00000
G92 E0
G1 Z0.450 F12000.000
G1 X60.710 Y45.200
G1 F1680.000 E2.00000
G1 X61.070 Y44.740 F900.000 E2.01696
G1 X61.570 Y44.160 E2.03919
G1 X61.900 Y43.800 E2.05337
G1 X62.660 Y43.070 E2.08397
G1 X63.580 Y42.310 E2.11861
G1 X63.990 Y42.010 E2.13336
G1 X64.760 Y41.510 E2.16002
G1 X65.220 Y41.240 E2.17551
G1 X65.640 Y41.020 E2.18927
G1 X66.420 Y40.660 E2.21421
G1 X67.210 Y40.340 E2.23896
G1 X67.720 Y40.160 E2.25466
G1 X68.600 Y39.910 E2.28122
G1 X69.480 Y39.720 E2.30736
G1 X69.970 Y39.640 E2.32178
G1 X70.830 Y39.540 E2.34691
G1 X71.860 Y39.500 E2.37684
G1 X105.500 Y39.500 E3.35354
G1 X106.770 Y39.620 E3.39057
G1 X107.990 Y39.990 E3.42759
G1 X109.110 Y40.600 E3.46461
G1 X110.100 Y41.400 E3.50157
G1 X110.900 Y42.390 E3.53852
G1 X111.510 Y43.510 E3.57555
G1 X111.880 Y44.730 E3.61257
G1 X112.000 Y46.000 E3.64960
G1 X112.000 Y124.000 E5.91423
G1 X111.880 Y125.270 E5.95127
G1 X111.510 Y126.490 E5.98829
G1 X110.900 Y127.610 E6.02531
G1 X110.100 Y128.600 E6.06227
G1 X109.110 Y129.400 E6.09922
G1 X107.990 Y130.010 E6.13625
G1 X106.770 Y130.380 E6.17327
G1 X105.500 Y130.500 E6.21030
G1 X71.990 Y130.500 E7.18322
G1 X70.830 Y130.450 E7.21693
G1 X70.350 Y130.400 E7.23094
G1 X69.480 Y130.270 E7.25648
G1 X68.600 Y130.080 E7.28262
G1 X67.720 Y129.830 E7.30918
G1 X67.210 Y129.650 E7.32489
G1 X66.430 Y129.340 E7.34925
G1 X65.610 Y128.950 E7.37562
G1 X64.830 Y128.520 E7.40148
G1 X64.100 Y128.060 E7.42653
G1 X63.700 Y127.780 E7.44071
G1 X62.860 Y127.100 E7.47208
G1 X62.300 Y126.590 E7.49407
G1 X61.900 Y126.190 E7.51050
G1 X61.390 Y125.630 E7.53249
G1 X60.710 Y124.790 E7.56387
G1 X60.430 Y124.390 E7.57804
G1 X59.970 Y123.660 E7.60309
G1 X59.540 Y122.880 E7.62895
G1 X59.130 Y122.000 E7.65714
G1 X58.840 Y121.270 E7.67995
G1 X58.530 Y120.330 E7.70868
G1 X58.300 Y119.410 E7.73622
G1 X58.140 Y118.520 E7.76247
G1 X58.040 Y117.640 E7.78819
G1 X58.010 Y117.110 E7.80360
G1 X58.000 Y53.360 E9.65450
G1 X58.040 Y52.330 E9.68442
G1 X58.140 Y51.470 E9.70956
G1 X58.220 Y50.980 E9.72398
G1 X58.410 Y50.100 E9.75012
G1 X58.660 Y49.220 E9.77668
G1 X58.840 Y48.710 E9.79238
G1 X59.150 Y47.930 E9.81675
G1 X59.510 Y47.160 E9.84143
G1 X59.730 Y46.740 E9.85519
G1 X59.990 Y46.300 E9.87003
G1 X60.430 Y45.600 E9.89404
G1 X60.667 Y45.261 E9.90603
G1 F1680.000 E7.90603
G92 E0
G1 X99.018 Y51.233 F12000.000
G1 F1680.000 E2.00000
G1 X99.071 Y50.971 F900.000 E2.00776
G1 X99.215 Y50.598 E2.01938
G1 X99.358 Y50.358 E2.02750
G1 X99.610 Y50.062 E2.03876
G1 X99.924 Y49.814 E2.05039
G1 X100.158 Y49.686 E2.05814
G1 X100.407 Y49.590 E2.06590
G1 X100.800 Y49.510 E2.07753
G1 X101.200 Y49.510 E2.08915
G1 X101.464 Y49.554 E2.09691
G1 X101.730 Y49.638 E2.10503
G1 X102.076 Y49.814 E2.11629
G1 X102.301 Y49.981 E2.12441
G1 X102.570 Y50.260 E2.13567
G1 X102.721 Y50.481 E2.14343
G1 X102.889 Y50.844 E2.15506
G1 X102.960 Y51.102 E2.16282
G1 X103.000 Y51.496 E2.17432
G1 X103.000 Y57.004 E2.33425
G1 X102.982 Y57.267 E2.34189
G1 X102.929 Y57.528 E2.34964
G1 X102.841 Y57.781 E2.35740
G1 X102.721 Y58.019 E2.36516
G1 X102.570 Y58.240 E2.37291
G1 X102.390 Y58.438 E2.38067
G1 X102.186 Y58.610 E2.38843
G1 X101.961 Y58.754 E2.39619
G1 X101.719 Y58.866 E2.40394
G1 X101.333 Y58.972 E2.41557
G1 X100.933 Y58.999 E2.42719
G1 X100.536 Y58.946 E2.43882
G1 X100.158 Y58.814 E2.45044
G1 X99.814 Y58.610 E2.46207
G1 X99.517 Y58.342 E2.47369
G1 X99.279 Y58.019 E2.48532
G1 X99.111 Y57.656 E2.49695
G1 X99.040 Y57.398 E2.50471
G1 X99.000 Y57.004 E2.51621
G1 X99.010 Y51.308 E2.68159
G1 X72.000 Y51.496 F12000.000
G1 X72.000 Y57.004 F900.000 E2.84152
G1 X71.960 Y57.398 E2.85303
G1 X71.889 Y57.656 E2.86078
G1 X71.721 Y58.019 E2.87241
G1 X71.483 Y58.342 E2.88403
G1 X71.186 Y58.610 E2.89566
G1 X70.842 Y58.814 E2.90728
G1 X70.464 Y58.946 E2.91891
G1 X70.067 Y58.999 E2.93053
G1 X69.667 Y58.972 E2.94216
G1 X69.281 Y58.866 E2.95379
G1 X69.039 Y58.754 E2.96154
G1 X68.814 Y58.610 E2.96930
G1 X68.610 Y58.438 E2.97706
G1 X68.430 Y58.240 E2.98481
G1 X68.279 Y58.019 E2.99257
G1 X68.159 Y57.781 E3.00033
G1 X68.071 Y57.528 E3.00809
G1 X68.018 Y57.267 E3.01585
G1 X68.000 Y57.004 E3.02348
G1 X68.000 Y51.496 E3.18341
G1 X68.040 Y51.102 E3.19491
G1 X68.111 Y50.844 E3.20267
G1 X68.215 Y50.598 E3.21043
G1 X68.430 Y50.260 E3.22205
G1 X68.610 Y50.062 E3.22981
G1 X68.924 Y49.814 E3.24144
G1 X69.281 Y49.634 E3.25306
G1 X69.548 Y49.552 E3.26118
G1 X69.933 Y49.501 E3.27244
G1 X70.333 Y49.528 E3.28407
G1 X70.593 Y49.590 E3.29183
G1 X70.961 Y49.746 E3.30345
G1 X71.196 Y49.897 E3.31157
G1 X71.483 Y50.158 E3.32284
G1 X71.649 Y50.368 E3.33059
G1 X71.841 Y50.719 E3.34222
G1 X71.960 Y51.102 E3.35384
G1 X71.997 Y51.421 E3.36318
G1 F1680.000 E1.36318
G92 E0
G1 X70.067 Y80.501 F12000.000
G1 F1680.000 E2.00000
G1 X70.333 Y80.528 F900.000 E2.00776
G1 X70.719 Y80.634 E2.01938
G1 X70.961 Y80.746 E2.02714
G1 X71.187 Y80.890 E2.03490
G1 X71.483 Y81.158 E2.04652
G1 X71.649 Y81.368 E2.05428
G1 X71.841 Y81.719 E2.06591
G1 X71.929 Y81.972 E2.07366
G1 X71.982 Y82.233 E2.08142
G1 X72.000 Y82.496 E2.08906
G1 X72.000 Y88.004 E2.24899
G1 X71.960 Y88.398 E2.26049
G1 X71.841 Y88.781 E2.27212
G1 X71.649 Y89.132 E2.28374
G1 X71.390 Y89.438 E2.29537
G1 X71.076 Y89.686 E2.30699
G1 X70.719 Y89.867 E2.31862
G1 X70.333 Y89.972 E2.33024
G1 X69.933 Y89.999 E2.34187
G1 X69.536 Y89.946 E2.35349
G1 X69.281 Y89.866 E2.36125
G1 X69.039 Y89.754 E2.36901
G1 X68.814 Y89.610 E2.37677
G1 X68.609 Y89.438 E2.38452
G1 X68.351 Y89.132 E2.39615
G1 X68.210 Y88.891 E2.40427
G1 X68.071 Y88.528 E2.41553
G1 X68.018 Y88.267 E2.42329
G1 X68.000 Y88.004 E2.43092
G1 X68.000 Y82.496 E2.59085
G1 X68.040 Y82.102 E2.60236
G1 X68.159 Y81.719 E2.61398
G1 X68.351 Y81.368 E2.62561
G1 X68.610 Y81.062 E2.63724
G1 X68.924 Y80.814 E2.64886
G1 X69.281 Y80.634 E2.66048
G1 X69.667 Y80.528 E2.67211
G1 X69.992 Y80.501 E2.68156
G1 F1680.000 E0.68156
G92 E0
G1 X71.858 Y112.752 F12000.000
G1 F1680.000 E2.00000
G1 X72.160 Y112.753 F900.000 E2.00876
G1 X72.707 Y112.809 E2.02473
G1 X72.985 Y112.866 E2.03298
G1 X73.528 Y113.034 E2.04946
G1 X73.981 Y113.242 E2.06395
G1 X74.287 Y113.418 E2.07419
G1 X74.757 Y113.766 E2.09118
G1 X75.152 Y114.149 E2.10715
G1 X75.336 Y114.366 E2.11540
G1 X75.657 Y114.834 E2.13188
G1 X75.793 Y115.083 E2.14013
G1 X76.015 Y115.606 E2.15662
G1 X76.099 Y115.877 E2.16486
G1 X76.212 Y116.434 E2.18135
G1 X76.241 Y116.716 E2.18959
G1 X76.241 Y117.284 E2.20608
G1 X76.212 Y117.566 E2.21432
G1 X76.099 Y118.123 E2.23081
G1 X76.015 Y118.394 E2.23906
G1 X75.793 Y118.917 E2.25554
G1 X75.657 Y119.166 E2.26379
G1 X75.335 Y119.634 E2.28027
G1 X75.152 Y119.851 E2.28852
G1 X74.744 Y120.246 E2.30500
G1 X74.521 Y120.422 E2.31325
G1 X74.043 Y120.727 E2.32973
G1 X73.789 Y120.855 E2.33798
G1 X73.528 Y120.966 E2.34623
G1 X72.985 Y121.134 E2.36271
G1 X72.425 Y121.229 E2.37919
G1 X72.142 Y121.248 E2.38744
G1 X71.858 Y121.248 E2.39569
G1 X71.293 Y121.191 E2.41217
G1 X71.015 Y121.134 E2.42042
G1 X70.472 Y120.966 E2.43690
G1 X69.957 Y120.727 E2.45339
G1 X69.713 Y120.582 E2.46163
G1 X69.243 Y120.234 E2.47862
G1 X68.848 Y119.851 E2.49460
G1 X68.664 Y119.634 E2.50285
G1 X68.343 Y119.166 E2.51933
G1 X68.207 Y118.917 E2.52758
G1 X67.985 Y118.394 E2.54406
G1 X67.901 Y118.123 E2.55231
G1 X67.835 Y117.847 E2.56055
G1 X67.759 Y117.284 E2.57704
G1 X67.750 Y116.982 E2.58579
G1 X67.788 Y116.433 E2.60177
G1 X67.901 Y115.877 E2.61825
G1 X67.985 Y115.606 E2.62650
G1 X68.207 Y115.083 E2.64298
G1 X68.343 Y114.834 E2.65123
G1 X68.665 Y114.366 E2.66771
G1 X68.848 Y114.149 E2.67596
G1 X69.058 Y113.933 E2.68472
G1 X69.479 Y113.578 E2.70069
G1 X69.713 Y113.418 E2.70894
G1 X70.211 Y113.145 E2.72542
G1 X70.472 Y113.034 E2.73367
G1 X71.015 Y112.866 E2.75015
G1 X71.293 Y112.809 E2.75840
G1 X71.783 Y112.757 E2.77270
G1 F1680.000 E0.77270
G92 E0
G1 X64.750 Y116.496 F12000.000
G1 F1680.000 E2.00000
G1 X64.750 Y53.504 F720.000 E3.82889
G1 X64.766 Y53.026 E3.84278
G1 X64.812 Y52.554 E3.85655
G1 X64.889 Y52.086 E3.87033
G1 X64.997 Y51.624 E3.88410
G1 X65.135 Y51.170 E3.89788
G1 X65.302 Y50.726 E3.91165
G1 X65.498 Y50.293 E3.92542
G1 X65.721 Y49.875 E3.93920
G1 X65.972 Y49.472 E3.95297
G1 X66.248 Y49.087 E3.96675
G1 X66.549 Y48.720 E3.98052
G1 X66.874 Y48.374 E3.99429
G1 X67.220 Y48.049 E4.00807
G1 X67.587 Y47.748 E4.02184
G1 X67.972 Y47.472 E4.03562
G1 X68.261 Y47.292 E4.04550
G1 X68.793 Y46.998 E4.06316
G1 X69.226 Y46.802 E4.07693
G1 X69.670 Y46.635 E4.09071
G1 X70.124 Y46.497 E4.10448
G1 X70.586 Y46.389 E4.11826
G1 X71.054 Y46.312 E4.13203
G1 X71.526 Y46.266 E4.14580
G1 X72.004 Y46.250 E4.15970
G1 X105.250 Y46.250 E5.12495
G1 X105.250 Y64.359 E5.65073
G1 X105.118 Y64.383 E5.65464
G1 X104.813 Y63.622 E5.67845
G1 X104.532 Y63.135 E5.69476
G1 X104.189 Y62.690 E5.71108
G1 X103.790 Y62.294 E5.72740
G1 X103.343 Y61.954 E5.74372
G1 X103.103 Y61.807 E5.75188
G1 X102.613 Y61.569 E5.76769
G1 X102.064 Y61.385 E5.78451
G1 X101.512 Y61.281 E5.80083
G1 X100.951 Y61.250 E5.81714
G1 X100.670 Y61.263 E5.82531
G1 X100.131 Y61.340 E5.84112
G1 X99.573 Y61.497 E5.85794
G1 X99.057 Y61.720 E5.87426
G1 X98.811 Y61.857 E5.88242
G1 X98.364 Y62.167 E5.89823
G1 X97.935 Y62.556 E5.91505
G1 X97.573 Y62.986 E5.93137
G1 X97.192 Y63.595 E5.95222
G1 X97.087 Y63.309 E5.96106
G1 X96.762 Y62.576 E5.98433
G1 X96.392 Y61.866 E6.00759
G1 X95.976 Y61.181 E6.03086
G1 X95.518 Y60.524 E6.05412
G1 X95.018 Y59.897 E6.07739
G1 X94.455 Y59.280 E6.10165
G1 X93.904 Y58.746 E6.12391
G1 X93.294 Y58.227 E6.14718
G1 X92.652 Y57.748 E6.17044
G1 X91.980 Y57.311 E6.19371
G1 X91.282 Y56.917 E6.21697
G1 X90.560 Y56.570 E6.24024
G1 X89.817 Y56.269 E6.26350
G1 X89.057 Y56.017 E6.28677
G1 X88.282 Y55.813 E6.31003
G1 X87.495 Y55.660 E6.33329
G1 X86.700 Y55.558 E6.35656
G1 X85.901 Y55.506 E6.37982
G1 X85.099 Y55.506 E6.40309
G1 X84.335 Y55.555 E6.42533
G1 X83.505 Y55.660 E6.44962
G1 X82.718 Y55.813 E6.47288
G1 X81.943 Y56.017 E6.49615
G1 X81.183 Y56.269 E6.51941
G1 X80.440 Y56.570 E6.54267
G1 X79.718 Y56.917 E6.56594
G1 X79.020 Y57.311 E6.58920
G1 X78.348 Y57.748 E6.61247
G1 X77.706 Y58.227 E6.63573
G1 X77.099 Y58.744 E6.65890
G1 X76.515 Y59.309 E6.68248
G1 X75.980 Y59.900 E6.70562
G1 X75.482 Y60.523 E6.72879
G1 X75.024 Y61.181 E6.75206
G1 X74.608 Y61.866 E6.77532
G1 X74.238 Y62.576 E6.79858
G1 X73.913 Y63.309 E6.82185
G1 X73.637 Y64.061 E6.84511
G1 X73.409 Y64.829 E6.86838
G1 X73.230 Y65.611 E6.89164
G1 X73.102 Y66.402 E6.91491
G1 X73.026 Y67.199 E6.93817
G1 X73.000 Y67.996 E6.96132
G1 X73.000 Y68.980 E6.98988
G1 X72.459 Y68.533 E7.01025
G1 X71.979 Y68.239 E7.02660
G1 X71.464 Y68.010 E7.04295
G1 X70.924 Y67.852 E7.05930
G1 X70.368 Y67.766 E7.07565
G1 X70.086 Y67.751 E7.08383
G1 X69.541 Y67.775 E7.09967
G1 X68.970 Y67.877 E7.11652
G1 X68.433 Y68.049 E7.13287
G1 X67.925 Y68.291 E7.14922
G1 X67.684 Y68.436 E7.15740
G1 X67.247 Y68.763 E7.17324
G1 X66.831 Y69.168 E7.19010
G1 X66.484 Y69.612 E7.20645
G1 X66.199 Y70.098 E7.22280
G1 X65.987 Y70.601 E7.23864
G1 X65.898 Y70.886 E7.24732
G1 X65.787 Y71.438 E7.26367
G1 X65.750 Y72.000 E7.28002
G1 X65.787 Y72.562 E7.29637
G1 X65.834 Y72.840 E7.30455
G1 X65.976 Y73.366 E7.32039
G1 X66.199 Y73.902 E7.33725
G1 X66.484 Y74.388 E7.35360
G1 X66.831 Y74.832 E7.36995
G1 X67.025 Y75.036 E7.37812
G1 X67.439 Y75.391 E7.39397
G1 X67.925 Y75.709 E7.41082
G1 X68.433 Y75.951 E7.42717
G1 X68.970 Y76.123 E7.44352
G1 X69.524 Y76.223 E7.45987
G1 X70.069 Y76.249 E7.47571
G1 X70.368 Y76.234 E7.48440
G1 X70.924 Y76.148 E7.50075
G1 X71.464 Y75.990 E7.51710
G1 X71.979 Y75.761 E7.53345
G1 X72.459 Y75.467 E7.54979
G1 X73.000 Y75.020 E7.57016
G1 X73.000 Y78.504 E7.67131
G1 X73.025 Y79.292 E7.69421
G1 X73.100 Y80.079 E7.71716
G1 X73.226 Y80.864 E7.74025
G1 X73.400 Y81.638 E7.76326
G1 X73.623 Y82.399 E7.78628
G1 X73.894 Y83.144 E7.80930
G1 X74.212 Y83.870 E7.83232
G1 X74.575 Y84.575 E7.85534
G1 X74.982 Y85.255 E7.87836
G1 X75.432 Y85.908 E7.90137
G1 X75.922 Y86.532 E7.92439
G1 X76.450 Y87.123 E7.94741
G1 X77.015 Y87.679 E7.97043
G1 X77.614 Y88.198 E7.99345
G1 X78.244 Y88.679 E8.01646
G1 X78.904 Y89.118 E8.03948
G1 X79.591 Y89.515 E8.06250
G1 X80.133 Y89.784 E8.08009
G1 X80.057 Y90.359 E8.09693
G1 X80.006 Y91.125 E8.11922
G1 X80.007 Y91.893 E8.14150
G1 X80.058 Y92.658 E8.16378
G1 X80.161 Y93.419 E8.18606
G1 X80.314 Y94.171 E8.20835
G1 X80.517 Y94.911 E8.23063
G1 X80.769 Y95.636 E8.25291
G1 X81.069 Y96.343 E8.27519
G1 X81.415 Y97.027 E8.29747
G1 X81.806 Y97.688 E8.31976
G1 X82.241 Y98.321 E8.34204
G1 X82.716 Y98.923 E8.36432
G1 X83.231 Y99.492 E8.38660
G1 X83.782 Y100.026 E8.40889
G1 X84.368 Y100.522 E8.43117
G1 X84.986 Y100.977 E8.45345
G1 X85.633 Y101.391 E8.47573
G1 X86.305 Y101.760 E8.49801
G1 X87.001 Y102.084 E8.52030
G1 X87.717 Y102.360 E8.54258
G1 X88.450 Y102.588 E8.56486
G1 X89.196 Y102.767 E8.58714
G1 X89.953 Y102.896 E8.60943
G1 X90.716 Y102.973 E8.63171
G1 X91.483 Y103.000 E8.65399
G1 X92.250 Y102.976 E8.67627
G1 X93.014 Y102.900 E8.69856
G1 X93.771 Y102.774 E8.72084
G1 X94.518 Y102.597 E8.74312
G1 X95.251 Y102.371 E8.76540
G1 X95.968 Y102.097 E8.78769
G1 X96.665 Y101.775 E8.80997
G1 X97.339 Y101.408 E8.83225
G1 X97.987 Y100.996 E8.85453
G1 X98.606 Y100.542 E8.87681
G1 X99.193 Y100.048 E8.89910
G1 X99.746 Y99.516 E8.92138
G1 X100.262 Y98.948 E8.94366
G1 X100.739 Y98.347 E8.96594
G1 X101.176 Y97.716 E8.98823
G1 X101.569 Y97.057 E9.01051
G1 X101.904 Y96.398 E9.03195
G1 X102.219 Y95.667 E9.05507
G1 X102.473 Y94.943 E9.07735
G1 X102.678 Y94.203 E9.09964
G1 X102.833 Y93.452 E9.12192
G1 X102.938 Y92.692 E9.14420
G1 X102.990 Y91.955 E9.16565
G1 X102.995 Y91.159 E9.18876
G1 X102.947 Y90.393 E9.21104
G1 X102.847 Y89.632 E9.23333
G1 X102.697 Y88.879 E9.25561
G1 X102.498 Y88.138 E9.27789
G1 X102.249 Y87.412 E9.30017
G1 X101.952 Y86.704 E9.32246
G1 X101.609 Y86.018 E9.34474
G1 X101.221 Y85.356 E9.36702
G1 X100.790 Y84.721 E9.38930
G1 X100.317 Y84.116 E9.41159
G1 X99.805 Y83.545 E9.43387
G1 X99.256 Y83.009 E9.45615
G1 X98.672 Y82.510 E9.47843
G1 X98.056 Y82.052 E9.50072
G1 X97.570 Y81.738 E9.51754
G1 X97.694 Y81.248 E9.53222
G1 X97.828 Y80.568 E9.55232
G1 X97.923 Y79.882 E9.57243
G1 X97.981 Y79.192 E9.59253
G1 X98.000 Y78.503 E9.61254
G1 X98.000 Y68.520 E9.90240
G1 X98.313 Y68.793 E9.91447
G1 X98.771 Y69.119 E9.93079
G1 X99.268 Y69.381 E9.94711
G1 X99.796 Y69.576 E9.96342
G1 X100.344 Y69.699 E9.97974
G1 X100.904 Y69.749 E9.99606
G1 X101.465 Y69.725 E10.01237
G1 X102.019 Y69.626 E10.02869
G1 X102.554 Y69.456 E10.04501
G1 X103.062 Y69.216 E10.06133
G1 X103.535 Y68.912 E10.07764
G1 X103.963 Y68.547 E10.09396
G1 X104.339 Y68.130 E10.11028
G1 X104.657 Y67.666 E10.12659
G1 X104.911 Y67.165 E10.14291
G1 X105.121 Y66.621 E10.15983
G1 X105.250 Y66.646 E10.16364
G1 X105.250 Y116.355 E11.60690
G1 X105.120 Y116.380 E11.61073
G1 X104.913 Y115.841 E11.62750
G1 X104.793 Y115.583 E11.63574
G1 X104.657 Y115.334 E11.64399
G1 X104.336 Y114.866 E11.66047
G1 X103.955 Y114.445 E11.67696
G1 X103.744 Y114.254 E11.68520
G1 X103.287 Y113.918 E11.70169
G1 X102.789 Y113.645 E11.71817
G1 X102.528 Y113.534 E11.72642
G1 X102.259 Y113.441 E11.73466
G1 X101.724 Y113.313 E11.75064
G1 X101.142 Y113.252 E11.76763
G1 X100.858 Y113.252 E11.77588
G1 X100.293 Y113.309 E11.79236
G1 X99.758 Y113.436 E11.80834
G1 X99.472 Y113.534 E11.81709
G1 X99.211 Y113.645 E11.82534
G1 X98.713 Y113.918 E11.84182
G1 X98.479 Y114.078 E11.85007
G1 X98.058 Y114.433 E11.86604
G1 X97.664 Y114.866 E11.88303
G1 X97.496 Y115.095 E11.89128
G1 X97.215 Y115.568 E11.90725
G1 X96.985 Y116.106 E11.92425
G1 X96.835 Y116.653 E11.94073
