; generated by Slic3r 1.2.9 on 2016-09-18 at 19:45:46

; external perimeters extrusion width = 0.50mm
; perimeters extrusion width = 0.50mm
; infill extrusion width = 0.50mm
; solid infill extrusion width = 0.50mm
; top infill extrusion width = 0.50mm

M104 S190 ; set temperature
G28 ; home all axes
G1 Z15 F120 ; lift nozzle
M109 S190 ; wait for temperature to be reached
G21 ; set units to millimeters
G90 ; use absolute coordinates
M82 ; use absolute distances for extrusion
G92 E0
M106 S255
G1 E-2.00000 F1680.00000
G92 E0
G1 Z0.400 F12000.000
G1 X82.121 Y76.231 F12000.000
G1 E2.00000 F1680.00000
G1 X83.866 Y74.800 E2.06758 F600.000
G1 X87.000 Y73.982 E2.16457
G1 X93.000 Y73.982 E2.34424
G1 X95.222 Y74.379 E2.41182
G1 X97.169 Y75.521 E2.47941 F600.000
G1 X98.600 Y77.266 E2.54699
G1 X99.418 Y80.400 E2.64398
G1 X99.418 Y99.600 E3.21891
G1 X99.021 Y101.822 E3.28649
G1 X97.879 Y103.769 E3.35408
G1 X96.134 Y105.200 E3.42166
G1 X93.000 Y106.018 E3.51865
G1 X87.000 Y106.018 E3.69832
G1 X84.778 Y105.621 E3.76590
G1 X82.831 Y104.479 E3.83349
G1 X81.400 Y102.734 E3.90107
G1 X80.582 Y99.600 E3.99806
G1 X80.582 Y80.400 E4.57299
G1 X80.979 Y78.178 E4.64057
G1 X82.083 Y76.296 E4.70591
G1 E2.70591 F1680.00000
G92 E0
G1 X92.750 Y90.571 F12000.000
G1 E2.00000 F1680.00000
G1 X92.750 Y99.350 E2.24715 F600.000
G1 X87.250 Y99.350 E2.40199 F600.000
G1 X87.250 Y80.650 E2.92843
G1 X92.750 Y80.650 E3.08327
G1 X92.750 Y90.496 E3.36044
G1 X92.520 Y81.087 F12000.000
G1 X92.313 Y80.880 E3.36870 F1066.358
G1 X91.755 Y80.880 E3.38447
G1 X92.520 Y81.645 E3.41502
G1 X92.520 Y82.202 E3.43079
G1 X91.198 Y80.880 E3.48364
G1 X90.640 Y80.880 E3.49940
G1 X92.520 Y82.760 E3.57455
G1 X92.520 Y83.318 E3.59031
G1 X90.082 Y80.880 E3.68776
G1 X89.525 Y80.880 E3.70352
G1 X92.520 Y83.875 E3.82326
G1 X92.520 Y84.433 E3.83903
G1 X88.967 Y80.880 E3.98106
G1 X88.409 Y80.880 E3.99682
G1 X92.520 Y84.991 E4.16115
G1 X92.520 Y85.549 E4.17692
G1 X87.851 Y80.880 E4.36354
G1 X87.480 Y81.067 E4.37528
G1 X92.520 Y86.106 E4.57674
G1 X92.520 Y86.664 E4.59251
G1 X87.480 Y81.625 E4.79396
G1 X87.480 Y82.183 E4.80973
G1 X92.520 Y87.222 E5.01119
G1 X92.520 Y87.779 E5.02695
G1 X87.480 Y82.740 E5.22841
G1 X87.480 Y83.298 E5.24418
G1 X92.520 Y88.337 E5.44563
G1 X92.520 Y88.895 E5.46140
G1 X87.480 Y83.856 E5.66285
G1 X87.480 Y84.413 E5.67862
G1 X92.520 Y89.452 E5.88008
G1 X92.520 Y90.010 E5.89584
G1 X87.480 Y84.971 E6.09730
G1 X87.480 Y85.529 E6.11307
G1 X92.520 Y90.568 E6.31452
G1 X92.520 Y91.125 E6.33029
G1 X87.480 Y86.086 E6.53175
G1 X87.480 Y86.644 E6.54751
G1 X92.520 Y91.683 E6.74897
G1 X92.520 Y92.241 E6.76473
G1 X87.480 Y87.202 E6.96619
G1 X87.480 Y87.759 E6.98196
G1 X92.520 Y92.798 E7.18341
G1 X92.520 Y93.356 E7.19918
G1 X87.480 Y88.317 E7.40064
G1 X87.480 Y88.875 E7.41640
G1 X92.520 Y93.914 E7.61786
G1 X92.520 Y94.471 E7.63362
G1 X87.480 Y89.432 E7.83508
G1 X87.480 Y89.990 E7.85085
G1 X92.520 Y95.029 E8.05230
G1 X92.520 Y95.587 E8.06807
G1 X87.480 Y90.548 E8.26953
G1 X87.480 Y91.105 E8.28529
G1 X92.520 Y96.144 E8.48675
G1 X92.520 Y96.702 E8.50251
G1 X87.480 Y91.663 E8.70397
G1 X87.480 Y92.221 E8.71974
G1 X92.520 Y97.260 E8.92119
G1 X92.520 Y97.817 E8.93696
G1 X87.480 Y92.778 E9.13842
G1 X87.480 Y93.336 E9.15418
G1 X92.520 Y98.375 E9.35564
G1 X92.520 Y98.933 E9.37140
G1 X87.480 Y93.894 E9.57286
G1 X87.480 Y94.451 E9.58863
G1 X92.149 Y99.120 E9.77525
G1 X91.591 Y99.120 E9.79102
G1 X87.480 Y95.009 E9.95535
G1 X87.480 Y95.567 E9.97111
G1 X91.033 Y99.120 E10.11314
G1 X90.475 Y99.120 E10.12891
G1 X87.480 Y96.125 E10.24865
G1 X87.480 Y96.682 E10.26441
G1 X89.918 Y99.120 E10.36186
G1 X89.360 Y99.120 E10.37762
G1 X87.480 Y97.240 E10.45277
G1 X87.480 Y97.798 E10.46853
G1 X88.802 Y99.120 E10.52138
G1 X88.245 Y99.120 E10.53715
G1 X87.480 Y98.355 E10.56770
G1 X87.480 Y98.913 E10.58347
G1 X87.687 Y99.120 E10.59173
M104 S188 ; set temperature
G1 E8.59173 F1680.00000
G92 E0
G1 Z0.700 F12000.000
G1 X92.750 Y88.803 F12000.000
G1 E2.00000 F1680.00000
G1 X92.750 Y99.350 E2.19762 F600.000
G1 X87.250 Y99.350 E2.30067 F600.000
G1 X87.250 Y80.650 E2.65106
G1 X92.750 Y80.650 E2.75412
G1 X92.750 Y88.728 E2.90548
G1 E0.90548 F1680.00000
G92 E0
G1 X87.733 Y80.908 F12000.000
G1 E2.00000 F1680.00000
G1 X87.508 Y81.133 E2.00610 F600.000
G1 X87.508 Y81.764 E2.01822
G1 X88.364 Y80.908 E2.04145
G1 X88.995 Y80.908 E2.05356
G1 X87.508 Y82.395 E2.09392
G1 X87.508 Y83.026 E2.10604
G1 X89.626 Y80.908 E2.16353
G1 X90.257 Y80.908 E2.17564
G1 X87.508 Y83.657 E2.25027
G1 X87.508 Y84.288 E2.26238
G1 X90.888 Y80.908 E2.35414
G1 X91.519 Y80.908 E2.36625
G1 X87.508 Y84.919 E2.47513
G1 X87.508 Y85.550 E2.48725
G1 X92.150 Y80.908 E2.61326
G1 X92.492 Y81.197 E2.62186
G1 X87.508 Y86.181 E2.75716
G1 X87.508 Y86.812 E2.76927
G1 X92.492 Y81.828 E2.90457
G1 X92.492 Y82.459 E2.91668
G1 X87.508 Y87.443 E3.05198
G1 X87.508 Y88.075 E3.06409
G1 X92.492 Y83.090 E3.19939
G1 X92.492 Y83.721 E3.21150
G1 X87.508 Y88.706 E3.34680
G1 X87.508 Y89.337 E3.35891
G1 X92.492 Y84.352 E3.49421
G1 X92.492 Y84.984 E3.50632
G1 X87.508 Y89.968 E3.64162
G1 X87.508 Y90.599 E3.65373
G1 X92.492 Y85.615 E3.78903
G1 X92.492 Y86.246 E3.80114
G1 X87.508 Y91.230 E3.93644
G1 X87.508 Y91.861 E3.94856
G1 X92.492 Y86.877 E4.08385
G1 X92.492 Y87.508 E4.09597
G1 X87.508 Y92.492 E4.23126
G1 X87.508 Y93.123 E4.24338
G1 X92.492 Y88.139 E4.37867
G1 X92.492 Y88.770 E4.39079
G1 X87.508 Y93.754 E4.52609
G1 X87.508 Y94.385 E4.53820
G1 X92.492 Y89.401 E4.67350
G1 X92.492 Y90.032 E4.68561
G1 X87.508 Y95.016 E4.82091
G1 X87.508 Y95.648 E4.83302
G1 X92.492 Y90.663 E4.96832
G1 X92.492 Y91.294 E4.98043
G1 X87.508 Y96.279 E5.11573
G1 X87.508 Y96.910 E5.12784
G1 X92.492 Y91.925 E5.26314
G1 X92.492 Y92.557 E5.27525
G1 X87.508 Y97.541 E5.41055
G1 X87.508 Y98.172 E5.42266
G1 X92.492 Y93.188 E5.55796
G1 X92.492 Y93.819 E5.57007
G1 X87.508 Y98.803 E5.70537
G1 X87.850 Y99.092 E5.71397
G1 X92.492 Y94.450 E5.83998
G1 X92.492 Y95.081 E5.85210
G1 X88.481 Y99.092 E5.96098
G1 X89.112 Y99.092 E5.97310
G1 X92.492 Y95.712 E6.06485
G1 X92.492 Y96.343 E6.07696
G1 X89.743 Y99.092 E6.15159
G1 X90.374 Y99.092 E6.16370
G1 X92.492 Y96.974 E6.22120
G1 X92.492 Y97.605 E6.23331
G1 X91.005 Y99.092 E6.27367
G1 X91.636 Y99.092 E6.28579
G1 X92.492 Y98.236 E6.30902
G1 X92.492 Y98.867 E6.32113
G1 X92.267 Y99.092 E6.32724
G1 E4.32724 F1680.00000
G92 E0
M107
M104 S0 ; turn off temperature
M140 S0; turn off bed temperature
G28 X0  ; home X axis
M84     ; disable motors
; filament used = 16.5mm (0.1cm3)

; avoid_crossing_perimeters = 0
; bed_shape = 0x0,180x0,180x180,0x180
; bed_temperature = 0
; before_layer_gcode = 
; bridge_acceleration = 0
; bridge_fan_speed = 100
; brim_width = 0
; complete_objects = 0
; cooling = 1
; default_acceleration = 0
; disable_fan_first_layers = 0
; duplicate_distance = 6
; end_gcode = M104 S0 ; turn off temperature\nM140 S0; turn off bed temperature\nG28 X0  ; home X axis\nM84     ; disable motors
; extruder_clearance_height = 20
; extruder_clearance_radius = 20
; extruder_offset = 0x0
; extrusion_axis = E
; extrusion_multiplier = 1
; fan_always_on = 1
; fan_below_layer_time = 60
; filament_colour = #FFFFFF
; filament_diameter = 2.98
; first_layer_acceleration = 0
; first_layer_bed_temperature = 0
; first_layer_extrusion_width = 0
; first_layer_speed = 50%
; first_layer_temperature = 190
; gcode_arcs = 0
; gcode_comments = 0
; gcode_flavor = reprap
; infill_acceleration = 0
; infill_first = 0
; layer_gcode = 
; max_fan_speed = 100
; max_print_speed = 80
; max_volumetric_speed = 0
; min_fan_speed = 40
; min_print_speed = 10
; min_skirt_length = 0
; notes = 
; nozzle_diameter = 0.5
; only_retract_when_crossing_perimeters = 1
; ooze_prevention = 0
; output_filename_format = [input_filename_base]-slic3r.gcode
; perimeter_acceleration = 0
; post_process = 
; pressure_advance = 0
; resolution = 0
; retract_before_travel = 2
; retract_layer_change = 1
; retract_length = 2
; retract_length_toolchange = 10
; retract_lift = 0
; retract_restart_extra = 0
; retract_restart_extra_toolchange = 0
; retract_speed = 28
; skirt_distance = 6
; skirt_height = 1
; skirts = 1
; slowdown_below_layer_time = 30
; spiral_vase = 0
; standby_temperature_delta = -5
; start_gcode = G28 ; home all axes\nG1 Z15 F120 ; lift nozzle
; temperature = 188
; threads = 2
; toolchange_gcode = 
; travel_speed = 200
; use_firmware_retraction = 0
; use_relative_e_distances = 0
; use_volumetric_e = 0
; vibration_limit = 0
; wipe = 0
; z_offset = -0.1
; dont_support_bridges = 1
; extrusion_width = 0.5
; first_layer_height = 0.5
; infill_only_where_needed = 0
; interface_shells = 0
; layer_height = 0.3
; raft_layers = 0
; seam_position = random
; support_material = 0
; support_material_angle = 0
; support_material_contact_distance = 0.2
; support_material_enforce_layers = 0
; support_material_extruder = 1
; support_material_extrusion_width = 0
; support_material_interface_extruder = 1
; support_material_interface_layers = 0
; support_material_interface_spacing = 0
; support_material_interface_speed = 100%
; support_material_pattern = rectilinear
; support_material_spacing = 2.5
; support_material_speed = 40
; support_material_threshold = 0
; xy_size_compensation = 0
; bottom_solid_layers = 2
; bridge_flow_ratio = 1
; bridge_speed = 40
; external_fill_pattern = rectilinear
; external_perimeter_extrusion_width = 0
; external_perimeter_speed = 80%
; external_perimeters_first = 0
; extra_perimeters = 0
; fill_angle = 45
; fill_density = 20%
; fill_pattern = honeycomb
; gap_fill_speed = 20
; infill_every_layers = 1
; infill_extruder = 1
; infill_extrusion_width = 0
; infill_overlap = 15%
; infill_speed = 80
; overhangs = 1
; perimeter_extruder = 1
; perimeter_extrusion_width = 0
; perimeter_speed = 50
; perimeters = 1
; small_perimeter_speed = 50
; solid_infill_below_area = 50
; solid_infill_every_layers = 0
; solid_infill_extruder = 1
; solid_infill_extrusion_width = 0
; solid_infill_speed = 80
; thin_walls = 1
; top_infill_extrusion_width = 0
; top_solid_infill_speed = 50
; top_solid_layers = 2
