; generated by Slic3r 1.2.9 on 2016-09-18 at 19:49:00

; external perimeters extrusion width = 0.50mm
; perimeters extrusion width = 0.50mm
; infill extrusion width = 0.50mm
; solid infill extrusion width = 0.50mm
; top infill extrusion width = 0.50mm

M104 S190 ; set temperature
G28 ; home all axes
G1 Z15 F120 ; lift nozzle
M109 S190 ; wait for temperature to be reached
G21 ; set units to millimeters
G90 ; use absolute coordinates
M82 ; use absolute distances for extrusion
G92 E0
M106 S102
G1 E-2.00000 F1680.00000
G92 E0
G1 Z0.400 F12000.000
G1 X23.081 Y23.081 F12000.000
G1 E2.00000 F1680.00000
G1 X24.408 Y21.754 E2.05621 F1200.000
G1 X26.033 Y20.573 E2.11634
G1 X29.378 Y18.869 E2.22876
G1 X31.288 Y18.248 E2.28889
G1 X34.996 Y17.661 E2.40132
G1 X36.000 Y17.582 E2.43147
G1 X144.000 Y17.582 E5.66543
G1 X145.004 Y17.661 E5.69558
G1 X148.712 Y18.248 E5.80799 F1200.000
G1 X150.621 Y18.869 E5.86811
G1 X153.967 Y20.573 E5.98054
G1 X155.592 Y21.754 E6.04070
G1 X158.246 Y24.409 E6.15311
G1 X159.426 Y26.032 E6.21321
G1 X161.131 Y29.378 E6.32563
G1 X161.751 Y31.288 E6.38577
G1 X162.339 Y34.996 E6.49821
G1 X162.418 Y36.000 E6.52836
G1 X162.418 Y144.000 E9.76232
G1 X162.339 Y145.004 E9.79247
G1 X161.752 Y148.712 E9.90488
G1 X161.131 Y150.621 E9.96500
G1 X159.427 Y153.967 E10.07743
G1 X158.246 Y155.592 E10.13757
G1 X155.589 Y158.249 E10.25010
G1 X153.968 Y159.426 E10.31010
G1 X150.622 Y161.131 E10.42252
G1 X148.712 Y161.752 E10.48267
G1 X145.004 Y162.339 E10.59510
G1 X144.000 Y162.418 E10.62525
G1 X36.000 Y162.418 E13.85921
G1 X34.996 Y162.339 E13.88936
G1 X31.288 Y161.752 E14.00179
G1 X29.378 Y161.131 E14.06191
G1 X26.033 Y159.427 E14.17433
G1 X24.408 Y158.246 E14.23446
G1 X21.754 Y155.592 E14.34689
G1 X20.573 Y153.967 E14.40701
G1 X18.869 Y150.622 E14.51944
G1 X18.248 Y148.712 E14.57956
G1 X17.661 Y145.002 E14.69204
G1 X17.582 Y144.000 E14.72214
G1 X17.582 Y36.000 E17.95610
G1 X17.661 Y34.996 E17.98625
G1 X18.248 Y31.288 E18.09868
G1 X18.869 Y29.378 E18.15881
G1 X20.573 Y26.033 E18.27123
G1 X21.754 Y24.408 E18.33136
G1 X23.028 Y23.134 E18.38532
G1 E16.38532 F1680.00000
G92 E0
G1 X65.750 Y65.750 F12000.000
G1 E2.00000 F1680.00000
G1 X114.250 Y65.750 E3.36537 F1200.000
G1 X114.250 Y114.250 E4.73073
G1 X65.750 Y114.250 E6.09610
G1 X65.750 Y65.825 E7.45935
G1 X24.250 Y96.755 F12000.000
G1 X24.250 Y36.020 E9.16917 F1200.000
G1 X24.828 Y32.370 E9.27320
G1 X26.496 Y29.095 E9.37667
G1 X29.095 Y26.496 E9.48013
G1 X32.370 Y24.828 E9.58360
G1 X36.020 Y24.250 E9.68763
G1 X144.020 Y24.256 E12.72805
G1 X147.630 Y24.828 E12.83093 F1200.000
G1 X150.905 Y26.496 E12.93440
G1 X153.503 Y29.095 E13.03786
G1 X155.172 Y32.370 E13.14133
G1 X155.750 Y36.020 E13.24536
G1 X155.750 Y143.980 E16.28465
G1 X155.172 Y147.630 E16.38867
G1 X153.504 Y150.905 E16.49215
G1 X150.905 Y153.503 E16.59561
G1 X147.630 Y155.172 E16.69907
G1 X143.980 Y155.750 E16.80310
G1 X36.020 Y155.750 E19.84240
G1 X32.370 Y155.172 E19.94643
G1 X29.095 Y153.504 E20.04989
G1 X26.496 Y150.905 E20.15336
G1 X24.828 Y147.630 E20.25682
G1 X24.250 Y143.980 E20.36085
G1 X24.250 Y96.830 E21.68822
G1 X65.520 Y114.427 F12000.000
G1 X24.480 Y73.388 E23.32330 F2400.000
G1 X24.480 Y72.832 E23.33896
G1 X65.520 Y113.871 E24.97404
G1 X65.520 Y113.316 E24.98970
G1 X24.480 Y72.277 E26.62478
G1 X24.480 Y71.721 E26.64044
G1 X65.520 Y112.760 E28.27552
G1 X65.520 Y112.204 E28.29118
G1 X24.480 Y71.165 E29.92626
G1 X24.480 Y70.609 E29.94192
G1 X65.520 Y111.648 E31.57700
G1 X65.520 Y111.093 E31.59266
G1 X24.480 Y70.054 E33.22774
G1 X24.480 Y69.498 E33.24340
G1 X65.520 Y110.537 E34.87848
G1 X65.520 Y109.981 E34.89414
G1 X24.480 Y68.942 E36.52922
G1 X24.480 Y68.386 E36.54488
G1 X65.520 Y109.425 E38.17996
G1 X65.520 Y108.870 E38.19562
G1 X24.480 Y67.830 E39.83070
G1 X24.480 Y67.275 E39.84636
G1 X65.520 Y108.314 E41.48144
G1 X65.520 Y107.758 E41.49710
G1 X24.480 Y66.719 E43.13218
G1 X24.480 Y66.163 E43.14784
G1 X65.520 Y107.202 E44.78292
G1 X65.520 Y106.646 E44.79858
G1 X24.480 Y65.607 E46.43366
G1 X24.480 Y65.052 E46.44932
G1 X65.520 Y106.091 E48.08440
G1 X65.520 Y105.535 E48.10006
G1 X24.480 Y64.496 E49.73514
G1 X24.480 Y63.940 E49.75080
G1 X65.520 Y104.979 E51.38588
G1 X65.520 Y104.423 E51.40154
G1 X24.480 Y63.384 E53.03662
G1 X24.480 Y62.829 E53.05228
G1 X65.520 Y103.868 E54.68736
G1 X65.520 Y103.312 E54.70302
G1 X24.480 Y62.273 E56.33810
G1 X24.480 Y61.717 E56.35376
G1 X65.520 Y102.756 E57.98884
G1 X65.520 Y102.200 E58.00450
G1 X24.480 Y61.161 E59.63958
G1 X24.480 Y60.605 E59.65524
G1 X65.520 Y101.645 E61.29032
G1 X65.520 Y101.089 E61.30598
G1 X24.480 Y60.050 E62.94106
G1 X24.480 Y59.494 E62.95672
G1 X65.520 Y100.533 E64.59180
G1 X65.520 Y99.977 E64.60746
G1 X24.480 Y58.938 E66.24254
G1 X24.480 Y58.382 E66.25820
G1 X65.520 Y99.421 E67.89328
G1 X65.520 Y98.866 E67.90894
G1 X24.480 Y57.827 E69.54402
G1 X24.480 Y57.271 E69.55968
G1 X65.520 Y98.310 E71.19476
G1 X65.520 Y97.754 E71.21042
G1 X24.480 Y56.715 E72.84550
G1 X24.480 Y56.159 E72.86116
G1 X65.520 Y97.198 E74.49624
G1 X65.520 Y96.643 E74.51190
G1 X24.480 Y55.604 E76.14698
G1 X24.480 Y55.048 E76.16264
G1 X65.520 Y96.087 E77.79772
G1 X65.520 Y95.531 E77.81338
G1 X24.480 Y54.492 E79.44846
G1 X24.480 Y53.936 E79.46412
G1 X65.520 Y94.975 E81.09920
G1 X65.520 Y94.420 E81.11486
G1 X24.480 Y53.380 E82.74994
G1 X24.480 Y52.825 E82.76560
G1 X65.520 Y93.864 E84.40068
G1 X65.520 Y93.308 E84.41634
G1 X24.480 Y52.269 E86.05142
G1 X24.480 Y51.713 E86.06708
G1 X65.520 Y92.752 E87.70216
G1 X65.520 Y92.196 E87.71782
G1 X24.480 Y51.157 E89.35290
G1 X24.480 Y50.602 E89.36856
G1 X65.520 Y91.641 E91.00364
G1 X65.520 Y91.085 E91.01930
G1 X24.480 Y50.046 E92.65438
G1 X24.480 Y49.490 E92.67004
G1 X65.520 Y90.529 E94.30512
G1 X65.520 Y89.973 E94.32078
G1 X24.480 Y48.934 E95.95586
G1 X24.480 Y48.379 E95.97152
G1 X65.520 Y89.418 E97.60660
G1 X65.520 Y88.862 E97.62226
G1 X24.480 Y47.823 E99.25734
G1 X24.480 Y47.267 E99.27300
G1 X65.520 Y88.306 E100.90808
G1 X65.520 Y87.750 E100.92374
G1 X24.480 Y46.711 E102.55882
G1 X24.480 Y46.155 E102.57448
G1 X65.520 Y87.195 E104.20956
G1 X65.520 Y86.639 E104.22522
G1 X24.480 Y45.600 E105.86030
G1 X24.480 Y45.044 E105.87596
G1 X65.520 Y86.083 E107.51104
G1 X65.520 Y85.527 E107.52670
G1 X24.480 Y44.488 E109.16178
G1 X24.480 Y43.932 E109.17744
G1 X65.520 Y84.971 E110.81252
G1 X65.520 Y84.416 E110.82818
G1 X24.480 Y43.377 E112.46326
G1 X24.480 Y42.821 E112.47892
G1 X65.520 Y83.860 E114.11400
G1 X65.520 Y83.304 E114.12966
G1 X24.480 Y42.265 E115.76474
G1 X24.480 Y41.709 E115.78040
G1 X65.520 Y82.748 E117.41548
G1 X65.520 Y82.193 E117.43114
G1 X24.480 Y41.154 E119.06622
G1 X24.480 Y40.598 E119.08188
G1 X65.520 Y81.637 E120.71696
G1 X65.520 Y81.081 E120.73262
G1 X24.480 Y40.042 E122.36770
G1 X24.480 Y39.486 E122.38336
G1 X65.520 Y80.525 E124.01844
G1 X65.520 Y79.970 E124.03410
G1 X24.480 Y38.930 E125.66918
G1 X24.480 Y38.375 E125.68484
G1 X65.520 Y79.414 E127.31992
G1 X65.520 Y78.858 E127.33558
G1 X24.480 Y37.819 E128.97066
G1 X24.480 Y37.263 E128.98632
G1 X65.520 Y78.302 E130.62140
G1 X65.520 Y77.747 E130.63706
G1 X24.480 Y36.707 E132.27214
G1 X24.480 Y36.152 E132.28780
G1 X65.520 Y77.191 E133.92288
G1 X65.520 Y76.635 E133.93854
G1 X24.530 Y35.646 E135.57164
G1 X24.606 Y35.166 E135.58532
G1 X65.520 Y76.079 E137.21539
G1 X65.520 Y75.523 E137.23105
G1 X24.682 Y34.686 E138.85809
G1 X24.758 Y34.206 E138.87177
G1 X65.520 Y74.968 E140.49578
G1 X65.520 Y74.412 E140.51144
G1 X24.834 Y33.727 E142.13243
G1 X24.910 Y33.247 E142.14611
G1 X65.520 Y73.856 E143.76407
G1 X65.520 Y73.300 E143.77973
G1 X24.986 Y32.767 E145.39466
G1 X25.085 Y32.310 E145.40784
G1 X65.520 Y72.745 E147.01884
G1 X65.520 Y72.189 E147.03450
G1 X25.272 Y31.942 E148.63803
G1 X25.460 Y31.574 E148.64967
G1 X65.520 Y71.633 E150.24572
G1 X65.520 Y71.077 E150.26138
G1 X25.648 Y31.205 E151.84996
G1 X25.835 Y30.837 E151.86160
G1 X65.520 Y70.522 E153.44271
G1 X65.520 Y69.966 E153.45836
G1 X26.023 Y30.469 E155.03200
G1 X26.210 Y30.101 E155.04364
G1 X65.520 Y69.410 E156.60980
G1 X65.520 Y68.854 E156.62545
G1 X26.398 Y29.733 E158.18414
G1 X26.586 Y29.364 E158.19578
G1 X65.520 Y68.298 E159.74699
G1 X65.520 Y67.743 E159.76265
G1 X26.837 Y29.060 E161.30384
G1 X27.115 Y28.782 E161.31492
G1 X65.520 Y67.187 E162.84504
G1 X65.520 Y66.631 E162.86070
G1 X27.393 Y28.504 E164.37975
G1 X27.671 Y28.226 E164.39082
G1 X65.520 Y66.075 E165.89880
G1 X65.520 Y65.520 E165.91446
G1 X27.948 Y27.948 E167.41137
G1 X28.226 Y27.671 E167.42244
G1 X66.075 Y65.520 E168.93042
G1 X66.631 Y65.520 E168.94608
G1 X28.504 Y27.393 E170.46513
G1 X28.782 Y27.115 E170.47621
G1 X67.187 Y65.520 E172.00633
G1 X67.743 Y65.520 E172.02199
G1 X29.060 Y26.837 E173.56318
G1 X29.364 Y26.586 E173.57430
G1 X68.298 Y65.520 E175.12551
G1 X68.854 Y65.520 E175.14117
G1 X29.733 Y26.398 E176.69985
G1 X30.101 Y26.210 E176.71149
G1 X69.410 Y65.520 E178.27765
G1 X69.966 Y65.520 E178.29331
G1 X30.469 Y26.023 E179.86694
G1 X30.837 Y25.835 E179.87858
G1 X70.521 Y65.520 E181.45969
G1 X71.077 Y65.520 E181.47535
G1 X31.205 Y25.648 E183.06393
G1 X31.573 Y25.460 E183.07557
G1 X71.633 Y65.520 E184.67162
G1 X72.189 Y65.520 E184.68728
G1 X31.942 Y25.272 E186.29080
G1 X32.310 Y25.085 E186.30245
G1 X72.745 Y65.520 E187.91345
G1 X73.300 Y65.520 E187.92911
G1 X32.767 Y24.986 E189.54404
G1 X33.247 Y24.910 E189.55772
G1 X73.856 Y65.520 E191.17568
G1 X74.412 Y65.520 E191.19134
G1 X33.727 Y24.834 E192.81233
G1 X34.206 Y24.758 E192.82601
G1 X74.968 Y65.520 E194.45002
G1 X75.523 Y65.520 E194.46568
G1 X34.686 Y24.682 E196.09272
G1 X35.166 Y24.606 E196.10641
G1 X76.079 Y65.520 E197.73647
G1 X76.635 Y65.520 E197.75213
G1 X35.646 Y24.530 E199.38522
G1 X36.152 Y24.480 E199.39954
G1 X77.191 Y65.520 E201.03463
G1 X77.746 Y65.520 E201.05028
G1 X36.707 Y24.480 E202.68536
G1 X37.263 Y24.481 E202.70102
G1 X78.302 Y65.520 E204.33610
G1 X78.858 Y65.520 E204.35176
G1 X37.819 Y24.481 E205.98684
G1 X38.375 Y24.481 E206.00250
G1 X79.414 Y65.520 E207.63757
G1 X79.970 Y65.520 E207.65323
G1 X38.931 Y24.481 E209.28831
G1 X39.486 Y24.481 E209.30396
G1 X80.525 Y65.520 E210.93904
G1 X81.081 Y65.520 E210.95470
G1 X40.042 Y24.481 E212.58977
G1 X40.598 Y24.481 E212.60543
G1 X81.637 Y65.520 E214.24050
G1 X82.193 Y65.520 E214.25616
G1 X41.154 Y24.481 E215.89123
G1 X41.710 Y24.481 E215.90689
G1 X82.748 Y65.520 E217.54196
G1 X83.304 Y65.520 E217.55761
G1 X42.265 Y24.481 E219.19268
G1 X42.821 Y24.481 E219.20834
G1 X83.860 Y65.520 E220.84341
G1 X84.416 Y65.520 E220.85906
G1 X43.377 Y24.481 E222.49413
G1 X43.933 Y24.481 E222.50979
G1 X84.971 Y65.520 E224.14485
G1 X85.527 Y65.520 E224.16051
G1 X44.489 Y24.481 E225.79557
G1 X45.044 Y24.481 E225.81123
G1 X86.083 Y65.520 E227.44629
G1 X86.639 Y65.520 E227.46195
G1 X45.600 Y24.481 E229.09701
G1 X46.156 Y24.481 E229.11267
G1 X87.195 Y65.520 E230.74773
G1 X87.750 Y65.520 E230.76338
G1 X46.712 Y24.481 E232.39844
G1 X47.268 Y24.481 E232.41410
G1 X88.306 Y65.520 E234.04916
G1 X88.862 Y65.520 E234.06481
G1 X47.823 Y24.481 E235.69987
G1 X48.379 Y24.481 E235.71553
G1 X89.418 Y65.520 E237.35058
G1 X89.973 Y65.520 E237.36624
G1 X48.935 Y24.481 E239.00129
G1 X49.491 Y24.481 E239.01695
G1 X90.529 Y65.520 E240.65200
G1 X91.085 Y65.520 E240.66766
G1 X50.047 Y24.481 E242.30271
G1 X50.602 Y24.481 E242.31836
G1 X91.641 Y65.520 E243.95341
G1 X92.196 Y65.520 E243.96907
G1 X51.158 Y24.481 E245.60412
G1 X51.714 Y24.481 E245.61978
G1 X92.752 Y65.520 E247.25482
G1 X93.308 Y65.520 E247.27048
G1 X52.270 Y24.481 E248.90552
G1 X52.826 Y24.481 E248.92118
G1 X93.864 Y65.520 E250.55623
G1 X94.420 Y65.520 E250.57188
G1 X53.381 Y24.481 E252.20692
G1 X53.937 Y24.482 E252.22258
G1 X94.975 Y65.520 E253.85762
G1 X95.531 Y65.520 E253.87328
G1 X54.493 Y24.482 E255.50832
G1 X55.049 Y24.482 E255.52398
G1 X96.087 Y65.520 E257.15902
G1 X96.643 Y65.520 E257.17467
G1 X55.605 Y24.482 E258.80971
G1 X56.160 Y24.482 E258.82537
G1 X97.198 Y65.520 E260.46041
G1 X97.754 Y65.520 E260.47606
G1 X56.716 Y24.482 E262.11110
G1 X57.272 Y24.482 E262.12676
G1 X98.310 Y65.520 E263.76179
G1 X98.866 Y65.520 E263.77745
G1 X57.828 Y24.482 E265.41248
G1 X58.384 Y24.482 E265.42814
G1 X99.421 Y65.520 E267.06317
G1 X99.977 Y65.520 E267.07882
G1 X58.939 Y24.482 E268.71385
G1 X59.495 Y24.482 E268.72951
G1 X100.533 Y65.520 E270.36454
G1 X101.089 Y65.520 E270.38020
G1 X60.051 Y24.482 E272.01522
G1 X60.607 Y24.482 E272.03088
G1 X101.644 Y65.520 E273.66591
G1 X102.200 Y65.520 E273.68156
G1 X61.163 Y24.482 E275.31659
G1 X61.718 Y24.482 E275.33225
G1 X102.756 Y65.520 E276.96727
G1 X103.312 Y65.520 E276.98293
G1 X62.274 Y24.482 E278.61795
G1 X62.830 Y24.482 E278.63361
G1 X103.868 Y65.520 E280.26863
G1 X104.423 Y65.520 E280.28428
G1 X63.386 Y24.482 E281.91930
G1 X63.942 Y24.482 E281.93496
G1 X104.979 Y65.520 E283.56998
G1 X105.535 Y65.520 E283.58563
G1 X64.497 Y24.482 E285.22065
G1 X65.053 Y24.482 E285.23631
G1 X106.091 Y65.520 E286.87132
G1 X106.646 Y65.520 E286.88698
G1 X65.609 Y24.482 E288.52199
G1 X66.165 Y24.482 E288.53765
G1 X107.202 Y65.520 E290.17267
G1 X107.758 Y65.520 E290.18832
G1 X66.721 Y24.482 E291.82333
G1 X67.276 Y24.482 E291.83899
G1 X108.314 Y65.520 E293.47400
G1 X108.869 Y65.520 E293.48966
G1 X67.832 Y24.482 E295.12467
G1 X68.388 Y24.482 E295.14033
G1 X109.425 Y65.520 E296.77533
G1 X109.981 Y65.520 E296.79099
G1 X68.944 Y24.482 E298.42600
G1 X69.500 Y24.482 E298.44165
G1 X110.537 Y65.520 E300.07666
G1 X111.093 Y65.520 E300.09232
G1 X70.055 Y24.482 E301.72732
G1 X70.611 Y24.482 E301.74298
G1 X111.648 Y65.520 E303.37798
G1 X112.204 Y65.520 E303.39364
G1 X71.167 Y24.483 E305.02864
G1 X71.723 Y24.483 E305.04430
G1 X112.760 Y65.520 E306.67929
G1 X113.316 Y65.520 E306.69495
G1 X72.279 Y24.483 E308.32995
G1 X72.834 Y24.483 E308.34561
G1 X113.871 Y65.520 E309.98060
G1 X147.291 Y25.022 F12000.000
G1 X154.978 Y32.709 E310.28688 F2400.000
G1 X155.083 Y33.369 E310.30572
G1 X146.631 Y24.917 E310.64247
G1 X145.970 Y24.813 E310.66131
G1 X155.187 Y34.030 E311.02853
G1 X155.292 Y34.690 E311.04737
G1 X145.310 Y24.708 E311.44507
G1 X144.650 Y24.604 E311.46391
G1 X155.396 Y35.350 E311.89208
G1 X155.501 Y36.011 E311.91092
G1 X143.989 Y24.499 E312.36957
G1 X143.421 Y24.487 E312.38558
G1 X155.520 Y36.585 E312.86760
G1 X155.520 Y37.141 E312.88326
G1 X142.865 Y24.487 E313.38742
G1 X142.310 Y24.487 E313.40308
G1 X155.520 Y37.697 E313.92939
G1 X155.520 Y38.252 E313.94505
G1 X141.754 Y24.487 E314.49350
G1 X141.198 Y24.487 E314.50916
G1 X155.520 Y38.808 E315.07976
G1 X155.520 Y39.364 E315.09541
G1 X140.642 Y24.487 E315.68816
G1 X140.086 Y24.487 E315.70381
G1 X155.520 Y39.920 E316.31870
G1 X155.520 Y40.475 E316.33436
G1 X139.531 Y24.487 E316.97139
G1 X138.975 Y24.486 E316.98705
G1 X155.520 Y41.031 E317.64622
G1 X155.520 Y41.587 E317.66188
G1 X138.419 Y24.486 E318.34320
G1 X137.863 Y24.486 E318.35886
G1 X155.520 Y42.143 E319.06232
G1 X155.520 Y42.698 E319.07798
G1 X137.307 Y24.486 E319.80359
G1 X136.752 Y24.486 E319.81925
G1 X155.520 Y43.254 E320.56700
G1 X155.520 Y43.810 E320.58266
G1 X136.196 Y24.486 E321.35255
G1 X135.640 Y24.486 E321.36821
G1 X155.520 Y44.366 E322.16025
G1 X155.520 Y44.922 E322.17591
G1 X135.084 Y24.486 E322.99009
G1 X134.528 Y24.486 E323.00575
G1 X155.520 Y45.477 E323.84208
G1 X155.520 Y46.033 E323.85774
G1 X133.973 Y24.486 E324.71621
G1 X133.417 Y24.486 E324.73187
G1 X155.520 Y46.589 E325.61249
G1 X155.520 Y47.145 E325.62815
G1 X132.861 Y24.486 E326.53091
G1 X132.305 Y24.486 E326.54657
G1 X155.520 Y47.700 E327.47147
G1 X155.520 Y48.256 E327.48713
G1 X131.749 Y24.486 E328.43418
G1 X131.194 Y24.486 E328.44984
G1 X155.520 Y48.812 E329.41903
G1 X155.520 Y49.368 E329.43469
G1 X130.638 Y24.486 E330.42603
G1 X130.082 Y24.486 E330.44169
G1 X155.520 Y49.923 E331.45517
G1 X155.520 Y50.479 E331.47083
G1 X129.526 Y24.486 E332.50646
G1 X128.970 Y24.486 E332.52212
G1 X155.520 Y51.035 E333.57989
G1 X155.520 Y51.591 E333.59555
G1 X128.415 Y24.486 E334.67546
G1 X127.859 Y24.486 E334.69112
G1 X155.520 Y52.147 E335.79318
G1 X155.520 Y52.702 E335.80884
G1 X127.303 Y24.486 E336.93304
G1 X126.747 Y24.486 E336.94870
G1 X155.520 Y53.258 E338.09505
G1 X155.520 Y53.814 E338.11071
G1 X126.191 Y24.486 E339.27920
G1 X125.636 Y24.486 E339.29486
