; generated by Slic3r 1.1.7 on 2014-12-03 at 19:02:15

; perimeters extrusion width = 0.50mm
; infill extrusion width = 0.50mm
; solid infill extrusion width = 0.50mm
; top infill extrusion width = 0.50mm

G21 ; set units to millimeters
M104 S190 ; set temperature
G28 ; home all axes
G1 Z15 F120 ; lift nozzle
M109 S190 ; wait for temperature to be reached
G90 ; use absolute coordinates
G92 E0
M82 ; use absolute distances for extrusion
M106 S102
G1 F1680.000 E-2.00000
G92 E0
G1 Z0.200 F12000.000
G1 X34.046 Y34.046 F12000.000
G1 E2.00000 F1680.000
G1 X34.696 Y33.396 E2.01976 F1200.000
G1 X35.008 Y33.162 E2.02815
G1 X36.483 Y32.332 E2.06456
G1 X36.885 Y32.170 E2.07388
G1 X38.195 Y31.798 E2.10317
G1 X38.394 Y31.763 E2.10751
G1 X41.134 Y31.874 E2.16648
G1 X46.191 Y33.180 E2.27881 F1200.000
G1 X49.017 Y34.738 E2.34821
G1 X70.417 Y54.860 E2.97995
G1 X117.086 Y101.533 E4.39943
G1 X139.091 Y124.811 E5.08834
G1 X140.339 Y126.709 E5.13719
G1 X140.858 Y128.921 E5.18604
G1 X140.584 Y131.176 E5.23490
G1 X138.964 Y133.872 E5.30256
G1 X133.872 Y138.964 E5.45741
G1 X132.010 Y140.264 E5.50626
G1 X129.814 Y140.845 E5.55511
G1 X127.552 Y140.635 E5.60397
G1 X124.773 Y139.055 E5.67271
G1 X92.408 Y107.964 E6.63792
G1 X54.721 Y70.273 E7.78422
G1 X34.738 Y49.017 E8.41165
G1 X33.180 Y46.191 E8.48105
G1 X31.874 Y41.134 E8.59338
G1 X31.763 Y38.394 E8.65235
G1 X31.799 Y38.185 E8.65691
G1 X32.170 Y36.885 E8.68598
G1 X32.332 Y36.482 E8.69533
G1 X33.162 Y35.008 E8.73171
G1 X33.396 Y34.696 E8.74009
G1 X33.993 Y34.099 E8.75826
G1 F1680.000 E6.75826
G92 E0
G1 X110.665 Y106.635 F12000.000
G1 E2.00000 F1680.000
G1 X133.307 Y129.276 E2.68864 F900.000
G1 X129.276 Y133.307 E2.81122
G1 X97.640 Y101.671 E3.77342
G1 X97.004 Y102.307 E3.79278
G1 X95.943 Y101.247 E3.82504
G1 X96.580 Y100.610 E3.84439
G1 X92.889 Y96.919 E3.95666
G1 X92.252 Y97.555 E3.97601
G1 X91.191 Y96.495 E4.00827
G1 X91.828 Y95.858 E4.02763
G1 X70.148 Y74.178 E4.68702
G1 X69.512 Y74.815 E4.70637
G1 X67.390 Y72.694 E4.77089
G1 X68.027 Y72.057 E4.79025
G1 X64.336 Y68.366 E4.90251
G1 X63.699 Y69.002 E4.92187
G1 X60.517 Y65.820 E5.01865
G1 X61.154 Y65.184 E5.03800
G1 X40.534 Y44.565 E5.66513
G1 X42.410 Y42.690 E5.72216
G1 X44.565 Y40.534 E5.78772
G1 X65.184 Y61.154 E6.41485
G1 X65.820 Y60.517 E6.43420
G1 X69.002 Y63.699 E6.53098
G1 X68.366 Y64.336 E6.55034
G1 X72.057 Y68.027 E6.66260
G1 X72.694 Y67.390 E6.68196
G1 X75.876 Y70.572 E6.77873
G1 X75.239 Y71.209 E6.79809
G1 X78.930 Y74.900 E6.91035
G1 X79.567 Y74.263 E6.92971
G1 X83.809 Y78.506 E7.05875
G1 X83.173 Y79.142 E7.07810
G1 X85.803 Y81.773 E7.15811
G1 X86.440 Y81.136 E7.17746
G1 X90.682 Y85.379 E7.30650
G1 X90.046 Y86.015 E7.32586
G1 X92.676 Y88.646 E7.40586
G1 X93.313 Y88.009 E7.42522
G1 X97.555 Y92.252 E7.55426
G1 X96.919 Y92.889 E7.57361
G1 X99.549 Y95.519 E7.65362
G1 X100.186 Y94.883 E7.67297
G1 X103.368 Y98.065 E7.76975
G1 X102.731 Y98.701 E7.78911
G1 X105.831 Y101.800 E7.88337
G1 X106.423 Y102.392 E7.90137
G1 X107.059 Y101.756 E7.92073
G1 X111.302 Y105.998 E8.04977
G1 X110.718 Y106.582 E8.06751
G1 X111.372 Y106.635 F12000.000
G1 X134.014 Y129.276 E8.75615 F720.000
G1 X129.276 Y134.014 E8.90024
G1 X97.640 Y102.378 E9.86244
G1 X97.004 Y103.014 E9.88179
G1 X95.236 Y101.247 E9.93556
G1 X95.873 Y100.610 E9.95492
G1 X92.889 Y97.626 E10.04567
G1 X92.252 Y98.263 E10.06503
G1 X90.484 Y96.495 E10.11879
G1 X91.121 Y95.858 E10.13815
G1 X70.148 Y74.886 E10.77603
G1 X69.512 Y75.522 E10.79539
G1 X66.683 Y72.694 E10.88141
G1 X67.320 Y72.057 E10.90077
G1 X64.336 Y69.073 E10.99153
G1 X63.699 Y69.710 E11.01088
G1 X59.810 Y65.820 E11.12917
G1 X60.446 Y65.184 E11.14852
G1 X39.827 Y44.565 E11.77565
G1 X41.702 Y42.690 E11.83269
G1 X38.428 Y39.415 E11.93227
G1 X38.582 Y39.031 E11.94117
G1 X38.775 Y38.775 E11.94807
G1 X39.031 Y38.582 E11.95497
G1 X39.415 Y38.428 E11.96387
G1 X42.690 Y41.702 E12.06345
G1 X44.565 Y39.827 E12.12049
G1 X65.184 Y60.446 E12.74761
G1 X65.820 Y59.810 E12.76697
G1 X69.710 Y63.699 E12.88526
G1 X69.073 Y64.336 E12.90461
G1 X72.057 Y67.320 E12.99537
G1 X72.694 Y66.683 E13.01473
G1 X76.583 Y70.572 E13.13301
G1 X75.946 Y71.209 E13.15237
G1 X78.930 Y74.193 E13.24312
G1 X79.567 Y73.556 E13.26248
G1 X84.516 Y78.506 E13.41302
G1 X83.880 Y79.142 E13.43238
G1 X85.803 Y81.066 E13.49088
G1 X86.440 Y80.429 E13.51023
G1 X91.389 Y85.379 E13.66078
G1 X90.753 Y86.015 E13.68013
G1 X92.676 Y87.939 E13.73863
G1 X93.313 Y87.302 E13.75799
G1 X98.263 Y92.252 E13.90853
G1 X97.626 Y92.889 E13.92789
G1 X99.549 Y94.812 E13.98639
G1 X100.186 Y94.175 E14.00574
G1 X104.075 Y98.065 E14.12403
G1 X103.439 Y98.701 E14.14338
G1 X106.184 Y101.447 E14.22689
G1 X106.423 Y101.685 E14.23414
G1 X107.059 Y101.049 E14.25350
G1 X112.009 Y105.998 E14.40404
G1 X111.425 Y106.582 E14.42178
G1 X111.019 Y106.988 F12000.000
G1 X106.676 Y102.623 F12000.000
G1 X110.435 Y106.381 E14.53609 F1200.000
G1 X110.803 Y106.012 E14.54730
G1 X107.045 Y102.254 E14.66161
G1 X100.172 Y95.381 F12000.000
G1 X102.869 Y98.079 E14.74366 F1200.000
G1 X102.501 Y98.447 E14.75487
G1 X99.803 Y95.750 E14.83691
G1 X96.810 Y100.864 F12000.000
G1 X97.387 Y101.440 E14.85444 F1200.000
G1 X97.018 Y101.809 E14.86565
G1 X96.442 Y101.232 E14.88318
G1 X91.690 Y96.481 F12000.000
G1 X92.266 Y97.057 E14.90071 F1200.000
G1 X92.635 Y96.688 E14.91192
G1 X92.058 Y96.112 E14.92944
G1 X92.930 Y88.876 F12000.000
G1 X96.688 Y92.635 E15.04375 F1200.000
G1 X97.057 Y92.266 E15.05496
G1 X93.299 Y88.508 E15.16927
G1 X86.426 Y81.635 F12000.000
G1 X90.184 Y85.393 E15.28358 F1200.000
G1 X89.815 Y85.762 E15.29478
G1 X86.057 Y82.003 E15.40909
G1 X79.184 Y75.130 F12000.000
G1 X82.942 Y78.889 E15.52340 F1200.000
G1 X83.311 Y78.520 E15.53461
G1 X79.553 Y74.762 E15.64892
G1 X72.679 Y67.889 F12000.000
G1 X75.377 Y70.586 E15.73096 F1200.000
G1 X75.009 Y70.955 E15.74217
G1 X72.311 Y68.257 E15.82422
G1 X68.257 Y72.311 F12000.000
G1 X69.894 Y73.948 E15.87401 F1200.000
G1 X69.526 Y74.316 E15.88522
G1 X67.889 Y72.679 E15.93500
G1 X61.016 Y65.806 F12000.000
G1 X63.713 Y68.504 E16.01705 F1200.000
G1 X64.082 Y68.135 E16.02826
G1 X61.384 Y65.438 E16.11031
G1 X65.438 Y61.384 F12000.000
G1 X68.135 Y64.082 E16.19236 F1200.000
G1 X68.504 Y63.713 E16.20356
G1 X65.806 Y61.016 E16.28561
G1 X132.693 Y129.377 F12000.000
G1 X44.464 Y41.148 E18.96908 F1200.000
G1 X44.096 Y41.516 E18.98029
G1 X132.325 Y129.745 E21.66376
G1 X131.956 Y130.114 E21.67497
G1 X43.727 Y41.885 E24.35844
G1 X43.359 Y42.253 E24.36964
G1 X131.588 Y130.482 E27.05311
G1 X131.219 Y130.851 E27.06432
G1 X42.990 Y42.622 E29.74779
G1 X42.622 Y42.990 E29.75900
G1 X130.851 Y131.219 E32.44247
G1 X130.482 Y131.588 E32.45368
G1 X42.253 Y43.359 E35.13714
G1 X41.885 Y43.727 E35.14835
G1 X130.114 Y131.956 E37.83182
G1 X129.745 Y132.325 E37.84303
G1 X41.516 Y44.096 E40.52650
G1 X41.148 Y44.464 E40.53771
G1 X129.377 Y132.693 E43.22118
G1 X42.373 Y42.373 F12000.000
G1 X39.273 Y39.273 E43.35246 F600.000
G1 X39.311 Y38.739 E43.36850
M106 S109
M104 S188 ; set temperature
G1 F1680.000 E41.36850
G92 E0
G1 Z0.400 F12000.000
G1 X110.665 Y106.635 F12000.000
G1 E2.00000 F1680.000
G1 X133.307 Y129.276 E2.45909 F1800.000
G1 X129.276 Y133.307 E2.54082
G1 X97.640 Y101.671 E3.18228
G1 X97.004 Y102.307 E3.19519
G1 X95.943 Y101.247 E3.21669
G1 X96.580 Y100.610 E3.22960
G1 X92.889 Y96.919 E3.30444
G1 X92.252 Y97.555 E3.31734
G1 X91.191 Y96.495 E3.33885
G1 X91.828 Y95.858 E3.35175
G1 X70.148 Y74.178 E3.79134
G1 X69.512 Y74.815 E3.80425
G1 X67.390 Y72.694 E3.84726
G1 X68.027 Y72.057 E3.86016
G1 X64.336 Y68.366 E3.93501
G1 X63.699 Y69.002 E3.94791
G1 X60.517 Y65.820 E4.01243
G1 X61.154 Y65.184 E4.02533
G1 X40.534 Y44.565 E4.44342
G1 X41.985 Y43.114 E4.47284
G1 X38.496 Y39.625 E4.54359
G1 X38.499 Y39.389 E4.54697
G1 X38.557 Y39.055 E4.55183
G1 X38.639 Y38.851 E4.55498
G1 X38.730 Y38.730 E4.55715
G1 X38.851 Y38.639 E4.55932
G1 X39.055 Y38.557 E4.56247
G1 X39.389 Y38.499 E4.56732
G1 X39.625 Y38.496 E4.57071
G1 X43.114 Y41.985 E4.64146
G1 X44.565 Y40.534 E4.67088
G1 X65.184 Y61.154 E5.08896
G1 X65.820 Y60.517 E5.10187
G1 X69.002 Y63.699 E5.16639
G1 X68.366 Y64.336 E5.17929
G1 X72.057 Y68.027 E5.25413
G1 X72.694 Y67.390 E5.26704
G1 X75.876 Y70.572 E5.33155
G1 X75.239 Y71.209 E5.34446
G1 X78.930 Y74.900 E5.41930
G1 X79.567 Y74.263 E5.43221
G1 X83.809 Y78.506 E5.51823
G1 X83.173 Y79.142 E5.53113
G1 X85.803 Y81.773 E5.58447
G1 X86.440 Y81.136 E5.59737
G1 X90.682 Y85.379 E5.68340
G1 X90.046 Y86.015 E5.69630
G1 X92.676 Y88.646 E5.74964
G1 X93.313 Y88.009 E5.76254
G1 X97.555 Y92.252 E5.84857
G1 X96.919 Y92.889 E5.86147
G1 X98.921 Y94.891 E5.90207
G1 X99.549 Y95.519 E5.91481
G1 X100.186 Y94.883 E5.92771
G1 X103.368 Y98.065 E5.99223
G1 X102.731 Y98.701 E6.00514
G1 X106.423 Y102.392 E6.07998
G1 X107.059 Y101.756 E6.09288
G1 X111.302 Y105.998 E6.17891
G1 X110.718 Y106.582 E6.19074
G1 X111.372 Y106.635 F12000.000
G1 X134.014 Y129.276 E6.64983 F1440.000
G1 X129.276 Y134.014 E6.74589
G1 X97.640 Y102.378 E7.38736
G1 X97.004 Y103.014 E7.40026
G1 X95.236 Y101.247 E7.43610
G1 X95.873 Y100.610 E7.44901
G1 X92.889 Y97.626 E7.50951
G1 X92.252 Y98.263 E7.52242
G1 X90.484 Y96.495 E7.55826
G1 X91.121 Y95.858 E7.57117
G1 X70.148 Y74.886 E7.99642
G1 X69.512 Y75.522 E8.00932
G1 X66.683 Y72.694 E8.06667
G1 X67.320 Y72.057 E8.07958
G1 X64.336 Y69.073 E8.14008
G1 X63.699 Y69.710 E8.15299
G1 X59.810 Y65.820 E8.23184
G1 X60.446 Y65.184 E8.24475
G1 X39.827 Y44.565 E8.66283
G1 X41.278 Y43.114 E8.69225
G1 X40.925 Y42.760 E8.69942
M106 S255
G1 X37.993 Y39.828 E8.81615 F2400.000
G1 X37.995 Y39.689 E8.82008
M106 S109
G1 X38.000 Y39.342 E8.82506 F1440.000
G1 X38.062 Y38.985 E8.83024
M106 S255
G1 X38.200 Y38.604 E8.84166 F2400.000
G1 X38.373 Y38.373 E8.84979
G1 X38.604 Y38.200 E8.85791
G1 X38.985 Y38.062 E8.86933
M106 S109
G1 X39.342 Y38.000 E8.87451 F1440.000
G1 X39.689 Y37.995 E8.87949
M106 S255
G1 X39.829 Y37.993 E8.88342 F2400.000
G1 X42.760 Y40.925 E9.00015
M106 S109
G1 X43.114 Y41.278 E9.00732 F1440.000
G1 X44.565 Y39.827 E9.03674
G1 X65.184 Y60.446 E9.45482
G1 X65.820 Y59.810 E9.46773
G1 X69.710 Y63.699 E9.54658
G1 X69.073 Y64.336 E9.55949
G1 X72.057 Y67.320 E9.61999
G1 X72.694 Y66.683 E9.63290
G1 X76.583 Y70.572 E9.71175
G1 X75.946 Y71.209 E9.72466
G1 X78.930 Y74.193 E9.78516
G1 X79.567 Y73.556 E9.79807
G1 X84.516 Y78.506 E9.89843
G1 X83.880 Y79.142 E9.91133
G1 X85.803 Y81.066 E9.95033
G1 X86.440 Y80.429 E9.96323
G1 X91.389 Y85.379 E10.06360
G1 X90.753 Y86.015 E10.07650
G1 X92.676 Y87.939 E10.11550
G1 X93.313 Y87.302 E10.12840
G1 X98.263 Y92.252 E10.22877
G1 X97.626 Y92.889 E10.24167
G1 X99.275 Y94.537 E10.27510
G1 X99.549 Y94.812 E10.28067
G1 X100.186 Y94.175 E10.29357
G1 X104.075 Y98.065 E10.37243
G1 X103.439 Y98.701 E10.38533
G1 X106.423 Y101.685 E10.44584
G1 X107.059 Y101.049 E10.45874
G1 X112.009 Y105.998 E10.55911
G1 X111.425 Y106.582 E10.57094
G1 X42.279 Y41.059 F12000.000
G1 X42.852 Y42.207 F12000.000
G1 X42.207 Y42.852 E10.58400 F2400.000
G1 X41.853 Y42.498 E10.59118
G1 X42.498 Y41.853 E10.60425
G1 X42.144 Y41.499 E10.61143
G1 X41.499 Y42.144 E10.62450
G1 X41.145 Y41.790 E10.63167
G1 X41.790 Y41.145 E10.64474
G1 X41.435 Y40.791 E10.65192
G1 X40.791 Y41.435 E10.66499
G1 X40.437 Y41.081 E10.67217
G1 X41.081 Y40.437 E10.68523
G1 X40.727 Y40.083 E10.69241
G1 X40.083 Y40.727 E10.70548
G1 X39.729 Y40.373 E10.71266
G1 X40.373 Y39.729 E10.72573
G1 X40.019 Y39.375 E10.73290
G1 X39.375 Y40.019 E10.74597
G1 X39.021 Y39.665 E10.75315
G1 X39.665 Y39.021 E10.76622
G1 X39.049 Y38.929 E10.77515
G1 X38.929 Y39.049 E10.77759
G1 F1680.000 E8.77759
G92 E0
G1 X44.656 Y41.110 F12000.000
G1 E2.00000 F1680.000
G1 X41.110 Y44.656 E2.07190 F2400.000
G1 X41.464 Y45.010 E2.07908
G1 X45.010 Y41.464 E2.15099
G1 X45.364 Y41.818 E2.15816
G1 X41.818 Y45.364 E2.23007
G1 X42.172 Y45.719 E2.23725
G1 X45.719 Y42.172 E2.30915
G1 X46.073 Y42.526 E2.31633
G1 X42.526 Y46.073 E2.38823
G1 X42.880 Y46.427 E2.39541
G1 X46.427 Y42.880 E2.46731
G1 X46.781 Y43.234 E2.47449
G1 X43.234 Y46.781 E2.54640
G1 X43.588 Y47.135 E2.55357
G1 X47.135 Y43.588 E2.62548
G1 X47.489 Y43.942 E2.63266
G1 X43.942 Y47.489 E2.70456
G1 X44.296 Y47.843 E2.71174
G1 X47.843 Y44.296 E2.78364
G1 X48.197 Y44.651 E2.79082
G1 X44.651 Y48.197 E2.86272
G1 X45.005 Y48.551 E2.86990
G1 X48.551 Y45.005 E2.94181
G1 X48.905 Y45.359 E2.94899
G1 X45.359 Y48.905 E3.02089
G1 X45.713 Y49.259 E3.02807
G1 X49.259 Y45.713 E3.09997
G1 X49.613 Y46.067 E3.10715
G1 X46.067 Y49.613 E3.17905
G1 X46.421 Y49.967 E3.18623
G1 X49.967 Y46.421 E3.25814
G1 X50.321 Y46.775 E3.26531
G1 X46.775 Y50.321 E3.33722
G1 X47.129 Y50.675 E3.34440
G1 X50.675 Y47.129 E3.41630
G1 X51.029 Y47.483 E3.42348
G1 X47.483 Y51.029 E3.49538
G1 X47.837 Y51.383 E3.50256
G1 X51.383 Y47.837 E3.57446
G1 X51.737 Y48.191 E3.58164
G1 X48.191 Y51.737 E3.65355
G1 X48.545 Y52.091 E3.66072
G1 X52.091 Y48.545 E3.73263
G1 X52.445 Y48.899 E3.73981
G1 X48.899 Y52.445 E3.81171
G1 X49.253 Y52.799 E3.81889
G1 X52.799 Y49.253 E3.89079
G1 X53.153 Y49.607 E3.89797
G1 X49.607 Y53.153 E3.96987
G1 X49.961 Y53.507 E3.97705
G1 X53.507 Y49.961 E4.04896
G1 X53.861 Y50.315 E4.05613
G1 X50.315 Y53.861 E4.12804
G1 X50.669 Y54.215 E4.13522
G1 X54.215 Y50.669 E4.20712
G1 X54.569 Y51.023 E4.21430
G1 X51.023 Y54.569 E4.28620
G1 X51.377 Y54.923 E4.29338
G1 X54.923 Y51.377 E4.36529
G1 X55.277 Y51.731 E4.37246
G1 X51.731 Y55.277 E4.44437
G1 X52.085 Y55.631 E4.45155
G1 X55.631 Y52.085 E4.52345
G1 X55.985 Y52.439 E4.53063
G1 X52.439 Y55.985 E4.60253
G1 X52.793 Y56.339 E4.60971
G1 X56.339 Y52.793 E4.68161
G1 X56.693 Y53.147 E4.68879
G1 X53.147 Y56.693 E4.76070
G1 X53.501 Y57.047 E4.76787
G1 X57.047 Y53.501 E4.83978
G1 X57.401 Y53.855 E4.84696
G1 X53.855 Y57.401 E4.91886
G1 X54.209 Y57.755 E4.92604
G1 X57.755 Y54.209 E4.99794
G1 X58.109 Y54.563 E5.00512
G1 X54.563 Y58.109 E5.07702
G1 X54.917 Y58.463 E5.08420
G1 X58.463 Y54.917 E5.15611
G1 X58.817 Y55.271 E5.16329
G1 X55.271 Y58.817 E5.23519
G1 X55.625 Y59.171 E5.24237
G1 X59.171 Y55.625 E5.31427
G1 X59.525 Y55.979 E5.32145
G1 X55.979 Y59.525 E5.39335
G1 X56.333 Y59.879 E5.40053
G1 X59.879 Y56.333 E5.47244
G1 X60.233 Y56.687 E5.47961
G1 X56.687 Y60.233 E5.55152
G1 X57.041 Y60.587 E5.55870
G1 X60.588 Y57.041 E5.63060
G1 X60.942 Y57.395 E5.63778
G1 X57.395 Y60.942 E5.70968
G1 X57.749 Y61.296 E5.71686
G1 X61.296 Y57.749 E5.78876
G1 X61.650 Y58.103 E5.79594
G1 X58.103 Y61.650 E5.86785
G1 X58.457 Y62.004 E5.87502
G1 X62.004 Y58.457 E5.94693
G1 X62.358 Y58.811 E5.95411
G1 X58.811 Y62.358 E6.02601
G1 X59.165 Y62.712 E6.03319
G1 X62.712 Y59.165 E6.10509
G1 X63.066 Y59.519 E6.11227
G1 X59.519 Y63.066 E6.18418
G1 X59.874 Y63.420 E6.19135
G1 X63.420 Y59.874 E6.26326
G1 X63.774 Y60.228 E6.27044
G1 X60.228 Y63.774 E6.34234
G1 X60.582 Y64.128 E6.34952
G1 X64.128 Y60.582 E6.42142
G1 X64.482 Y60.936 E6.42860
G1 X60.936 Y64.482 E6.50050
G1 X61.290 Y64.836 E6.50768
G1 X64.836 Y61.290 E6.57959
G1 X65.812 Y61.021 F12000.000
G1 X61.021 Y65.812 E6.67672 F2400.000
G1 X61.375 Y66.166 E6.68390
G1 X66.166 Y61.375 E6.78104
G1 X66.520 Y61.729 E6.78822
G1 X61.729 Y66.520 E6.88536
G1 X62.083 Y66.874 E6.89254
G1 X66.874 Y62.083 E6.98967
G1 X67.228 Y62.437 E6.99685
G1 X62.437 Y67.228 E7.09399
G1 X62.791 Y67.582 E7.10117
G1 X67.582 Y62.791 E7.19831
G1 X67.936 Y63.146 E7.20549
G1 X63.146 Y67.936 E7.30262
G1 X63.500 Y68.290 E7.30980
G1 X68.290 Y63.500 E7.40694
G1 X68.022 Y64.476 E7.42146
G1 X64.476 Y68.022 E7.49336
G1 X64.830 Y68.376 E7.50054
G1 X68.376 Y64.830 E7.57244
G1 X68.730 Y65.184 E7.57962
G1 X65.184 Y68.730 E7.65152
G1 X65.538 Y69.084 E7.65870
G1 X69.084 Y65.538 E7.73061
G1 X69.438 Y65.892 E7.73779
G1 X65.892 Y69.438 E7.80969
G1 X66.246 Y69.792 E7.81687
G1 X69.792 Y66.246 E7.88877
G1 X70.146 Y66.600 E7.89595
G1 X66.600 Y70.146 E7.96785
G1 X66.954 Y70.500 E7.97503
G1 X70.500 Y66.954 E8.04694
G1 X70.854 Y67.308 E8.05411
G1 X67.308 Y70.854 E8.12602
G1 X67.662 Y71.208 E8.13320
G1 X71.208 Y67.662 E8.20510
G1 X71.562 Y68.016 E8.21228
G1 X68.016 Y71.562 E8.28418
G1 X68.370 Y71.916 E8.29136
G1 X71.916 Y68.370 E8.36326
G1 X72.893 Y68.102 E8.37778
G1 X68.102 Y72.893 E8.47492
G1 X68.456 Y73.247 E8.48210
G1 X73.247 Y68.456 E8.57924
G1 X73.601 Y68.810 E8.58641
G1 X68.810 Y73.601 E8.68355
