; generated by Slic3r 1.1.7 on 2014-12-03 at 13:24:38

; perimeters extrusion width = 0.50mm
; infill extrusion width = 0.50mm
; solid infill extrusion width = 0.50mm
; top infill extrusion width = 0.50mm

G21 ; set units to millimeters
M104 S190 ; set temperature
G28 ; home all axes
G1 Z15 F120 ; lift nozzle
M109 S190 ; wait for temperature to be reached
G90 ; use absolute coordinates
G92 E0
M82 ; use absolute distances for extrusion
M106 S102
G1 F1680.000 E-2.00000
G92 E0
G1 Z0.200 F12000.000
G1 X33.582 Y33.582 F12000.000
G1 E2.00000 F1680.000
G1 X36.128 Y31.036 E2.07742 F1200.000
G1 X37.990 Y29.736 E2.12628
G1 X40.186 Y29.155 E2.17513
G1 X42.448 Y29.365 E2.22398
G1 X45.199 Y30.918 E2.29193 F1200.000
G1 X70.422 Y54.866 E3.03994
G1 X127.910 Y112.354 E4.78841
G1 X130.511 Y115.011 E4.86838
G1 X135.602 Y121.375 E5.04365
G1 X136.820 Y123.809 E5.10219
G1 X138.126 Y128.866 E5.21452
G1 X138.237 Y131.606 E5.27349
G1 X138.202 Y131.808 E5.27790
G1 X137.830 Y133.115 E5.30712
G1 X137.669 Y133.516 E5.31642
G1 X136.838 Y134.992 E5.35285
G1 X136.604 Y135.304 E5.36123
G1 X135.303 Y136.604 E5.40078
G1 X134.992 Y136.838 E5.40916
G1 X133.516 Y137.669 E5.44558
G1 X133.113 Y137.831 E5.45493
G1 X131.805 Y138.202 E5.48417
G1 X131.606 Y138.237 E5.48852
G1 X128.866 Y138.126 E5.54749
G1 X123.809 Y136.820 E5.65982
G1 X121.375 Y135.602 E5.71836
G1 X114.475 Y130.031 E5.90907
G1 X33.441 Y48.997 E8.37371
G1 X32.596 Y47.958 E8.40250
G1 X30.192 Y44.281 E8.49698
G1 X29.301 Y42.192 E8.54584
G1 X29.182 Y39.923 E8.59469
G1 X29.851 Y37.752 E8.64354
G1 X31.036 Y36.128 E8.68680
G1 X33.529 Y33.635 E8.76261
G1 F1680.000 E6.76261
G92 E0
G1 X119.708 Y123.738 F12000.000
G1 E2.00000 F1680.000
G1 X119.071 Y124.374 E2.01936 F900.000
G1 X118.011 Y123.314 E2.05162
G1 X118.647 Y122.677 E2.07097
G1 X114.404 Y118.435 E2.20001
G1 X113.768 Y119.071 E2.21937
G1 X112.707 Y118.011 E2.25163
G1 X113.344 Y117.374 E2.27098
G1 X111.859 Y115.889 E2.31615
G1 X111.222 Y116.526 E2.33550
G1 X108.040 Y113.344 E2.43228
G1 X108.677 Y112.707 E2.45164
G1 X105.070 Y109.101 E2.56132
G1 X104.434 Y109.737 E2.58067
G1 X101.252 Y106.555 E2.67745
G1 X101.888 Y105.919 E2.69681
G1 X98.282 Y102.313 E2.80649
G1 X97.646 Y102.949 E2.82585
G1 X94.464 Y99.767 E2.92263
G1 X95.100 Y99.131 E2.94198
G1 X92.555 Y96.585 E3.01941
G1 X91.918 Y97.222 E3.03876
G1 X86.615 Y91.918 E3.20006
G1 X87.251 Y91.282 E3.21942
G1 X79.678 Y83.708 E3.44977
G1 X78.978 Y83.009 E3.47104
G1 X78.342 Y83.645 E3.49040
G1 X77.281 Y82.584 E3.52266
G1 X77.918 Y81.948 E3.54201
G1 X74.736 Y78.766 E3.63879
G1 X74.099 Y79.402 E3.65815
G1 X73.039 Y78.342 E3.69041
G1 X73.675 Y77.705 E3.70976
G1 X64.341 Y68.372 E3.99365
G1 X63.705 Y69.008 E4.01301
G1 X60.523 Y65.826 E4.10978
G1 X61.159 Y65.190 E4.12914
G1 X57.553 Y61.583 E4.23882
G1 X56.917 Y62.220 E4.25818
G1 X52.674 Y57.977 E4.38722
G1 X53.310 Y57.341 E4.40657
G1 X51.825 Y55.856 E4.45174
G1 X51.189 Y56.492 E4.47109
G1 X50.128 Y55.432 E4.50335
G1 X50.765 Y54.795 E4.52271
G1 X43.976 Y48.007 E4.72917
G1 X43.340 Y48.643 E4.74853
G1 X39.097 Y44.401 E4.87756
G1 X39.734 Y43.764 E4.89692
G1 X36.693 Y40.724 E4.98940
G1 X40.724 Y36.693 E5.11199
G1 X65.190 Y61.159 E5.85611
G1 X65.826 Y60.523 E5.87546
G1 X69.008 Y63.705 E5.97224
G1 X68.372 Y64.341 E5.99160
G1 X77.705 Y73.675 E6.27548
G1 X78.342 Y73.039 E6.29484
G1 X79.403 Y74.099 E6.32710
G1 X78.766 Y74.736 E6.34646
G1 X81.948 Y77.918 E6.44324
G1 X82.584 Y77.281 E6.46259
G1 X83.645 Y78.342 E6.49485
G1 X83.009 Y78.978 E6.51421
G1 X91.282 Y87.251 E6.76583
G1 X91.918 Y86.615 E6.78519
G1 X97.222 Y91.918 E6.94649
G1 X96.585 Y92.555 E6.96584
G1 X99.131 Y95.100 E7.04327
G1 X99.767 Y94.464 E7.06262
G1 X102.949 Y97.646 E7.15940
G1 X102.313 Y98.282 E7.17876
G1 X105.919 Y101.888 E7.28844
G1 X106.555 Y101.252 E7.30780
G1 X109.737 Y104.434 E7.40457
G1 X109.101 Y105.070 E7.42393
G1 X112.707 Y108.677 E7.53361
G1 X113.344 Y108.040 E7.55297
G1 X116.526 Y111.222 E7.64975
G1 X115.889 Y111.859 E7.66910
G1 X117.374 Y113.344 E7.71427
G1 X118.011 Y112.707 E7.73362
G1 X119.071 Y113.768 E7.76588
G1 X118.435 Y114.404 E7.78524
G1 X122.677 Y118.647 E7.91428
G1 X123.314 Y118.011 E7.93363
G1 X124.374 Y119.071 E7.96589
G1 X123.738 Y119.708 E7.98525
G1 X129.466 Y125.435 E8.15945
G1 X125.435 Y129.466 E8.28204
G1 X119.761 Y123.791 E8.45463
G1 X119.708 Y124.445 F12000.000
G1 X119.071 Y125.082 E8.47398 F720.000
G1 X117.303 Y123.314 E8.52775
G1 X117.940 Y122.677 E8.54710
G1 X114.404 Y119.142 E8.65464
G1 X113.768 Y119.778 E8.67399
G1 X112.000 Y118.011 E8.72776
G1 X112.637 Y117.374 E8.74711
G1 X111.859 Y116.596 E8.77077
G1 X111.222 Y117.233 E8.79013
G1 X107.333 Y113.344 E8.90841
G1 X107.970 Y112.707 E8.92777
G1 X105.070 Y109.808 E9.01595
G1 X104.434 Y110.444 E9.03530
G1 X100.545 Y106.555 E9.15359
G1 X101.181 Y105.919 E9.17294
G1 X98.519 Y103.256 E9.25393
G1 X98.282 Y103.020 E9.26112
G1 X97.646 Y103.656 E9.28047
G1 X93.757 Y99.767 E9.39876
G1 X94.393 Y99.131 E9.41812
G1 X92.555 Y97.292 E9.47403
G1 X91.918 Y97.929 E9.49339
G1 X85.908 Y91.918 E9.67619
G1 X86.544 Y91.282 E9.69555
G1 X78.978 Y83.716 E9.92567
G1 X78.342 Y84.352 E9.94502
G1 X76.574 Y82.584 E9.99879
G1 X77.210 Y81.948 E10.01815
G1 X74.736 Y79.473 E10.09342
G1 X74.099 Y80.110 E10.11277
G1 X72.331 Y78.342 E10.16654
G1 X72.968 Y77.705 E10.18590
G1 X64.341 Y69.079 E10.44828
G1 X63.705 Y69.715 E10.46763
G1 X59.816 Y65.826 E10.58592
G1 X60.452 Y65.190 E10.60527
G1 X57.553 Y62.291 E10.69345
G1 X56.917 Y62.927 E10.71281
G1 X51.967 Y57.977 E10.86335
G1 X52.603 Y57.341 E10.88271
G1 X51.825 Y56.563 E10.90636
G1 X51.189 Y57.199 E10.92572
G1 X49.421 Y55.432 E10.97949
G1 X50.058 Y54.795 E10.99884
G1 X43.976 Y48.714 E11.18380
G1 X43.340 Y49.350 E11.20315
G1 X38.390 Y44.401 E11.35370
G1 X39.027 Y43.764 E11.37305
G1 X35.986 Y40.724 E11.46553
G1 X40.724 Y35.986 E11.60962
G1 X65.190 Y60.452 E12.35375
G1 X65.826 Y59.816 E12.37310
G1 X69.715 Y63.705 E12.49139
G1 X69.079 Y64.341 E12.51074
G1 X77.705 Y72.968 E12.77312
G1 X78.342 Y72.331 E12.79248
G1 X80.110 Y74.099 E12.84625
G1 X79.473 Y74.736 E12.86560
G1 X81.948 Y77.210 E12.94087
G1 X82.584 Y76.574 E12.96023
G1 X84.352 Y78.342 E13.01400
G1 X83.716 Y78.978 E13.03335
G1 X91.282 Y86.544 E13.26347
G1 X91.918 Y85.908 E13.28283
G1 X97.929 Y91.918 E13.46563
G1 X97.292 Y92.555 E13.48499
G1 X99.131 Y94.393 E13.54090
G1 X99.767 Y93.757 E13.56026
G1 X103.656 Y97.646 E13.67855
G1 X103.020 Y98.282 E13.69790
G1 X105.919 Y101.181 E13.78608
G1 X106.555 Y100.545 E13.80543
G1 X110.444 Y104.434 E13.92372
G1 X109.808 Y105.070 E13.94308
G1 X112.707 Y107.970 E14.03125
G1 X113.344 Y107.333 E14.05061
G1 X117.233 Y111.222 E14.16889
G1 X116.596 Y111.859 E14.18825
G1 X117.374 Y112.637 E14.21191
G1 X118.011 Y112.000 E14.23126
G1 X119.778 Y113.768 E14.28503
G1 X119.142 Y114.404 E14.30438
G1 X122.677 Y117.940 E14.41192
G1 X123.314 Y117.303 E14.43127
G1 X125.082 Y119.071 E14.48504
G1 X124.445 Y119.708 E14.50439
G1 X130.173 Y125.435 E14.67860
G1 X128.298 Y127.310 E14.73563
G1 X131.572 Y130.585 E14.83522
G1 X131.418 Y130.969 E14.84412
G1 X131.225 Y131.225 E14.85101
G1 X130.969 Y131.418 E14.85791
G1 X130.585 Y131.572 E14.86681
G1 X127.310 Y128.298 E14.96640
G1 X125.435 Y130.173 E15.02343
G1 X119.761 Y124.498 E15.19602
G1 X119.354 Y124.092 F12000.000
G1 X118.509 Y123.300 F12000.000
G1 X119.085 Y123.876 E15.21355 F1200.000
G1 X119.454 Y123.507 E15.22476
G1 X118.878 Y122.931 E15.24229
G1 X122.931 Y118.878 F12000.000
G1 X123.507 Y119.454 E15.25981 F1200.000
G1 X123.876 Y119.085 E15.27102
G1 X123.300 Y118.509 E15.28855
G1 X117.996 Y113.206 F12000.000
G1 X118.573 Y113.782 E15.30608 F1200.000
G1 X118.204 Y114.151 E15.31729
G1 X117.628 Y113.574 E15.33482
G1 X113.574 Y117.628 F12000.000
G1 X114.151 Y118.204 E15.35235 F1200.000
G1 X113.782 Y118.573 E15.36355
G1 X113.206 Y117.996 E15.38108
G1 X108.539 Y113.329 F12000.000
G1 X111.236 Y116.027 E15.46313 F1200.000
G1 X111.605 Y115.659 E15.47434
G1 X108.907 Y112.961 E15.55639
G1 X112.961 Y108.907 F12000.000
G1 X115.659 Y111.605 E15.63843 F1200.000
G1 X116.027 Y111.236 E15.64964
G1 X113.329 Y108.539 E15.73169
G1 X106.541 Y101.751 F12000.000
G1 X109.239 Y104.448 E15.81374 F1200.000
G1 X108.870 Y104.817 E15.82495
G1 X106.173 Y102.119 E15.90699
G1 X102.119 Y106.173 F12000.000
G1 X104.817 Y108.870 E15.98904 F1200.000
G1 X104.448 Y109.239 E16.00025
G1 X101.751 Y106.541 E16.08230
G1 X94.962 Y99.753 F12000.000
G1 X97.660 Y102.451 E16.16435 F1200.000
G1 X98.029 Y102.082 E16.17556
G1 X95.331 Y99.385 E16.25760
G1 X99.385 Y95.331 F12000.000
G1 X102.082 Y98.029 E16.33965 F1200.000
G1 X102.451 Y97.660 E16.35086
G1 X99.753 Y94.962 E16.43291
G1 X91.904 Y87.113 F12000.000
G1 X96.723 Y91.932 E16.57948 F1200.000
G1 X96.355 Y92.301 E16.59068
G1 X91.536 Y87.482 E16.73725
G1 X87.482 Y91.536 F12000.000
G1 X92.301 Y96.355 E16.88382 F1200.000
G1 X91.932 Y96.723 E16.89503
G1 X87.113 Y91.904 E17.04159
G1 X77.780 Y82.570 F12000.000
G1 X78.356 Y83.147 E17.05912 F1200.000
G1 X78.724 Y82.778 E17.07033
G1 X78.148 Y82.202 E17.08786
G1 X74.482 Y78.536 F12000.000
G1 X73.906 Y77.959 E17.10539 F1200.000
G1 X73.537 Y78.328 E17.11660
G1 X74.113 Y78.904 E17.13412
G1 X77.959 Y73.906 F12000.000
G1 X78.536 Y74.482 E17.15165 F1200.000
G1 X78.904 Y74.113 E17.16286
G1 X78.328 Y73.537 E17.18039
G1 X82.570 Y77.780 F12000.000
G1 X83.147 Y78.356 E17.19792 F1200.000
G1 X82.778 Y78.724 E17.20913
G1 X82.202 Y78.148 E17.22666
G1 X65.443 Y61.390 F12000.000
G1 X68.141 Y64.087 E17.30870 F1200.000
G1 X68.510 Y63.719 E17.31991
G1 X65.812 Y61.021 E17.40196
G1 X61.390 Y65.443 F12000.000
G1 X64.087 Y68.141 E17.48401 F1200.000
G1 X63.719 Y68.510 E17.49522
G1 X61.021 Y65.812 E17.57726
G1 X56.931 Y61.721 F12000.000
G1 X53.172 Y57.963 E17.69157 F1200.000
G1 X53.541 Y57.595 E17.70278
G1 X57.299 Y61.353 E17.81709
G1 X51.572 Y55.625 F12000.000
G1 X50.995 Y55.049 E17.83462 F1200.000
G1 X50.627 Y55.417 E17.84582
G1 X51.203 Y55.994 E17.86335
G1 X43.354 Y48.145 F12000.000
G1 X39.596 Y44.387 E17.97766 F1200.000
G1 X39.964 Y44.018 E17.98887
G1 X43.723 Y47.776 E18.10318
G1 X37.307 Y40.623 F12000.000
G1 X125.536 Y128.852 E20.78665 F1200.000
G1 X125.904 Y128.484 E20.79785
G1 X37.675 Y40.255 E23.48132
G1 X38.044 Y39.886 E23.49253
G1 X126.273 Y128.115 E26.17600
G1 X126.641 Y127.747 E26.18721
G1 X38.412 Y39.518 E28.87068
G1 X38.781 Y39.149 E28.88189
G1 X127.010 Y127.378 E31.56535
G1 X127.378 Y127.010 E31.57656
G1 X39.149 Y38.781 E34.26003
G1 X39.518 Y38.412 E34.27124
G1 X127.747 Y126.641 E36.95471
G1 X128.115 Y126.273 E36.96592
G1 X39.886 Y38.044 E39.64939
G1 X40.255 Y37.675 E39.66059
G1 X128.484 Y125.904 E42.34406
G1 X128.852 Y125.536 E42.35527
G1 X40.623 Y37.307 E45.03874
G1 X127.627 Y127.627 F12000.000
G1 X131.047 Y131.047 E45.18358 F600.000
M104 S188 ; set temperature
G1 F1680.000 E43.18358
G92 E0
G1 Z0.400 F12000.000
G1 X119.708 Y123.738 F12000.000
G1 E2.00000 F1680.000
G1 X119.071 Y124.374 E2.01290 F1800.000
G1 X118.011 Y123.314 E2.03441
G1 X118.647 Y122.677 E2.04731
G1 X114.404 Y118.435 E2.13334
G1 X113.768 Y119.071 E2.14624
G1 X112.707 Y118.011 E2.16775
G1 X113.344 Y117.374 E2.18065
G1 X111.859 Y115.889 E2.21076
G1 X111.222 Y116.526 E2.22367
G1 X108.040 Y113.344 E2.28819
G1 X108.677 Y112.707 E2.30109
G1 X105.070 Y109.101 E2.37421
G1 X104.434 Y109.737 E2.38712
G1 X101.252 Y106.555 E2.45164
G1 X101.888 Y105.919 E2.46454
G1 X98.282 Y102.313 E2.53766
G1 X97.646 Y102.949 E2.55057
G1 X94.464 Y99.767 E2.61508
G1 X95.100 Y99.131 E2.62799
G1 X92.555 Y96.585 E2.67960
G1 X91.918 Y97.222 E2.69251
G1 X86.615 Y91.918 E2.80004
G1 X87.251 Y91.282 E2.81294
G1 X79.959 Y83.990 E2.96080
G1 X78.978 Y83.009 E2.98069
G1 X78.342 Y83.645 E2.99360
G1 X77.281 Y82.584 E3.01510
G1 X77.918 Y81.948 E3.02801
G1 X74.736 Y78.766 E3.09253
G1 X74.099 Y79.402 E3.10543
G1 X73.039 Y78.342 E3.12694
G1 X73.675 Y77.705 E3.13984
G1 X64.341 Y68.372 E3.32910
G1 X63.705 Y69.008 E3.34200
G1 X60.523 Y65.826 E3.40652
G1 X61.159 Y65.190 E3.41943
G1 X57.553 Y61.583 E3.49255
G1 X56.917 Y62.220 E3.50545
G1 X52.674 Y57.977 E3.59148
G1 X53.310 Y57.341 E3.60438
G1 X51.825 Y55.856 E3.63449
G1 X51.189 Y56.492 E3.64739
G1 X50.128 Y55.432 E3.66890
G1 X50.765 Y54.795 E3.68181
G1 X43.976 Y48.007 E3.81945
G1 X43.340 Y48.643 E3.83235
G1 X39.097 Y44.401 E3.91838
G1 X39.734 Y43.764 E3.93128
G1 X36.693 Y40.724 E3.99293
G1 X40.724 Y36.693 E4.07466
G1 X65.190 Y61.159 E4.57074
G1 X65.826 Y60.523 E4.58364
G1 X69.008 Y63.705 E4.64816
G1 X68.372 Y64.341 E4.66107
G1 X77.705 Y73.675 E4.85032
G1 X78.342 Y73.039 E4.86323
G1 X79.403 Y74.099 E4.88473
G1 X78.766 Y74.736 E4.89764
G1 X81.948 Y77.918 E4.96216
G1 X82.584 Y77.281 E4.97506
G1 X83.645 Y78.342 E4.99657
G1 X83.009 Y78.978 E5.00947
G1 X91.282 Y87.251 E5.17722
G1 X91.918 Y86.615 E5.19012
G1 X97.222 Y91.918 E5.29766
G1 X96.585 Y92.555 E5.31056
G1 X99.131 Y95.100 E5.36218
G1 X99.767 Y94.464 E5.37508
G1 X102.949 Y97.646 E5.43960
G1 X102.313 Y98.282 E5.45250
G1 X105.919 Y101.888 E5.52563
G1 X106.555 Y101.252 E5.53853
G1 X109.737 Y104.434 E5.60305
G1 X109.101 Y105.070 E5.61595
G1 X112.707 Y108.677 E5.68907
G1 X113.344 Y108.040 E5.70198
G1 X116.526 Y111.222 E5.76650
G1 X115.889 Y111.859 E5.77940
G1 X117.374 Y113.344 E5.80951
G1 X118.011 Y112.707 E5.82241
G1 X119.071 Y113.768 E5.84392
G1 X118.435 Y114.404 E5.85683
G1 X122.677 Y118.647 E5.94285
G1 X123.314 Y118.011 E5.95575
G1 X124.374 Y119.071 E5.97726
G1 X123.738 Y119.708 E5.99017
G1 X129.466 Y125.435 E6.10630
G1 X128.015 Y126.886 E6.13572
G1 X131.504 Y130.375 E6.20647
G1 X131.501 Y130.611 E6.20985
G1 X131.443 Y130.945 E6.21471
G1 X131.361 Y131.149 E6.21786
G1 X131.270 Y131.270 E6.22003
G1 X131.149 Y131.361 E6.22220
G1 X130.945 Y131.443 E6.22535
G1 X130.611 Y131.501 E6.23020
G1 X130.375 Y131.504 E6.23359
G1 X126.886 Y128.015 E6.30434
G1 X125.435 Y129.466 E6.33376
G1 X119.761 Y123.791 E6.44882
G1 X119.708 Y124.445 F12000.000
G1 X119.071 Y125.082 E6.46172 F1440.000
G1 X117.303 Y123.314 E6.49756
G1 X117.940 Y122.677 E6.51047
G1 X114.404 Y119.142 E6.58216
G1 X113.768 Y119.778 E6.59506
G1 X112.000 Y118.011 E6.63090
G1 X112.637 Y117.374 E6.64381
G1 X111.859 Y116.596 E6.65958
G1 X111.222 Y117.233 E6.67248
G1 X107.333 Y113.344 E6.75134
G1 X107.970 Y112.707 E6.76424
G1 X105.070 Y109.808 E6.82303
G1 X104.434 Y110.444 E6.83593
G1 X100.545 Y106.555 E6.91479
G1 X101.181 Y105.919 E6.92769
G1 X98.618 Y103.356 E6.97967
G1 X98.282 Y103.020 E6.98648
G1 X97.646 Y103.656 E6.99938
G1 X93.757 Y99.767 E7.07824
G1 X94.393 Y99.131 E7.09114
G1 X92.555 Y97.292 E7.12842
G1 X91.918 Y97.929 E7.14132
G1 X85.908 Y91.918 E7.26319
G1 X86.544 Y91.282 E7.27610
G1 X78.978 Y83.716 E7.42951
G1 X78.342 Y84.352 E7.44241
G1 X76.574 Y82.584 E7.47826
G1 X77.210 Y81.948 E7.49116
G1 X74.736 Y79.473 E7.54134
G1 X74.099 Y80.110 E7.55425
G1 X72.331 Y78.342 E7.59009
G1 X72.968 Y77.705 E7.60300
G1 X65.035 Y69.773 E7.76385
G1 X64.341 Y69.079 E7.77792
G1 X63.705 Y69.715 E7.79082
G1 X59.816 Y65.826 E7.86968
G1 X60.452 Y65.190 E7.88258
G1 X57.889 Y62.626 E7.93455
G1 X57.553 Y62.291 E7.94136
G1 X56.917 Y62.927 E7.95427
G1 X51.967 Y57.977 E8.05463
G1 X52.603 Y57.341 E8.06754
G1 X51.825 Y56.563 E8.08331
G1 X51.189 Y57.199 E8.09621
G1 X49.421 Y55.432 E8.13205
G1 X50.058 Y54.795 E8.14496
G1 X43.976 Y48.714 E8.26826
G1 X43.340 Y49.350 E8.28117
G1 X38.390 Y44.401 E8.38153
G1 X39.027 Y43.764 E8.39443
G1 X35.986 Y40.724 E8.45609
G1 X40.724 Y35.986 E8.55215
G1 X65.190 Y60.452 E9.04823
G1 X65.826 Y59.816 E9.06113
G1 X69.715 Y63.705 E9.13999
G1 X69.079 Y64.341 E9.15289
G1 X77.705 Y72.968 E9.32781
G1 X78.342 Y72.331 E9.34072
G1 X80.110 Y74.099 E9.37656
G1 X79.473 Y74.736 E9.38947
G1 X81.948 Y77.210 E9.43965
G1 X82.584 Y76.574 E9.45255
G1 X84.352 Y78.342 E9.48840
