; generated by Slic3r 1.1.7 on 2014-12-03 at 14:11:39

; perimeters extrusion width = 0.50mm
; infill extrusion width = 0.50mm
; solid infill extrusion width = 0.50mm
; top infill extrusion width = 0.50mm

G21 ; set units to millimeters
M104 S190 ; set temperature
G28 ; home all axes
G1 Z15 F120 ; lift nozzle
M109 S190 ; wait for temperature to be reached
G90 ; use absolute coordinates
G92 E0
M82 ; use absolute distances for extrusion
M106 S102
G1 F1680.000 E-2.00000
G92 E0
G1 Z0.200 F12000.000
G1 X34.046 Y34.046 F12000.000
G1 E2.00000 F1680.000
G1 X34.696 Y33.396 E2.01977 F1200.000
G1 X35.011 Y33.160 E2.02822
G1 X36.483 Y32.332 E2.06454
G1 X36.889 Y32.169 E2.07395
G1 X38.192 Y31.798 E2.10309
G1 X38.394 Y31.763 E2.10751
G1 X41.134 Y31.874 E2.16648
G1 X46.191 Y33.180 E2.27881 F1200.000
G1 X48.712 Y34.469 E2.33970
G1 X56.586 Y41.029 E2.56011
G1 X130.832 Y115.276 E4.81829
G1 X136.149 Y120.702 E4.98168
G1 X139.614 Y125.439 E5.10791
G1 X140.614 Y127.479 E5.15676
G1 X140.851 Y129.738 E5.20561
G1 X140.296 Y131.941 E5.25447
G1 X138.964 Y133.872 E5.30494
G1 X133.872 Y138.964 E5.45978
G1 X132.010 Y140.264 E5.50864
G1 X129.814 Y140.845 E5.55749
G1 X127.552 Y140.635 E5.60634
G1 X125.439 Y139.614 E5.65681
G1 X119.942 Y135.499 E5.80449
G1 X45.192 Y60.749 E8.07799
G1 X40.620 Y56.137 E8.21766
G1 X34.469 Y48.712 E8.42503
G1 X33.180 Y46.191 E8.48591
G1 X31.874 Y41.134 E8.59825
G1 X31.763 Y38.394 E8.65721
G1 X31.799 Y38.187 E8.66174
G1 X32.170 Y36.885 E8.69085
G1 X32.332 Y36.483 E8.70017
G1 X33.162 Y35.008 E8.73657
G1 X33.396 Y34.696 E8.74495
G1 X33.993 Y34.099 E8.76312
G1 F1680.000 E6.76312
G92 E0
G1 X129.206 Y125.175 F12000.000
G1 E2.00000 F1680.000
G1 X133.307 Y129.276 E2.12474 F900.000
G1 X129.276 Y133.307 E2.24732
G1 X125.175 Y129.206 E2.37206
G1 X124.539 Y129.842 E2.39142
G1 X121.357 Y126.660 E2.48820
G1 X121.993 Y126.024 E2.50755
G1 X120.508 Y124.539 E2.55272
G1 X119.872 Y125.175 E2.57207
G1 X118.811 Y124.114 E2.60433
G1 X119.447 Y123.478 E2.62369
G1 X115.205 Y119.235 E2.75273
G1 X114.568 Y119.872 E2.77208
G1 X113.508 Y118.811 E2.80434
G1 X114.144 Y118.175 E2.82370
G1 X112.659 Y116.690 E2.86886
G1 X112.023 Y117.326 E2.88822
G1 X107.780 Y113.083 E3.01726
G1 X108.417 Y112.447 E3.03661
G1 X99.083 Y103.113 E3.32050
G1 X98.446 Y103.750 E3.33985
G1 X97.386 Y102.689 E3.37211
G1 X98.022 Y102.053 E3.39147
G1 X71.930 Y75.960 E4.18506
G1 X71.293 Y76.597 E4.20441
G1 X70.233 Y75.536 E4.23667
G1 X70.869 Y74.900 E4.25603
G1 X50.505 Y54.535 E4.87541
G1 X49.868 Y55.171 E4.89477
G1 X46.686 Y51.989 E4.99155
G1 X47.323 Y51.353 E5.01090
G1 X40.534 Y44.565 E5.21737
G1 X44.565 Y40.534 E5.33995
G1 X51.353 Y47.323 E5.54641
G1 X51.989 Y46.686 E5.56577
G1 X55.171 Y49.868 E5.66255
G1 X54.535 Y50.505 E5.68190
G1 X58.141 Y54.111 E5.79159
G1 X58.778 Y53.474 E5.81094
G1 X63.020 Y57.717 E5.93998
G1 X62.384 Y58.353 E5.95934
G1 X63.869 Y59.838 E6.00450
G1 X64.505 Y59.202 E6.02386
G1 X65.566 Y60.263 E6.05612
G1 X64.930 Y60.899 E6.07547
G1 X68.112 Y64.081 E6.17225
G1 X68.748 Y63.445 E6.19161
G1 X69.809 Y64.505 E6.22387
G1 X69.172 Y65.142 E6.24322
G1 X71.718 Y67.687 E6.32065
G1 X72.354 Y67.051 E6.34000
G1 X76.597 Y71.293 E6.46904
G1 X75.960 Y71.930 E6.48840
G1 X77.445 Y73.415 E6.53356
G1 X78.082 Y72.778 E6.55292
G1 X79.142 Y73.839 E6.58518
G1 X78.506 Y74.475 E6.60453
G1 X85.294 Y81.264 E6.81099
G1 X85.931 Y80.627 E6.83035
G1 X90.173 Y84.870 E6.95939
G1 X89.537 Y85.506 E6.97874
G1 X98.871 Y94.840 E7.26263
G1 X99.507 Y94.204 E7.28199
G1 X103.750 Y98.446 E7.41102
G1 X103.113 Y99.083 E7.43038
G1 X112.447 Y108.417 E7.71427
G1 X113.084 Y107.780 E7.73362
G1 X117.326 Y112.023 E7.86266
G1 X116.690 Y112.659 E7.88202
G1 X118.175 Y114.144 E7.92718
G1 X118.811 Y113.508 E7.94654
G1 X119.872 Y114.568 E7.97879
G1 X119.235 Y115.205 E7.99815
G1 X122.873 Y118.843 E8.10879
G1 X123.478 Y119.447 E8.12719
G1 X124.114 Y118.811 E8.14655
G1 X125.175 Y119.872 E8.17880
G1 X124.539 Y120.508 E8.19816
G1 X126.024 Y121.993 E8.24332
G1 X126.660 Y121.357 E8.26268
G1 X129.842 Y124.539 E8.35946
G1 X129.259 Y125.122 E8.37720
G1 X129.913 Y125.175 F12000.000
G1 X134.014 Y129.276 E8.50194 F720.000
G1 X129.276 Y134.014 E8.64603
G1 X125.175 Y129.913 E8.77077
G1 X124.539 Y130.549 E8.79013
G1 X120.650 Y126.660 E8.90841
G1 X121.286 Y126.024 E8.92777
G1 X120.508 Y125.246 E8.95142
G1 X119.872 Y125.882 E8.97078
G1 X118.104 Y124.114 E9.02455
G1 X118.740 Y123.478 E9.04390
G1 X115.205 Y119.942 E9.15143
G1 X114.568 Y120.579 E9.17079
G1 X112.801 Y118.811 E9.22456
G1 X113.437 Y118.175 E9.24391
G1 X112.659 Y117.397 E9.26757
G1 X112.023 Y118.033 E9.28692
G1 X107.073 Y113.084 E9.43747
G1 X107.709 Y112.447 E9.45683
G1 X99.083 Y103.820 E9.71920
G1 X98.446 Y104.457 E9.73856
G1 X96.679 Y102.689 E9.79233
G1 X97.315 Y102.053 E9.81168
G1 X71.930 Y76.667 E10.58376
G1 X71.293 Y77.304 E10.60312
G1 X69.526 Y75.536 E10.65689
G1 X70.162 Y74.900 E10.67624
G1 X50.505 Y55.242 E11.27412
G1 X49.868 Y55.879 E11.29348
G1 X45.979 Y51.989 E11.41176
G1 X46.615 Y51.353 E11.43112
G1 X39.827 Y44.565 E11.63758
G1 X41.702 Y42.690 E11.69461
G1 X38.428 Y39.415 E11.79420
G1 X38.582 Y39.031 E11.80310
G1 X38.775 Y38.775 E11.81000
G1 X39.031 Y38.582 E11.81689
G1 X39.415 Y38.428 E11.82579
G1 X42.690 Y41.702 E11.92538
G1 X44.565 Y39.827 E11.98241
G1 X51.353 Y46.615 E12.18888
G1 X51.989 Y45.979 E12.20823
G1 X55.879 Y49.868 E12.32652
G1 X55.242 Y50.505 E12.34587
G1 X58.141 Y53.404 E12.43405
G1 X58.778 Y52.767 E12.45341
G1 X63.727 Y57.717 E12.60395
G1 X63.091 Y58.353 E12.62331
G1 X63.869 Y59.131 E12.64696
G1 X64.505 Y58.495 E12.66632
G1 X66.273 Y60.263 E12.72009
G1 X65.637 Y60.899 E12.73944
G1 X68.112 Y63.374 E12.81472
G1 X68.748 Y62.737 E12.83407
G1 X70.516 Y64.505 E12.88784
G1 X69.879 Y65.142 E12.90719
G1 X71.718 Y66.980 E12.96311
G1 X72.354 Y66.344 E12.98247
G1 X77.304 Y71.293 E13.13301
G1 X76.668 Y71.930 E13.15237
G1 X77.445 Y72.708 E13.17602
G1 X78.082 Y72.071 E13.19538
G1 X79.849 Y73.839 E13.24915
G1 X79.213 Y74.475 E13.26850
G1 X85.294 Y80.557 E13.45346
G1 X85.931 Y79.920 E13.47281
G1 X90.880 Y84.870 E13.62336
G1 X90.244 Y85.506 E13.64271
G1 X98.871 Y94.133 E13.90509
G1 X99.507 Y93.497 E13.92445
G1 X104.457 Y98.446 E14.07499
G1 X103.820 Y99.083 E14.09435
G1 X112.447 Y107.709 E14.35673
G1 X113.084 Y107.073 E14.37608
G1 X118.033 Y112.023 E14.52663
G1 X117.397 Y112.659 E14.54598
G1 X118.175 Y113.437 E14.56964
G1 X118.811 Y112.801 E14.58900
G1 X120.579 Y114.568 E14.64276
G1 X119.942 Y115.205 E14.66212
G1 X123.227 Y118.489 E14.76201
G1 X123.478 Y118.740 E14.76965
G1 X124.114 Y118.104 E14.78901
G1 X125.882 Y119.872 E14.84277
G1 X125.246 Y120.508 E14.86213
G1 X126.024 Y121.286 E14.88579
G1 X126.660 Y120.650 E14.90514
G1 X130.549 Y124.539 E15.02343
G1 X129.966 Y125.122 E15.04117
G1 X129.559 Y125.529 F12000.000
G1 X126.277 Y122.224 F12000.000
G1 X128.975 Y124.921 E15.12322 F1200.000
G1 X129.343 Y124.553 E15.13443
G1 X126.646 Y121.855 E15.21648
G1 X124.677 Y119.886 F12000.000
G1 X124.100 Y119.310 E15.23400 F1200.000
G1 X123.732 Y119.678 E15.24521
G1 X124.308 Y120.254 E15.26274
G1 X119.678 Y123.732 F12000.000
G1 X120.254 Y124.308 E15.28027 F1200.000
G1 X119.886 Y124.677 E15.29148
G1 X119.310 Y124.100 E15.30901
G1 X121.855 Y126.646 F12000.000
G1 X124.553 Y129.343 E15.39105 F1200.000
G1 X124.921 Y128.975 E15.40226
G1 X122.224 Y126.277 E15.48431
G1 X114.375 Y118.428 F12000.000
G1 X114.951 Y119.005 E15.50184 F1200.000
G1 X114.583 Y119.373 E15.51305
G1 X114.006 Y118.797 E15.53058
G1 X118.428 Y114.375 F12000.000
G1 X119.005 Y114.951 E15.54810 F1200.000
G1 X119.373 Y114.583 E15.55931
G1 X118.797 Y114.006 E15.57684
G1 X113.069 Y108.279 F12000.000
G1 X116.828 Y112.037 E15.69115 F1200.000
G1 X116.459 Y112.405 E15.70236
G1 X112.701 Y108.647 E15.81667
G1 X108.647 Y112.701 F12000.000
G1 X112.405 Y116.459 E15.93097 F1200.000
G1 X112.037 Y116.828 E15.94218
G1 X108.279 Y113.069 E16.05649
G1 X97.884 Y102.675 F12000.000
G1 X98.461 Y103.251 E16.07402 F1200.000
G1 X98.829 Y102.883 E16.08523
G1 X98.253 Y102.306 E16.10275
G1 X99.124 Y95.071 F12000.000
G1 X102.883 Y98.829 E16.21706 F1200.000
G1 X103.251 Y98.461 E16.22827
G1 X99.493 Y94.702 E16.34258
G1 X85.916 Y81.126 F12000.000
G1 X89.675 Y84.884 E16.45689 F1200.000
G1 X89.306 Y85.253 E16.46809
G1 X85.548 Y81.494 E16.58240
G1 X77.699 Y73.645 F12000.000
G1 X78.275 Y74.222 E16.59993 F1200.000
G1 X78.644 Y73.853 E16.61114
G1 X78.068 Y73.277 E16.62867
G1 X71.100 Y75.153 F12000.000
G1 X71.676 Y75.730 E16.64620 F1200.000
G1 X71.308 Y76.098 E16.65741
G1 X70.731 Y75.522 E16.67493
G1 X71.972 Y67.918 F12000.000
G1 X75.730 Y71.676 E16.78924 F1200.000
G1 X76.098 Y71.308 E16.80045
G1 X72.340 Y67.549 E16.91476
G1 X68.734 Y63.943 F12000.000
G1 X69.310 Y64.519 E16.93229 F1200.000
G1 X68.942 Y64.888 E16.94349
G1 X68.365 Y64.312 E16.96102
G1 X64.123 Y60.069 F12000.000
G1 X64.699 Y60.645 E16.97855 F1200.000
G1 X65.067 Y60.277 E16.98976
G1 X64.491 Y59.700 E17.00729
G1 X58.764 Y53.973 F12000.000
G1 X62.522 Y57.731 E17.12160 F1200.000
G1 X62.153 Y58.100 E17.13280
G1 X58.395 Y54.341 E17.24711
G1 X51.607 Y47.553 F12000.000
G1 X54.304 Y50.251 E17.32916 F1200.000
G1 X54.673 Y49.882 E17.34037
G1 X51.975 Y47.185 E17.42242
G1 X47.553 Y51.607 F12000.000
G1 X50.251 Y54.304 E17.50446 F1200.000
G1 X49.882 Y54.673 E17.51567
G1 X47.185 Y51.975 E17.59772
G1 X41.148 Y44.464 F12000.000
G1 X129.377 Y132.693 E20.28119 F1200.000
G1 X129.745 Y132.325 E20.29240
G1 X41.516 Y44.096 E22.97587
G1 X41.885 Y43.727 E22.98708
G1 X130.114 Y131.956 E25.67054
G1 X130.482 Y131.588 E25.68175
G1 X42.253 Y43.359 E28.36522
G1 X42.622 Y42.990 E28.37643
G1 X130.851 Y131.219 E31.05990
G1 X131.219 Y130.851 E31.07111
G1 X42.990 Y42.622 E33.75458
G1 X43.359 Y42.253 E33.76578
G1 X131.588 Y130.482 E36.44925
G1 X131.956 Y130.114 E36.46046
G1 X43.727 Y41.885 E39.14393
G1 X44.096 Y41.516 E39.15514
G1 X132.325 Y129.745 E41.83861
G1 X132.694 Y129.377 E41.84982
G1 X44.464 Y41.148 E44.53328
G1 X42.373 Y42.373 F12000.000
G1 X39.273 Y39.273 E44.66457 F600.000
G1 X39.311 Y38.739 E44.68061
M104 S188 ; set temperature
G1 F1680.000 E42.68061
G92 E0
G1 Z0.400 F12000.000
G1 X129.206 Y125.175 F12000.000
G1 E2.00000 F1680.000
G1 X133.307 Y129.276 E2.08316 F1800.000
G1 X129.276 Y133.307 E2.16488
G1 X125.175 Y129.206 E2.24804
G1 X124.539 Y129.842 E2.26094
G1 X121.357 Y126.660 E2.32546
G1 X121.993 Y126.024 E2.33837
G1 X120.508 Y124.539 E2.36848
G1 X119.872 Y125.175 E2.38138
G1 X118.811 Y124.114 E2.40289
G1 X119.447 Y123.478 E2.41579
G1 X118.718 Y122.749 E2.43058
G1 X115.205 Y119.235 E2.50182
G1 X114.568 Y119.872 E2.51472
G1 X113.508 Y118.811 E2.53623
G1 X114.144 Y118.175 E2.54913
G1 X112.659 Y116.690 E2.57924
G1 X112.023 Y117.326 E2.59214
G1 X107.780 Y113.083 E2.67817
G1 X108.417 Y112.447 E2.69107
G1 X99.083 Y103.113 E2.88033
G1 X98.446 Y103.750 E2.89323
G1 X97.386 Y102.689 E2.91474
G1 X98.022 Y102.053 E2.92764
G1 X71.930 Y75.960 E3.45670
G1 X71.293 Y76.597 E3.46961
G1 X70.233 Y75.536 E3.49111
G1 X70.869 Y74.900 E3.50402
G1 X50.505 Y54.535 E3.91694
G1 X49.868 Y55.171 E3.92985
G1 X46.686 Y51.989 E3.99437
G1 X47.323 Y51.353 E4.00727
G1 X40.534 Y44.565 E4.14491
G1 X41.985 Y43.114 E4.17433
G1 X38.496 Y39.625 E4.24508
G1 X38.499 Y39.389 E4.24846
G1 X38.557 Y39.055 E4.25332
G1 X38.639 Y38.851 E4.25647
G1 X38.730 Y38.730 E4.25864
G1 X38.851 Y38.639 E4.26081
G1 X39.055 Y38.557 E4.26396
G1 X39.389 Y38.499 E4.26881
G1 X39.625 Y38.496 E4.27220
G1 X43.114 Y41.985 E4.34295
G1 X44.565 Y40.534 E4.37237
G1 X51.353 Y47.323 E4.51001
G1 X51.989 Y46.686 E4.52291
G1 X55.171 Y49.868 E4.58743
G1 X54.535 Y50.505 E4.60034
G1 X58.141 Y54.111 E4.67346
G1 X58.778 Y53.474 E4.68636
G1 X63.020 Y57.717 E4.77239
G1 X62.384 Y58.353 E4.78529
G1 X63.869 Y59.838 E4.81540
G1 X64.505 Y59.202 E4.82830
G1 X65.566 Y60.263 E4.84981
G1 X64.930 Y60.899 E4.86271
G1 X68.112 Y64.081 E4.92723
G1 X68.748 Y63.445 E4.94014
G1 X69.809 Y64.505 E4.96164
G1 X69.172 Y65.142 E4.97455
G1 X71.718 Y67.687 E5.02616
G1 X72.354 Y67.051 E5.03907
G1 X76.597 Y71.293 E5.12509
G1 X75.960 Y71.930 E5.13800
G1 X77.445 Y73.415 E5.16811
G1 X78.082 Y72.778 E5.18101
G1 X79.142 Y73.839 E5.20252
G1 X78.506 Y74.475 E5.21542
G1 X85.294 Y81.264 E5.35306
G1 X85.931 Y80.627 E5.36596
G1 X90.173 Y84.870 E5.45199
G1 X89.537 Y85.506 E5.46489
G1 X98.871 Y94.840 E5.65415
G1 X99.507 Y94.204 E5.66706
G1 X103.750 Y98.446 E5.75308
G1 X103.113 Y99.083 E5.76599
G1 X112.447 Y108.417 E5.95524
G1 X113.084 Y107.780 E5.96815
G1 X117.326 Y112.023 E6.05417
G1 X116.690 Y112.659 E6.06708
G1 X118.175 Y114.144 E6.09718
G1 X118.811 Y113.508 E6.11009
G1 X119.872 Y114.568 E6.13159
G1 X119.235 Y115.205 E6.14450
G1 X123.478 Y119.447 E6.23052
G1 X124.114 Y118.811 E6.24343
G1 X125.175 Y119.872 E6.26493
G1 X124.539 Y120.508 E6.27784
G1 X126.024 Y121.993 E6.30795
G1 X126.660 Y121.357 E6.32085
G1 X129.842 Y124.539 E6.38537
G1 X129.259 Y125.122 E6.39720
G1 X129.913 Y125.175 F12000.000
G1 X134.014 Y129.276 E6.48036 F1440.000
G1 X129.276 Y134.014 E6.57642
G1 X125.175 Y129.913 E6.65958
G1 X124.539 Y130.549 E6.67248
G1 X120.650 Y126.660 E6.75134
G1 X121.286 Y126.024 E6.76424
G1 X120.508 Y125.246 E6.78001
G1 X119.872 Y125.882 E6.79292
G1 X118.104 Y124.114 E6.82876
G1 X118.740 Y123.478 E6.84167
G1 X118.365 Y123.102 E6.84928
G1 X115.205 Y119.942 E6.91335
G1 X114.568 Y120.579 E6.92626
G1 X112.801 Y118.811 E6.96210
G1 X113.437 Y118.175 E6.97501
G1 X112.659 Y117.397 E6.99078
G1 X112.023 Y118.033 E7.00368
G1 X107.073 Y113.084 E7.10404
G1 X107.709 Y112.447 E7.11695
G1 X99.083 Y103.820 E7.29187
G1 X98.446 Y104.457 E7.30477
G1 X96.679 Y102.689 E7.34062
G1 X97.315 Y102.053 E7.35352
G1 X71.930 Y76.667 E7.86824
G1 X71.293 Y77.304 E7.88114
G1 X69.526 Y75.536 E7.91699
G1 X70.162 Y74.900 E7.92989
G1 X50.505 Y55.242 E8.32848
G1 X49.868 Y55.879 E8.34138
G1 X45.979 Y51.989 E8.42024
G1 X46.615 Y51.353 E8.43314
G1 X39.827 Y44.565 E8.57078
G1 X41.278 Y43.114 E8.60020
G1 X40.925 Y42.760 E8.60737
M106 S255
G1 X37.993 Y39.829 E8.72410 F2400.000
G1 X37.995 Y39.689 E8.72803
M106 S102
G1 X38.000 Y39.342 E8.73301 F1440.000
G1 X38.062 Y38.985 E8.73819
M106 S255
G1 X38.200 Y38.604 E8.74961 F2400.000
G1 X38.373 Y38.373 E8.75774
G1 X38.604 Y38.200 E8.76587
G1 X38.985 Y38.062 E8.77728
M106 S102
G1 X39.342 Y38.000 E8.78247 F1440.000
G1 X39.689 Y37.995 E8.78745
M106 S255
G1 X39.829 Y37.993 E8.79137 F2400.000
G1 X42.760 Y40.925 E8.90810
M106 S102
G1 X43.114 Y41.278 E8.91527 F1440.000
G1 X44.565 Y39.827 E8.94469
G1 X51.353 Y46.615 E9.08233
G1 X51.989 Y45.979 E9.09523
G1 X55.879 Y49.868 E9.17409
G1 X55.242 Y50.505 E9.18700
G1 X58.141 Y53.404 E9.24578
G1 X58.778 Y52.767 E9.25868
G1 X63.727 Y57.717 E9.35905
G1 X63.091 Y58.353 E9.37195
G1 X63.869 Y59.131 E9.38772
G1 X64.505 Y58.495 E9.40063
G1 X66.273 Y60.263 E9.43647
G1 X65.637 Y60.899 E9.44937
G1 X68.112 Y63.374 E9.49956
G1 X68.748 Y62.737 E9.51246
G1 X70.516 Y64.505 E9.54830
G1 X69.879 Y65.142 E9.56121
G1 X71.718 Y66.980 E9.59849
G1 X72.354 Y66.344 E9.61139
G1 X77.304 Y71.293 E9.71175
G1 X76.668 Y71.930 E9.72466
G1 X77.445 Y72.708 E9.74043
G1 X78.082 Y72.071 E9.75333
G1 X79.849 Y73.839 E9.78918
G1 X79.213 Y74.475 E9.80208
G1 X85.294 Y80.557 E9.92538
G1 X85.931 Y79.920 E9.93829
G1 X90.880 Y84.870 E10.03865
G1 X90.244 Y85.506 E10.05155
G1 X98.871 Y94.133 E10.22647
G1 X99.507 Y93.497 E10.23938
G1 X104.457 Y98.446 E10.33974
G1 X103.820 Y99.083 E10.35265
G1 X112.447 Y107.709 E10.52756
G1 X113.084 Y107.073 E10.54047
G1 X118.033 Y112.023 E10.64083
G1 X117.397 Y112.659 E10.65374
G1 X118.175 Y113.437 E10.66951
G1 X118.811 Y112.801 E10.68241
G1 X120.579 Y114.568 E10.71825
G1 X119.942 Y115.205 E10.73116
G1 X123.478 Y118.740 E10.80285
G1 X124.114 Y118.104 E10.81575
G1 X125.882 Y119.872 E10.85159
