; generated by Slic3r 0.9.8 on 2013-09-28 at 23:16:56

; layer_height = 0.25
; perimeters = 2
; top_solid_layers = 3
; bottom_solid_layers = 3
; fill_density = 0.5
; perimeter_speed = 40
; infill_speed = 50
; travel_speed = 200
; scale = 1
; nozzle_diameter = 0.5
; filament_diameter = 2.9
; extrusion_multiplier = 0.95
; perimeters extrusion width = 0.80mm
; infill extrusion width = 0.80mm
; first layer extrusion width = 0.77mm

M107
M190 S100 ; wait for bed temperature to be reached
M104 S230 ; set temperature
G28 ; home all axes
G1 Z15 F120 ; lift nozzle
M109 S230 ; wait for temperature to be reached
G90 ; use absolute coordinates
G21 ; set units to millimeters
G92 E0
M82 ; use absolute distances for extrusion
G1 F1680.000 E-2.00000
G92 E0
G1 Z0.438 F12000.000
G1 X49.307 Y96.760
G1 F1680.000 E2.00000
G1 X23.987 Y94.900 F1200.000 E3.13204
G1 X22.727 Y94.690 E3.18900
G1 X21.537 Y94.240 E3.24573
G1 X16.537 Y91.800 E3.49380
G1 X15.117 Y90.870 E3.56949
G1 X13.977 Y89.620 E3.64493
G1 X13.837 Y89.420 E3.65581
G1 X13.477 Y88.840 E3.68625
G1 X13.177 Y88.240 E3.71616
G1 X13.047 Y87.940 E3.73074
G1 X12.747 Y87.090 E3.77093
G1 X12.567 Y86.220 E3.81055
G1 X12.527 Y85.940 E3.82316
G1 X12.457 Y84.970 E3.86652
G1 X12.527 Y84.010 E3.90944
G1 X12.567 Y83.740 E3.92161
G1 X12.757 Y82.880 E3.96088
G1 X13.047 Y82.050 E4.00009
G1 X13.177 Y81.750 E4.01467
G1 X13.477 Y81.150 E4.04458
G1 X13.977 Y80.370 E4.08589
G1 X15.117 Y79.120 E4.16132
G1 X16.537 Y78.190 E4.23701
G1 X21.537 Y75.750 E4.48509
G1 X22.727 Y75.300 E4.54182
G1 X23.987 Y75.090 E4.59877
G1 X49.307 Y73.230 E5.73082
G1 X49.797 Y73.210 E5.75268
G1 X139.457 Y73.210 E9.75055
G1 X140.387 Y73.280 E9.79214
G1 X153.647 Y75.140 E10.38918
G1 X154.977 Y75.460 E10.45018
G1 X156.217 Y76.050 E10.51141
G1 X157.307 Y76.880 E10.57250
G1 X158.207 Y77.920 E10.63382
G1 X158.877 Y79.110 E10.69471
G1 X159.287 Y80.420 E10.75592
G1 X159.427 Y81.780 E10.81688
G1 X159.427 Y88.210 E11.10359
G1 X159.287 Y89.590 E11.16544
G1 X158.857 Y90.910 E11.22734
G1 X158.177 Y92.110 E11.28884
G1 X157.257 Y93.150 E11.35076
G1 X156.147 Y93.980 E11.41256
G1 X154.887 Y94.560 E11.47441
G1 X153.537 Y94.870 E11.53617
G1 X138.457 Y96.730 E12.21367
G1 X137.637 Y96.780 E12.25030
G1 X49.797 Y96.780 E16.16702
G1 X49.413 Y96.764 E16.18415
G1 X49.307 Y96.760 E16.18889
G1 F1680.000 E14.18889
G92 E0
G1 X92.083 Y89.369 F12000.000
G1 F1680.000 E2.00000
G1 X92.083 Y87.509 F1200.000 E2.08294
G1 X78.470 Y87.509 E2.68991
G1 X78.470 Y89.369 E2.77284
G1 X77.013 Y89.369 E2.83781
G1 X77.013 Y87.509 E2.92075
G1 X70.681 Y87.509 E3.20311
G1 X70.681 Y87.549 E3.20489
G1 X65.583 Y87.549 E3.43217
G1 X65.583 Y87.509 E3.43395
G1 X59.251 Y87.509 E3.71631
G1 X59.251 Y87.549 E3.71810
G1 X57.431 Y87.549 E3.79925
G1 X57.431 Y89.369 E3.88040
G1 X50.514 Y89.369 E4.18883
G1 X50.514 Y87.509 E4.27177
G1 X25.195 Y87.509 E5.40073
G1 X25.195 Y82.491 E5.62444
G1 X50.514 Y82.491 E6.75341
G1 X50.514 Y80.631 E6.83634
G1 X51.971 Y80.631 E6.90131
G1 X51.971 Y82.491 E6.98425
G1 X63.763 Y82.491 E7.51007
G1 X63.763 Y82.451 E7.51185
G1 X65.583 Y82.451 E7.59300
G1 X65.583 Y80.631 E7.67416
G1 X72.501 Y80.631 E7.98259
G1 X72.501 Y82.491 E8.06552
G1 X77.013 Y82.491 E8.26673
G1 X77.013 Y80.631 E8.34966
G1 X83.930 Y80.631 E8.65809
G1 X83.930 Y82.451 E8.73925
G1 X85.750 Y82.451 E8.82040
G1 X85.750 Y82.491 E8.82218
G1 X92.083 Y82.491 E9.10454
G1 X92.083 Y80.631 E9.18748
G1 X97.180 Y80.631 E9.41476
G1 X97.180 Y82.491 E9.49769
G1 X103.512 Y82.491 E9.78005
G1 X103.512 Y82.451 E9.78184
G1 X105.332 Y82.451 E9.86299
G1 X105.332 Y80.631 E9.94414
G1 X110.429 Y80.631 E10.17142
G1 X110.429 Y82.451 E10.25257
G1 X112.249 Y82.451 E10.33372
G1 X112.249 Y82.491 E10.33551
G1 X130.012 Y82.491 E11.12751
G1 X130.012 Y82.451 E11.12930
G1 X131.832 Y82.451 E11.21045
G1 X131.832 Y80.631 E11.29160
G1 X138.749 Y80.631 E11.60003
G1 X138.749 Y82.491 E11.68297
G1 X152.012 Y82.491 E12.27435
G1 X152.012 Y87.509 E12.49806
G1 X138.749 Y87.509 E13.08945
G1 X138.749 Y87.549 E13.09123
G1 X136.929 Y87.549 E13.17239
G1 X136.929 Y89.369 E13.25354
G1 X131.832 Y89.369 E13.48082
G1 X131.832 Y87.549 E13.56197
G1 X130.012 Y87.549 E13.64312
G1 X130.012 Y87.509 E13.64490
G1 X110.429 Y87.509 E14.51806
G1 X110.429 Y87.549 E14.51985
G1 X105.332 Y87.549 E14.74712
G1 X105.332 Y87.509 E14.74891
G1 X95.360 Y87.509 E15.19357
G1 X95.360 Y89.369 E15.27651
G1 X92.189 Y89.369 E15.41789
G1 X92.083 Y89.369 E15.42263
G1 X91.374 Y90.077 F12000.000
G1 X91.374 Y88.217 F960.000 E15.50557
G1 X79.179 Y88.217 E16.04934
G1 X79.179 Y90.077 E16.13228
G1 X76.304 Y90.077 E16.26045
G1 X76.304 Y88.217 E16.34338
G1 X71.389 Y88.217 E16.56255
G1 X71.389 Y88.257 E16.56433
G1 X64.875 Y88.257 E16.85480
G1 X64.875 Y88.217 E16.85659
G1 X59.960 Y88.217 E17.07575
G1 X59.960 Y88.257 E17.07754
G1 X58.140 Y88.257 E17.15869
G1 X58.140 Y90.077 E17.23984
G1 X49.805 Y90.077 E17.61146
G1 X49.805 Y88.217 E17.69440
G1 X24.486 Y88.217 E18.82336
G1 X24.486 Y85.777 E18.93218
G1 X19.482 Y85.777 E19.15531
G1 X19.342 Y85.578 E19.16614
G1 X19.212 Y85.273 E19.18095
G1 X19.173 Y85.000 E19.19323
G1 X19.212 Y84.727 E19.20551
G1 X19.342 Y84.422 E19.22032
G1 X19.482 Y84.223 E19.23115
G1 X24.486 Y84.223 E19.45428
G1 X24.486 Y81.783 E19.56310
G1 X49.805 Y81.783 E20.69206
G1 X49.805 Y79.923 E20.77500
G1 X52.680 Y79.923 E20.90316
G1 X52.680 Y81.783 E20.98610
G1 X63.055 Y81.783 E21.44872
G1 X63.055 Y81.743 E21.45051
G1 X64.875 Y81.743 E21.53166
G1 X64.875 Y79.923 E21.61281
G1 X73.209 Y79.923 E21.98444
G1 X73.209 Y81.783 E22.06737
G1 X76.304 Y81.783 E22.20538
G1 X76.304 Y79.923 E22.28832
G1 X84.639 Y79.923 E22.65994
G1 X84.639 Y81.743 E22.74110
G1 X86.459 Y81.743 E22.82225
G1 X86.459 Y81.783 E22.82403
G1 X91.374 Y81.783 E23.04320
G1 X91.374 Y79.923 E23.12613
G1 X97.888 Y79.923 E23.41661
G1 X97.888 Y81.783 E23.49954
G1 X102.804 Y81.783 E23.71871
G1 X102.804 Y81.743 E23.72049
G1 X104.624 Y81.743 E23.80164
G1 X104.624 Y79.923 E23.88280
G1 X111.138 Y79.923 E24.17327
G1 X111.138 Y81.743 E24.25442
G1 X112.958 Y81.743 E24.33557
G1 X112.958 Y81.783 E24.33736
G1 X129.303 Y81.783 E25.06617
G1 X129.303 Y81.743 E25.06795
G1 X131.123 Y81.743 E25.14910
G1 X131.123 Y79.923 E25.23026
G1 X139.457 Y79.923 E25.60188
G1 X139.457 Y81.783 E25.68482
G1 X152.720 Y81.783 E26.27620
G1 X152.720 Y88.217 E26.56311
G1 X139.457 Y88.217 E27.15449
G1 X139.457 Y88.257 E27.15628
G1 X137.637 Y88.257 E27.23743
G1 X137.637 Y90.077 E27.31858
G1 X131.123 Y90.077 E27.60905
G1 X131.123 Y88.257 E27.69021
G1 X129.303 Y88.257 E27.77136
G1 X129.303 Y88.217 E27.77314
G1 X111.138 Y88.217 E28.58311
G1 X111.138 Y88.257 E28.58489
G1 X104.624 Y88.257 E28.87536
G1 X104.624 Y88.217 E28.87714
G1 X96.068 Y88.217 E29.25862
G1 X96.068 Y90.077 E29.34155
G1 X91.480 Y90.077 E29.54613
G1 X91.374 Y90.077 E29.55087
G1 X91.728 Y89.464 F12000.000
G1 X92.566 Y87.955
G1 X93.497 Y88.886 F1800.000 E29.60990
G1 F1680.000 E27.60990
G92 E0
G1 X92.644 Y87.026 F12000.000
G1 F1680.000 E2.00000
G1 X88.593 Y82.974 F1800.000 E2.25690
G1 F1680.000 E0.25690
G92 E0
G1 X83.514 Y82.934 F12000.000
G1 F1680.000 E2.00000
G1 X87.605 Y87.026 F1800.000 E2.25944
G1 X88.613 Y87.026 E2.30463
G1 X84.522 Y82.934 E2.56407
G1 X85.570 Y82.974 E2.61109
G1 X89.621 Y87.026 E2.86799
G1 X90.629 Y87.026 E2.91318
G1 X86.578 Y82.974 E3.17008
G1 X87.585 Y82.974 E3.21527
G1 X91.637 Y87.026 E3.47217
G1 X92.566 Y86.947 E3.51398
G1 X94.504 Y88.886 E3.63693
G1 X94.877 Y88.250 E3.66995
G1 X89.601 Y82.974 E4.00451
G1 X90.609 Y82.974 E4.04970
G1 X94.877 Y87.242 E4.32034
G1 X95.668 Y87.026 F12000.000
G1 X91.617 Y82.974 F1800.000 E4.57725
G1 X92.566 Y82.916 E4.61988
G1 X96.676 Y87.026 E4.88051
G1 X97.683 Y87.026 E4.92571
G1 X92.566 Y81.908 E5.25025
G1 X92.780 Y81.114 E5.28710
G1 X98.691 Y87.026 E5.66196
G1 X99.699 Y87.026 E5.70715
G1 X93.788 Y81.114 E6.08200
G1 X94.796 Y81.114 E6.12719
G1 X96.697 Y83.015 E6.24774
G1 X96.656 Y82.974 F12000.000
G1 X100.707 Y87.026 F1800.000 E6.50464
G1 X101.715 Y87.026 E6.54983
G1 X97.664 Y82.974 E6.80673
G1 X98.671 Y82.974 E6.85193
G1 X102.722 Y87.026 E7.10883
G1 X103.730 Y87.026 E7.15402
G1 X99.679 Y82.974 E7.41092
G1 X100.687 Y82.974 E7.45611
G1 X104.738 Y87.026 E7.71301
G1 X105.746 Y87.026 E7.75820
G1 X101.695 Y82.974 E8.01510
G1 X102.703 Y82.974 E8.06030
G1 X106.794 Y87.066 E8.31973
G1 X107.802 Y87.066 E8.36492
G1 X103.710 Y82.974 E8.62436
G1 X104.678 Y82.934 E8.66780
G1 X108.809 Y87.066 E8.92977
G1 X109.817 Y87.066 E8.97496
G1 X105.686 Y82.934 E9.23694
G1 X105.815 Y82.056 E9.27676
G1 X110.785 Y87.026 E9.59192
G1 X111.793 Y87.026 E9.63711
G1 X105.882 Y81.114 E10.01196
G1 X106.890 Y81.114 E10.05716
G1 X112.801 Y87.026 E10.43201
G1 X113.808 Y87.026 E10.47720
G1 X109.717 Y82.934 E10.73664
G1 X109.946 Y83.163 F12000.000
G1 X107.897 Y81.114 F1800.000 E10.86657
G1 X108.905 Y81.114 E10.91177
G1 X109.946 Y82.156 E10.97779
G1 X110.725 Y82.934 F12000.000
G1 X114.816 Y87.026 F1800.000 E11.23723
G1 X115.824 Y87.026 E11.28242
G1 X111.773 Y82.974 E11.53932
G1 X112.781 Y82.974 E11.58451
G1 X116.832 Y87.026 E11.84141
G1 X117.840 Y87.026 E11.88661
G1 X113.789 Y82.974 E12.14351
G1 X114.796 Y82.974 E12.18870
G1 X118.847 Y87.026 E12.44560
G1 X119.855 Y87.026 E12.49079
G1 X115.804 Y82.974 E12.74769
G1 X116.812 Y82.974 E12.79288
G1 X120.863 Y87.026 E13.04978
G1 X121.871 Y87.026 E13.09498
G1 X117.820 Y82.974 E13.35188
G1 X118.828 Y82.974 E13.39707
G1 X122.879 Y87.026 E13.65397
G1 X123.887 Y87.026 E13.69916
G1 X119.835 Y82.974 E13.95606
G1 X120.843 Y82.974 E14.00125
G1 X124.894 Y87.026 E14.25815
G1 X125.902 Y87.026 E14.30334
G1 X121.851 Y82.974 E14.56025
G1 X122.859 Y82.974 E14.60544
G1 X126.910 Y87.026 E14.86234
G1 X127.918 Y87.026 E14.90753
G1 X123.867 Y82.974 E15.16443
G1 X124.875 Y82.974 E15.20962
G1 X128.926 Y87.026 E15.46652
G1 X129.933 Y87.026 E15.51171
G1 X125.882 Y82.974 E15.76862
G1 X126.890 Y82.974 E15.81381
G1 X130.941 Y87.026 E16.07071
G1 X130.981 Y87.066 F12000.000
G1 X130.495 Y86.579 F1800.000 E16.10156
G1 X131.989 Y87.066 E16.17204
G1 X127.898 Y82.974 E16.43147
G1 X128.906 Y82.974 E16.47667
G1 X134.817 Y88.886 E16.85152
G1 X133.809 Y88.886 E16.89671
G1 X132.315 Y87.391 E16.99148
G1 X132.315 Y88.399 E17.03667
G1 X132.801 Y88.886 E17.06753
G1 F1680.000 E15.06753
G92 E0
G1 X135.825 Y88.886 F12000.000
G1 F1680.000 E2.00000
G1 X129.914 Y82.974 F1800.000 E2.37485
G1 X130.881 Y82.934 E2.41829
G1 X136.446 Y88.499 E2.77115
G1 X136.446 Y87.491 E2.81634
G1 X131.889 Y82.934 E3.10530
G1 X132.315 Y82.352 F12000.000
G1 X137.028 Y87.066 F1800.000 E3.40420
G1 X138.036 Y87.066 E3.44939
G1 X132.315 Y81.344 E3.81221
G1 X133.093 Y81.114 E3.84859
G1 X139.004 Y87.026 E4.22344
G1 X140.012 Y87.026 E4.26863
G1 X134.100 Y81.114 E4.64349
G1 X135.108 Y81.114 E4.68868
G1 X141.019 Y87.026 E5.06353
G1 X142.027 Y87.026 E5.10872
G1 X137.976 Y82.974 E5.36562
G1 X138.266 Y83.264 F12000.000
G1 X136.116 Y81.114 F1800.000 E5.50194
G1 X137.124 Y81.114 E5.54714
G1 X138.266 Y82.256 E5.61955
G1 X138.984 Y82.974 F12000.000
G1 X143.035 Y87.026 F1800.000 E5.87645
G1 X144.043 Y87.026 E5.92164
G1 X139.992 Y82.974 E6.17854
G1 X141.000 Y82.974 E6.22373
G1 X145.051 Y87.026 E6.48063
G1 X146.058 Y87.026 E6.52582
G1 X142.007 Y82.974 E6.78272
G1 X143.015 Y82.974 E6.82792
G1 X147.066 Y87.026 E7.08482
G1 X148.074 Y87.026 E7.13001
G1 X144.023 Y82.974 E7.38691
G1 X145.031 Y82.974 E7.43210
G1 X149.082 Y87.026 E7.68900
G1 X150.090 Y87.026 E7.73419
G1 X146.039 Y82.974 E7.99109
G1 X147.046 Y82.974 E8.03628
G1 X151.097 Y87.026 E8.29319
G1 X151.529 Y86.449 E8.32547
G1 X148.054 Y82.974 E8.54581
G1 X149.062 Y82.974 E8.59100
G1 X151.529 Y85.441 E8.74743
G1 X151.529 Y84.433 E8.79262
G1 X150.070 Y82.974 E8.88514
G1 X151.078 Y82.974 E8.93033
G1 X151.529 Y83.426 E8.95894
G1 F1680.000 E6.95894
G92 E0
G1 X96.697 Y82.008 F12000.000
G1 F1680.000 E2.00000
G1 X95.804 Y81.114 F1800.000 E2.05664
G1 F1680.000 E0.05664
G92 E0
G1 X83.447 Y81.860 F12000.000
G1 F1680.000 E2.00000
G1 X82.702 Y81.114 F1800.000 E2.04725
G1 X83.447 Y82.867 F12000.000
G1 X81.694 Y81.114 F1800.000 E2.15841
G1 X80.686 Y81.114 E2.20360
G1 X86.598 Y87.026 E2.57845
G1 X85.590 Y87.026 E2.62364
G1 X79.679 Y81.114 E2.99850
G1 X78.671 Y81.114 E3.04369
G1 X84.582 Y87.026 E3.41854
G1 X83.574 Y87.026 E3.46373
G1 X77.663 Y81.114 E3.83859
G1 X77.496 Y81.955 E3.87703
G1 X82.566 Y87.026 E4.19856
G1 X81.558 Y87.026 E4.24375
G1 X77.496 Y82.963 E4.50137
G1 X76.500 Y82.974 E4.54606
G1 X80.551 Y87.026 E4.80296
G1 X79.543 Y87.026 E4.84815
G1 X75.492 Y82.974 E5.10505
G1 X74.484 Y82.974 E5.15024
G1 X78.535 Y87.026 E5.40714
G1 X77.527 Y87.026 E5.45233
G1 X73.476 Y82.974 E5.70923
G1 X72.468 Y82.974 F12000.000
G1 X76.519 Y87.026 F1800.000 E5.96614
G1 X75.512 Y87.026 E6.01133
G1 X69.601 Y81.114 E6.38618
G1 X68.593 Y81.114 E6.43137
G1 X74.504 Y87.026 E6.80623
G1 X73.496 Y87.026 E6.85142
G1 X67.585 Y81.114 E7.22627
G1 X66.577 Y81.114 E7.27146
G1 X72.488 Y87.026 E7.64632
G1 X71.480 Y87.026 E7.69151
G1 X66.066 Y81.612 E8.03483
G1 X66.066 Y82.619 E8.08002
G1 X70.473 Y87.026 E8.35944
G1 X69.505 Y87.066 E8.40287
G1 X65.374 Y82.934 E8.66485
G1 X64.366 Y82.934 E8.71004
G1 X68.497 Y87.066 E8.97201
G1 X67.489 Y87.066 E9.01720
G1 X63.398 Y82.974 E9.27664
G1 X62.390 Y82.974 E9.32183
G1 X66.441 Y87.026 E9.57873
G1 X65.433 Y87.026 E9.62393
G1 X61.382 Y82.974 E9.88083
G1 X60.375 Y82.974 E9.92602
G1 X64.426 Y87.026 E10.18292
G1 X63.418 Y87.026 E10.22811
G1 X59.367 Y82.974 E10.48501
G1 X58.359 Y82.974 E10.53020
G1 X62.410 Y87.026 E10.78710
G1 X61.402 Y87.026 E10.83229
G1 X57.351 Y82.974 E11.08920
G1 X56.343 Y82.974 E11.13439
G1 X60.394 Y87.026 E11.39129
G1 X59.387 Y87.026 E11.43648
G1 X55.336 Y82.974 E11.69338
G1 X54.328 Y82.974 E11.73857
G1 X58.419 Y87.066 E11.99801
G1 X57.411 Y87.066 E12.04320
G1 X53.320 Y82.974 E12.30264
G1 X52.312 Y82.974 E12.34783
G1 X56.948 Y87.610 E12.64181
G1 X56.948 Y88.618 E12.68701
G1 X51.304 Y82.974 E13.04490
G1 X50.296 Y82.974 E13.09009
G1 X56.208 Y88.886 E13.46494
G1 X55.200 Y88.886 E13.51014
G1 X49.289 Y82.974 E13.88499
G1 X48.281 Y82.974 E13.93018
G1 X54.192 Y88.886 E14.30503
G1 F1680.000 E12.30503
G92 E0
G1 X50.997 Y87.706 F12000.000
G1 F1680.000 E2.00000
G1 X52.176 Y88.886 F1800.000 E2.07479
G1 X53.184 Y88.886 E2.11999
G1 X50.997 Y86.698 E2.25869
G1 X51.324 Y87.026 F12000.000
G1 X47.273 Y82.974 F1800.000 E2.51559
G1 X46.265 Y82.974 E2.56078
G1 X50.316 Y87.026 E2.81769
G1 X49.308 Y87.026 E2.86288
G1 X45.257 Y82.974 E3.11978
G1 X44.250 Y82.974 E3.16497
G1 X48.301 Y87.026 E3.42187
G1 X47.293 Y87.026 E3.46706
G1 X43.242 Y82.974 E3.72396
G1 X42.234 Y82.974 E3.76915
G1 X46.285 Y87.026 E4.02606
G1 X45.277 Y87.026 E4.07125
G1 X41.226 Y82.974 E4.32815
G1 X40.218 Y82.974 E4.37334
G1 X44.269 Y87.026 E4.63024
G1 X43.262 Y87.026 E4.67543
G1 X39.211 Y82.974 E4.93233
G1 X38.203 Y82.974 E4.97752
G1 X42.254 Y87.026 E5.23442
G1 X41.246 Y87.026 E5.27962
G1 X37.195 Y82.974 E5.53652
G1 X36.187 Y82.974 E5.58171
G1 X40.238 Y87.026 E5.83861
G1 X39.230 Y87.026 E5.88380
G1 X35.179 Y82.974 E6.14070
G1 X34.171 Y82.974 E6.18589
G1 X38.223 Y87.026 E6.44279
G1 X37.215 Y87.026 E6.48799
G1 X33.164 Y82.974 E6.74489
G1 X32.156 Y82.974 E6.79008
G1 X36.207 Y87.026 E7.04698
G1 X35.199 Y87.026 E7.09217
G1 X31.148 Y82.974 E7.34907
G1 X30.140 Y82.974 E7.39426
G1 X34.191 Y87.026 E7.65116
G1 X33.183 Y87.026 E7.69636
G1 X29.132 Y82.974 E7.95326
G1 X28.125 Y82.974 E7.99845
G1 X32.176 Y87.026 E8.25535
G1 X31.168 Y87.026 E8.30054
G1 X27.117 Y82.974 E8.55744
G1 X26.109 Y82.974 E8.60263
G1 X30.160 Y87.026 E8.85953
G1 X29.152 Y87.026 E8.90473
G1 X25.678 Y83.551 E9.12507
G1 X25.678 Y84.559 E9.17026
G1 X28.144 Y87.026 E9.32669
G1 X27.137 Y87.026 E9.37188
G1 X25.678 Y85.567 E9.46441
