; generated by Slic3r 1.1.7 on 2014-12-03 at 19:20:31

; perimeters extrusion width = 0.50mm
; infill extrusion width = 0.50mm
; solid infill extrusion width = 0.50mm
; top infill extrusion width = 0.50mm

G21 ; set units to millimeters
M104 S190 ; set temperature
G28 ; home all axes
G1 Z15 F120 ; lift nozzle
M109 S190 ; wait for temperature to be reached
G90 ; use absolute coordinates
G92 E0
M82 ; use absolute distances for extrusion
M106 S102
G1 F1680.000 E-2.00000
G92 E0
G1 Z0.200 F12000.000
G1 X33.582 Y33.582 F12000.000
G1 E2.00000 F1680.000
G1 X36.128 Y31.036 E2.07742 F1200.000
G1 X37.990 Y29.736 E2.12628
G1 X40.186 Y29.155 E2.17513
G1 X42.448 Y29.365 E2.22398
G1 X44.296 Y30.202 E2.26762 F1200.000
G1 X48.015 Y32.649 E2.36336
G1 X49.039 Y33.483 E2.39177
G1 X124.743 Y109.186 E4.69426
G1 X130.419 Y114.918 E4.86775
G1 X135.595 Y121.367 E5.04559
G1 X136.820 Y123.809 E5.10435
G1 X138.126 Y128.866 E5.21669
G1 X138.237 Y131.606 E5.27565
G1 X138.202 Y131.808 E5.28006
G1 X137.830 Y133.115 E5.30928
G1 X137.669 Y133.516 E5.31859
G1 X136.838 Y134.992 E5.35501
G1 X136.604 Y135.304 E5.36339
G1 X135.303 Y136.604 E5.40294
G1 X134.992 Y136.838 E5.41132
G1 X133.516 Y137.669 E5.44775
G1 X133.113 Y137.831 E5.45710
G1 X131.805 Y138.202 E5.48633
G1 X131.606 Y138.237 E5.49068
G1 X128.866 Y138.126 E5.54965
G1 X123.809 Y136.820 E5.66198
G1 X121.367 Y135.595 E5.72074
G1 X114.390 Y129.946 E5.91380
G1 X33.483 Y49.039 E8.37456
G1 X32.649 Y48.015 E8.40297
G1 X30.202 Y44.296 E8.49872
G1 X29.305 Y42.209 E8.54757
G1 X29.180 Y39.941 E8.59642
G1 X29.843 Y37.768 E8.64528
G1 X31.036 Y36.128 E8.68891
G1 X33.529 Y33.635 E8.76472
G1 F1680.000 E6.76472
G92 E0
G1 X119.623 Y123.653 F12000.000
G1 E2.00000 F1680.000
G1 X118.986 Y124.290 E2.01936 F900.000
G1 X114.744 Y120.047 E2.14839
G1 X115.380 Y119.411 E2.16775
G1 X111.689 Y115.720 E2.28001
G1 X111.053 Y116.356 E2.29937
G1 X107.871 Y113.174 E2.39615
G1 X108.507 Y112.538 E2.41550
G1 X104.816 Y108.846 E2.52777
G1 X104.180 Y109.483 E2.54712
G1 X100.998 Y106.301 E2.64390
G1 X101.634 Y105.664 E2.66326
G1 X97.943 Y101.973 E2.77552
G1 X97.306 Y102.610 E2.79488
G1 X94.124 Y99.428 E2.89166
G1 X94.761 Y98.791 E2.91101
G1 X92.698 Y96.728 E2.97377
G1 X92.130 Y96.161 E2.99102
G1 X91.494 Y96.797 E3.01037
G1 X90.433 Y95.737 E3.04263
G1 X91.070 Y95.100 E3.06199
G1 X87.888 Y91.918 E3.15877
G1 X87.251 Y92.555 E3.17812
G1 X86.191 Y91.494 E3.21038
G1 X86.827 Y90.858 E3.22974
G1 X77.324 Y81.354 E3.51879
G1 X76.687 Y81.991 E3.53814
G1 X72.445 Y77.748 E3.66718
G1 X73.081 Y77.111 E3.68654
G1 X70.451 Y74.481 E3.76654
G1 X69.814 Y75.117 E3.78590
G1 X66.632 Y71.935 E3.88268
G1 X67.269 Y71.299 E3.90203
G1 X56.704 Y60.735 E4.22334
G1 X56.068 Y61.371 E4.24269
G1 X52.886 Y58.189 E4.33947
G1 X53.522 Y57.553 E4.35883
G1 X50.892 Y54.922 E4.43883
G1 X50.256 Y55.559 E4.45819
G1 X49.195 Y54.498 E4.49045
G1 X49.831 Y53.862 E4.50980
G1 X45.589 Y49.619 E4.63884
G1 X44.952 Y50.256 E4.65820
G1 X43.892 Y49.195 E4.69046
G1 X44.528 Y48.559 E4.70981
G1 X42.958 Y46.989 E4.75756
G1 X42.322 Y47.625 E4.77691
G1 X39.140 Y44.443 E4.87369
G1 X39.776 Y43.807 E4.89305
G1 X36.693 Y40.724 E4.98682
G1 X40.724 Y36.693 E5.10940
G1 X43.807 Y39.776 E5.20317
G1 X44.443 Y39.140 E5.22253
G1 X47.625 Y42.322 E5.31931
G1 X46.989 Y42.958 E5.33866
G1 X48.558 Y44.528 E5.38641
G1 X49.195 Y43.892 E5.40576
G1 X50.256 Y44.952 E5.43802
G1 X49.619 Y45.589 E5.45738
G1 X53.862 Y49.831 E5.58642
G1 X54.498 Y49.195 E5.60577
G1 X55.559 Y50.256 E5.63803
G1 X54.922 Y50.892 E5.65739
G1 X55.525 Y51.494 E5.67571
G1 X57.553 Y53.522 E5.73739
G1 X58.189 Y52.886 E5.75675
G1 X61.371 Y56.068 E5.85353
G1 X60.735 Y56.704 E5.87288
G1 X77.111 Y73.081 E6.37097
G1 X77.748 Y72.445 E6.39033
G1 X78.809 Y73.505 E6.42259
G1 X78.172 Y74.142 E6.44194
G1 X106.725 Y102.695 E7.31037
G1 X107.361 Y102.058 E7.32973
G1 X109.483 Y104.180 E7.39425
G1 X108.846 Y104.816 E7.41361
G1 X119.411 Y115.380 E7.73491
G1 X120.047 Y114.744 E7.75427
G1 X124.290 Y118.986 E7.88331
G1 X123.653 Y119.623 E7.90266
G1 X129.466 Y125.435 E8.07944
G1 X125.435 Y129.466 E8.20203
G1 X119.676 Y123.706 E8.37720
G1 X119.623 Y124.360 F12000.000
G1 X118.986 Y124.997 E8.39656 F720.000
G1 X114.037 Y120.047 E8.54710
G1 X114.673 Y119.411 E8.56646
G1 X111.689 Y116.427 E8.65722
G1 X111.053 Y117.063 E8.67657
G1 X107.164 Y113.174 E8.79486
G1 X107.800 Y112.538 E8.81421
G1 X104.816 Y109.554 E8.90497
G1 X104.180 Y110.190 E8.92433
G1 X100.290 Y106.301 E9.04261
G1 X100.927 Y105.664 E9.06197
G1 X97.943 Y102.680 E9.15272
G1 X97.306 Y103.317 E9.17208
G1 X93.417 Y99.428 E9.29037
G1 X94.054 Y98.791 E9.30972
G1 X92.344 Y97.082 E9.36172
G1 X92.130 Y96.868 E9.36822
G1 X91.494 Y97.504 E9.38758
G1 X89.726 Y95.737 E9.44134
G1 X90.363 Y95.100 E9.46070
G1 X87.888 Y92.625 E9.53597
G1 X87.251 Y93.262 E9.55533
G1 X85.484 Y91.494 E9.60909
G1 X86.120 Y90.858 E9.62845
G1 X77.698 Y82.436 E9.88459
G1 X77.324 Y82.061 E9.89599
G1 X76.687 Y82.698 E9.91534
G1 X71.737 Y77.748 E10.06589
G1 X72.374 Y77.111 E10.08524
G1 X70.451 Y75.188 E10.14374
G1 X69.814 Y75.825 E10.16310
G1 X65.925 Y71.935 E10.28138
G1 X66.561 Y71.299 E10.30074
G1 X56.704 Y61.442 E10.60054
G1 X56.068 Y62.078 E10.61990
G1 X52.179 Y58.189 E10.73818
G1 X52.815 Y57.553 E10.75754
G1 X50.892 Y55.630 E10.81603
G1 X50.256 Y56.266 E10.83539
G1 X48.488 Y54.498 E10.88916
G1 X49.124 Y53.862 E10.90851
G1 X45.589 Y50.326 E11.01604
G1 X44.952 Y50.963 E11.03540
G1 X43.184 Y49.195 E11.08917
G1 X43.821 Y48.559 E11.10852
G1 X42.958 Y47.696 E11.13476
G1 X42.322 Y48.332 E11.15412
G1 X38.433 Y44.443 E11.27240
G1 X39.069 Y43.807 E11.29176
G1 X35.986 Y40.724 E11.38552
G1 X40.724 Y35.986 E11.52962
G1 X43.807 Y39.069 E11.62339
G1 X44.443 Y38.433 E11.64274
G1 X48.332 Y42.322 E11.76103
G1 X47.696 Y42.958 E11.78038
G1 X48.558 Y43.821 E11.80662
G1 X49.195 Y43.184 E11.82598
G1 X50.963 Y44.952 E11.87974
G1 X50.326 Y45.589 E11.89910
G1 X53.862 Y49.124 E12.00663
G1 X54.498 Y48.488 E12.02599
G1 X56.266 Y50.256 E12.07975
G1 X55.630 Y50.892 E12.09911
G1 X55.878 Y51.141 E12.10668
G1 X57.553 Y52.815 E12.15761
G1 X58.189 Y52.179 E12.17696
G1 X62.078 Y56.068 E12.29525
G1 X61.442 Y56.704 E12.31460
G1 X77.111 Y72.374 E12.79119
G1 X77.748 Y71.737 E12.81054
G1 X79.516 Y73.505 E12.86431
G1 X78.879 Y74.142 E12.88366
G1 X106.725 Y101.987 E13.73059
G1 X107.361 Y101.351 E13.74994
G1 X110.190 Y104.180 E13.83597
G1 X109.554 Y104.816 E13.85533
G1 X119.411 Y114.673 E14.15513
G1 X120.047 Y114.037 E14.17448
G1 X124.997 Y118.986 E14.32503
G1 X124.360 Y119.623 E14.34438
G1 X130.173 Y125.435 E14.52117
G1 X128.298 Y127.310 E14.57820
G1 X131.572 Y130.585 E14.67779
G1 X131.418 Y130.969 E14.68669
G1 X131.225 Y131.225 E14.69358
G1 X130.969 Y131.418 E14.70048
G1 X130.585 Y131.572 E14.70938
G1 X127.310 Y128.298 E14.80897
G1 X125.435 Y130.173 E14.86600
G1 X119.676 Y124.413 E15.04117
G1 X119.269 Y124.007 F12000.000
G1 X115.242 Y120.033 F12000.000
G1 X119.000 Y123.791 E15.15548 F1200.000
G1 X119.369 Y123.423 E15.16669
G1 X115.611 Y119.664 E15.28099
G1 X119.664 Y115.611 F12000.000
G1 X123.423 Y119.369 E15.39530 F1200.000
G1 X123.791 Y119.000 E15.40651
G1 X120.033 Y115.242 E15.52082
G1 X108.738 Y112.791 F12000.000
G1 X111.435 Y115.489 E15.60287 F1200.000
G1 X111.067 Y115.857 E15.61407
G1 X108.369 Y113.160 E15.69612
G1 X101.496 Y106.287 F12000.000
G1 X104.194 Y108.984 E15.77817 F1200.000
G1 X104.562 Y108.616 E15.78938
G1 X101.865 Y105.918 E15.87143
G1 X106.979 Y102.925 F12000.000
G1 X108.616 Y104.562 E15.92121 F1200.000
G1 X108.984 Y104.194 E15.93242
G1 X107.347 Y102.557 E15.98221
G1 X94.991 Y99.045 F12000.000
G1 X97.689 Y101.743 E16.06426 F1200.000
G1 X97.321 Y102.111 E16.07547
G1 X94.623 Y99.414 E16.15752
G1 X90.932 Y95.723 F12000.000
G1 X91.508 Y96.299 E16.17504 F1200.000
G1 X91.877 Y95.930 E16.18625
G1 X91.300 Y95.354 E16.20378
G1 X87.058 Y91.111 F12000.000
G1 X87.634 Y91.688 E16.22131 F1200.000
G1 X87.266 Y92.056 E16.23252
G1 X86.689 Y91.480 E16.25005
G1 X72.943 Y77.734 F12000.000
G1 X76.701 Y81.492 E16.36435 F1200.000
G1 X77.070 Y81.124 E16.37556
G1 X73.312 Y77.365 E16.48987
G1 X77.365 Y73.312 F12000.000
G1 X77.942 Y73.888 E16.50740 F1200.000
G1 X78.310 Y73.519 E16.51861
G1 X77.734 Y72.943 E16.53614
G1 X67.499 Y71.553 F12000.000
G1 X70.197 Y74.250 E16.61818 F1200.000
G1 X69.828 Y74.619 E16.62939
G1 X67.131 Y71.921 E16.71144
G1 X53.384 Y58.175 F12000.000
G1 X56.082 Y60.873 E16.79349 F1200.000
G1 X56.451 Y60.504 E16.80470
G1 X53.753 Y57.807 E16.88674
G1 X50.638 Y54.692 F12000.000
G1 X50.062 Y54.116 E16.90427 F1200.000
G1 X49.693 Y54.484 E16.91548
G1 X50.270 Y55.060 E16.93301
G1 X54.116 Y50.062 F12000.000
G1 X54.692 Y50.638 E16.95054 F1200.000
G1 X55.060 Y50.270 E16.96175
G1 X54.484 Y49.693 E16.97927
G1 X58.175 Y53.384 F12000.000
G1 X60.873 Y56.082 E17.06132 F1200.000
G1 X60.504 Y56.451 E17.07253
G1 X57.807 Y53.753 E17.15458
G1 X48.812 Y44.759 F12000.000
G1 X49.389 Y45.335 E17.17211 F1200.000
G1 X49.757 Y44.966 E17.18332
G1 X49.181 Y44.390 E17.20084
G1 X44.759 Y48.812 F12000.000
G1 X45.335 Y49.389 E17.21837 F1200.000
G1 X44.966 Y49.757 E17.22958
G1 X44.390 Y49.181 E17.24711
G1 X39.638 Y44.429 F12000.000
G1 X42.336 Y47.127 E17.32916 F1200.000
G1 X42.704 Y46.758 E17.34037
G1 X40.007 Y44.060 E17.42241
G1 X37.307 Y40.623 F12000.000
G1 X125.536 Y128.852 E20.10588 F1200.000
G1 X125.904 Y128.484 E20.11709
G1 X37.675 Y40.255 E22.80056
G1 X38.044 Y39.886 E22.81177
G1 X126.273 Y128.115 E25.49524
G1 X126.641 Y127.747 E25.50645
G1 X38.412 Y39.518 E28.18991
G1 X38.781 Y39.149 E28.20112
G1 X127.010 Y127.378 E30.88459
G1 X127.378 Y127.010 E30.89580
G1 X39.149 Y38.781 E33.57927
G1 X39.518 Y38.412 E33.59048
G1 X127.747 Y126.641 E36.27395
G1 X128.115 Y126.273 E36.28515
G1 X39.886 Y38.044 E38.96862
G1 X40.255 Y37.675 E38.97983
G1 X128.484 Y125.904 E41.66330
G1 X128.852 Y125.536 E41.67451
G1 X40.623 Y37.307 E44.35798
G1 X44.060 Y40.007 F12000.000
G1 X46.758 Y42.704 E44.44002 F1200.000
G1 X47.127 Y42.336 E44.45123
G1 X44.429 Y39.638 E44.53328
G1 X127.627 Y127.627 F12000.000
G1 X131.047 Y131.047 E44.67812 F600.000
M104 S188 ; set temperature
G1 F1680.000 E42.67812
G92 E0
G1 Z0.400 F12000.000
G1 X119.623 Y123.653 F12000.000
G1 E2.00000 F1680.000
G1 X118.986 Y124.290 E2.01290 F1800.000
G1 X114.744 Y120.047 E2.09893
G1 X115.380 Y119.411 E2.11183
G1 X111.689 Y115.720 E2.18668
G1 X111.053 Y116.356 E2.19958
G1 X107.871 Y113.174 E2.26410
G1 X108.507 Y112.538 E2.27700
G1 X104.816 Y108.846 E2.35185
G1 X104.180 Y109.483 E2.36475
G1 X100.998 Y106.301 E2.42927
G1 X101.634 Y105.664 E2.44217
G1 X97.943 Y101.973 E2.51702
G1 X97.306 Y102.610 E2.52992
G1 X94.124 Y99.428 E2.59444
G1 X94.761 Y98.791 E2.60734
G1 X92.130 Y96.161 E2.66068
G1 X91.494 Y96.797 E2.67358
G1 X90.433 Y95.737 E2.69509
G1 X91.070 Y95.100 E2.70799
G1 X87.888 Y91.918 E2.77251
G1 X87.251 Y92.555 E2.78542
G1 X86.191 Y91.494 E2.80692
G1 X86.827 Y90.858 E2.81983
G1 X78.382 Y82.412 E2.99107
G1 X77.324 Y81.354 E3.01252
G1 X76.687 Y81.991 E3.02543
G1 X72.445 Y77.748 E3.11145
G1 X73.081 Y77.111 E3.12436
G1 X70.451 Y74.481 E3.17769
G1 X69.814 Y75.117 E3.19060
G1 X66.632 Y71.935 E3.25512
G1 X67.269 Y71.299 E3.26802
G1 X56.704 Y60.735 E3.48223
G1 X56.068 Y61.371 E3.49513
G1 X52.886 Y58.189 E3.55965
G1 X53.522 Y57.553 E3.57255
G1 X50.892 Y54.922 E3.62589
G1 X50.256 Y55.559 E3.63879
G1 X49.195 Y54.498 E3.66030
G1 X49.831 Y53.862 E3.67320
G1 X45.589 Y49.619 E3.75923
G1 X44.952 Y50.256 E3.77213
G1 X43.892 Y49.195 E3.79364
G1 X44.528 Y48.559 E3.80654
G1 X42.958 Y46.989 E3.83837
G1 X42.322 Y47.625 E3.85128
G1 X39.140 Y44.443 E3.91580
G1 X39.776 Y43.807 E3.92870
G1 X36.693 Y40.724 E3.99121
G1 X40.724 Y36.693 E4.07294
G1 X43.807 Y39.776 E4.13545
G1 X44.443 Y39.140 E4.14835
G1 X47.625 Y42.322 E4.21287
G1 X46.989 Y42.958 E4.22578
G1 X48.558 Y44.528 E4.25760
G1 X49.195 Y43.892 E4.27051
G1 X50.256 Y44.952 E4.29201
G1 X49.619 Y45.589 E4.30492
G1 X53.862 Y49.831 E4.39094
G1 X54.498 Y49.195 E4.40385
G1 X55.559 Y50.256 E4.42536
G1 X54.922 Y50.892 E4.43826
G1 X55.551 Y51.520 E4.45100
G1 X57.553 Y53.522 E4.49159
G1 X58.189 Y52.886 E4.50450
G1 X61.371 Y56.068 E4.56902
G1 X60.735 Y56.704 E4.58192
G1 X77.111 Y73.081 E4.91398
G1 X77.748 Y72.445 E4.92689
G1 X78.809 Y73.505 E4.94839
G1 X78.172 Y74.142 E4.96130
G1 X106.725 Y102.695 E5.54025
G1 X107.361 Y102.058 E5.55315
G1 X109.483 Y104.180 E5.59617
G1 X108.846 Y104.816 E5.60907
G1 X119.411 Y115.380 E5.82327
G1 X120.047 Y114.744 E5.83618
G1 X124.290 Y118.986 E5.92220
G1 X123.653 Y119.623 E5.93511
G1 X129.466 Y125.435 E6.05296
G1 X128.015 Y126.886 E6.08238
G1 X131.504 Y130.375 E6.15313
G1 X131.501 Y130.611 E6.15652
G1 X131.443 Y130.945 E6.16137
G1 X131.361 Y131.149 E6.16452
G1 X131.270 Y131.270 E6.16669
G1 X131.149 Y131.361 E6.16886
G1 X130.945 Y131.443 E6.17201
G1 X130.611 Y131.501 E6.17687
G1 X130.375 Y131.504 E6.18025
G1 X126.886 Y128.015 E6.25100
G1 X125.435 Y129.466 E6.28042
G1 X119.676 Y123.706 E6.39720
G1 X119.623 Y124.360 F12000.000
G1 X118.986 Y124.997 E6.41010 F1440.000
G1 X114.037 Y120.047 E6.51047
G1 X114.673 Y119.411 E6.52337
G1 X111.689 Y116.427 E6.58388
G1 X111.053 Y117.063 E6.59678
G1 X107.164 Y113.174 E6.67564
G1 X107.800 Y112.538 E6.68854
G1 X104.816 Y109.554 E6.74905
G1 X104.180 Y110.190 E6.76195
G1 X100.290 Y106.301 E6.84081
G1 X100.927 Y105.664 E6.85371
G1 X97.943 Y102.680 E6.91422
G1 X97.306 Y103.317 E6.92712
G1 X93.417 Y99.428 E7.00598
G1 X94.054 Y98.791 E7.01888
G1 X92.130 Y96.868 E7.05788
G1 X91.494 Y97.504 E7.07078
G1 X89.726 Y95.737 E7.10663
G1 X90.363 Y95.100 E7.11953
G1 X87.888 Y92.625 E7.16971
G1 X87.251 Y93.262 E7.18262
G1 X85.484 Y91.494 E7.21846
G1 X86.120 Y90.858 E7.23136
G1 X78.028 Y82.766 E7.39544
G1 X77.324 Y82.061 E7.40972
G1 X76.687 Y82.698 E7.42263
G1 X71.737 Y77.748 E7.52299
G1 X72.374 Y77.111 E7.53590
G1 X70.451 Y75.188 E7.57489
G1 X69.814 Y75.825 E7.58780
G1 X65.925 Y71.935 E7.66665
G1 X66.561 Y71.299 E7.67956
G1 X56.704 Y61.442 E7.87942
G1 X56.068 Y62.078 E7.89233
G1 X52.179 Y58.189 E7.97119
G1 X52.815 Y57.553 E7.98409
G1 X50.892 Y55.630 E8.02309
G1 X50.256 Y56.266 E8.03599
G1 X48.488 Y54.498 E8.07184
G1 X49.124 Y53.862 E8.08474
G1 X45.589 Y50.326 E8.15643
G1 X44.952 Y50.963 E8.16933
G1 X43.184 Y49.195 E8.20518
G1 X43.821 Y48.559 E8.21808
G1 X42.958 Y47.696 E8.23557
G1 X42.322 Y48.332 E8.24848
G1 X38.433 Y44.443 E8.32733
G1 X39.069 Y43.807 E8.34024
G1 X35.986 Y40.724 E8.40275
G1 X40.724 Y35.986 E8.49881
G1 X43.807 Y39.069 E8.56132
G1 X44.443 Y38.433 E8.57423
G1 X48.332 Y42.322 E8.65308
G1 X47.696 Y42.958 E8.66599
G1 X48.558 Y43.821 E8.68348
G1 X49.195 Y43.184 E8.69638
G1 X50.963 Y44.952 E8.73223
G1 X50.326 Y45.589 E8.74513
G1 X53.862 Y49.124 E8.81682
G1 X54.498 Y48.488 E8.82972
G1 X56.266 Y50.256 E8.86557
G1 X55.630 Y50.892 E8.87847
G1 X57.553 Y52.815 E8.91747
G1 X58.189 Y52.179 E8.93037
G1 X62.078 Y56.068 E9.00923
G1 X61.442 Y56.704 E9.02213
G1 X77.111 Y72.374 E9.33986
G1 X77.748 Y71.737 E9.35276
G1 X79.516 Y73.505 E9.38860
G1 X78.879 Y74.142 E9.40151
G1 X106.725 Y101.987 E9.96612
G1 X107.361 Y101.351 E9.97903
G1 X110.190 Y104.180 E10.03638
G1 X109.554 Y104.816 E10.04928
G1 X119.411 Y114.673 E10.24915
G1 X120.047 Y114.037 E10.26205
G1 X124.997 Y118.986 E10.36242
G1 X124.360 Y119.623 E10.37532
G1 X130.173 Y125.435 E10.49318
G1 X128.722 Y126.886 E10.52259
G1 X129.075 Y127.240 E10.52976
G1 X131.015 Y131.938 F12000.000
G1 X130.658 Y132.000 E10.53495 F1440.000
G1 X130.311 Y132.005 E10.53993
M106 S255
G1 X130.171 Y132.007 E10.54386 F2400.000
G1 X127.240 Y129.075 E10.66058
M106 S102
G1 X129.075 Y127.240 F12000.000
M106 S255
G1 X132.007 Y130.171 E10.77731 F2400.000
G1 X132.005 Y130.311 E10.78124
M106 S102
G1 X132.000 Y130.658 E10.78622 F1440.000
