; generated by Slic3r 1.2.1 on 2014-12-21 at 09:30:46

; external perimeters extrusion width = 0.50mm
; perimeters extrusion width = 0.50mm
; infill extrusion width = 0.50mm
; solid infill extrusion width = 0.50mm
; top infill extrusion width = 0.50mm

M104 S190 ; set temperature
G28 ; home all axes
G1 Z15 F120 ; lift nozzle
M109 S190 ; wait for temperature to be reached
G21 ; set units to millimeters
G90 ; use absolute coordinates
M82 ; use absolute distances for extrusion
G92 E0
M106 S102
G1 E-2.00000 F1680.000
G92 E0
G1 Z0.200 F12000.000
G1 X22.075 Y65.521 F12000.000
G1 E2.00000 F1680.000
G1 X24.555 Y64.776 E2.07290 F1200.000
G1 X49.475 Y62.376 E2.77769
G1 X50.113 Y62.346 E2.79567
G1 X112.349 Y62.357 E4.54774
G1 X152.589 Y64.757 E5.68258 F1200.000
G1 X154.826 Y65.288 E5.74729
G1 X156.748 Y66.549 E5.81200
G1 X158.127 Y68.388 E5.87671
G1 X158.848 Y71.400 E5.96391
G1 X158.848 Y98.600 E6.72964
G1 X158.451 Y100.864 E6.79435
G1 X157.307 Y102.858 E6.85906
G1 X155.553 Y104.344 E6.92377
G1 X152.390 Y105.252 E7.01642
G1 X71.270 Y107.652 E9.30110
G1 X50.113 Y107.654 E9.89670
G1 X49.475 Y107.624 E9.91468
G1 X24.555 Y105.224 E10.61947
G1 X22.075 Y104.479 E10.69237
G1 X17.075 Y101.827 E10.85171
G1 X14.751 Y99.778 E10.93893
G1 X14.633 Y99.610 E10.94471
G1 X13.957 Y98.395 E10.98385
G1 X13.787 Y97.997 E10.99604
G1 X13.320 Y96.327 E11.04485
G1 X13.265 Y95.941 E11.05582
G1 X13.198 Y95.000 E11.08239
G1 X13.198 Y75.000 E11.64542
G1 X13.265 Y74.059 E11.67199
G1 X13.320 Y73.672 E11.68298
G1 X13.787 Y72.003 E11.73177
G1 X13.958 Y71.603 E11.74403
G1 X14.635 Y70.387 E11.78320
G1 X14.751 Y70.222 E11.78888
G1 X17.075 Y68.173 E11.87610
G1 X22.009 Y65.556 E12.03333
G1 E10.03333 F1680.000
G92 E0
G1 X105.268 Y90.314 F12000.000
G1 E2.00000 F1680.000
G1 X110.639 Y90.314 E2.10064 F900.000
G1 X110.639 Y92.086 E2.13383
G1 X105.268 Y92.086 E2.23447 F900.000
G1 X105.268 Y90.389 E2.26626
G1 X105.703 Y90.750 F12000.000
G1 X110.203 Y90.750 E2.35057 F720.000
G1 X110.203 Y91.650 E2.36744
G1 X105.778 Y91.650 E2.45035
G1 X105.482 Y90.301 F12000.000
G1 X56.799 Y91.650 F12000.000
G1 X56.799 Y92.086 E2.45851 F900.000
G1 X53.428 Y92.086 E2.52168 F900.000
G1 X53.428 Y90.314 E2.55487
G1 X56.799 Y90.314 E2.61804
G1 X56.799 Y91.575 E2.64166
G1 X56.363 Y91.575 F12000.000
G1 X56.363 Y91.650 E2.64306 F720.000
G1 X53.863 Y91.650 E2.68990
G1 X53.863 Y90.750 E2.70677
G1 X56.363 Y90.750 E2.75361 F720.000
G1 X56.363 Y91.500 E2.76766
G1 E0.76766 F1680.000
G92 E0
G1 X53.613 Y90.317 F12000.000
G1 X56.363 Y97.914 F12000.000
G1 E2.00000 F1680.000
G1 X56.799 Y97.914 E2.00816 F900.000
G1 X56.799 Y99.686 E2.04135
G1 X53.428 Y99.686 E2.10452 F900.000
G1 X53.428 Y97.914 E2.13771
G1 X56.288 Y97.914 E2.19131
G1 X56.288 Y98.350 F12000.000
G1 X56.363 Y98.350 E2.19271 F720.000
G1 X56.363 Y99.250 E2.20958
G1 X53.863 Y99.250 E2.25642
G1 X53.863 Y98.350 E2.27328
G1 X56.213 Y98.350 E2.31731 F720.000
G1 X53.863 Y97.850 F12000.000
G1 E0.31731 F1680.000
G92 E0
G1 X98.308 Y87.686 F12000.000
G1 E2.00000 F1680.000
G1 X98.308 Y89.686 E2.03747 F900.000
G1 X100.308 Y89.686 E2.07495
G1 X100.308 Y92.086 E2.11992
G1 X102.639 Y92.086 E2.16360
G1 X102.639 Y91.686 E2.17109
G1 X104.639 Y91.686 E2.20857
G1 X104.639 Y89.686 E2.24604
G1 X111.268 Y89.686 E2.37025
G1 X111.268 Y91.686 E2.40772
G1 X113.268 Y91.686 E2.44520
G1 X113.268 Y92.086 E2.45269
G1 X151.508 Y92.086 E3.16921
G1 X151.508 Y97.914 E3.27842
G1 X111.268 Y97.914 E4.03241
G1 X111.268 Y98.314 E4.03990
G1 X104.639 Y98.314 E4.16411
G1 X104.639 Y97.914 E4.17160
G1 X98.308 Y97.914 E4.29023
G1 X98.308 Y98.314 E4.29773
G1 X91.679 Y98.314 E4.42193
G1 X91.679 Y97.914 E4.42943
G1 X85.348 Y97.914 E4.54806
G1 X85.348 Y98.314 E4.55555
G1 X78.719 Y98.314 E4.67976
G1 X78.719 Y97.914 E4.68725
G1 X59.428 Y97.914 E5.04872
G1 X59.428 Y98.314 E5.05621
G1 X57.428 Y98.314 E5.09369
G1 X57.428 Y100.314 E5.13116
G1 X50.799 Y100.314 E5.25537
G1 X50.799 Y97.914 E5.30034
G1 X25.879 Y97.914 E5.76727
G1 X25.879 Y95.262 E5.81696
G1 X20.582 Y95.262 E5.91620
G1 X20.545 Y95.000 E5.92117
G1 X20.582 Y94.738 E5.92613
G1 X25.879 Y94.738 E6.02537
G1 X25.879 Y92.086 E6.07506
G1 X50.799 Y92.086 E6.54200
G1 X50.799 Y89.686 E6.58697
G1 X57.428 Y89.686 E6.71117
G1 X57.428 Y91.686 E6.74864
G1 X59.428 Y91.686 E6.78612
G1 X59.428 Y92.086 E6.79361
G1 X67.759 Y92.086 E6.94972
G1 X67.759 Y90.314 E6.98291
G1 X65.759 Y90.314 E7.02038
G1 X65.759 Y89.686 E7.03216
G1 X72.388 Y89.686 E7.15637
G1 X72.388 Y90.314 E7.16815
G1 X70.388 Y90.314 E7.20562
G1 X70.388 Y92.086 E7.23881
G1 X76.719 Y92.086 E7.35744
G1 X76.719 Y91.686 E7.36494
G1 X78.719 Y91.686 E7.40241
G1 X78.719 Y89.686 E7.43989
G1 X85.348 Y89.686 E7.56409
G1 X85.348 Y90.314 E7.57587
G1 X79.348 Y90.314 E7.68830
G1 X79.348 Y92.086 E7.72148
G1 X91.679 Y92.086 E7.95254
G1 X91.679 Y91.686 E7.96003
G1 X97.679 Y91.686 E8.07246
G1 X97.679 Y88.314 E8.13562
G1 X89.679 Y88.314 E8.28552
G1 X89.679 Y87.686 E8.29730
G1 X98.233 Y87.686 E8.45758 F900.000
G1 X98.233 Y87.250 F12000.000
G1 X98.743 Y87.250 E8.46714 F720.000
G1 X98.743 Y89.250 E8.50462
G1 X100.743 Y89.250 E8.54209 F720.000
G1 X100.743 Y91.650 E8.58706
G1 X102.203 Y91.650 E8.61442
G1 X102.203 Y91.250 E8.62191
G1 X104.203 Y91.250 E8.65939
G1 X104.203 Y89.250 E8.69686
G1 X111.703 Y89.250 E8.83739
G1 X111.703 Y91.250 E8.87487
G1 X113.703 Y91.250 E8.91234
G1 X113.703 Y91.650 E8.91984
G1 X151.943 Y91.650 E9.63635
G1 X151.943 Y98.350 E9.76189
G1 X111.703 Y98.350 E10.51588
G1 X111.703 Y98.750 E10.52337
G1 X104.203 Y98.750 E10.66390
G1 X104.203 Y98.350 E10.67140
G1 X98.743 Y98.350 E10.77370
G1 X98.743 Y98.750 E10.78120
G1 X91.243 Y98.750 E10.92173
G1 X91.243 Y98.350 E10.92922
G1 X85.783 Y98.350 E11.03153
G1 X85.783 Y98.750 E11.03902
G1 X78.283 Y98.750 E11.17955
G1 X78.283 Y98.350 E11.18705
G1 X59.863 Y98.350 E11.53219
G1 X59.863 Y98.750 E11.53968
G1 X57.863 Y98.750 E11.57716
G1 X57.863 Y100.750 E11.61463
G1 X50.363 Y100.750 E11.75516
G1 X50.363 Y98.350 E11.80013
G1 X25.443 Y98.350 E12.26706
G1 X25.443 Y95.698 E12.31675
G1 X20.313 Y95.698 E12.41288
G1 X20.150 Y95.317 E12.42064
G1 X20.105 Y95.000 E12.42665
G1 X20.150 Y94.683 E12.43266
G1 X20.313 Y94.302 E12.44041
G1 X25.443 Y94.302 E12.53654
G1 X25.443 Y91.650 E12.58623
G1 X50.363 Y91.650 E13.05316
G1 X50.363 Y89.250 E13.09813
G1 X57.863 Y89.250 E13.23866
G1 X57.863 Y91.250 E13.27614
G1 X59.863 Y91.250 E13.31361
G1 X59.863 Y91.650 E13.32111
G1 X67.323 Y91.650 E13.46089
G1 X67.323 Y90.750 E13.47775
G1 X65.323 Y90.750 E13.51523
G1 X65.323 Y89.250 E13.54333
G1 X72.823 Y89.250 E13.68386
G1 X72.823 Y90.750 E13.71197
G1 X70.823 Y90.750 E13.74944
G1 X70.823 Y91.650 E13.76631
G1 X76.283 Y91.650 E13.86861
G1 X76.283 Y91.250 E13.87611
G1 X78.283 Y91.250 E13.91358
G1 X78.283 Y89.250 E13.95105
G1 X85.783 Y89.250 E14.09158
G1 X85.783 Y90.750 E14.11969
G1 X79.783 Y90.750 E14.23211
G1 X79.783 Y91.650 E14.24898
G1 X91.243 Y91.650 E14.46371
G1 X91.243 Y91.250 E14.47120
G1 X97.243 Y91.250 E14.58362
G1 X97.243 Y88.750 E14.63047
G1 X89.243 Y88.750 E14.78037
G1 X89.243 Y87.250 E14.80847
G1 X98.158 Y87.250 E14.97550
G1 X98.963 Y89.699 F12000.000
G1 X97.975 Y91.015 F12000.000
G1 X104.978 Y98.019 E15.16108 F1200.000
G1 X103.961 Y97.619 F12000.000
G1 X97.975 Y91.632 E15.31971 F1200.000
G1 X97.707 Y91.981 E15.32796
G1 X103.344 Y97.619 E15.47733
G1 X102.727 Y97.619 E15.48890
G1 X97.090 Y91.981 E15.63827
G1 X96.473 Y91.981 E15.64983
G1 X102.110 Y97.619 E15.79921
G1 X101.493 Y97.619 E15.81077
G1 X95.856 Y91.981 E15.96015
G1 X95.239 Y91.981 E15.97171
G1 X100.876 Y97.619 E16.12108
G1 X100.259 Y97.619 E16.13265
G1 X94.622 Y91.981 E16.28202
G1 X94.005 Y91.981 E16.29358
G1 X99.642 Y97.619 E16.44296
G1 X99.025 Y97.619 E16.45452
G1 X93.388 Y91.981 E16.60390
G1 X92.771 Y91.981 E16.61546
G1 X98.408 Y97.619 E16.76483
G1 X98.012 Y97.840 E16.77333
G1 X92.153 Y91.981 E16.92857
G1 X91.936 Y92.381 E16.93709
G1 X97.574 Y98.019 E17.08647
G1 X96.957 Y98.019 E17.09803
G1 X91.319 Y92.381 E17.24741
G1 X90.702 Y92.381 E17.25897
G1 X96.340 Y98.019 E17.40834
G1 X95.722 Y98.019 E17.41991
G1 X90.085 Y92.381 E17.56928
G1 X89.468 Y92.381 E17.58084
G1 X95.105 Y98.019 E17.73022
G1 X94.488 Y98.019 E17.74178
G1 X88.851 Y92.381 E17.89116
G1 X88.234 Y92.381 E17.90272
G1 X93.871 Y98.019 E18.05209
G1 X93.254 Y98.019 E18.06366
G1 X87.617 Y92.381 E18.21303
G1 X87.000 Y92.381 E18.22459
G1 X92.637 Y98.019 E18.37397
G1 X92.020 Y98.019 E18.38553
G1 X86.383 Y92.381 E18.53491
G1 X85.766 Y92.381 E18.54647
G1 X91.003 Y97.619 E18.68525
G1 X90.386 Y97.619 E18.69681
G1 X85.149 Y92.381 E18.83558
G1 X84.532 Y92.381 E18.84715
G1 X89.769 Y97.619 E18.98592
G1 X89.152 Y97.619 E18.99748
G1 X83.915 Y92.381 E19.13626
G1 X83.298 Y92.381 E19.14782
G1 X88.535 Y97.619 E19.28660
G1 X87.918 Y97.619 E19.29816
G1 X82.681 Y92.381 E19.43694
G1 X82.064 Y92.381 E19.44850
G1 X87.301 Y97.619 E19.58727
G1 X86.684 Y97.619 E19.59884
G1 X81.447 Y92.381 E19.73761
G1 X80.830 Y92.381 E19.74917
G1 X86.067 Y97.619 E19.88795
G1 X85.450 Y97.619 E19.89951
G1 X80.213 Y92.381 E20.03829
G1 X79.596 Y92.381 E20.04985
G1 X85.052 Y97.837 E20.19443
G1 X84.616 Y98.019 E20.20327
G1 X78.579 Y91.981 E20.36325
G1 X77.962 Y91.981 E20.37481
G1 X83.999 Y98.019 E20.53478
G1 X83.382 Y98.019 E20.54634
G1 X77.345 Y91.981 E20.70632
G1 X77.015 Y92.268 E20.71452
G1 X82.765 Y98.019 E20.86689
G1 X82.148 Y98.019 E20.87845
G1 X76.511 Y92.381 E21.02782
G1 X75.894 Y92.381 E21.03938
G1 X81.531 Y98.019 E21.18876
G1 X80.914 Y98.019 E21.20032
G1 X75.277 Y92.381 E21.34970
G1 X74.659 Y92.381 E21.36126
G1 X80.297 Y98.019 E21.51064
G1 X79.680 Y98.019 E21.52220
G1 X74.042 Y92.381 E21.67157
G1 X73.425 Y92.381 E21.68313
G1 X79.063 Y98.019 E21.83251
G1 X78.046 Y97.619 F12000.000
G1 X72.808 Y92.381 E21.97129 F1200.000
G1 X72.191 Y92.381 E21.98285
G1 X77.428 Y97.619 E22.12163
G1 X76.811 Y97.619 E22.13319
G1 X71.574 Y92.381 E22.27196
G1 X70.957 Y92.381 E22.28352
G1 X76.194 Y97.619 E22.42230
G1 X75.577 Y97.619 E22.43386
G1 X68.055 Y90.096 E22.63320
G1 X68.557 Y89.981 E22.64286
G1 X70.092 Y91.516 E22.68353
G1 X70.092 Y90.899 E22.69509
G1 X69.174 Y89.981 E22.71940
G1 X69.791 Y89.981 E22.73096
G1 X70.092 Y90.282 E22.73892
G1 X68.055 Y90.713 F12000.000
G1 X74.960 Y97.619 E22.92191 F1200.000
G1 X74.343 Y97.619 E22.93347
G1 X68.055 Y91.330 E23.10012
G1 X68.055 Y91.947 E23.11168
G1 X73.726 Y97.619 E23.26197
G1 X73.109 Y97.619 E23.27353
G1 X67.872 Y92.381 E23.41231
G1 X67.255 Y92.381 E23.42387
G1 X72.492 Y97.619 E23.56264
G1 X71.875 Y97.619 E23.57421
G1 X66.638 Y92.381 E23.71298
G1 X66.021 Y92.381 E23.72454
G1 X71.258 Y97.619 E23.86332
G1 X70.641 Y97.619 E23.87488
G1 X65.404 Y92.381 E24.01366
G1 X64.787 Y92.381 E24.02522
G1 X70.024 Y97.619 E24.16400
G1 X69.407 Y97.619 E24.17556
G1 X64.170 Y92.381 E24.31433
G1 X63.553 Y92.381 E24.32590
G1 X68.790 Y97.619 E24.46467
G1 X68.173 Y97.619 E24.47623
G1 X62.936 Y92.381 E24.61501
G1 X62.319 Y92.381 E24.62657
G1 X67.556 Y97.619 E24.76535
G1 X66.939 Y97.619 E24.77691
G1 X61.702 Y92.381 E24.91569
G1 X61.085 Y92.381 E24.92725
G1 X66.322 Y97.619 E25.06602
G1 X65.705 Y97.619 E25.07759
G1 X60.468 Y92.381 E25.21636
G1 X59.851 Y92.381 E25.22792
G1 X65.088 Y97.619 E25.36670
G1 X64.471 Y97.619 E25.37826
G1 X58.834 Y91.981 E25.52764
G1 X58.217 Y91.981 E25.53920
G1 X63.854 Y97.619 E25.68858
G1 X63.237 Y97.619 E25.70014
G1 X57.600 Y91.981 E25.84951
G1 X57.095 Y92.094 E25.85921
G1 X62.620 Y97.619 E26.00561
G1 X62.003 Y97.619 E26.01717
G1 X56.765 Y92.381 E26.15595
G1 X56.148 Y92.381 E26.16751
G1 X61.386 Y97.619 E26.30629
G1 X60.769 Y97.619 E26.31785
G1 X55.531 Y92.381 E26.45662
G1 X54.914 Y92.381 E26.46819
G1 X60.152 Y97.619 E26.60696
G1 X59.534 Y97.619 E26.61852
G1 X54.297 Y92.381 E26.75730
G1 X53.680 Y92.381 E26.76886
G1 X59.132 Y97.833 E26.91332
G1 X58.700 Y98.019 E26.92212
G1 X51.095 Y90.413 E27.12366
G1 X51.280 Y89.981 E27.13246
G1 X53.132 Y91.833 E27.18152
G1 X53.132 Y91.216 E27.19308
G1 X51.897 Y89.981 E27.22579
G1 X52.514 Y89.981 E27.23735
G1 X53.132 Y90.599 E27.25371
G1 X53.131 Y89.981 E27.26528
G1 X51.095 Y91.030 F12000.000
G1 X58.083 Y98.019 E27.45047 F1200.000
G1 X57.466 Y98.019 E27.46204
G1 X51.095 Y91.647 E27.63088
G1 X51.095 Y92.264 E27.64244
G1 X56.449 Y97.619 E27.78433
G1 X55.832 Y97.619 E27.79589
G1 X50.595 Y92.381 E27.93467
G1 X49.978 Y92.381 E27.94623
G1 X55.215 Y97.619 E28.08501
G1 X54.598 Y97.619 E28.09657
G1 X49.361 Y92.381 E28.23534
G1 X48.744 Y92.381 E28.24691
G1 X53.981 Y97.619 E28.38568
G1 X53.364 Y97.619 E28.39724
G1 X48.127 Y92.381 E28.53602
G1 X47.510 Y92.381 E28.54758
G1 X53.132 Y98.003 E28.69655
G1 X53.132 Y98.620 E28.70811
G1 X46.893 Y92.381 E28.87343
G1 X46.276 Y92.381 E28.88499
G1 X53.132 Y99.237 E29.06666
G1 X53.132 Y99.854 E29.07823
G1 X45.659 Y92.381 E29.27625
G1 X45.042 Y92.381 E29.28781
G1 X50.279 Y97.619 E29.42659
G1 X49.662 Y97.619 E29.43815
G1 X44.425 Y92.381 E29.57692
G1 X43.808 Y92.381 E29.58849
G1 X49.045 Y97.619 E29.72726
G1 X48.428 Y97.619 E29.73882
G1 X43.191 Y92.381 E29.87760
G1 X42.574 Y92.381 E29.88916
G1 X47.811 Y97.619 E30.02794
G1 X47.194 Y97.619 E30.03950
G1 X41.957 Y92.381 E30.17828
G1 X41.340 Y92.381 E30.18984
G1 X46.577 Y97.619 E30.32861
G1 X45.960 Y97.619 E30.34018
G1 X40.723 Y92.381 E30.47895
G1 X40.106 Y92.381 E30.49051
G1 X45.343 Y97.619 E30.62929
G1 X44.726 Y97.619 E30.64085
G1 X39.489 Y92.381 E30.77963
G1 X38.871 Y92.381 E30.79119
G1 X44.109 Y97.619 E30.92997
G1 X43.492 Y97.619 E30.94153
G1 X38.254 Y92.381 E31.08030
G1 X37.637 Y92.381 E31.09187
G1 X42.875 Y97.619 E31.23064
G1 X42.258 Y97.619 E31.24220
G1 X37.020 Y92.381 E31.38098
G1 X36.403 Y92.381 E31.39254
G1 X41.640 Y97.619 E31.53132
G1 X41.023 Y97.619 E31.54288
G1 X35.786 Y92.381 E31.68166
G1 X35.169 Y92.381 E31.69322
G1 X40.406 Y97.619 E31.83199
G1 X39.789 Y97.619 E31.84356
G1 X34.552 Y92.381 E31.98233
G1 X33.935 Y92.381 E31.99389
G1 X39.172 Y97.619 E32.13267
G1 X38.555 Y97.619 E32.14423
G1 X33.318 Y92.381 E32.28301
G1 X32.701 Y92.381 E32.29457
G1 X37.938 Y97.619 E32.43335
G1 X37.321 Y97.619 E32.44491
G1 X32.084 Y92.381 E32.58369
G1 X31.467 Y92.381 E32.59525
G1 X36.704 Y97.619 E32.73402
G1 X36.087 Y97.619 E32.74559
G1 X30.850 Y92.381 E32.88436
G1 X30.233 Y92.381 E32.89592
G1 X35.470 Y97.619 E33.03470
G1 X34.853 Y97.619 E33.04626
G1 X29.616 Y92.381 E33.18504
G1 X28.999 Y92.381 E33.19660
G1 X34.236 Y97.619 E33.33538
G1 X33.619 Y97.619 E33.34694
G1 X28.382 Y92.381 E33.48571
G1 X27.765 Y92.381 E33.49728
G1 X33.002 Y97.619 E33.63605
G1 X32.385 Y97.619 E33.64761
G1 X27.148 Y92.381 E33.78639
G1 X26.531 Y92.381 E33.79795
G1 X31.768 Y97.619 E33.93673
G1 X31.151 Y97.619 E33.94829
G1 X26.175 Y92.642 E34.08015
G1 X26.175 Y93.259 E34.09172
G1 X30.534 Y97.619 E34.20723
G1 X29.917 Y97.619 E34.21879
G1 X26.175 Y93.876 E34.31795
G1 X26.175 Y94.493 E34.32951
G1 X29.300 Y97.619 E34.41233
G1 X28.683 Y97.619 E34.42389
G1 X26.175 Y95.110 E34.49035
G1 X26.175 Y95.727 E34.50191
G1 X28.066 Y97.619 E34.55202
G1 X27.449 Y97.619 E34.56358
G1 X26.175 Y96.345 E34.59735
G1 X26.175 Y96.962 E34.60891
G1 X26.832 Y97.619 E34.62632
G1 X26.215 Y97.619 E34.63788
G1 X26.175 Y97.579 E34.63894
G1 X51.095 Y98.434 F12000.000
G1 X52.679 Y100.019 E34.68092 F1200.000
G1 X52.062 Y100.019 E34.69248
G1 X51.095 Y99.051 E34.71812
G1 X51.095 Y99.668 E34.72968
G1 X51.445 Y100.019 E34.73896
G1 X100.012 Y90.584 F12000.000
G1 X99.409 Y89.981 E34.75493 F1200.000
G1 X98.792 Y89.981 E34.76649
G1 X100.012 Y91.201 E34.79882
G1 X100.012 Y91.818 E34.81038
G1 X98.175 Y89.981 E34.85905
G1 X97.975 Y90.398 E34.86772
G1 X105.595 Y98.019 E35.06964
G1 X106.212 Y98.019 E35.08121
G1 X100.575 Y92.381 E35.23058
G1 X101.192 Y92.381 E35.24214
G1 X106.829 Y98.019 E35.39152
G1 X107.446 Y98.019 E35.40308
