; generated by Slic3r 1.2.1 on 2015-02-01 at 10:45:18

; external perimeters extrusion width = 0.50mm
; perimeters extrusion width = 0.50mm
; infill extrusion width = 0.50mm
; solid infill extrusion width = 0.50mm
; top infill extrusion width = 0.50mm

M104 S190 ; set temperature
G28 ; home all axes
G1 Z15 F120 ; lift nozzle
M109 S190 ; wait for temperature to be reached
G21 ; set units to millimeters
G90 ; use absolute coordinates
M82 ; use absolute distances for extrusion
G92 E0
M106 S102
G1 E-2.00000 F1680.000
G92 E0
G1 Z0.200 F12000.000
G1 X37.438 Y37.438 F12000.000
G1 E2.00000 F1680.000
G1 X37.604 Y37.273 E2.00659 F1200.000
G1 X37.915 Y37.039 E2.01756
G1 X38.291 Y36.828 E2.02970
G1 X38.693 Y36.666 E2.04188
G1 X39.025 Y36.571 E2.05162
G1 X39.224 Y36.537 E2.05731
G1 X39.922 Y36.565 E2.07695
G1 X44.979 Y37.872 E2.22400 F1200.000
G1 X45.696 Y38.266 E2.24705
G1 X65.891 Y57.189 E3.02614
G1 X105.598 Y96.895 E4.60698
G1 X135.561 Y128.131 E5.82550
G1 X136.018 Y129.168 E5.85739
G1 X135.537 Y130.446 E5.89585
G1 X130.446 Y135.537 E6.09854
G1 X129.419 Y136.016 E6.13043
G1 X128.130 Y135.561 E6.16892
G1 X95.834 Y104.538 E7.42963
G1 X57.226 Y65.930 E8.96672
G1 X38.266 Y45.696 E9.74733
G1 X37.872 Y44.979 E9.77037
G1 X36.565 Y39.922 E9.91742
G1 X36.537 Y39.224 E9.93707
G1 X36.572 Y39.025 E9.94276
G1 X36.666 Y38.692 E9.95250
G1 X36.828 Y38.291 E9.96468
G1 X37.039 Y37.915 E9.97682
G1 X37.273 Y37.604 E9.98778
G1 X37.385 Y37.491 E9.99225
G1 E7.99225 F1680.000
G92 E0
G1 X116.955 Y121.077 F12000.000
G1 E2.00000 F1680.000
G1 X97.640 Y101.762 E2.51182 F900.000
G1 X97.004 Y102.398 E2.52868
G1 X95.852 Y101.247 E2.55920
G1 X96.489 Y100.610 E2.57607
G1 X90.767 Y94.889 E2.72767
G1 X90.131 Y95.525 E2.74454
G1 X88.979 Y94.373 E2.77506
G1 X89.616 Y93.737 E2.79192
G1 X65.396 Y69.518 E3.43369
G1 X64.760 Y70.154 E3.45056
G1 X59.365 Y64.760 E3.59350
G1 X60.002 Y64.123 E3.61036
G1 X40.443 Y44.565 E4.12864
G1 X42.319 Y42.690 E4.17833
G1 X38.927 Y39.298 E4.26820
G1 X39.086 Y39.086 E4.27317
G1 X39.298 Y38.927 E4.27813 F900.000
G1 X42.690 Y42.319 E4.36800
G1 X44.565 Y40.443 E4.41769
G1 X64.123 Y60.002 E4.93597
G1 X64.760 Y59.365 E4.95283
G1 X65.912 Y60.517 E4.98335
G1 X65.275 Y61.154 E5.00021
G1 X72.057 Y67.936 E5.17993
G1 X72.694 Y67.299 E5.19679
G1 X77.027 Y71.633 E5.31163
G1 X76.391 Y72.269 E5.32849
G1 X78.930 Y74.809 E5.39578
G1 X79.567 Y74.172 E5.41264
G1 X83.900 Y78.506 E5.52748
G1 X83.264 Y79.142 E5.54434
G1 X84.743 Y80.621 E5.58353
G1 X85.379 Y79.985 E5.60039
G1 X89.713 Y84.318 E5.71523
G1 X89.076 Y84.955 E5.73209
G1 X94.798 Y90.676 E5.88370
G1 X95.434 Y90.040 E5.90056
G1 X97.646 Y92.252 E5.95919
G1 X97.010 Y92.889 E5.97605
G1 X99.549 Y95.428 E6.04334
G1 X100.186 Y94.792 E6.06020
G1 X103.459 Y98.065 E6.14693
G1 X102.823 Y98.701 E6.16380
G1 X133.398 Y129.276 E6.97400
G1 X129.276 Y133.398 E7.08321
G1 X117.008 Y121.130 E7.40829
G1 X116.700 Y121.438 F12000.000
G1 X97.640 Y102.378 E7.91335 F720.000
G1 X97.004 Y103.014 E7.93022
G1 X95.236 Y101.247 E7.97706
G1 X95.873 Y100.610 E7.99392
G1 X90.767 Y95.505 E8.12921
G1 X90.131 Y96.141 E8.14607
G1 X88.363 Y94.373 E8.19291
G1 X88.999 Y93.737 E8.20978
G1 X65.396 Y70.134 E8.83523
G1 X64.760 Y70.770 E8.85209
G1 X58.749 Y64.760 E9.01136
G1 X59.386 Y64.123 E9.02822
G1 X39.827 Y44.565 E9.54649
G1 X41.702 Y42.690 E9.59618
G1 X38.428 Y39.415 E9.68295
G1 X38.582 Y39.031 E9.69070
G1 X38.775 Y38.775 E9.69671
G1 X39.031 Y38.582 E9.70272
G1 X39.415 Y38.428 E9.71047
G1 X42.690 Y41.702 E9.79724
G1 X44.565 Y39.827 E9.84693 F720.000
G1 X64.123 Y59.386 E10.36520
G1 X64.760 Y58.749 E10.38206
G1 X66.528 Y60.517 E10.42891
G1 X65.891 Y61.154 E10.44577
G1 X72.057 Y67.320 E10.60916
G1 X72.694 Y66.683 E10.62602
G1 X77.643 Y71.633 E10.75718
G1 X77.007 Y72.269 E10.77405
G1 X78.930 Y74.193 E10.82501
G1 X79.567 Y73.556 E10.84187
G1 X84.516 Y78.506 E10.97304
G1 X83.880 Y79.142 E10.98990
G1 X84.743 Y80.005 E11.01276
G1 X85.379 Y79.369 E11.02962
G1 X90.329 Y84.318 E11.16078
G1 X89.692 Y84.955 E11.17765
G1 X94.798 Y90.060 E11.31293
G1 X95.434 Y89.424 E11.32979
G1 X98.263 Y92.252 E11.40474
G1 X97.626 Y92.889 E11.42161
G1 X99.549 Y94.812 E11.47257
G1 X100.186 Y94.175 E11.48943
G1 X104.075 Y98.065 E11.59249
G1 X103.439 Y98.701 E11.60935
G1 X134.014 Y129.276 E12.41955
G1 X129.276 Y134.014 E12.54509
G1 X116.753 Y121.491 E12.87693
G1 X43.174 Y41.578 F12000.000
G1 X129.568 Y132.660 F12000.000
G1 X41.181 Y44.274 E15.21903 F1200.000
G1 X41.490 Y43.964 E15.22723
G1 X129.877 Y132.351 E17.56933
G1 X130.186 Y132.041 E17.57752
G1 X41.800 Y43.655 E19.91963
G1 X42.109 Y43.346 E19.92782
G1 X130.495 Y131.732 E22.26993
G1 X130.804 Y131.423 E22.27812
G1 X42.418 Y43.037 E24.62023
G1 X42.727 Y42.727 E24.62842
G1 X131.114 Y131.114 E26.97052
G1 X131.423 Y130.804 E26.97872
G1 X43.037 Y42.418 E29.32082
G1 X43.346 Y42.109 E29.32902
G1 X131.732 Y130.495 E31.67112
G1 X132.041 Y130.186 E31.67932
G1 X43.655 Y41.800 E34.02142
G1 X43.964 Y41.490 E34.02961
G1 X132.351 Y129.877 E36.37172
G1 X132.660 Y129.568 E36.37991
G1 X44.274 Y41.181 E38.72202
G1 X64.746 Y59.798 F12000.000
G1 X65.479 Y60.531 E38.74145 F1200.000
G1 X65.170 Y60.841 E38.74964
G1 X64.436 Y60.107 E38.76908
G1 X64.127 Y60.416 E38.77727
G1 X64.861 Y61.150 E38.79671
G1 X60.416 Y64.127 F12000.000
G1 X65.392 Y69.103 E38.92856 F1200.000
G1 X65.083 Y69.412 E38.93676
G1 X60.107 Y64.436 E39.06861
G1 X59.798 Y64.746 E39.07681
G1 X64.774 Y69.722 E39.20867
G1 X72.061 Y68.350 F12000.000
G1 X75.976 Y72.266 E39.31242 F1200.000
G1 X76.286 Y71.956 E39.32061
G1 X72.370 Y68.041 E39.42436
G1 X72.679 Y67.732 E39.43256
G1 X76.595 Y71.647 E39.53631
G1 X79.553 Y74.605 F12000.000
G1 X83.468 Y78.520 E39.64006 F1200.000
G1 X83.159 Y78.829 E39.64825
G1 X79.243 Y74.914 E39.75200
G1 X78.934 Y75.223 E39.76020
G1 X82.849 Y79.139 E39.86395
G1 X84.746 Y81.036 F12000.000
G1 X88.662 Y84.951 E39.96770 F1200.000
G1 X88.971 Y84.642 E39.97589
G1 X85.056 Y80.726 E40.07965
G1 X85.365 Y80.417 E40.08784
G1 X89.280 Y84.333 E40.19159
G1 X95.420 Y90.472 F12000.000
G1 X97.214 Y92.266 E40.23913 F1200.000
G1 X96.905 Y92.576 E40.24732
G1 X95.111 Y90.781 E40.29486
G1 X94.802 Y91.091 E40.30306
G1 X96.596 Y92.885 E40.35060
G1 X99.553 Y95.842 F12000.000
G1 X102.408 Y98.697 E40.42624 F1200.000
G1 X102.717 Y98.388 E40.43444
G1 X99.863 Y95.533 E40.51008
G1 X100.172 Y95.224 E40.51828
G1 X103.026 Y98.079 E40.59392
G1 X97.637 Y101.347 F12000.000
G1 X96.903 Y100.614 E40.61336 F1200.000
G1 X96.594 Y100.923 E40.62155
G1 X97.327 Y101.657 E40.64098
G1 X97.018 Y101.966 E40.64918
G1 X96.285 Y101.232 E40.66861
G1 X90.145 Y95.093 F12000.000
G1 X89.412 Y94.359 E40.68804 F1200.000
G1 X89.721 Y94.050 E40.69624
G1 X90.454 Y94.783 E40.71567
G1 X90.763 Y94.474 E40.72387
G1 X90.030 Y93.741 E40.74330
M104 S188 ; set temperature
G1 E38.74330 F1680.000
G92 E0
G1 Z0.400 F12000.000
G1 X55.066 Y50.975 F12000.000
G1 E2.00000 F1680.000
G1 X64.123 Y60.032 E2.16788 F1800.000
G1 X64.760 Y59.396 E2.17968
G1 X65.881 Y60.517 E2.20047
G1 X65.245 Y61.154 E2.21226
G1 X72.057 Y67.966 E2.33854
G1 X72.694 Y67.330 E2.35033
G1 X76.997 Y71.633 E2.43010
G1 X76.361 Y72.269 E2.44190
G1 X78.930 Y74.839 E2.48953
G1 X79.567 Y74.203 E2.50132
G1 X83.870 Y78.506 E2.58109
G1 X83.234 Y79.142 E2.59289
G1 X84.743 Y80.651 E2.62086
G1 X85.379 Y80.015 E2.63265
G1 X89.682 Y84.318 E2.71242
G1 X89.046 Y84.955 E2.72422
G1 X94.798 Y90.707 E2.83083
G1 X95.434 Y90.070 E2.84263
G1 X97.616 Y92.252 E2.88307
G1 X96.980 Y92.889 E2.89487
G1 X99.549 Y95.458 E2.94250
G1 X100.186 Y94.822 E2.95430
G1 X103.429 Y98.065 E3.01440
G1 X102.792 Y98.701 E3.02620
G1 X133.367 Y129.276 E3.59294
G1 X129.276 Y133.367 E3.66878
G1 X97.640 Y101.732 E4.25518
G1 X97.004 Y102.368 E4.26697
G1 X95.883 Y101.247 E4.28776
G1 X96.519 Y100.610 E4.29956
G1 X90.767 Y94.858 E4.40617
G1 X90.131 Y95.495 E4.41797
G1 X89.009 Y94.373 E4.43875
G1 X89.646 Y93.737 E4.45055
G1 X65.396 Y69.487 E4.90004
G1 X64.760 Y70.124 E4.91183
G1 X59.396 Y64.760 E5.01126
G1 X60.032 Y64.123 E5.02306
G1 X40.474 Y44.565 E5.38559
G1 X41.925 Y43.114 E5.41248
G1 X38.453 Y39.642 E5.47684
G1 X38.457 Y39.385 E5.48021
G1 X38.516 Y39.043 E5.48476
G1 X38.602 Y38.830 E5.48777
G1 X38.700 Y38.700 E5.48991
G1 X38.830 Y38.602 E5.49205
G1 X39.043 Y38.516 E5.49506
G1 X39.385 Y38.457 E5.49960
G1 X39.642 Y38.453 E5.50297 F1800.000
G1 X43.114 Y41.925 E5.56733
G1 X44.565 Y40.474 E5.59422
G1 X55.013 Y50.922 E5.78789
G1 X55.336 Y50.599 F12000.000
G1 X64.123 Y59.386 E5.95077 F1440.000
G1 X64.760 Y58.749 E5.96256
G1 X66.528 Y60.517 E5.99533
G1 X65.891 Y61.154 E6.00713
G1 X72.057 Y67.320 E6.12142
G1 X72.694 Y66.683 E6.13321
G1 X77.643 Y71.633 E6.22496
G1 X77.007 Y72.269 E6.23676
G1 X78.930 Y74.193 E6.27241
G1 X79.567 Y73.556 E6.28421
G1 X84.516 Y78.506 E6.37595
G1 X83.880 Y79.142 E6.38775
G1 X84.743 Y80.005 E6.40374
G1 X85.379 Y79.369 E6.41554
G1 X90.329 Y84.318 E6.50728
G1 X89.692 Y84.955 E6.51908
G1 X94.798 Y90.060 E6.61371
G1 X95.434 Y89.424 E6.62551
G1 X98.263 Y92.252 E6.67794
G1 X97.626 Y92.889 E6.68973
G1 X99.549 Y94.812 E6.72538
G1 X100.186 Y94.175 E6.73718
G1 X104.075 Y98.065 E6.80927
G1 X103.439 Y98.701 E6.82106
G1 X134.014 Y129.276 E7.38781
G1 X129.276 Y134.014 E7.47562
G1 X97.640 Y102.378 E8.06202
G1 X97.004 Y103.014 E8.07382
G1 X95.236 Y101.247 E8.10659
G1 X95.873 Y100.610 E8.11838
G1 X90.767 Y95.505 E8.21301
G1 X90.131 Y96.141 E8.22481
G1 X88.363 Y94.373 E8.25758
G1 X88.999 Y93.737 E8.26937
G1 X65.396 Y70.134 E8.70688
G1 X64.760 Y70.770 E8.71868
G1 X58.749 Y64.760 E8.83009
G1 X59.386 Y64.123 E8.84188
G1 X39.827 Y44.565 E9.20442
G1 X41.278 Y43.114 E9.23131
G1 X40.925 Y42.760 E9.23787
M106 S255
G1 X37.993 Y39.829 E9.35459 F2400.000
G1 X37.995 Y39.689 E9.35852
M106 S102
G1 X38.000 Y39.342 E9.36307 F1440.000
G1 X38.062 Y38.985 E9.36781
M106 S255
G1 X38.200 Y38.604 E9.37923 F2400.000
G1 X38.373 Y38.373 E9.38736
G1 X38.604 Y38.200 E9.39549
G1 X38.985 Y38.062 E9.40690
M106 S102
G1 X39.342 Y38.000 E9.41164 F1440.000
G1 X39.689 Y37.995 E9.41619
M106 S255
G1 X39.829 Y37.993 E9.42012 F2400.000
G1 X42.760 Y40.925 E9.53685
M106 S102
G1 X43.114 Y41.278 E9.54340 F1440.000
G1 X44.565 Y39.827 E9.57030
G1 X55.283 Y50.546 E9.76897
G1 X42.380 Y41.249 F12000.000
G1 X44.642 Y40.991 F12000.000
G1 X40.991 Y44.642 E9.83664 F2400.000
G1 X41.314 Y44.965 E9.84264
G1 X44.965 Y41.314 E9.91031
G1 X45.288 Y41.638 E9.91630
G1 X41.638 Y45.288 E9.98398
G1 X41.961 Y45.612 E9.98997
G1 X45.612 Y41.961 E10.05764
G1 X45.935 Y42.284 E10.06364
G1 X42.284 Y45.935 E10.13131
G1 X42.608 Y46.258 E10.13730
G1 X46.258 Y42.608 E10.20497
G1 X46.582 Y42.931 E10.21097
G1 X42.931 Y46.582 E10.27864
G1 X43.254 Y46.905 E10.28463
G1 X46.905 Y43.254 E10.35230
G1 X47.228 Y43.578 E10.35830
G1 X43.578 Y47.228 E10.42597
G1 X43.901 Y47.552 E10.43196
G1 X47.552 Y43.901 E10.49964
G1 X47.875 Y44.224 E10.50563
G1 X44.224 Y47.875 E10.57330
G1 X44.548 Y48.198 E10.57930
G1 X48.198 Y44.548 E10.64697
G1 X48.522 Y44.871 E10.65296
G1 X44.871 Y48.522 E10.72063
G1 X45.194 Y48.845 E10.72663
G1 X48.845 Y45.194 E10.79430
G1 X49.168 Y45.518 E10.80029
G1 X45.518 Y49.168 E10.86797
G1 X45.841 Y49.492 E10.87396
G1 X49.492 Y45.841 E10.94163
G1 X49.815 Y46.164 E10.94762
G1 X46.164 Y49.815 E11.01530
G1 X46.488 Y50.138 E11.02129
G1 X50.138 Y46.488 E11.08896
G1 X50.462 Y46.811 E11.09496
G1 X46.811 Y50.462 E11.16263
G1 X47.134 Y50.785 E11.16862
G1 X50.785 Y47.134 E11.23629
G1 X51.108 Y47.458 E11.24229
G1 X47.458 Y51.108 E11.30996
G1 X47.781 Y51.432 E11.31595
G1 X51.432 Y47.781 E11.38363
G1 X51.755 Y48.104 E11.38962
G1 X48.104 Y51.755 E11.45729
G1 X48.428 Y52.078 E11.46328
G1 X52.078 Y48.428 E11.53096
G1 X52.402 Y48.751 E11.53695
G1 X48.751 Y52.402 E11.60462
G1 X49.074 Y52.725 E11.61062
G1 X52.725 Y49.074 E11.67829
G1 X53.049 Y49.398 E11.68428
G1 X49.398 Y53.049 E11.75195
G1 X49.721 Y53.372 E11.75795
G1 X53.372 Y49.721 E11.82562
G1 X53.695 Y50.044 E11.83161
G1 X50.044 Y53.695 E11.89929
G1 X50.368 Y54.019 E11.90528
G1 X54.019 Y50.368 E11.97295
G1 X54.342 Y50.691 E11.97895
G1 X50.691 Y54.342 E12.04662
G1 X51.014 Y54.665 E12.05261
G1 X54.665 Y51.014 E12.12028
G1 X54.989 Y51.338 E12.12628
G1 X51.338 Y54.989 E12.19395
G1 X51.661 Y55.312 E12.19994
G1 X55.312 Y51.661 E12.26762
G1 X55.635 Y51.984 E12.27361
G1 X51.984 Y55.635 E12.34128
G1 X52.308 Y55.959 E12.34727
G1 X55.959 Y52.308 E12.41495
G1 X56.282 Y52.631 E12.42094
G1 X52.631 Y56.282 E12.48861
G1 X52.954 Y56.605 E12.49461
G1 X56.605 Y52.954 E12.56228
G1 X56.929 Y53.278 E12.56827
G1 X53.278 Y56.929 E12.63594
G1 X53.601 Y57.252 E12.64194
G1 X57.252 Y53.601 E12.70961
G1 X57.575 Y53.924 E12.71560
G1 X53.924 Y57.575 E12.78328
G1 X54.248 Y57.899 E12.78927
G1 X57.899 Y54.248 E12.85694
G1 X58.222 Y54.571 E12.86293
G1 X54.571 Y58.222 E12.93061
G1 X54.894 Y58.545 E12.93660
G1 X58.545 Y54.894 E13.00427
G1 X58.869 Y55.218 E13.01027
G1 X55.218 Y58.869 E13.07794
G1 X55.541 Y59.192 E13.08393
G1 X59.192 Y55.541 E13.15160
G1 X59.515 Y55.864 E13.15760
G1 X55.864 Y59.515 E13.22527
G1 X56.188 Y59.839 E13.23126
G1 X59.839 Y56.188 E13.29894
G1 X60.162 Y56.511 E13.30493
G1 X56.511 Y60.162 E13.37260
G1 X56.834 Y60.485 E13.37860
G1 X60.485 Y56.834 E13.44627
G1 X60.809 Y57.158 E13.45226
G1 X57.158 Y60.809 E13.51993
G1 X57.481 Y61.132 E13.52593
G1 X61.132 Y57.481 E13.59360
G1 X61.455 Y57.804 E13.59959
G1 X57.804 Y61.455 E13.66726
G1 X58.128 Y61.779 E13.67326
G1 X61.779 Y58.128 E13.74093
G1 X62.102 Y58.451 E13.74692
G1 X58.451 Y62.102 E13.81460
G1 X58.774 Y62.425 E13.82059
G1 X62.425 Y58.774 E13.88826
G1 X62.749 Y59.098 E13.89426
G1 X59.098 Y62.749 E13.96193
G1 X59.421 Y63.072 E13.96792
G1 X63.072 Y59.421 E14.03559
G1 X63.395 Y59.744 E14.04159
G1 X59.744 Y63.395 E14.10926
G1 X60.068 Y63.719 E14.11525
G1 X63.719 Y60.068 E14.18293
G1 X64.042 Y60.391 E14.18892
G1 X60.391 Y64.042 E14.25659
G1 X60.092 Y64.988 E14.26959
G1 X64.988 Y60.092 E14.36033
G1 X65.311 Y60.416 E14.36632
G1 X60.416 Y65.311 E14.45706
G1 X60.739 Y65.634 E14.46306
G1 X65.012 Y61.361 E14.54226
G1 X65.335 Y61.684 E14.54826
G1 X61.062 Y65.958 E14.62746
G1 X61.386 Y66.281 E14.63346
G1 X65.659 Y62.008 E14.71266
G1 X65.982 Y62.331 E14.71866
G1 X61.709 Y66.604 E14.79786
G1 X62.032 Y66.928 E14.80386
G1 X66.305 Y62.654 E14.88306
G1 X66.629 Y62.978 E14.88906
G1 X62.356 Y67.251 E14.96826
G1 X62.679 Y67.574 E14.97426
G1 X66.952 Y63.301 E15.05346
G1 X67.275 Y63.625 E15.05946
G1 X63.002 Y67.898 E15.13866
G1 X63.326 Y68.221 E15.14466
G1 X67.599 Y63.948 E15.22386
G1 X67.922 Y64.271 E15.22986
G1 X63.649 Y68.544 E15.30906
G1 X63.972 Y68.868 E15.31506
G1 X68.245 Y64.595 E15.39426
G1 X68.569 Y64.918 E15.40026
G1 X64.296 Y69.191 E15.47946
G1 X64.619 Y69.514 E15.48546
G1 X68.892 Y65.241 E15.56466
G1 X69.215 Y65.565 E15.57066
G1 X65.565 Y69.215 E15.63833
G1 X65.888 Y69.539 E15.64432
G1 X69.539 Y65.888 E15.71199
G1 X69.862 Y66.211 E15.71799
G1 X66.211 Y69.862 E15.78566
G1 X66.535 Y70.185 E15.79165
G1 X70.185 Y66.535 E15.85932
G1 X70.509 Y66.858 E15.86532
G1 X66.858 Y70.509 E15.93299
G1 X67.181 Y70.832 E15.93898
G1 X70.832 Y67.181 E16.00666
G1 X71.155 Y67.505 E16.01265
G1 X67.505 Y71.155 E16.08032
G1 X67.828 Y71.479 E16.08632
G1 X71.479 Y67.828 E16.15399
G1 X71.802 Y68.151 E16.15998
G1 X68.151 Y71.802 E16.22765
G1 X68.475 Y72.125 E16.23365
G1 X72.748 Y67.852 E16.31285
G1 X73.071 Y68.176 E16.31885
G1 X68.798 Y72.449 E16.39805
G1 X69.121 Y72.772 E16.40405
G1 X73.394 Y68.499 E16.48325
G1 X73.718 Y68.822 E16.48925
G1 X69.445 Y73.095 E16.56845
G1 X69.768 Y73.419 E16.57445
G1 X74.041 Y69.146 E16.65365
G1 X74.364 Y69.469 E16.65965
G1 X70.091 Y73.742 E16.73885
G1 X70.415 Y74.065 E16.74485
G1 X74.688 Y69.792 E16.82405
G1 X75.011 Y70.116 E16.83005
G1 X70.738 Y74.389 E16.90925
G1 X71.061 Y74.712 E16.91525
G1 X75.334 Y70.439 E16.99445
G1 X75.658 Y70.762 E17.00045
G1 X71.385 Y75.035 E17.07965
G1 X71.708 Y75.359 E17.08565
G1 X75.981 Y71.086 E17.16485
G1 X76.304 Y71.409 E17.17085
G1 X72.031 Y75.682 E17.25005
G1 X72.355 Y76.006 E17.25605
G1 X76.006 Y72.355 E17.32372
G1 X76.329 Y72.678 E17.32971
G1 X72.678 Y76.329 E17.39738
G1 X73.001 Y76.652 E17.40338
G1 X76.652 Y73.001 E17.47105
G1 X76.976 Y73.325 E17.47704
G1 X73.325 Y76.976 E17.54471
G1 X73.648 Y77.299 E17.55071
G1 X77.299 Y73.648 E17.61838
G1 X77.622 Y73.971 E17.62437
