; generated by Slic3r 0.9.9 on 2013-05-28 at 22:16:05

; layer_height = 0.3
; perimeters = 2
; top_solid_layers = 2
; bottom_solid_layers = 2
; fill_density = 0.3
; perimeter_speed = 30
; infill_speed = 40
; travel_speed = 200
; nozzle_diameter = 0.5
; filament_diameter = 3
; extrusion_multiplier = 0.85
; perimeters extrusion width = 0.70mm
; infill extrusion width = 0.70mm
; solid infill extrusion width = 0.70mm
; top infill extrusion width = 0.70mm
; support material extrusion width = 0.70mm
; first layer extrusion width = 175.00mm

G21 ; set units to millimeters
M107
M190 S100 ; wait for bed temperature to be reached
M104 S220 ; set temperature
G28 ; home all axes
G1 Z5 F120 ; lift nozzle
G1 E3
M109 S220 ; wait for temperature to be reached
G90 ; use absolute coordinates
G92 E0
M82 ; use absolute distances for extrusion
G1 F1680.000 E-2.00000
G92 E0
G1 Z0.200 F12000.000
G1 X-35.163 Y-54.440
G1 F1680.000 E2.00000
G1 X-28.323 Y-58.680 F540.000 E35.86197
G1 X-24.773 Y-60.760 E53.17457
G1 X-21.173 Y-62.760 E70.50307
G1 X-17.523 Y-64.680 E87.85654
G1 X-13.843 Y-66.510 E105.14990
G1 X-11.363 Y-67.690 E116.70609
G1 X-8.863 Y-68.830 E128.26747
G1 X-6.343 Y-69.930 E139.83713
G1 X-3.813 Y-70.990 E151.37928
G1 X0.017 Y-72.510 E168.71764
G1 X1.297 Y-73.000 E174.48469
G1 X5.167 Y-74.400 E191.80138
G1 X9.067 Y-75.720 E209.12600
G1 X10.377 Y-76.140 E214.91450
G1 X14.317 Y-77.330 E232.23263
G1 X18.287 Y-78.440 E249.57798
G1 X22.277 Y-79.460 E266.90673
G1 X24.947 Y-80.080 E278.44029
G1 X27.627 Y-80.670 E289.98705
G1 X28.977 Y-80.950 E295.78838
G1 X33.017 Y-81.720 E313.09362
G1 X34.367 Y-81.960 E318.86312
G1 X37.077 Y-82.400 E330.41540
G1 X38.437 Y-82.610 E336.20573
G1 X41.157 Y-82.990 E347.76191
G1 X43.877 Y-83.330 E359.29601
G1 X53.457 Y-84.380 E399.84748
G1 X73.157 Y-85.460 E482.86427
G1 X119.537 Y-85.460 E678.01887
G1 X126.797 Y-85.310 E708.57352
G1 X150.557 Y-84.350 E808.63080
G1 X154.627 Y-84.110 E825.78601
G1 X158.687 Y-83.780 E842.92574
G1 X162.737 Y-83.360 E860.05845
G1 X165.427 Y-83.030 E871.46210
G1 X169.467 Y-82.450 E888.63562
G1 X173.477 Y-81.790 E905.73564
G1 X177.487 Y-81.030 E922.90901
G1 X181.467 Y-80.190 E940.02471
G1 X185.437 Y-79.250 E957.19127
G1 X189.377 Y-78.230 E974.31628
G1 X193.297 Y-77.120 E991.45910
G1 X197.187 Y-75.920 E1008.58829
G1 X201.047 Y-74.630 E1025.71314
G1 X204.887 Y-73.260 E1042.86836
G1 X208.687 Y-71.800 E1059.99729
G1 X211.207 Y-70.780 E1071.43644
G1 X213.707 Y-69.720 E1082.86227
G1 X216.187 Y-68.620 E1094.27787
G1 X218.657 Y-67.490 E1105.70696
G1 X221.107 Y-66.320 E1117.13109
G1 X224.747 Y-64.500 E1134.25505
G1 X228.347 Y-62.590 E1151.40284
G1 X231.907 Y-60.610 E1168.54334
G1 X234.257 Y-59.240 E1179.98915
G1 X237.737 Y-57.120 E1197.13523
G1 X241.167 Y-54.930 E1214.25868
G1 X243.427 Y-53.420 E1225.69543
G1 X246.767 Y-51.100 E1242.80699
G1 X247.877 Y-50.310 E1248.53970
G1 X250.067 Y-48.700 E1259.97684
G1 X251.147 Y-47.890 E1265.65728
G1 X253.297 Y-46.230 E1277.08660
G1 X256.487 Y-43.690 E1294.24450
G1 X258.577 Y-41.950 E1305.68744
G1 X260.637 Y-40.190 E1317.08814
G1 X261.657 Y-39.290 E1322.81189
G1 X263.677 Y-37.480 E1334.22447
G1 X265.677 Y-35.640 E1345.65960
G1 X267.647 Y-33.770 E1357.08868
G1 X270.537 Y-30.910 E1374.19698
G1 X272.437 Y-28.960 E1385.65291
G1 X274.307 Y-26.990 E1397.08200
G1 X277.047 Y-23.980 E1414.20891
G1 X278.837 Y-21.940 E1425.62862
G1 X280.597 Y-19.870 E1437.06135
G1 X282.327 Y-17.780 E1448.47741
G1 X284.027 Y-15.660 E1459.91161
G1 X286.507 Y-12.430 E1477.04658
G1 X287.327 Y-11.340 E1482.78594
G1 X288.927 Y-9.150 E1494.19820
G1 X290.487 Y-6.930 E1505.61504
G1 X292.027 Y-4.690 E1517.05296
G1 X293.527 Y-2.430 E1528.46638
G1 X294.257 Y-1.290 E1534.16238
G1 X295.707 Y1.010 E1545.60285
G1 X297.127 Y3.330 E1557.04819
G1 X299.177 Y6.840 E1574.15178
G1 X300.507 Y9.210 E1585.58706
G1 X301.157 Y10.410 E1591.32950
G1 X301.797 Y11.600 E1597.01492
G1 X303.667 Y15.220 E1614.15919
G1 X304.867 Y17.660 E1625.60051
G1 X306.597 Y21.350 E1642.74876
G1 X307.157 Y22.580 E1648.43543
G1 X308.247 Y25.070 E1659.87256
G1 X309.807 Y28.830 E1677.00129
G1 X311.287 Y32.630 E1694.16058
G1 X311.757 Y33.900 E1699.85860
G1 X312.227 Y35.180 E1705.59610
G1 X313.557 Y39.020 E1722.69550
G1 X313.987 Y40.310 E1728.41709
G1 X314.807 Y42.900 E1739.84826
G1 X315.587 Y45.500 E1751.27007
G1 X316.337 Y48.110 E1762.69667
G1 X317.037 Y50.740 E1774.14828
G1 X317.707 Y53.370 E1785.56806
G1 X318.327 Y56.010 E1796.97870
G1 X319.197 Y59.990 E1814.12091
G1 X319.967 Y63.990 E1831.26084
G1 X320.657 Y68.010 E1848.42328
G1 X321.057 Y70.690 E1859.82492
G1 X321.427 Y73.380 E1871.25028
G1 X321.897 Y77.430 E1888.40596
G1 X322.037 Y78.780 E1894.11687
G1 X322.277 Y81.480 E1905.52254
G1 X322.387 Y82.840 E1911.26374
G1 X322.567 Y85.540 E1922.64983
G1 X322.647 Y86.900 E1928.38224
G1 X322.767 Y89.610 E1939.79637
G1 X322.817 Y90.970 E1945.52275
G1 X322.877 Y93.680 E1956.92850
G1 X322.897 Y96.400 E1968.37384
G1 X322.897 Y103.600 E1998.66950
G1 X322.877 Y106.310 E2010.07277
G1 X322.817 Y109.020 E2021.47851
G1 X322.767 Y110.370 E2027.16285
G1 X322.647 Y113.080 E2038.57697
G1 X322.487 Y115.780 E2049.95778
G1 X322.167 Y119.830 E2067.05220
G1 X321.757 Y123.880 E2084.18062
G1 X321.257 Y127.910 E2101.26779
G1 X320.667 Y131.930 E2118.36408
G1 X320.217 Y134.600 E2129.75717
G1 X319.737 Y137.270 E2141.17192
G1 X318.937 Y141.250 E2158.25365
G1 X318.047 Y145.220 E2175.37297
G1 X317.727 Y146.540 E2181.08805
G1 X317.067 Y149.160 E2192.45672
G1 X316.367 Y151.780 E2203.86766
G1 X315.237 Y155.680 E2220.95276
G1 X314.027 Y159.560 E2238.05423
G1 X312.727 Y163.410 E2255.15259
G1 X311.807 Y165.960 E2266.55927
G1 X310.857 Y168.500 E2277.96998
G1 X309.357 Y172.280 E2295.08175
G1 X308.307 Y174.780 E2306.49122
G1 X307.227 Y177.260 E2317.87296
G1 X306.107 Y179.730 E2329.28460
G1 X304.947 Y182.170 E2340.65265
G1 X303.137 Y185.820 E2357.79553
G1 X301.257 Y189.410 E2374.84723
G1 X299.287 Y192.970 E2391.96732
G1 X297.237 Y196.480 E2409.07091
G1 X295.117 Y199.950 E2426.18107
G1 X293.657 Y202.230 E2437.57307
G1 X292.157 Y204.490 E2448.98650
G1 X290.637 Y206.730 E2460.37694
G1 X289.077 Y208.940 E2471.75938
G1 X287.477 Y211.130 E2483.17165
G1 X285.857 Y213.300 E2494.56621
G1 X283.357 Y216.500 E2511.65292
G1 X281.647 Y218.610 E2523.08077
G1 X279.907 Y220.690 E2534.49140
G1 X277.247 Y223.760 E2551.58355
G1 X274.517 Y226.760 E2568.65102
G1 X272.657 Y228.730 E2580.05118
G1 X270.767 Y230.680 E2591.47779
G1 X268.847 Y232.590 E2602.87329
G1 X266.907 Y234.480 E2614.26972
G1 X263.937 Y237.250 E2631.35839
G1 X260.897 Y239.960 E2648.49461
G1 X258.847 Y241.720 E2659.86335
G1 X256.767 Y243.460 E2671.27399
G1 X253.597 Y246.000 E2688.36613
G1 X251.447 Y247.660 E2699.79545
G1 X248.187 Y250.080 E2716.87905
G1 X245.987 Y251.650 E2728.25153
G1 X243.757 Y253.200 E2739.67876
G1 X241.507 Y254.700 E2751.05715
G1 X239.227 Y256.180 E2762.49475
G1 X236.937 Y257.620 E2773.87719
G1 X233.447 Y259.710 E2790.99403
G1 X229.927 Y261.730 E2808.07078
G1 X227.547 Y263.030 E2819.48173
G1 X225.147 Y264.290 E2830.88740
G1 X223.947 Y264.910 E2836.57080
G1 X221.517 Y266.120 E2847.99307
G1 X219.077 Y267.290 E2859.37924
G1 X216.617 Y268.430 E2870.78770
G1 X214.147 Y269.530 E2882.16485
G1 X210.397 Y271.110 E2899.28722
G1 X207.887 Y272.110 E2910.65596
G1 X204.077 Y273.550 E2927.79424
G1 X201.527 Y274.460 E2939.18671
G1 X198.967 Y275.340 E2950.57716
G1 X196.387 Y276.170 E2961.98104
G1 X193.797 Y276.970 E2973.38710
G1 X192.497 Y277.350 E2979.08605
G1 X189.887 Y278.090 E2990.50111
G1 X187.277 Y278.790 E3001.87141
G1 X183.327 Y279.760 E3018.98576
G1 X180.687 Y280.360 E3030.37745
G1 X179.367 Y280.640 E3036.05524
G1 X176.707 Y281.190 E3047.48456
G1 X174.047 Y281.690 E3058.87314
G1 X171.377 Y282.150 E3070.27330
G1 X168.697 Y282.570 E3081.68766
G1 X166.017 Y282.950 E3093.07717
G1 X163.327 Y283.290 E3104.48602
G1 X161.987 Y283.440 E3110.15960
G1 X160.637 Y283.590 E3115.87499
G1 X157.937 Y283.850 E3127.28842
G1 X155.237 Y284.070 E3138.68695
G1 X152.537 Y284.250 E3150.07304
G1 X148.477 Y284.440 E3167.17513
G1 X145.767 Y284.520 E3178.58305
G1 X78.637 Y285.440 E3461.07461
G1 X73.157 Y285.460 E3484.13313
G1 X59.617 Y284.950 E3541.14622
G1 X46.827 Y283.990 E3595.11449
G1 X44.127 Y283.770 E3606.51302
G1 X40.087 Y283.360 E3623.59957
G1 X36.057 Y282.860 E3640.68675
G1 X32.037 Y282.270 E3657.78304
G1 X28.037 Y281.590 E3674.85544
G1 X26.707 Y281.340 E3680.54973
G1 X24.057 Y280.820 E3691.91286
G1 X20.087 Y279.960 E3709.00501
G1 X16.137 Y279.010 E3726.09949
G1 X13.517 Y278.330 E3737.48900
G1 X10.907 Y277.610 E3748.88139
G1 X8.307 Y276.850 E3760.27930
G1 X4.437 Y275.640 E3777.34060
G1 X1.867 Y274.780 E3788.74386
G1 X-0.683 Y273.890 E3800.10832
G1 X-1.963 Y273.430 E3805.83146
G1 X-5.753 Y271.980 E3822.90603
G1 X-8.263 Y270.980 E3834.27478
G1 X-10.763 Y269.930 E3845.68425
G1 X-13.243 Y268.850 E3857.06599
G1 X-15.703 Y267.730 E3868.43933
G1 X-16.933 Y267.160 E3874.14356
G1 X-20.583 Y265.380 E3891.23073
G1 X-22.993 Y264.150 E3902.61574
G1 X-25.393 Y262.890 E3914.02141
G1 X-27.763 Y261.590 E3925.39544
G1 X-31.283 Y259.570 E3942.47220
G1 X-33.613 Y258.180 E3953.88827
G1 X-35.913 Y256.760 E3965.26191
G1 X-38.193 Y255.300 E3976.65391
G1 X-40.453 Y253.810 E3988.04413
G1 X-42.683 Y252.290 E3999.39978
G1 X-44.903 Y250.730 E4010.81662
G1 X-46.003 Y249.940 E4016.51511
G1 X-48.173 Y248.330 E4027.88455
G1 X-50.333 Y246.690 E4039.29612
G1 X-52.463 Y245.020 E4050.68486
G1 X-54.563 Y243.310 E4062.08005
G1 X-56.643 Y241.580 E4073.46373
G1 X-58.693 Y239.810 E4084.85993
G1 X-60.713 Y238.020 E4096.21652
G1 X-61.723 Y237.110 E4101.93686
G1 X-64.683 Y234.340 E4118.99479
G1 X-65.663 Y233.400 E4124.70864
G1 X-67.583 Y231.500 E4136.07450
G1 X-68.543 Y230.540 E4141.78711
G1 X-70.423 Y228.600 E4153.15421
G1 X-72.283 Y226.630 E4164.55437
G1 X-74.103 Y224.630 E4175.93269
G1 X-75.013 Y223.620 E4181.65304
G1 X-76.793 Y221.580 E4193.04504
G1 X-78.543 Y219.520 E4204.41845
G1 X-80.263 Y217.430 E4215.80773
G1 X-82.783 Y214.240 E4232.91334
G1 X-83.603 Y213.170 E4238.58567
G1 X-86.023 Y209.910 E4255.66927
G1 X-87.603 Y207.710 E4267.06624
G1 X-89.143 Y205.480 E4278.46951
G1 X-90.653 Y203.240 E4289.83638
G1 X-92.123 Y200.970 E4301.21578
G1 X-93.563 Y198.680 E4312.59822
G1 X-94.973 Y196.360 E4324.02165
G1 X-96.343 Y194.030 E4335.39483
G1 X-97.673 Y191.680 E4346.75680
G1 X-98.333 Y190.490 E4352.48256
G1 X-100.243 Y186.910 E4369.55605
G1 X-101.473 Y184.500 E4380.94106
G1 X-102.663 Y182.070 E4392.32607
G1 X-103.823 Y179.620 E4403.73212
G1 X-104.943 Y177.160 E4415.10546
G1 X-106.553 Y173.430 E4432.19994
G1 X-107.573 Y170.930 E4443.56112
G1 X-108.563 Y168.410 E4454.95351
G1 X-109.513 Y165.870 E4466.36423
G1 X-110.433 Y163.320 E4477.77091
G1 X-110.873 Y162.050 E4483.42635
G1 X-112.143 Y158.190 E4500.52472
G1 X-112.943 Y155.600 E4511.93077
G1 X-113.703 Y153.000 E4523.32868
G1 X-114.423 Y150.400 E4534.68051
G1 X-115.103 Y147.780 E4546.07003
G1 X-116.053 Y143.830 E4563.16450
G1 X-116.633 Y141.190 E4574.53784
G1 X-117.433 Y137.210 E4591.61957
G1 X-118.143 Y133.210 E4608.71358
G1 X-118.363 Y131.870 E4614.42743
G1 X-118.953 Y127.860 E4631.48209
G1 X-119.453 Y123.830 E4648.56926
G1 X-119.863 Y119.790 E4665.65581
G1 X-120.183 Y115.740 E4682.75024
G1 X-120.343 Y113.040 E4694.13104
G1 X-120.623 Y106.710 E4720.79203
G1 X-120.713 Y103.850 E4732.83210
G1 X-120.733 Y102.420 E4738.84974
G1 X-120.753 Y99.550 E4750.92623
G1 X-120.743 Y98.120 E4756.94343
G1 X-120.693 Y95.260 E4768.97938
G1 X-120.593 Y92.400 E4781.02085
G1 X-120.453 Y89.540 E4793.06937
G1 X-120.263 Y86.690 E4805.08803
G1 X-120.153 Y85.260 E4811.12286
G1 X-119.893 Y82.410 E4823.16469
G1 X-119.753 Y80.990 E4829.16864
G1 X-119.253 Y76.720 E4847.25841
G1 X-118.643 Y72.470 E4865.32453
G1 X-118.363 Y70.690 E4872.90640
G1 X-117.893 Y67.910 E4884.76989
G1 X-117.383 Y65.140 E4896.62121
G1 X-116.823 Y62.380 E4908.47118
G1 X-115.903 Y58.250 E4926.27506
G1 X-114.893 Y54.150 E4944.04250
G1 X-114.533 Y52.790 E4949.96211
G1 X-113.393 Y48.710 E4967.78721
G1 X-112.573 Y46.020 E4979.62021
G1 X-111.723 Y43.330 E4991.49064
G1 X-110.823 Y40.660 E5003.34637
G1 X-109.883 Y38.000 E5015.21724
G1 X-108.903 Y35.360 E5027.06633
G1 X-107.883 Y32.730 E5038.93578
G1 X-106.823 Y30.120 E5050.78912
G1 X-106.103 Y28.420 E5058.55737
G1 X-104.453 Y24.660 E5075.83476
G1 X-103.313 Y22.180 E5087.31964
G1 X-101.523 Y18.480 E5104.61444
G1 X-99.653 Y14.830 E5121.87096
G1 X-97.693 Y11.220 E5139.15532
G1 X-96.343 Y8.840 E5150.66860
G1 X-94.963 Y6.480 E5162.17195
G1 X-92.823 Y2.980 E5179.43371
G1 X-90.603 Y-0.470 E5196.69613
G1 X-89.843 Y-1.610 E5202.46118
G1 X-88.303 Y-3.870 E5213.96854
G1 X-86.723 Y-6.100 E5225.46828
G1 X-85.113 Y-8.320 E5237.00737
G1 X-83.473 Y-10.510 E5248.51972
G1 X-81.803 Y-12.670 E5260.00806
G1 X-80.093 Y-14.810 E5271.53425
G1 X-77.473 Y-17.960 E5288.77410
G1 X-75.683 Y-20.040 E5300.32085
G1 X-73.863 Y-22.080 E5311.82421
G1 X-71.083 Y-25.090 E5329.06487
G1 X-69.183 Y-27.070 E5340.61155
G1 X-67.263 Y-29.010 E5352.09642
G1 X-64.323 Y-31.880 E5369.38426
G1 X-62.323 Y-33.750 E5380.90523
G1 X-60.303 Y-35.590 E5392.40243
G1 X-58.253 Y-37.400 E5403.90932
G1 X-56.366 Y-39.015 E5414.35867
G1 F1680.000 E5412.35867
G92 E0
G1 X60.370 Y103.542 F12000.000
G1 F1680.000 E2.00000
G1 X63.898 Y103.542 F720.000 E16.84664
M106 S255
M104 S225 ; set temperature
M140 S120 ; set bed temperature
G1 F1680.000 E14.84664
G92 E0
G1 Z0.500 F12000.000
G1 X62.540 Y102.489
G1 F1680.000 E2.00000
G1 X62.540 Y103.194 F2170.253 E2.01663
G1 X60.040 Y103.017 E2.07581
G1 X60.040 Y102.489 E2.08826
G1 F1680.000 E0.08826
G92 E0
G1 X59.668 Y97.854 F12000.000
G1 F1680.000 E2.00000
G1 X57.540 Y98.084 F2170.253 E2.05053
G1 F1680.000 E0.05053
G92 E0
G1 X60.040 Y97.511 F12000.000
G1 F1680.000 E2.00000
G1 X60.040 Y96.983 F2170.253 E2.01245
G1 F1680.000 E0.01245
G92 E0
G1 X62.540 Y96.806 F12000.000
G1 F1680.000 E2.00000
G1 X62.540 Y97.511 F2170.253 E2.01663
G1 F1680.000 E0.01663
G92 E0
G1 X60.869 Y100.462 F12000.000
G1 F1680.000 E2.00000
G1 X60.720 Y100.251 F1627.690 E2.00610
G1 X60.653 Y100.093 E2.01015
G1 X60.639 Y100.000 E2.01238
G1 X60.653 Y99.907 E2.01461
G1 X60.720 Y99.749 E2.01866
G1 X60.869 Y99.538 E2.02476
G1 X65.925 Y99.538 E2.14414
G1 X65.925 Y97.382 E2.19504
G1 X74.145 Y97.382 E2.38912
G1 X74.145 Y96.482 E2.41037
G1 X81.181 Y96.482 E2.57651
G1 X81.181 Y97.382 E2.59776
G1 X85.365 Y97.382 E2.69654
G1 X85.365 Y96.482 E2.71779
G1 X90.901 Y96.482 E2.84851
G1 X90.901 Y97.382 E2.86976
G1 X95.085 Y97.382 E2.96854
G1 X95.085 Y96.482 E2.98979
G1 X99.121 Y96.482 E3.08509
G1 X99.121 Y97.382 E3.10634
G1 X104.805 Y97.382 E3.24054
G1 X104.805 Y96.482 E3.26179
G1 X110.341 Y96.482 E3.39251
G1 X110.341 Y97.382 E3.41376
G1 X113.025 Y97.382 E3.47712
G1 X113.025 Y96.482 E3.49837
G1 X118.561 Y96.482 E3.62909
G1 X118.561 Y97.382 E3.65034
G1 X140.961 Y97.382 E4.17923
G1 X140.961 Y102.618 E4.30287
G1 X75.181 Y102.618 E5.85601
G1 X75.181 Y103.518 E5.87726
G1 X74.145 Y103.518 E5.90173
G1 X74.145 Y102.618 E5.92298
G1 X65.925 Y102.618 E6.11707
G1 X65.925 Y100.462 E6.16797
G1 X60.967 Y100.462 E6.28503
G1 X60.404 Y100.934 F12000.000
G1 X60.145 Y100.572 F1627.690 E6.29554
G1 X60.017 Y100.271 E6.30326
G1 X59.978 Y100.000 E6.30972
G1 X60.017 Y99.729 E6.31619
G1 X60.145 Y99.428 E6.32390
G1 X60.390 Y99.081 E6.33393
G1 X60.582 Y98.883 E6.34044
G1 X65.270 Y98.883 E6.45115
G1 X65.270 Y96.727 E6.50205
G1 X73.490 Y96.727 E6.69613
G1 X73.490 Y95.827 E6.71738
G1 X81.836 Y95.827 E6.91443
G1 X81.836 Y96.727 E6.93568
G1 X84.710 Y96.727 E7.00355
G1 X84.710 Y95.827 E7.02480
G1 X91.556 Y95.827 E7.18643
G1 X91.556 Y96.727 E7.20768
G1 X94.430 Y96.727 E7.27555
G1 X94.430 Y95.827 E7.29680
G1 X99.776 Y95.827 E7.42301
G1 X99.776 Y96.727 E7.44426
G1 X104.150 Y96.727 E7.54755
G1 X104.150 Y95.827 E7.56880
G1 X110.996 Y95.827 E7.73043
G1 X110.996 Y96.727 E7.75168
G1 X112.370 Y96.727 E7.78413
G1 X112.370 Y95.827 E7.80538
G1 X119.216 Y95.827 E7.96701
G1 X119.216 Y96.727 E7.98826
G1 X141.616 Y96.727 E8.51715
G1 X141.616 Y103.273 E8.67170
G1 X75.836 Y103.273 E10.22484
G1 X75.836 Y104.173 E10.24609
G1 X73.490 Y104.173 E10.30147
G1 X73.490 Y103.273 E10.32272
G1 X65.270 Y103.273 E10.51680
G1 X65.270 Y101.117 E10.56770
