; generated by Slic3r 0.9.9 on 2013-05-28 at 23:40:46

; layer_height = 0.4
; perimeters = 3
; top_solid_layers = 3
; bottom_solid_layers = 3
; fill_density = 0.4
; perimeter_speed = 30
; infill_speed = 60
; travel_speed = 130
; nozzle_diameter = 0.5
; filament_diameter = 3
; extrusion_multiplier = 1
; perimeters extrusion width = 0.53mm
; infill extrusion width = 0.53mm
; solid infill extrusion width = 0.53mm
; top infill extrusion width = 0.53mm
; first layer extrusion width = 0.70mm

G21 ; set units to millimeters
M107
M104 S200 ; set temperature
G28 ; home all axes
G1 Z5 F5000 ; lift nozzle

M109 S200 ; wait for temperature to be reached
G90 ; use absolute coordinates
G92 E0
M82 ; use absolute distances for extrusion
G1 F1800.000 E-1.00000
G92 E0
G1 Z0.350 F7800.000
G1 X57.137 Y93.190
G1 F1800.000 E1.00000
G1 X61.907 Y90.470 F540.000 E1.17865
G1 X62.457 Y90.220 E1.19831
G1 X63.027 Y90.020 E1.21796
G1 X63.317 Y89.940 E1.22775
G1 X63.907 Y89.820 E1.24734
G1 X64.217 Y89.780 E1.25751
G1 X72.437 Y88.880 E1.52654
G1 X73.157 Y88.840 E1.55001
G1 X119.537 Y88.840 E3.05899
G1 X142.467 Y89.760 E3.80562
G1 X142.737 Y89.790 E3.81446
G1 X143.267 Y89.880 E3.83195
G1 X143.787 Y90.010 E3.84939
G1 X144.547 Y90.280 E3.87563
G1 X145.267 Y90.630 E3.90168
G1 X145.717 Y90.920 E3.91910
G1 X146.147 Y91.240 E3.93653
G1 X146.737 Y91.790 E3.96278
G1 X147.097 Y92.190 E3.98029
G1 X147.417 Y92.620 E3.99772
G1 X147.707 Y93.070 E4.01514
G1 X147.947 Y93.550 E4.03260
G1 X148.157 Y94.040 E4.04995
G1 X148.397 Y94.810 E4.07619
G1 X148.507 Y95.330 E4.09348
G1 X148.577 Y95.860 E4.11087
G1 X148.597 Y96.400 E4.12846
G1 X148.597 Y103.600 E4.36271
G1 X148.577 Y104.130 E4.37996
G1 X148.547 Y104.400 E4.38880
G1 X148.407 Y105.180 E4.41459
G1 X148.337 Y105.440 E4.42335
G1 X148.167 Y105.940 E4.44053
G1 X147.967 Y106.430 E4.45775
G1 X147.717 Y106.900 E4.47507
G1 X147.437 Y107.350 E4.49231
G1 X147.117 Y107.780 E4.50975
G1 X146.587 Y108.370 E4.53555
G1 X145.977 Y108.890 E4.56163
G1 X145.547 Y109.200 E4.57888
G1 X144.847 Y109.590 E4.60495
G1 X144.607 Y109.700 E4.61354
G1 X144.117 Y109.890 E4.63064
G1 X143.347 Y110.110 E4.65669
G1 X142.827 Y110.200 E4.67386
G1 X142.297 Y110.250 E4.69118
G1 X76.247 Y111.160 E6.84034
G1 X73.157 Y111.160 E6.94087
G1 X72.437 Y111.120 E6.96433
G1 X64.217 Y110.220 E7.23337
G1 X63.907 Y110.180 E7.24354
G1 X63.017 Y109.980 E7.27322
G1 X62.447 Y109.770 E7.29298
G1 X61.897 Y109.520 E7.31264
G1 X57.127 Y106.800 E7.49129
G1 X56.617 Y106.470 E7.51105
G1 X56.137 Y106.100 E7.53077
G1 X55.697 Y105.690 E7.55034
G1 X55.487 Y105.470 E7.56024
G1 X55.107 Y105.010 E7.57965
G1 X54.627 Y104.310 E7.60726
G1 X54.377 Y103.880 E7.62345
G1 X53.997 Y103.040 E7.65344
G1 X53.867 Y102.730 E7.66438
G1 X53.657 Y102.080 E7.68660
G1 X53.517 Y101.420 E7.70855
G1 X53.457 Y101.040 E7.72107
G1 X53.387 Y100.360 E7.74331
G1 X53.387 Y99.670 E7.76576
G1 X53.457 Y98.990 E7.78800
G1 X53.577 Y98.260 E7.81207
G1 X53.757 Y97.590 E7.83464
G1 X53.997 Y96.950 E7.85688
G1 X54.377 Y96.110 E7.88688
G1 X54.627 Y95.680 E7.90306
G1 X55.107 Y94.980 E7.93067
G1 X55.497 Y94.510 E7.95054
G1 X55.917 Y94.080 E7.97010
G1 X56.377 Y93.690 E7.98972
G1 X57.053 Y93.242 E8.01611
G1 F1800.000 E7.01611
G92 E0
G1 X66.586 Y98.043 F7800.000
G1 F1800.000 E1.00000
G1 X74.806 Y98.043 F540.000 E1.26744
G1 X74.806 Y97.143 E1.29672
G1 X80.520 Y97.143 E1.48265
G1 X80.520 Y98.043 E1.51193
G1 X86.026 Y98.043 E1.69105
G1 X86.026 Y97.143 E1.72033
G1 X90.240 Y97.143 E1.85745
G1 X90.240 Y98.043 E1.88673
G1 X95.746 Y98.043 E2.06585
G1 X95.746 Y97.143 E2.09514
G1 X98.460 Y97.143 E2.18346
G1 X98.460 Y98.043 E2.21274
G1 X105.466 Y98.043 E2.44066
G1 X105.466 Y97.143 E2.46994
G1 X109.680 Y97.143 E2.60706
G1 X109.680 Y98.043 E2.63635
G1 X113.686 Y98.043 E2.76666
G1 X113.686 Y97.143 E2.79594
G1 X117.900 Y97.143 E2.93307
G1 X117.900 Y98.043 E2.96235
G1 X140.300 Y98.043 E3.69114
G1 X140.300 Y101.957 E3.81850
G1 X66.586 Y101.957 E6.21682
G1 X66.586 Y98.141 E6.34098
G1 X65.929 Y97.386 F7800.000
G1 X74.149 Y97.386 F540.000 E6.60842
G1 X74.149 Y96.486 E6.63770
G1 X81.178 Y96.486 E6.86638
G1 X81.178 Y97.386 E6.89566
G1 X85.369 Y97.386 E7.03202
G1 X85.369 Y96.486 E7.06131
G1 X90.898 Y96.486 E7.24118
G1 X90.898 Y97.386 E7.27047
G1 X95.089 Y97.386 E7.40683
G1 X95.089 Y96.486 E7.43611
G1 X99.118 Y96.486 E7.56719
G1 X99.118 Y97.386 E7.59647
G1 X104.809 Y97.386 E7.78163
G1 X104.809 Y96.486 E7.81092
G1 X110.338 Y96.486 E7.99080
G1 X110.338 Y97.386 E8.02008
G1 X113.029 Y97.386 E8.10764
G1 X113.029 Y96.486 E8.13692
G1 X118.558 Y96.486 E8.31680
G1 X118.558 Y97.386 E8.34608
G1 X140.958 Y97.386 E9.07487
G1 X140.958 Y102.614 E9.24499
G1 X75.178 Y102.614 E11.38515
G1 X75.178 Y103.514 E11.41444
G1 X74.149 Y103.514 E11.44791
G1 X74.149 Y102.614 E11.47719
G1 X65.929 Y102.614 E11.74463
G1 X65.929 Y97.484 E11.91154
G1 X65.272 Y96.729 F7800.000
G1 X73.492 Y96.729 F378.000 E12.17898
G1 X73.492 Y95.829 E12.20826
G1 X81.835 Y95.829 E12.47970
G1 X81.835 Y96.729 E12.50898
G1 X84.712 Y96.729 E12.60259
G1 X84.712 Y95.829 E12.63187
G1 X91.555 Y95.829 E12.85451
G1 X91.555 Y96.729 E12.88379
G1 X94.432 Y96.729 E12.97739
G1 X94.432 Y95.829 E13.00668
G1 X99.775 Y95.829 E13.18051
G1 X99.775 Y96.729 E13.20979
G1 X104.152 Y96.729 E13.35220
G1 X104.152 Y95.829 E13.38148
G1 X110.995 Y95.829 E13.60412
G1 X110.995 Y96.729 E13.63340
G1 X112.372 Y96.729 E13.67820
G1 X112.372 Y95.829 E13.70748
G1 X119.215 Y95.829 E13.93012
G1 X119.215 Y96.729 E13.95940
G1 X141.615 Y96.729 E14.68819
G1 X141.615 Y103.271 E14.90107
G1 X75.835 Y103.271 E17.04123
G1 X75.835 Y104.171 E17.07051
G1 X73.492 Y104.171 E17.14674
G1 X73.492 Y103.271 E17.17602
G1 X65.272 Y103.271 E17.44346
G1 X65.272 Y100.696 E17.52724
G1 X60.591 Y100.696 E17.67952
G1 X60.419 Y100.293 E17.69379
G1 X60.377 Y100.000 E17.70342
G1 X60.419 Y99.707 E17.71304
G1 X60.591 Y99.304 E17.72732
G1 X65.272 Y99.304 E17.87959
G1 X65.272 Y96.827 E17.96017
G1 X65.841 Y97.057 F7800.000
G1 X67.062 Y101.481
G1 X67.062 Y100.546 F1080.000 E17.99077
G1 X67.997 Y101.481 E18.03406
G1 X68.932 Y101.481 E18.06466
G1 X67.062 Y99.611 E18.15121
G1 X67.062 Y98.676 E18.18181
G1 X69.867 Y101.481 E18.31165
G1 X70.802 Y101.481 E18.34224
G1 X67.840 Y98.519 E18.47936
G1 X68.775 Y98.519 E18.50996
G1 X71.737 Y101.481 E18.64707
G1 X72.672 Y101.481 E18.67767
G1 X69.709 Y98.519 E18.81478
G1 X70.644 Y98.519 E18.84538
G1 X73.606 Y101.481 E18.98250
G1 X74.541 Y101.481 E19.01310
G1 X71.579 Y98.519 E19.15021
G1 X72.514 Y98.519 E19.18081
G1 X75.476 Y101.481 E19.31792
G1 X76.411 Y101.481 E19.34852
G1 X73.449 Y98.519 E19.48564
G1 X74.384 Y98.519 E19.51624
G1 X77.346 Y101.481 E19.65335
G1 X78.281 Y101.481 E19.68395
G1 X75.282 Y98.482 E19.82275
G1 X75.353 Y97.619 E19.85111
G1 X79.216 Y101.481 E20.02989
G1 X80.150 Y101.481 E20.06049
G1 X76.288 Y97.619 E20.23926
G1 X77.223 Y97.619 E20.26986
G1 X81.085 Y101.481 E20.44863
G1 X82.020 Y101.481 E20.47923
G1 X78.158 Y97.619 E20.65801
G1 X79.093 Y97.619 E20.68861
G1 X82.955 Y101.481 E20.86738
G1 X83.890 Y101.481 E20.89798
G1 X80.928 Y98.519 E21.03509
G1 X81.863 Y98.519 E21.06569
G1 X84.825 Y101.481 E21.20281
G1 X85.760 Y101.481 E21.23341
G1 X82.798 Y98.519 E21.37052
G1 X83.732 Y98.519 E21.40112
G1 X86.694 Y101.481 E21.53823
G1 X87.629 Y101.481 E21.56883
G1 X84.667 Y98.519 E21.70595
G1 X85.602 Y98.519 E21.73655
G1 X88.564 Y101.481 E21.87366
G1 X89.499 Y101.481 E21.90426
G1 X86.502 Y98.484 E22.04298
G1 X86.572 Y97.619 E22.07139
G1 X90.434 Y101.481 E22.25017
G1 X91.369 Y101.481 E22.28077
G1 X87.507 Y97.619 E22.45954
G1 X88.442 Y97.619 E22.49014
G1 X92.304 Y101.481 E22.66891
G1 X93.238 Y101.481 E22.69951
G1 X90.276 Y98.519 E22.83663
G1 X89.764 Y98.007 F7800.000
G1 X89.376 Y97.619 F1080.000 E22.85458
G1 X91.211 Y98.519 F7800.000
G1 X94.173 Y101.481 F1080.000 E22.99169
G1 X95.108 Y101.481 E23.02229
G1 X92.146 Y98.519 E23.15941
G1 X93.081 Y98.519 E23.19001
G1 X96.043 Y101.481 E23.32712
G1 X96.978 Y101.481 E23.35772
G1 X94.016 Y98.519 E23.49483
G1 X94.951 Y98.519 E23.52543
G1 X97.913 Y101.481 E23.66254
G1 X98.848 Y101.481 E23.69314
G1 X95.886 Y98.519 E23.83026
G1 X96.222 Y97.921 E23.85273
G1 X99.783 Y101.481 E24.01754
G1 X100.717 Y101.481 E24.04813
G1 X96.855 Y97.619 E24.22691
G1 X97.790 Y97.619 E24.25751
G1 X97.984 Y97.813 E24.26649
G1 X98.690 Y98.519 F7800.000
G1 X101.652 Y101.481 F1080.000 E24.40360
G1 X102.587 Y101.481 E24.43420
G1 X99.625 Y98.519 E24.57132
G1 X100.560 Y98.519 E24.60192
G1 X103.522 Y101.481 E24.73903
G1 X104.457 Y101.481 E24.76963
G1 X101.495 Y98.519 E24.90674
G1 X102.430 Y98.519 E24.93734
G1 X105.392 Y101.481 E25.07446
G1 X106.327 Y101.481 E25.10506
G1 X103.364 Y98.519 E25.24217
G1 X104.299 Y98.519 E25.27277
G1 X107.261 Y101.481 E25.40988
G1 X108.196 Y101.481 E25.44048
G1 X105.234 Y98.519 E25.57760
G1 X105.942 Y98.292 E25.60193
G1 X109.131 Y101.481 E25.74955
G1 X110.066 Y101.481 E25.78015
G1 X106.204 Y97.619 E25.95892
G1 X107.139 Y97.619 E25.98952
G1 X111.001 Y101.481 E26.16829
G1 X111.936 Y101.481 E26.19889
G1 X108.074 Y97.619 E26.37767
G1 X109.009 Y97.619 E26.40827
G1 X109.204 Y97.815 E26.41733
G1 X109.909 Y98.519 F7800.000
G1 X112.871 Y101.481 F1080.000 E26.55444
G1 X113.805 Y101.481 E26.58504
G1 X110.843 Y98.519 E26.72215
G1 X111.778 Y98.519 E26.75275
G1 X114.740 Y101.481 E26.88987
G1 X115.675 Y101.481 E26.92047
G1 X112.713 Y98.519 E27.05758
G1 X113.648 Y98.519 E27.08818
G1 X116.610 Y101.481 E27.22529
G1 X117.545 Y101.481 E27.25589
G1 X114.162 Y98.098 E27.41248
G1 X114.618 Y97.619 E27.43412
G1 X118.480 Y101.481 E27.61290
G1 X119.415 Y101.481 E27.64350
G1 X115.553 Y97.619 E27.82227
G1 X116.487 Y97.619 E27.85287
G1 X120.349 Y101.481 E28.03164
G1 X121.284 Y101.481 E28.06224
G1 X118.322 Y98.519 E28.19936
G1 X119.257 Y98.519 E28.22996
G1 X122.219 Y101.481 E28.36707
G1 X123.154 Y101.481 E28.39767
G1 X120.192 Y98.519 E28.53478
G1 X121.127 Y98.519 E28.56538
G1 X124.089 Y101.481 E28.70250
G1 X125.024 Y101.481 E28.73310
G1 X122.062 Y98.519 E28.87021
G1 X122.997 Y98.519 E28.90081
G1 X125.959 Y101.481 E29.03792
G1 X126.894 Y101.481 E29.06852
G1 X123.931 Y98.519 E29.20563
G1 X124.866 Y98.519 E29.23623
G1 X127.828 Y101.481 E29.37335
G1 X128.763 Y101.481 E29.40395
G1 X125.801 Y98.519 E29.54106
G1 X126.736 Y98.519 E29.57166
G1 X129.698 Y101.481 E29.70877
G1 X130.633 Y101.481 E29.73937
G1 X127.671 Y98.519 E29.87649
G1 X128.606 Y98.519 E29.90709
G1 X131.568 Y101.481 E30.04420
G1 X132.503 Y101.481 E30.07480
G1 X129.541 Y98.519 E30.21191
G1 X130.475 Y98.519 E30.24251
G1 X133.438 Y101.481 E30.37963
G1 X134.372 Y101.481 E30.41023
G1 X131.410 Y98.519 E30.54734
G1 X132.345 Y98.519 E30.57794
G1 X135.307 Y101.481 E30.71505
G1 X136.242 Y101.481 E30.74565
G1 X133.280 Y98.519 E30.88276
G1 X134.215 Y98.519 E30.91336
G1 X137.177 Y101.481 E31.05048
G1 X138.112 Y101.481 E31.08108
G1 X135.150 Y98.519 E31.21819
G1 X136.085 Y98.519 E31.24879
G1 X139.047 Y101.481 E31.38590
G1 X139.824 Y101.324 E31.41187
G1 X137.020 Y98.519 E31.54170
G1 X137.954 Y98.519 E31.57230
G1 X139.824 Y100.389 E31.65885
G1 X139.824 Y99.454 E31.68945
G1 X138.889 Y98.519 E31.73273
G1 X139.824 Y98.519 E31.76334
G1 X117.424 Y97.621 F7800.000
G1 X117.422 Y97.619 F1080.000 E31.76343
G1 X80.044 Y97.635 F7800.000
G1 X80.028 Y97.619 F1080.000 E31.76419
G1 X61.065 Y100.018 F7800.000
G1 X62.085 Y99.982 F360.000 E31.80186
G1 X62.121 Y100.018 E31.80375
G1 X63.140 Y99.982 E31.84142
G1 X63.176 Y100.018 E31.84330
G1 X64.195 Y99.982 E31.88098
G1 X64.231 Y100.018 E31.88286
G1 X65.250 Y99.982 E31.92054
M106 S242
G1 F1800.000 E30.92054
G92 E0
G1 Z0.750 F7800.000
G1 X66.242 Y99.515
G1 F1800.000 E1.00000
G1 X66.242 Y97.699 F1800.000 E1.05338
G1 X74.462 Y97.699 E1.29510
G1 X74.462 Y96.799 E1.32156
G1 X80.864 Y96.799 E1.50981
G1 X80.864 Y97.699 E1.53627
G1 X85.682 Y97.699 E1.67795
G1 X85.682 Y96.799 E1.70442
G1 X90.584 Y96.799 E1.84856
G1 X90.584 Y97.699 E1.87502
G1 X95.402 Y97.699 E2.01670
G1 X95.402 Y96.799 E2.04317
G1 X98.804 Y96.799 E2.14320
G1 X98.804 Y97.699 E2.16966
G1 X105.122 Y97.699 E2.35545
G1 X105.122 Y96.799 E2.38192
G1 X110.024 Y96.799 E2.52606
G1 X110.024 Y97.699 E2.55252
G1 X113.342 Y97.699 E2.65009
G1 X113.342 Y96.799 E2.67656
G1 X118.244 Y96.799 E2.82070
G1 X118.244 Y97.699 E2.84716
G1 X140.644 Y97.699 E3.50584
G1 X140.644 Y102.301 E3.64116
G1 X66.242 Y102.301 E5.82897
G1 X66.242 Y100.485 E5.88235
G1 X60.911 Y100.485 E6.03912
G1 X60.652 Y100.218 E6.05007
G1 X60.498 Y100.000 E6.05792
G1 X60.652 Y99.782 E6.06576
G1 X60.911 Y99.515 E6.07671
G1 X66.164 Y99.515 E6.23119
G1 X65.723 Y98.995 F7800.000
G1 X65.723 Y97.179 F1800.000 E6.28457
G1 X73.943 Y97.179 E6.52628
G1 X73.943 Y96.279 E6.55275
G1 X81.384 Y96.279 E6.77155
G1 X81.384 Y97.179 E6.79802
G1 X85.163 Y97.179 E6.90914
G1 X85.163 Y96.279 E6.93560
G1 X91.104 Y96.279 E7.11030
G1 X91.104 Y97.179 E7.13677
G1 X94.883 Y97.179 E7.24789
G1 X94.883 Y96.279 E7.27435
G1 X99.324 Y96.279 E7.40494
G1 X99.324 Y97.179 E7.43141
G1 X104.603 Y97.179 E7.58664
G1 X104.603 Y96.279 E7.61310
G1 X110.544 Y96.279 E7.78780
G1 X110.544 Y97.179 E7.81427
G1 X112.823 Y97.179 E7.88128
G1 X112.823 Y96.279 E7.90774
G1 X118.764 Y96.279 E8.08244
G1 X118.764 Y97.179 E8.10891
G1 X141.164 Y97.179 E8.76759
G1 X141.164 Y102.821 E8.93347
G1 X75.384 Y102.821 E10.86775
G1 X75.384 Y103.721 E10.89421
G1 X73.943 Y103.721 E10.93659
G1 X73.943 Y102.821 E10.96305
G1 X65.723 Y102.821 E11.20476
G1 X65.723 Y101.005 E11.25815
G1 X60.722 Y101.005 E11.40520
G1 X60.572 Y100.882 E11.41090
G1 X60.250 Y100.551 E11.42448
G1 X60.073 Y100.299 E11.43353
G1 X59.998 Y100.123 E11.43916
G1 X59.981 Y100.000 E11.44281
G1 X59.998 Y99.877 E11.44647
G1 X60.073 Y99.701 E11.45209
G1 X60.250 Y99.449 E11.46114
G1 X60.572 Y99.118 E11.47472
G1 X60.722 Y98.995 E11.48042
G1 X65.645 Y98.995 E11.62518
G1 X65.203 Y98.475 F7800.000
G1 X65.203 Y96.660 F1260.000 E11.67856
G1 X73.423 Y96.660 E11.92028
G1 X73.423 Y95.760 E11.94674
G1 X81.903 Y95.760 E12.19611
G1 X81.903 Y96.660 E12.22257
G1 X84.643 Y96.660 E12.30313
G1 X84.643 Y95.760 E12.32960
G1 X91.623 Y95.760 E12.53486
G1 X91.623 Y96.660 E12.56132
G1 X94.363 Y96.660 E12.64188
G1 X94.363 Y95.760 E12.66835
G1 X99.843 Y95.760 E12.82950
G1 X99.843 Y96.660 E12.85596
G1 X104.083 Y96.660 E12.98063
G1 X104.083 Y95.760 E13.00710
G1 X111.063 Y95.760 E13.21236
G1 X111.063 Y96.660 E13.23882
G1 X112.303 Y96.660 E13.27527
G1 X112.303 Y95.760 E13.30174
G1 X119.283 Y95.760 E13.50700
G1 X119.283 Y96.660 E13.53346
G1 X141.683 Y96.660 E14.19214
G1 X141.683 Y103.340 E14.38858
G1 X75.903 Y103.340 E16.32286
G1 X75.903 Y104.240 E16.34933
G1 X73.423 Y104.240 E16.42226
G1 X73.423 Y103.340 E16.44873
G1 X65.203 Y103.340 E16.69044
G1 X65.203 Y101.525 E16.74382
G1 X60.536 Y101.525 E16.88106
G1 X60.219 Y101.265 E16.89309
G1 X59.849 Y100.883 E16.90875
G1 X59.617 Y100.553 E16.92061
G1 X59.493 Y100.264 E16.92985
G1 X59.456 Y100.000 E16.93770
G1 X59.493 Y99.736 E16.94554
G1 X59.617 Y99.447 E16.95478
G1 X59.849 Y99.117 E16.96664
G1 X60.220 Y98.735 E16.98230
G1 X60.536 Y98.475 E16.99434
G1 X65.125 Y98.475 E17.12928
G1 X65.723 Y98.475 F7800.000
G1 X66.619 Y98.076
G1 X66.619 Y98.814 F3600.000 E17.15108
G1 X67.357 Y98.076 E17.18190
G1 X68.095 Y98.076 E17.20370
G1 X66.619 Y99.552 E17.26536
G1 X66.619 Y100.290 E17.28715
G1 X68.833 Y98.076 E17.37963
G1 X69.571 Y98.076 E17.40143
G1 X66.619 Y101.028 E17.52474
G1 X66.619 Y101.766 E17.54654
G1 X70.309 Y98.076 E17.70067
G1 X71.047 Y98.076 E17.72247
G1 X67.199 Y101.924 E17.88321
G1 X67.937 Y101.924 E17.90501
G1 X71.785 Y98.076 E18.06575
G1 X72.523 Y98.076 E18.08754
G1 X68.675 Y101.924 E18.24829
G1 X69.413 Y101.924 E18.27008
G1 X73.262 Y98.076 E18.43082
G1 X74.000 Y98.076 E18.45262
G1 X70.151 Y101.924 E18.61336
