; generated by Slic3r 1.2.1 on 2014-12-15 at 21:58:49

; external perimeters extrusion width = 0.50mm
; perimeters extrusion width = 0.50mm
; infill extrusion width = 0.50mm
; solid infill extrusion width = 0.50mm
; top infill extrusion width = 0.50mm

M104 S190 ; set temperature
G28 ; home all axes
G1 Z15 F120 ; lift nozzle
M109 S190 ; wait for temperature to be reached
G21 ; set units to millimeters
G90 ; use absolute coordinates
M82 ; use absolute distances for extrusion
G92 E0
M106 S102
G1 E-2.00000 F1680.000
G92 E0
G1 Z0.200 F12000.000
G1 X60.230 Y60.230 F12000.000
G1 E2.00000 F1680.000
G1 X87.674 Y32.787 E3.09261 F1200.000
G1 X88.140 Y32.363 E3.11033
G1 X107.712 Y16.185 E3.82521
G1 X109.710 Y15.048 E3.88992
G1 X111.976 Y14.659 E3.95463
G1 X114.239 Y15.064 E4.01934
G1 X115.443 Y15.648 E4.05702 F1200.000
G1 X150.445 Y37.215 E5.21442
G1 X151.659 Y38.175 E5.25800
G1 X156.751 Y43.266 E5.46070
G1 X158.071 Y45.148 E5.52541
G1 X158.672 Y47.367 E5.59012
G1 X158.483 Y49.657 E5.65483
G1 X157.107 Y52.291 E5.73846
G1 X149.711 Y60.960 E6.05927
G1 X149.354 Y61.346 E6.07408
G1 X66.326 Y144.375 E9.37967
G1 X65.786 Y144.859 E9.40009
G1 X59.337 Y150.035 E9.63288
G1 X56.836 Y151.288 E9.71163
G1 X51.779 Y152.595 E9.85867
G1 X48.974 Y152.708 E9.93770
G1 X48.765 Y152.672 E9.94368
G1 X47.435 Y152.292 E9.98262
G1 X47.032 Y152.130 E9.99485
G1 X45.522 Y151.280 E10.04362
G1 X45.210 Y151.046 E10.05461
G1 X44.497 Y150.428 E10.08116
G1 X16.213 Y122.144 E11.20723
G1 X15.595 Y121.431 E11.23379
G1 X15.361 Y121.119 E11.24477
G1 X14.510 Y119.608 E11.29359
G1 X14.349 Y119.206 E11.30577
G1 X13.968 Y117.866 E11.34500
G1 X13.933 Y117.667 E11.35069
G1 X14.128 Y114.575 E11.43791
G1 X15.788 Y109.164 E11.59725
G1 X17.045 Y106.847 E11.67145
G1 X34.383 Y86.115 E12.43231
G1 X34.782 Y85.678 E12.44896
G1 X60.177 Y60.283 E13.46000
G1 E11.46000 F1680.000
G92 E0
G1 X137.928 Y62.392 F12000.000
G1 E2.00000 F1680.000
G1 X137.224 Y63.096 E2.01865 F900.000
G1 X136.588 Y62.459 E2.03551
G1 X135.109 Y63.938 E2.07470
G1 X135.745 Y64.574 E2.09156
G1 X130.351 Y69.969 E2.23450
G1 X129.715 Y69.332 E2.25136
G1 X127.175 Y71.872 E2.31865
G1 X127.812 Y72.508 E2.33552
G1 X124.539 Y75.781 E2.42225
G1 X123.902 Y75.145 E2.43911
G1 X121.363 Y77.684 E2.50640
G1 X121.999 Y78.321 E2.52327
G1 X119.787 Y80.533 E2.58189
G1 X119.150 Y79.897 E2.59875
G1 X118.096 Y80.951 E2.62670
G1 X93.871 Y105.177 E3.26863
G1 X94.507 Y105.813 E3.28550
G1 X89.113 Y111.207 E3.42844
G1 X88.476 Y110.571 E3.44530
G1 X85.937 Y113.110 E3.51259
G1 X86.573 Y113.747 E3.52946
G1 X83.300 Y117.020 E3.61619
G1 X82.664 Y116.383 E3.63305
G1 X79.064 Y119.983 E3.72845
G1 X79.700 Y120.620 E3.74531
G1 X76.427 Y123.893 E3.83204
G1 X75.791 Y123.256 E3.84890
G1 X72.191 Y126.856 E3.94430
G1 X72.827 Y127.493 E3.96116
G1 X69.554 Y130.766 E4.04789
G1 X68.918 Y130.129 E4.06476
G1 X67.439 Y131.608 E4.10394
G1 X68.075 Y132.245 E4.12080
G1 X66.924 Y133.396 E4.15132
G1 X66.287 Y132.760 E4.16818
G1 X62.136 Y136.911 E4.27820
G1 X62.772 Y137.548 E4.29506
G1 X61.620 Y138.700 E4.32558
G1 X60.984 Y138.063 E4.34244
G1 X55.171 Y143.876 E4.49646
G1 X53.296 Y142.000 E4.54615
G1 X49.905 Y145.392 E4.63602
G1 X49.693 Y145.233 E4.64099
G1 X49.534 Y145.021 E4.64596
G1 X52.925 Y141.629 E4.73583
G1 X51.050 Y139.754 E4.78552
G1 X56.862 Y133.942 E4.93954
G1 X56.226 Y133.305 E4.95640
G1 X57.378 Y132.154 E4.98692
G1 X58.014 Y132.790 E5.00379
G1 X62.166 Y128.638 E5.11380
G1 X61.529 Y128.002 E5.13066
G1 X62.681 Y126.850 E5.16118
G1 X63.317 Y127.487 E5.17804
G1 X64.796 Y126.008 E5.21723
G1 X64.160 Y125.371 E5.23409
G1 X67.433 Y122.098 E5.32082
G1 X68.069 Y122.735 E5.33768
G1 X71.669 Y119.135 E5.43308
G1 X71.033 Y118.498 E5.44994
G1 X74.306 Y115.225 E5.53667
G1 X74.942 Y115.862 E5.55354
G1 X78.542 Y112.262 E5.64893
G1 X77.906 Y111.625 E5.66580
G1 X81.179 Y108.352 E5.75253
G1 X81.815 Y108.989 E5.76939
G1 X84.355 Y106.449 E5.83668
G1 X83.718 Y105.813 E5.85355
G1 X89.113 Y100.419 E5.99649
G1 X89.749 Y101.055 E6.01335
G1 X112.908 Y77.896 E6.62702
G1 X112.271 Y77.260 E6.64388
G1 X115.544 Y73.987 E6.73061
G1 X116.181 Y74.623 E6.74748
G1 X119.234 Y71.570 E6.82839
G1 X119.781 Y71.023 E6.84287
G1 X119.144 Y70.387 E6.85974
G1 X122.417 Y67.114 E6.94647
G1 X123.054 Y67.750 E6.96333
G1 X127.714 Y63.090 E7.08683
G1 X127.078 Y62.453 E7.10370
G1 X128.230 Y61.301 E7.13421
G1 X128.866 Y61.938 E7.15108
G1 X132.466 Y58.338 E7.24647
G1 X131.830 Y57.701 E7.26334
G1 X132.981 Y56.550 E7.29385
G1 X133.618 Y57.186 E7.31072
G1 X137.769 Y53.034 E7.42073
G1 X137.133 Y52.398 E7.43759
G1 X138.285 Y51.246 E7.46811
G1 X138.921 Y51.883 E7.48497
G1 X146.954 Y43.850 E7.69783 F900.000
G1 X151.075 Y47.972 E7.80705
G1 X143.043 Y56.004 E8.01990
G1 X143.679 Y56.641 E8.03676
G1 X142.527 Y57.792 E8.06728
G1 X141.891 Y57.156 E8.08415
G1 X137.739 Y61.308 E8.19416
G1 X138.376 Y61.944 E8.21102
G1 X137.981 Y62.339 E8.22149
G1 X138.289 Y62.647 F12000.000
G1 X137.224 Y63.712 E8.24970 F720.000
G1 X136.588 Y63.075 E8.26656
G1 X135.725 Y63.938 E8.28942
G1 X136.361 Y64.574 E8.30629
G1 X130.351 Y70.585 E8.46555
G1 X129.715 Y69.948 E8.48242
G1 X127.791 Y71.872 E8.53338
G1 X128.428 Y72.508 E8.55025
G1 X124.539 Y76.397 E8.65330
G1 X123.902 Y75.761 E8.67017
G1 X121.979 Y77.684 E8.72113
G1 X122.615 Y78.321 E8.73799
G1 X119.787 Y81.149 E8.81294
G1 X119.150 Y80.513 E8.82981
G1 X118.404 Y81.259 E8.84959
G1 X94.487 Y105.177 E9.48336
G1 X95.123 Y105.813 E9.50023
G1 X89.113 Y111.823 E9.65949
G1 X88.476 Y111.187 E9.67636
G1 X86.553 Y113.110 E9.72732
G1 X87.189 Y113.747 E9.74419
G1 X83.300 Y117.636 E9.84724
G1 X82.664 Y116.999 E9.86410
G1 X79.680 Y119.983 E9.94317
G1 X80.316 Y120.620 E9.96004
G1 X76.427 Y124.509 E10.06309
G1 X75.791 Y123.872 E10.07996
G1 X75.552 Y124.111 E10.08627
G1 X72.807 Y126.856 E10.15903
G1 X73.443 Y127.493 E10.17589
G1 X69.554 Y131.382 E10.27895
G1 X68.918 Y130.746 E10.29581
G1 X68.055 Y131.608 E10.31867
G1 X68.691 Y132.245 E10.33553
G1 X66.924 Y134.012 E10.38238
G1 X66.287 Y133.376 E10.39924
G1 X62.752 Y136.911 E10.49293
G1 X63.388 Y137.548 E10.50979
G1 X61.620 Y139.316 E10.55663
G1 X60.984 Y138.679 E10.57350
G1 X55.171 Y144.492 E10.72752
G1 X53.296 Y142.616 E10.77721
G1 X50.022 Y145.891 E10.86397
G1 X49.638 Y145.736 E10.87172
G1 X49.381 Y145.544 E10.87773
G1 X49.189 Y145.288 E10.88374
G1 X49.035 Y144.904 E10.89150
G1 X52.309 Y141.629 E10.97826
G1 X50.434 Y139.754 E11.02795
G1 X56.246 Y133.942 E11.18197
G1 X55.610 Y133.305 E11.19883
G1 X57.378 Y131.537 E11.24568
G1 X58.014 Y132.174 E11.26254
G1 X61.550 Y128.638 E11.35623
G1 X60.913 Y128.002 E11.37309
G1 X62.681 Y126.234 E11.41993
G1 X63.317 Y126.871 E11.43680
G1 X64.180 Y126.008 E11.45966
G1 X63.544 Y125.371 E11.47652
G1 X67.433 Y121.482 E11.57957
G1 X68.069 Y122.119 E11.59644
G1 X71.053 Y119.135 E11.67551
G1 X70.417 Y118.498 E11.69237
G1 X74.306 Y114.609 E11.79543
G1 X74.942 Y115.246 E11.81229
G1 X77.926 Y112.262 E11.89136
G1 X77.290 Y111.625 E11.90823
G1 X81.179 Y107.736 E12.01128
G1 X81.815 Y108.373 E12.02814
G1 X83.739 Y106.449 E12.07911
G1 X83.102 Y105.813 E12.09597
G1 X89.113 Y99.803 E12.25524
G1 X89.749 Y100.439 E12.27210
G1 X112.292 Y77.896 E12.86945
G1 X111.655 Y77.260 E12.88631
G1 X115.544 Y73.371 E12.98937
G1 X116.181 Y74.007 E13.00623
G1 X118.926 Y71.262 E13.07898
G1 X119.165 Y71.023 E13.08530
G1 X118.528 Y70.387 E13.10216
G1 X122.417 Y66.498 E13.20522
G1 X123.054 Y67.134 E13.22208
G1 X127.098 Y63.090 E13.32926
G1 X126.462 Y62.453 E13.34612
G1 X128.230 Y60.685 E13.39297
G1 X128.866 Y61.322 E13.40983
G1 X131.850 Y58.338 E13.48890
G1 X131.214 Y57.701 E13.50577
G1 X132.981 Y55.934 E13.55261
G1 X133.618 Y56.570 E13.56947
G1 X137.153 Y53.034 E13.66316
G1 X136.517 Y52.398 E13.68002
G1 X138.285 Y50.630 E13.72686
G1 X138.921 Y51.267 E13.74373
G1 X146.954 Y43.234 E13.95658
G1 X151.395 Y47.675 E14.07428
G1 X151.692 Y47.972 E14.08212 F720.000
G1 X143.659 Y56.004 E14.29498
G1 X144.295 Y56.641 E14.31184
G1 X142.527 Y58.408 E14.35869
G1 X141.891 Y57.772 E14.37555
G1 X138.356 Y61.308 E14.46924
G1 X138.992 Y61.944 E14.48610
G1 X138.342 Y62.594 E14.50332
G1 E12.50332 F1680.000
G92 E0
G1 X151.513 Y48.077 F12000.000
G1 X141.684 Y56.945 F12000.000
G1 E2.00000 F1680.000
G1 X137.981 Y53.241 E2.09813 F1200.000
G1 X137.672 Y53.550 E2.10632
G1 X141.375 Y57.253 E2.20445
G1 X141.066 Y57.562 E2.21263
G1 X137.363 Y53.859 E2.31076
G1 X137.054 Y54.168 E2.31895
G1 X140.757 Y57.871 E2.41708
G1 X140.449 Y58.180 E2.42527
G1 X136.745 Y54.477 E2.52340
G1 X136.436 Y54.786 E2.53158
G1 X140.140 Y58.489 E2.62971
G1 X139.831 Y58.798 E2.63790
G1 X136.127 Y55.095 E2.73603
G1 X135.819 Y55.404 E2.74421
G1 X139.522 Y59.107 E2.84234
G1 X139.213 Y59.416 E2.85053
G1 X135.510 Y55.713 E2.94866
G1 X135.201 Y56.022 E2.95685
G1 X138.904 Y59.725 E3.05498
G1 X138.595 Y60.034 E3.06316
G1 X134.892 Y56.331 E3.16129
G1 X134.583 Y56.639 E3.16948
G1 X138.286 Y60.343 E3.26761
G1 X137.977 Y60.652 E3.27579
G1 X134.274 Y56.948 E3.37392
G1 X133.965 Y57.257 E3.38211
G1 X137.668 Y60.961 E3.48024
G1 X137.359 Y61.269 E3.48843
G1 X133.656 Y57.566 E3.58656
G1 X132.725 Y57.253 F12000.000
G1 X137.673 Y62.201 E3.71766 F1200.000
G1 X137.364 Y62.510 E3.72585
G1 X132.416 Y57.562 E3.85696
G1 X132.729 Y58.493 F12000.000
G1 X136.433 Y62.196 E3.95509 F1200.000
G1 X136.124 Y62.505 E3.96327
G1 X132.420 Y58.802 E4.06140
G1 X132.111 Y59.111 E4.06959
G1 X135.815 Y62.814 E4.16772
G1 X135.506 Y63.123 E4.17591
G1 X131.803 Y59.420 E4.27404
G1 X131.494 Y59.729 E4.28222
G1 X135.197 Y63.432 E4.38035
G1 X134.888 Y63.741 E4.38854
G1 X131.185 Y60.038 E4.48667
G1 X130.876 Y60.347 E4.49486
G1 X135.201 Y64.672 E4.60947
G1 X134.892 Y64.981 E4.61766
G1 X130.567 Y60.655 E4.73228
G1 X130.258 Y60.964 E4.74047
G1 X134.583 Y65.290 E4.85508
G1 X134.274 Y65.599 E4.86327
G1 X129.949 Y61.273 E4.97789
G1 X129.640 Y61.582 E4.98607
G1 X133.966 Y65.908 E5.10069
G1 X133.657 Y66.217 E5.10888
G1 X129.331 Y61.891 E5.22350
G1 X129.022 Y62.200 E5.23168
G1 X133.348 Y66.526 E5.34630
G1 X133.039 Y66.834 E5.35449
G1 X128.091 Y61.887 E5.48560
G1 X127.782 Y62.196 E5.49378
G1 X132.730 Y67.143 E5.62489
G1 X132.421 Y67.452 E5.63308
G1 X128.095 Y63.127 E5.74770
G1 X127.787 Y63.436 E5.75588
G1 X132.112 Y67.761 E5.87050
G1 X131.803 Y68.070 E5.87869
G1 X127.478 Y63.745 E5.99330
G1 X127.169 Y64.054 E6.00149
G1 X131.494 Y68.379 E6.11611
G1 X131.185 Y68.688 E6.12430
G1 X126.860 Y64.363 E6.23891
G1 X126.551 Y64.671 E6.24710
G1 X130.876 Y68.997 E6.36172
G1 X130.567 Y69.306 E6.36990
G1 X126.242 Y64.980 E6.48452
G1 X125.933 Y65.289 E6.49271
G1 X129.636 Y68.993 E6.59084
G1 X129.327 Y69.301 E6.59903
G1 X125.624 Y65.598 E6.69716
G1 X125.315 Y65.907 E6.70534
G1 X129.018 Y69.610 E6.80347
G1 X128.709 Y69.919 E6.81166
G1 X125.006 Y66.216 E6.90979
G1 X124.697 Y66.525 E6.91797
G1 X128.401 Y70.228 E7.01610
G1 X128.092 Y70.537 E7.02429
G1 X124.388 Y66.834 E7.12242
G1 X124.079 Y67.143 E7.13061
G1 X127.783 Y70.846 E7.22874
G1 X127.474 Y71.155 E7.23692
G1 X123.771 Y67.452 E7.33505
G1 X123.462 Y67.761 E7.34324
G1 X127.165 Y71.464 E7.44137
G1 X126.856 Y71.773 E7.44955
G1 X123.153 Y68.070 E7.54768
G1 X122.221 Y67.756 F12000.000
G1 X127.169 Y72.704 E7.67879 F1200.000
G1 X126.860 Y73.013 E7.68698
G1 X121.913 Y68.065 E7.81809
G1 X121.604 Y68.374 E7.82627
G1 X126.551 Y73.322 E7.95738
G1 X126.242 Y73.631 E7.96557
G1 X121.295 Y68.683 E8.09667
G1 X120.986 Y68.992 E8.10486
G1 X125.934 Y73.940 E8.23597
G1 X125.625 Y74.249 E8.24415
G1 X120.677 Y69.301 E8.37526
G1 X120.368 Y69.610 E8.38345
G1 X125.316 Y74.558 E8.51455
G1 X125.007 Y74.866 E8.52274
G1 X120.059 Y69.919 E8.65385
G1 X119.750 Y70.228 E8.66203
G1 X124.698 Y75.175 E8.79314
G1 X123.767 Y74.862 F12000.000
G1 X120.063 Y71.159 E8.89127 F1200.000
G1 X119.754 Y71.468 E8.89946
G1 X123.458 Y75.171 E8.99759
G1 X123.149 Y75.480 E9.00577
G1 X119.446 Y71.777 E9.10390
G1 X119.137 Y72.086 E9.11209
G1 X122.840 Y75.789 E9.21022
G1 X122.531 Y76.098 E9.21841
G1 X118.828 Y72.395 E9.31654
G1 X118.519 Y72.703 E9.32472
G1 X122.222 Y76.407 E9.42285
G1 X121.913 Y76.716 E9.43104
G1 X118.210 Y73.012 E9.52917
G1 X117.901 Y73.321 E9.53735
G1 X121.604 Y77.025 E9.63548
G1 X121.295 Y77.333 E9.64367
G1 X117.592 Y73.630 E9.74180
G1 X117.283 Y73.939 E9.74999
G1 X120.986 Y77.642 E9.84812
G1 X121.300 Y78.574 F12000.000
G1 X116.974 Y74.248 E9.96273 F1200.000
G1 X116.665 Y74.557 E9.97092
G1 X120.991 Y78.883 E10.08554
G1 X120.682 Y79.191 E10.09373
G1 X116.356 Y74.866 E10.20834
G1 X115.425 Y74.553 F12000.000
G1 X120.373 Y79.500 E10.33945 F1200.000
G1 X120.064 Y79.809 E10.34764
G1 X115.116 Y74.862 E10.47875
G1 X114.807 Y75.170 E10.48693
G1 X119.133 Y79.496 E10.60155
G1 X118.824 Y79.805 E10.60974
G1 X114.498 Y75.479 E10.72436
G1 X114.189 Y75.788 E10.73254
G1 X118.515 Y80.114 E10.84716
G1 X118.206 Y80.423 E10.85535
G1 X113.881 Y76.097 E10.96996
G1 X113.572 Y76.406 E10.97815
G1 X117.897 Y80.732 E11.09277
G1 X117.588 Y81.041 E11.10096
G1 X113.263 Y76.715 E11.21557
G1 X112.954 Y77.024 E11.22376
G1 X117.279 Y81.349 E11.33838
G1 X116.970 Y81.658 E11.34656
G1 X113.267 Y77.955 E11.44469
G1 X112.958 Y78.264 E11.45288
G1 X116.661 Y81.967 E11.55101
G1 X116.352 Y82.276 E11.55920
G1 X112.649 Y78.573 E11.65733
G1 X112.340 Y78.882 E11.66551
G1 X116.044 Y82.585 E11.76364
G1 X115.735 Y82.894 E11.77183
G1 X112.031 Y79.191 E11.86996
G1 X111.722 Y79.500 E11.87814
G1 X115.426 Y83.203 E11.97627
G1 X115.117 Y83.512 E11.98446
G1 X111.414 Y79.809 E12.08259
G1 X111.105 Y80.118 E12.09078
G1 X114.808 Y83.821 E12.18890
G1 X114.499 Y84.130 E12.19709
G1 X110.796 Y80.427 E12.29522
G1 X110.487 Y80.735 E12.30341
G1 X114.190 Y84.439 E12.40154
G1 X113.881 Y84.748 E12.40972
G1 X110.178 Y81.044 E12.50785
G1 X109.869 Y81.353 E12.51604
G1 X113.572 Y85.057 E12.61417
G1 X113.263 Y85.365 E12.62235
G1 X109.560 Y81.662 E12.72048
G1 X109.251 Y81.971 E12.72867
G1 X112.954 Y85.674 E12.82680
G1 X112.645 Y85.983 E12.83499
G1 X108.942 Y82.280 E12.93312
G1 X108.633 Y82.589 E12.94130
G1 X112.336 Y86.292 E13.03943
G1 X112.028 Y86.601 E13.04762
G1 X108.324 Y82.898 E13.14575
G1 X108.015 Y83.207 E13.15393
G1 X111.719 Y86.910 E13.25206
G1 X111.410 Y87.219 E13.26025
G1 X107.706 Y83.516 E13.35838
G1 X107.398 Y83.825 E13.36656
G1 X111.101 Y87.528 E13.46469
G1 X110.792 Y87.837 E13.47288
G1 X107.089 Y84.134 E13.57101
G1 X106.780 Y84.443 E13.57920
G1 X110.483 Y88.146 E13.67733
G1 X110.174 Y88.455 E13.68551
G1 X106.471 Y84.751 E13.78364
G1 X106.162 Y85.060 E13.79183
G1 X109.865 Y88.764 E13.88996
G1 X109.556 Y89.073 E13.89814
G1 X105.853 Y85.369 E13.99627
G1 X105.544 Y85.678 E14.00446
G1 X109.247 Y89.381 E14.10259
G1 X108.938 Y89.690 E14.11078
G1 X105.235 Y85.987 E14.20891
G1 X104.926 Y86.296 E14.21709
G1 X108.629 Y89.999 E14.31522
G1 X108.320 Y90.308 E14.32341
G1 X104.617 Y86.605 E14.42154
G1 X104.308 Y86.914 E14.42972
G1 X108.012 Y90.617 E14.52785
G1 X107.703 Y90.926 E14.53604
G1 X103.999 Y87.223 E14.63417
G1 X103.690 Y87.532 E14.64235
G1 X107.394 Y91.235 E14.74048
G1 X107.085 Y91.544 E14.74867
G1 X103.382 Y87.841 E14.84680
G1 X103.073 Y88.150 E14.85499
G1 X106.776 Y91.853 E14.95312
G1 X106.467 Y92.162 E14.96130
G1 X102.764 Y88.459 E15.05943
G1 X102.455 Y88.768 E15.06762
G1 X106.158 Y92.471 E15.16575
G1 X105.849 Y92.780 E15.17393
G1 X102.146 Y89.076 E15.27206
G1 X101.837 Y89.385 E15.28025
G1 X105.540 Y93.089 E15.37838
G1 X105.231 Y93.398 E15.38657
G1 X101.528 Y89.694 E15.48470
G1 X101.219 Y90.003 E15.49288
G1 X104.922 Y93.706 E15.59101
G1 X104.613 Y94.015 E15.59920
G1 X100.910 Y90.312 E15.69733
G1 X100.601 Y90.621 E15.70551
G1 X104.304 Y94.324 E15.80364
G1 X103.996 Y94.633 E15.81183
G1 X100.292 Y90.930 E15.90996
G1 X99.983 Y91.239 E15.91814
G1 X103.687 Y94.942 E16.01627
G1 X103.378 Y95.251 E16.02446
G1 X99.674 Y91.548 E16.12259
G1 X99.366 Y91.857 E16.13078
G1 X103.069 Y95.560 E16.22891
G1 X102.760 Y95.869 E16.23709
G1 X99.057 Y92.166 E16.33522
G1 X98.748 Y92.475 E16.34341
G1 X102.451 Y96.178 E16.44154
G1 X102.142 Y96.487 E16.44972
G1 X98.439 Y92.784 E16.54785
G1 X98.130 Y93.092 E16.55604
G1 X101.833 Y96.796 E16.65417
G1 X101.524 Y97.105 E16.66236
G1 X97.821 Y93.401 E16.76049
G1 X97.512 Y93.710 E16.76867
G1 X101.215 Y97.414 E16.86680
G1 X100.906 Y97.722 E16.87499
G1 X97.203 Y94.019 E16.97312
G1 X96.894 Y94.328 E16.98130
