; generated by Slic3r 1.2.1 on 2014-12-10 at 22:29:09

; external perimeters extrusion width = 0.50mm
; perimeters extrusion width = 0.72mm
; infill extrusion width = 0.27mm
; solid infill extrusion width = 0.72mm
; top infill extrusion width = 0.72mm

M104 S190 ; set temperature
G28 ; home all axes
G1 Z15 F120 ; lift nozzle
M109 S190 ; wait for temperature to be reached
G21 ; set units to millimeters
G90 ; use absolute coordinates
M82 ; use absolute distances for extrusion
G92 E0
M106 S102
G1 E-2.00000 F1680.000
G92 E0
G1 Z0.350 F12000.000
G1 X24.002 Y75.057 F12000.000
G1 E2.00000 F1680.000
G1 X34.466 Y73.257 E2.29891 F1200.000
G1 X35.557 Y73.164 E2.32974
G1 X149.533 Y73.164 E5.53838
G1 X151.758 Y73.561 E5.60201
G1 X153.235 Y74.335 E5.64895 F1200.000
G1 X155.795 Y76.135 E5.73705
G1 X157.387 Y77.739 E5.80069
G1 X158.326 Y79.795 E5.86432
G1 X158.530 Y81.400 E5.90985
G1 X158.530 Y88.600 E6.11254
G1 X158.133 Y90.825 E6.17618
G1 X156.991 Y92.776 E6.23981
G1 X155.245 Y94.212 E6.30344
G1 X152.417 Y95.028 E6.38631
G1 X116.341 Y96.836 E7.40319
G1 X35.557 Y96.836 E9.67741
G1 X34.466 Y96.743 E9.70824
G1 X24.002 Y94.943 E10.00715
G1 X22.194 Y94.347 E10.06074
G1 X17.394 Y91.925 E10.21209
G1 X15.673 Y90.660 E10.27222
G1 X15.029 Y89.882 E10.30065
G1 X14.736 Y89.465 E10.31501
G1 X14.081 Y88.290 E10.35287
G1 X13.916 Y87.902 E10.36474
G1 X13.464 Y86.287 E10.41197
G1 X13.410 Y85.911 E10.42266
G1 X13.410 Y84.089 E10.47394
G1 X13.464 Y83.713 E10.48463
G1 X13.916 Y82.098 E10.53185
G1 X14.082 Y81.708 E10.54379
G1 X14.737 Y80.532 E10.58167
G1 X15.029 Y80.118 E10.59594
G1 X15.674 Y79.339 E10.62440
G1 X17.394 Y78.075 E10.68451
G1 X22.194 Y75.653 E10.83586
G1 X23.931 Y75.080 E10.88734
G1 E8.88734 F1680.000
G92 E0
G1 X143.003 Y80.270 F12000.000
G1 E2.00000 F1680.000
G1 X148.863 Y80.270 E2.16498 F900.000
G1 X148.863 Y82.070 E2.21565
G1 X151.423 Y82.070 E2.28772
G1 X151.423 Y87.930 E2.45270
G1 X115.671 Y87.930 E3.45918
G1 X115.671 Y89.730 E3.50986
G1 X111.611 Y89.730 E3.62416
G1 X111.611 Y87.930 E3.67483
G1 X77.079 Y87.930 E4.64697
G1 X77.079 Y89.730 E4.69764
G1 X74.819 Y89.730 E4.76127
G1 X74.819 Y87.930 E4.81194
G1 X47.487 Y87.930 E5.58138
G1 X47.487 Y89.730 E5.63206
G1 X45.227 Y89.730 E5.69569
G1 X45.227 Y87.930 E5.74636
G1 X38.487 Y87.930 E5.93610
G1 X38.487 Y89.730 E5.98677
G1 X36.227 Y89.730 E6.05040
G1 X36.227 Y87.930 E6.10107
G1 X25.763 Y87.930 E6.39566
G1 X25.763 Y85.509 E6.46382
G1 X20.621 Y85.509 E6.60859
G1 X20.486 Y85.194 E6.61823
G1 X20.459 Y85.000 E6.62374
G1 X20.486 Y84.806 E6.62926
G1 X20.621 Y84.491 E6.63889
G1 X25.763 Y84.491 E6.78366
G1 X25.763 Y82.070 E6.85183
G1 X36.227 Y82.070 E7.14641
G1 X36.227 Y80.270 E7.19709
G1 X38.487 Y80.270 E7.26072 F900.000
G1 X38.487 Y82.070 E7.31139
G1 X45.227 Y82.070 E7.50113
G1 X45.227 Y80.270 E7.55180
G1 X47.487 Y80.270 E7.61543
G1 X47.487 Y82.070 E7.66610
G1 X49.691 Y82.070 E7.72814
G1 X49.691 Y80.270 E7.77882
G1 X57.351 Y80.270 E7.99447
G1 X57.351 Y82.070 E8.04514
G1 X59.555 Y82.070 E8.10718
G1 X59.555 Y80.270 E8.15785
G1 X61.815 Y80.270 E8.22148
G1 X61.815 Y82.070 E8.27216
G1 X73.019 Y82.070 E8.58756
G1 X73.019 Y80.270 E8.63824
G1 X78.879 Y80.270 E8.80322
G1 X78.879 Y82.070 E8.85389
G1 X84.683 Y82.070 E9.01728
G1 X84.683 Y80.270 E9.06795
G1 X92.343 Y80.270 E9.28360
G1 X92.343 Y82.070 E9.33427
G1 X108.011 Y82.070 E9.77535
G1 X108.011 Y80.270 E9.82602
G1 X113.871 Y80.270 E9.99100
G1 X113.871 Y82.070 E10.04167
G1 X119.675 Y82.070 E10.20506
G1 X119.675 Y80.270 E10.25573
G1 X125.535 Y80.270 E10.42071
G1 X125.535 Y82.070 E10.47138
G1 X129.539 Y82.070 E10.58410
G1 X129.539 Y80.270 E10.63477
G1 X137.199 Y80.270 E10.85042
G1 X137.199 Y82.070 E10.90109
G1 X143.003 Y82.070 E11.06448
G1 X143.003 Y80.345 E11.11304
G1 X142.583 Y80.345 F12000.000
G1 X142.583 Y79.850 E11.12698 F720.000
G1 X149.283 Y79.850 E11.31559
G1 X149.283 Y81.650 E11.36627
G1 X151.843 Y81.650 E11.43833
G1 X151.843 Y88.350 E11.62695
G1 X116.091 Y88.350 E12.63344
G1 X116.091 Y90.150 E12.68411
G1 X111.191 Y90.150 E12.82206
G1 X111.191 Y88.350 E12.87273
G1 X77.499 Y88.350 E13.82122
G1 X77.499 Y90.150 E13.87190
G1 X74.399 Y90.150 E13.95917
G1 X74.399 Y88.350 E14.00984
G1 X47.907 Y88.350 E14.75564
G1 X47.907 Y90.150 E14.80631
G1 X44.807 Y90.150 E14.89358
G1 X44.807 Y88.350 E14.94426
G1 X38.907 Y88.350 E15.11035
G1 X38.907 Y90.150 E15.16103
G1 X35.807 Y90.150 E15.24830
G1 X35.807 Y88.350 E15.29897
G1 X25.343 Y88.350 E15.59355
G1 X25.343 Y85.929 E15.66172
G1 X20.423 Y85.929 E15.80024
G1 X20.221 Y85.642 E15.81012
G1 X20.078 Y85.308 E15.82033
G1 X20.034 Y85.000 E15.82909
G1 X20.078 Y84.692 E15.83785
G1 X20.221 Y84.359 E15.84806
G1 X20.423 Y84.071 E15.85794
G1 X25.343 Y84.071 E15.99646
G1 X25.343 Y81.650 E16.06463
G1 X35.807 Y81.650 E16.35921
G1 X35.807 Y79.850 E16.40988
G1 X38.907 Y79.850 E16.49715
G1 X38.907 Y81.349 E16.53936
G1 X38.907 Y81.650 E16.54782 F720.000
G1 X44.807 Y81.650 E16.71392
G1 X44.807 Y79.850 E16.76459
G1 X47.907 Y79.850 E16.85187
G1 X47.907 Y81.650 E16.90254
G1 X49.271 Y81.650 E16.94094
G1 X49.271 Y79.850 E16.99161
G1 X57.771 Y79.850 E17.23090
G1 X57.771 Y81.650 E17.28158
G1 X59.135 Y81.650 E17.31998
G1 X59.135 Y79.850 E17.37065
G1 X62.235 Y79.850 E17.45792
G1 X62.235 Y81.650 E17.50859
G1 X72.599 Y81.650 E17.80036
G1 X72.599 Y79.850 E17.85103
G1 X79.299 Y79.850 E18.03965
G1 X79.299 Y81.650 E18.09032
G1 X84.263 Y81.650 E18.23007
G1 X84.263 Y79.850 E18.28074
G1 X92.763 Y79.850 E18.52003
G1 X92.763 Y81.650 E18.57071
G1 X107.591 Y81.650 E18.98814
G1 X107.591 Y79.850 E19.03882
G1 X114.291 Y79.850 E19.22743
G1 X114.291 Y81.650 E19.27811
G1 X119.255 Y81.650 E19.41785
G1 X119.255 Y79.850 E19.46853
G1 X125.955 Y79.850 E19.65715
G1 X125.955 Y81.650 E19.70782
G1 X129.119 Y81.650 E19.79689
G1 X129.119 Y79.850 E19.84756
G1 X137.619 Y79.850 E20.08686
G1 X137.619 Y81.650 E20.13753
G1 X142.583 Y81.650 E20.27728
G1 X142.583 Y80.420 E20.31191
G1 E18.31191 F1680.000
G92 E0
G1 X38.607 Y81.349 F12000.000
G1 X145.609 Y80.537 F12000.000
G1 E2.00000 F1680.000
G1 X151.156 Y86.085 E2.22085 F1200.000
G1 X151.156 Y86.703 E2.23824
G1 X144.991 Y80.537 E2.48369
G1 X144.373 Y80.537 E2.50109
G1 X151.156 Y87.320 E2.77114
G1 X150.880 Y87.663 E2.78351
G1 X143.755 Y80.537 E3.06718
G1 X143.271 Y80.671 E3.08132
G1 X150.262 Y87.663 E3.35968
G1 X149.644 Y87.663 E3.37707
G1 X143.271 Y81.289 E3.63083
G1 X143.271 Y81.907 E3.64822
G1 X149.026 Y87.663 E3.87738
G1 X148.409 Y87.663 E3.89477
G1 X143.083 Y82.337 E4.10678
G1 X142.466 Y82.337 E4.12418
G1 X147.791 Y87.663 E4.33619
G1 X147.173 Y87.663 E4.35358
G1 X141.848 Y82.337 E4.56559
G1 X141.230 Y82.337 E4.58298
G1 X146.555 Y87.663 E4.79499
G1 X145.937 Y87.663 E4.81239
G1 X140.612 Y82.337 E5.02440
G1 X139.994 Y82.337 E5.04179
G1 X145.319 Y87.663 E5.25380
G1 X144.701 Y87.663 E5.27119
G1 X139.376 Y82.337 E5.48320
G1 X138.758 Y82.337 E5.50060
G1 X144.084 Y87.663 E5.71261
G1 X143.466 Y87.663 E5.73000
G1 X138.141 Y82.337 E5.94201
G1 X137.523 Y82.337 E5.95940
G1 X142.848 Y87.663 E6.17141
G1 X142.230 Y87.663 E6.18881
G1 X135.105 Y80.537 E6.47248
G1 X135.723 Y80.537 E6.48987
G1 X136.932 Y81.747 E6.53801
G1 X136.932 Y81.129 E6.55540
G1 X136.341 Y80.537 E6.57894
G1 X134.487 Y80.537 F12000.000
G1 X141.612 Y87.663 E6.86262 F1200.000
G1 X140.994 Y87.663 E6.88001
G1 X133.869 Y80.537 E7.16368
G1 X133.251 Y80.537 E7.18108
G1 X140.376 Y87.663 E7.46475
G1 X139.758 Y87.663 E7.48214
G1 X132.633 Y80.537 E7.76581
G1 X132.015 Y80.537 E7.78321
G1 X139.141 Y87.663 E8.06688
G1 X138.523 Y87.663 E8.08427
G1 X131.398 Y80.537 E8.36795
G1 X130.780 Y80.537 E8.38534
G1 X137.905 Y87.663 E8.66901
G1 X137.287 Y87.663 E8.68641
G1 X130.162 Y80.537 E8.97008
G1 X129.807 Y80.800 E8.98252
G1 X136.669 Y87.663 E9.25573
G1 X136.051 Y87.663 E9.27313
G1 X129.807 Y81.418 E9.52174
G1 X129.807 Y82.036 E9.53914
G1 X135.433 Y87.663 E9.76315
G1 X134.816 Y87.663 E9.78055
G1 X129.490 Y82.337 E9.99256
G1 X128.872 Y82.337 E10.00995
G1 X134.198 Y87.663 E10.22196
G1 X133.580 Y87.663 E10.23935
G1 X128.255 Y82.337 E10.45136
G1 X127.637 Y82.337 E10.46876
G1 X132.962 Y87.663 E10.68077
G1 X132.344 Y87.663 E10.69816
G1 X127.019 Y82.337 E10.91017
G1 X126.401 Y82.337 E10.92756
G1 X131.726 Y87.663 E11.13957
G1 X131.108 Y87.663 E11.15697
G1 X125.783 Y82.337 E11.36898
G1 X125.268 Y81.822 F12000.000
G1 X123.983 Y80.537 E11.42012 F1200.000
G1 X124.601 Y80.537 E11.43751
G1 X125.268 Y81.204 E11.46406
G1 X125.268 Y80.586 E11.48145
G1 X125.219 Y80.537 E11.48340
G1 X123.365 Y80.537 F12000.000
G1 X130.490 Y87.663 E11.76707 F1200.000
G1 X129.873 Y87.663 E11.78447
G1 X122.747 Y80.537 E12.06814
G1 X122.130 Y80.537 E12.08553
G1 X129.255 Y87.663 E12.36920
G1 X128.637 Y87.663 E12.38660
G1 X121.512 Y80.537 E12.67027
G1 X120.894 Y80.537 E12.68766
G1 X128.019 Y87.663 E12.97134
G1 X127.401 Y87.663 E12.98873
G1 X120.276 Y80.537 E13.27240
G1 X119.943 Y80.822 E13.28474
G1 X126.783 Y87.663 E13.55708
G1 X126.165 Y87.663 E13.57448
G1 X119.943 Y81.440 E13.82222
G1 X119.943 Y82.058 E13.83962
G1 X125.547 Y87.663 E14.06276
G1 X124.930 Y87.663 E14.08016
G1 X119.604 Y82.337 E14.29217
G1 X118.987 Y82.337 E14.30956
G1 X124.312 Y87.663 E14.52157
G1 X123.694 Y87.663 E14.53896
G1 X118.369 Y82.337 E14.75097
G1 X117.751 Y82.337 E14.76837
G1 X123.076 Y87.663 E14.98037
G1 X122.458 Y87.663 E14.99777
G1 X117.133 Y82.337 E15.20978
G1 X116.515 Y82.337 E15.22717
G1 X121.840 Y87.663 E15.43918
G1 X121.222 Y87.663 E15.45658
G1 X115.897 Y82.337 E15.66858
G1 X115.279 Y82.337 E15.68598
G1 X120.605 Y87.663 E15.89799
G1 X119.987 Y87.663 E15.91538
G1 X114.662 Y82.337 E16.12739
G1 X114.044 Y82.337 E16.14478
G1 X119.369 Y87.663 E16.35679
G1 X118.751 Y87.663 E16.37419
G1 X111.626 Y80.537 E16.65786
G1 X112.244 Y80.537 E16.67525
G1 X113.604 Y81.898 E16.72940
G1 X113.604 Y81.280 E16.74680
G1 X112.861 Y80.537 E16.77635
G1 X113.479 Y80.537 E16.79374
G1 X113.604 Y80.662 E16.79870
G1 X111.008 Y80.537 F12000.000
G1 X118.133 Y87.663 E17.08237 F1200.000
G1 X117.515 Y87.663 E17.09976
G1 X110.390 Y80.537 E17.38343
G1 X109.772 Y80.537 E17.40083
G1 X116.897 Y87.663 E17.68450
G1 X116.279 Y87.663 E17.70190
G1 X109.154 Y80.537 E17.98557
G1 X108.536 Y80.537 E18.00296
G1 X115.662 Y87.663 E18.28663
G1 X115.404 Y88.023 E18.29910
G1 X108.279 Y80.897 E18.58277
G1 X108.279 Y81.515 E18.60017
G1 X115.404 Y88.640 E18.88384
G1 X115.404 Y89.258 E18.90123
G1 X108.279 Y82.133 E19.18491
G1 X107.865 Y82.337 E19.19789
G1 X114.990 Y89.463 E19.48156
G1 X114.372 Y89.463 E19.49896
G1 X107.247 Y82.337 E19.78263
G1 X106.629 Y82.337 E19.80002
G1 X113.754 Y89.463 E20.08370
G1 X113.136 Y89.463 E20.10109
G1 X111.879 Y88.205 E20.15117
G1 X111.879 Y88.823 E20.16857
G1 X112.519 Y89.463 E20.19405
G1 X111.901 Y89.463 E20.21144
G1 X111.879 Y89.440 E20.21232
G1 X111.336 Y87.663 F12000.000
G1 X106.011 Y82.337 E20.42433 F1200.000
G1 X105.393 Y82.337 E20.44173
G1 X110.719 Y87.663 E20.65373
G1 X110.101 Y87.663 E20.67113
G1 X104.776 Y82.337 E20.88314
G1 X104.158 Y82.337 E20.90053
G1 X109.483 Y87.663 E21.11254
G1 X108.865 Y87.663 E21.12993
G1 X103.540 Y82.337 E21.34194
G1 X102.922 Y82.337 E21.35934
G1 X108.247 Y87.663 E21.57135
G1 X107.629 Y87.663 E21.58874
G1 X102.304 Y82.337 E21.80075
G1 X101.686 Y82.337 E21.81814
G1 X107.011 Y87.663 E22.03015
G1 X106.394 Y87.663 E22.04755
G1 X101.068 Y82.337 E22.25956
G1 X100.451 Y82.337 E22.27695
G1 X105.776 Y87.663 E22.48896
G1 X105.158 Y87.663 E22.50635
G1 X99.833 Y82.337 E22.71836
G1 X99.215 Y82.337 E22.73576
G1 X104.540 Y87.663 E22.94777
G1 X103.922 Y87.663 E22.96516
G1 X98.597 Y82.337 E23.17717
G1 X97.979 Y82.337 E23.19456
G1 X103.304 Y87.663 E23.40657
G1 X102.686 Y87.663 E23.42397
G1 X97.361 Y82.337 E23.63597
G1 X96.743 Y82.337 E23.65337
G1 X102.068 Y87.663 E23.86538
G1 X101.451 Y87.663 E23.88277
G1 X96.125 Y82.337 E24.09478
G1 X95.508 Y82.337 E24.11218
G1 X100.833 Y87.663 E24.32418
G1 X100.215 Y87.663 E24.34158
G1 X94.890 Y82.337 E24.55359
G1 X94.272 Y82.337 E24.57098
G1 X99.597 Y87.663 E24.78299
G1 X98.979 Y87.663 E24.80038
G1 X93.654 Y82.337 E25.01239
G1 X93.036 Y82.337 E25.02979
G1 X98.361 Y87.663 E25.24180
G1 X97.743 Y87.663 E25.25919
G1 X90.618 Y80.537 E25.54286
G1 X91.236 Y80.537 E25.56026
G1 X92.076 Y81.377 E25.59369
G1 X92.076 Y80.759 E25.61108
G1 X91.854 Y80.537 E25.61991
G1 X90.000 Y80.537 F12000.000
G1 X97.126 Y87.663 E25.90358 F1200.000
G1 X96.508 Y87.663 E25.92098
G1 X89.382 Y80.537 E26.20465
G1 X88.765 Y80.537 E26.22204
G1 X95.890 Y87.663 E26.50572
G1 X95.272 Y87.663 E26.52311
G1 X88.147 Y80.537 E26.80678
G1 X87.529 Y80.537 E26.82418
G1 X94.654 Y87.663 E27.10785
G1 X94.036 Y87.663 E27.12524
G1 X86.911 Y80.537 E27.40891
G1 X86.293 Y80.537 E27.42631
G1 X93.418 Y87.663 E27.70998
G1 X92.800 Y87.663 E27.72737
G1 X85.675 Y80.537 E28.01105
G1 X85.057 Y80.537 E28.02844
G1 X92.183 Y87.663 E28.31211
G1 X91.565 Y87.663 E28.32951
G1 X84.951 Y81.048 E28.59283
G1 X84.951 Y81.666 E28.61023
G1 X90.947 Y87.663 E28.84895
G1 X90.329 Y87.663 E28.86635
G1 X84.951 Y82.284 E29.08047
G1 X84.386 Y82.337 E29.09644
G1 X89.711 Y87.663 E29.30845
G1 X89.093 Y87.663 E29.32584
G1 X83.768 Y82.337 E29.53785
G1 X83.150 Y82.337 E29.55525
G1 X88.475 Y87.663 E29.76726
G1 X87.857 Y87.663 E29.78465
G1 X82.532 Y82.337 E29.99666
G1 X81.914 Y82.337 E30.01405
G1 X87.240 Y87.663 E30.22606
G1 X86.622 Y87.663 E30.24346
G1 X81.297 Y82.337 E30.45546
G1 X80.679 Y82.337 E30.47286
G1 X86.004 Y87.663 E30.68487
G1 X85.386 Y87.663 E30.70226
G1 X80.061 Y82.337 E30.91427
G1 X79.443 Y82.337 E30.93167
G1 X84.768 Y87.663 E31.14367
G1 X84.150 Y87.663 E31.16107
G1 X77.025 Y80.537 E31.44474
G1 X77.643 Y80.537 E31.46213
G1 X78.612 Y81.506 E31.50070
G1 X78.612 Y80.888 E31.51810
G1 X78.261 Y80.537 E31.53207
G1 X76.407 Y80.537 F12000.000
G1 X83.532 Y87.663 E31.81574 F1200.000
G1 X82.915 Y87.663 E31.83314
G1 X75.789 Y80.537 E32.11681
G1 X75.172 Y80.537 E32.13420
G1 X82.297 Y87.663 E32.41787
G1 X81.679 Y87.663 E32.43527
G1 X74.554 Y80.537 E32.71894
G1 X73.936 Y80.537 E32.73633
G1 X81.061 Y87.663 E33.02001
G1 X80.443 Y87.663 E33.03740
G1 X73.318 Y80.537 E33.32107
G1 X73.287 Y81.124 E33.33761
G1 X79.825 Y87.663 E33.59793
G1 X79.207 Y87.663 E33.61532
G1 X73.287 Y81.742 E33.85104
G1 X73.264 Y82.337 E33.86782
G1 X78.589 Y87.663 E34.07983
G1 X77.972 Y87.663 E34.09722
G1 X72.646 Y82.337 E34.30923
G1 X72.029 Y82.337 E34.32663
G1 X77.354 Y87.663 E34.53864
G1 X76.812 Y87.738 E34.55404
G1 X71.411 Y82.337 E34.76907
G1 X70.793 Y82.337 E34.78647
G1 X76.812 Y88.356 E35.02610
G1 X76.812 Y88.974 E35.04349
G1 X70.175 Y82.337 E35.30772
G1 X69.557 Y82.337 E35.32512
G1 X76.682 Y89.463 E35.60879
G1 X76.064 Y89.463 E35.62618
G1 X75.087 Y88.485 E35.66511
G1 X75.087 Y89.103 E35.68250
G1 X75.446 Y89.463 E35.69683
G1 X74.264 Y87.663 F12000.000
G1 X68.939 Y82.337 E35.90884 F1200.000
G1 X68.321 Y82.337 E35.92623
G1 X73.646 Y87.663 E36.13824
G1 X73.029 Y87.663 E36.15564
G1 X67.703 Y82.337 E36.36765
G1 X67.086 Y82.337 E36.38504
G1 X72.411 Y87.663 E36.59705
G1 X71.793 Y87.663 E36.61444
G1 X66.468 Y82.337 E36.82645
G1 X65.850 Y82.337 E36.84385
G1 X71.175 Y87.663 E37.05586
G1 X70.557 Y87.663 E37.07325
G1 X65.232 Y82.337 E37.28526
G1 X64.614 Y82.337 E37.30265
G1 X69.939 Y87.663 E37.51466
G1 X69.321 Y87.663 E37.53206
G1 X63.996 Y82.337 E37.74407
G1 X63.378 Y82.337 E37.76146
G1 X68.704 Y87.663 E37.97347
G1 X68.086 Y87.663 E37.99086
G1 X62.761 Y82.337 E38.20287
G1 X62.143 Y82.337 E38.22027
G1 X67.468 Y87.663 E38.43227
G1 X66.850 Y87.663 E38.44967
G1 X59.823 Y80.635 E38.72945
G1 X60.343 Y80.537 E38.74434
G1 X61.548 Y81.743 E38.79232
G1 X61.548 Y81.125 E38.80972
G1 X60.961 Y80.537 E38.83310
G1 X59.823 Y81.253 F12000.000
G1 X66.232 Y87.663 E39.08827 F1200.000
G1 X65.614 Y87.663 E39.10567
