; generated by Slic3r 0.9.9 on 2013-05-28 at 23:17:18

; layer_height = 0.3
; perimeters = 2
; top_solid_layers = 2
; bottom_solid_layers = 2
; fill_density = 0.3
; perimeter_speed = 30
; infill_speed = 40
; travel_speed = 200
; nozzle_diameter = 0.5
; filament_diameter = 2.80
; extrusion_multiplier = 0.85
; perimeters extrusion width = 0.70mm
; infill extrusion width = 0.70mm
; solid infill extrusion width = 0.70mm
; top infill extrusion width = 0.70mm
; support material extrusion width = 0.70mm
; first layer extrusion width = 0.35mm

G21 ; set units to millimeters
M107
M190 S80 ; wait for bed temperature to be reached
M104 S225 ; set temperature
G28 ; home all axes
G1 Z5 F120 ; lift nozzle
M109 S225 ; wait for temperature to be reached
G90 ; use absolute coordinates
G92 E0
M82 ; use absolute distances for extrusion
G1 F1680.000 E-2.00000
G92 E0
G1 Z0.200 F12000.000
G1 X55.017 Y91.870
G1 F1680.000 E2.00000
G1 X55.597 Y91.580 F540.000 E2.00684
G1 X57.607 Y90.700 E2.02999
G1 X57.887 Y90.600 E2.03313
G1 X58.457 Y90.440 E2.03938
G1 X59.047 Y90.330 E2.04571
G1 X72.597 Y89.140 E2.18924
G1 X73.157 Y89.120 E2.19515
G1 X119.797 Y89.120 E2.68728
G1 X142.197 Y90.020 E2.92383
G1 X142.977 Y90.100 E2.93210
G1 X143.757 Y90.280 E2.94055
G1 X144.497 Y90.550 E2.94886
G1 X145.197 Y90.910 E2.95717
G1 X145.427 Y91.050 E2.96001
G1 X145.857 Y91.360 E2.96560
G1 X146.447 Y91.880 E2.97390
G1 X146.807 Y92.270 E2.97950
G1 X147.127 Y92.690 E2.98507
G1 X147.417 Y93.130 E2.99063
G1 X147.667 Y93.590 E2.99616
G1 X147.977 Y94.330 E3.00462
G1 X148.127 Y94.830 E3.01013
G1 X148.237 Y95.350 E3.01574
G1 X148.317 Y96.140 E3.02412
G1 X148.317 Y103.860 E3.10558
G1 X148.237 Y104.640 E3.11385
G1 X148.127 Y105.150 E3.11936
G1 X147.977 Y105.650 E3.12486
G1 X147.787 Y106.140 E3.13041
G1 X147.567 Y106.610 E3.13589
G1 X147.297 Y107.060 E3.14142
G1 X146.837 Y107.690 E3.14965
G1 X146.477 Y108.080 E3.15525
G1 X146.097 Y108.440 E3.16078
G1 X145.897 Y108.610 E3.16355
G1 X145.257 Y109.050 E3.17174
G1 X144.797 Y109.310 E3.17732
G1 X144.317 Y109.520 E3.18285
G1 X143.827 Y109.700 E3.18835
G1 X143.317 Y109.830 E3.19391
G1 X142.807 Y109.920 E3.19937
G1 X142.287 Y109.970 E3.20488
G1 X76.247 Y110.880 E3.90179
G1 X73.157 Y110.880 E3.93439
G1 X72.677 Y110.860 E3.93946
G1 X59.887 Y109.900 E4.07480
G1 X59.267 Y109.830 E4.08138
G1 X58.667 Y109.690 E4.08788
G1 X58.077 Y109.500 E4.09442
G1 X56.047 Y108.610 E4.11781
G1 X54.217 Y107.670 E4.13952
G1 X53.757 Y107.400 E4.14514
G1 X53.307 Y107.090 E4.15091
G1 X53.097 Y106.930 E4.15370
G1 X52.697 Y106.570 E4.15937
G1 X52.507 Y106.370 E4.16229
G1 X52.157 Y105.960 E4.16797
G1 X51.837 Y105.530 E4.17363
G1 X51.437 Y104.830 E4.18214
G1 X51.327 Y104.580 E4.18502
G1 X51.127 Y104.080 E4.19070
G1 X50.977 Y103.560 E4.19641
G1 X50.827 Y102.770 E4.20490
G1 X50.787 Y102.230 E4.21061
G1 X50.817 Y98.140 E4.25377
G1 X50.847 Y97.600 E4.25947
G1 X50.917 Y97.060 E4.26522
G1 X51.107 Y96.270 E4.27379
G1 X51.297 Y95.760 E4.27954
G1 X51.517 Y95.270 E4.28520
G1 X51.647 Y95.030 E4.28808
G1 X51.937 Y94.570 E4.29382
G1 X52.437 Y93.930 E4.30239
G1 X53.017 Y93.360 E4.31097
G1 X53.227 Y93.190 E4.31382
G1 X54.457 Y92.220 E4.33035
G1 X54.968 Y91.900 E4.33671
G1 F1680.000 E2.33671
G92 E0
G1 X58.167 Y97.427 F12000.000
G1 F1680.000 E2.00000
G1 X63.898 Y97.427 F720.000 E2.06047
G1 X63.898 Y96.663 E2.06854
G1 X59.904 Y96.663 E2.11068
G1 X59.740 Y98.191 F12000.000
G1 X57.190 Y98.191 F720.000 E2.13759
G1 X57.292 Y98.956 E2.14572
G1 X59.414 Y98.956 E2.16812
G1 X59.200 Y99.720 E2.17649
G1 X57.972 Y99.720 E2.18945
G1 X58.031 Y100.485 E2.19754
G1 X59.230 Y100.485 E2.21019
G1 X59.502 Y101.249 E2.21875
G1 X57.264 Y101.249 E2.24235
G1 X57.159 Y102.013 E2.25050
G1 X63.898 Y102.013 E2.32161
G1 X63.898 Y102.778 E2.32968
G1 X58.632 Y102.778 E2.38524
G1 X60.370 Y103.542 E2.40527
G1 X63.898 Y103.542 E2.44250
G1 F1680.000 E0.44250
G92 E0
G1 X141.370 Y96.973 F12000.000
G1 F1680.000 E2.00000
G1 X141.370 Y103.027 F540.000 E2.06387
G1 X75.590 Y103.027 E2.75797
G1 X75.590 Y103.927 E2.76746
G1 X73.736 Y103.927 E2.78702
G1 X73.736 Y103.027 E2.79651
G1 X65.516 Y103.027 E2.88325
G1 X65.516 Y100.220 E2.91287
G1 X60.826 Y100.220 E2.96236
G1 X60.795 Y100.000 E2.96470
G1 X60.826 Y99.780 E2.96704
G1 X65.516 Y99.780 E3.01653
G1 X65.516 Y96.973 E3.04615
G1 X73.736 Y96.973 E3.13288
G1 X73.736 Y96.073 E3.14238
G1 X81.590 Y96.073 E3.22525
G1 X81.590 Y96.973 E3.23474
G1 X84.956 Y96.973 E3.27026
G1 X84.956 Y96.073 E3.27976
G1 X91.310 Y96.073 E3.34680
G1 X91.310 Y96.973 E3.35630
G1 X94.676 Y96.973 E3.39182
G1 X94.676 Y96.073 E3.40132
G1 X99.530 Y96.073 E3.45253
G1 X99.530 Y96.973 E3.46203
G1 X104.396 Y96.973 E3.51338
G1 X104.396 Y96.073 E3.52287
G1 X110.750 Y96.073 E3.58991
G1 X110.750 Y96.973 E3.59941
G1 X112.616 Y96.973 E3.61910
G1 X112.616 Y96.073 E3.62860
G1 X118.970 Y96.073 E3.69564
G1 X118.970 Y96.973 E3.70514
G1 X141.313 Y96.973 E3.94089
G1 X141.752 Y96.591 F12000.000
G1 X141.752 Y103.409 F432.000 E4.01283
G1 X75.972 Y103.409 E4.70692
G1 X75.972 Y104.309 E4.71642
G1 X73.354 Y104.309 E4.74404
G1 X73.354 Y103.409 E4.75354
G1 X65.134 Y103.409 E4.84027
G1 X65.134 Y100.602 E4.86989
G1 X60.569 Y100.602 E4.91806
G1 X60.458 Y100.340 E4.92106
G1 X60.409 Y100.000 E4.92469
G1 X60.458 Y99.660 E4.92831
G1 X60.569 Y99.398 E4.93132
G1 X65.134 Y99.398 E4.97948
G1 X65.134 Y96.591 E5.00910
G1 X73.354 Y96.591 E5.09584
G1 X73.354 Y95.691 E5.10533
G1 X81.972 Y95.691 E5.19626
G1 X81.972 Y96.591 E5.20576
G1 X84.574 Y96.591 E5.23322
G1 X84.574 Y95.691 E5.24272
G1 X91.692 Y95.691 E5.31782
G1 X91.692 Y96.591 E5.32732
G1 X94.294 Y96.591 E5.35477
G1 X94.294 Y95.691 E5.36427
G1 X99.912 Y95.691 E5.42355
G1 X99.912 Y96.591 E5.43304
G1 X104.014 Y96.591 E5.47633
G1 X104.014 Y95.691 E5.48583
G1 X111.132 Y95.691 E5.56093
G1 X111.132 Y96.591 E5.57043
G1 X112.234 Y96.591 E5.58206
G1 X112.234 Y95.691 E5.59155
G1 X119.352 Y95.691 E5.66666
G1 X119.352 Y96.591 E5.67616
G1 X141.695 Y96.591 E5.91191
G1 X141.561 Y96.922 F12000.000
G1 X141.093 Y97.250
G1 X140.551 Y97.250 F1080.000 E5.91765
G1 X141.093 Y97.793 E5.92577
G1 X141.093 Y98.335 E5.93151
G1 X140.008 Y97.250 E5.94775
G1 X139.466 Y97.250 E5.95349
G1 X141.093 Y98.877 E5.97785
G1 X141.093 Y99.419 E5.98359
G1 X138.924 Y97.250 E6.01607
G1 X138.381 Y97.250 E6.02181
G1 X141.093 Y99.962 E6.06240
G1 X141.093 Y100.504 E6.06814
G1 X137.839 Y97.250 E6.11686
G1 X137.297 Y97.250 E6.12260
G1 X141.093 Y101.046 E6.17943
G1 X141.093 Y101.589 E6.18517
G1 X136.755 Y97.250 E6.25012
G1 X136.212 Y97.250 E6.25586
G1 X141.093 Y102.131 E6.32893
G1 X141.093 Y102.673 E6.33467
G1 X135.670 Y97.250 E6.41586
G1 X135.128 Y97.250 E6.42160
G1 X140.627 Y102.750 E6.50394
G1 X140.085 Y102.750 E6.50968
G1 X134.586 Y97.250 E6.59201
G1 X134.043 Y97.250 E6.59775
G1 X139.543 Y102.750 E6.68009
G1 X139.000 Y102.750 E6.68583
G1 X133.501 Y97.250 E6.76816
G1 X132.959 Y97.250 E6.77390
G1 X138.458 Y102.750 E6.85624
G1 X137.916 Y102.750 E6.86198
G1 X132.416 Y97.250 E6.94431
G1 X131.874 Y97.250 E6.95005
G1 X137.374 Y102.750 E7.03239
G1 X136.831 Y102.750 E7.03813
G1 X131.332 Y97.250 E7.12046
G1 X130.790 Y97.250 E7.12620
G1 X136.289 Y102.750 E7.20854
G1 X135.747 Y102.750 E7.21428
G1 X130.247 Y97.250 E7.29661
G1 X129.705 Y97.250 E7.30235
G1 X135.205 Y102.750 E7.38469
G1 X134.662 Y102.750 E7.39043
G1 X129.163 Y97.250 E7.47277
G1 X128.621 Y97.250 E7.47851
G1 X134.120 Y102.750 E7.56084
G1 X133.578 Y102.750 E7.56658
G1 X128.078 Y97.250 E7.64892
G1 X127.536 Y97.250 E7.65466
G1 X133.035 Y102.750 E7.73699
G1 X132.493 Y102.750 E7.74273
G1 X126.994 Y97.250 E7.82507
G1 X126.451 Y97.250 E7.83081
G1 X131.951 Y102.750 E7.91314
G1 X131.409 Y102.750 E7.91888
G1 X125.909 Y97.250 E8.00122
G1 X125.367 Y97.250 E8.00696
G1 X130.866 Y102.750 E8.08929
G1 X130.324 Y102.750 E8.09503
G1 X124.825 Y97.250 E8.17737
G1 X124.282 Y97.250 E8.18311
G1 X129.782 Y102.750 E8.26544
G1 X129.240 Y102.750 E8.27119
G1 X123.740 Y97.250 E8.35352
G1 X123.198 Y97.250 E8.35926
G1 X128.697 Y102.750 E8.44160
G1 X128.155 Y102.750 E8.44734
G1 X122.656 Y97.250 E8.52967
G1 X122.113 Y97.250 E8.53541
G1 X127.613 Y102.750 E8.61775
G1 X127.070 Y102.750 E8.62349
G1 X121.571 Y97.250 E8.70582
G1 X121.029 Y97.250 E8.71156
G1 X126.528 Y102.750 E8.79390
G1 X125.986 Y102.750 E8.79964
G1 X120.486 Y97.250 E8.88197
G1 X119.944 Y97.250 E8.88771
G1 X125.444 Y102.750 E8.97005
G1 X124.901 Y102.750 E8.97579
G1 X119.402 Y97.250 E9.05812
G1 X118.860 Y97.250 F12000.000
G1 X124.359 Y102.750 F1080.000 E9.14046
G1 X123.817 Y102.750 E9.14620
G1 X117.417 Y96.350 E9.24201
G1 X116.875 Y96.350 E9.24775
G1 X123.275 Y102.750 E9.34356
G1 X122.732 Y102.750 E9.34930
G1 X116.333 Y96.350 E9.44511
G1 X115.791 Y96.350 E9.45085
G1 X122.190 Y102.750 E9.54666
G1 X121.648 Y102.750 E9.55240
G1 X115.248 Y96.350 E9.64821
G1 X114.706 Y96.350 E9.65395
G1 X121.105 Y102.750 E9.74976
G1 X120.563 Y102.750 E9.75550
G1 X114.164 Y96.350 E9.85131
G1 X113.621 Y96.350 E9.85705
G1 X120.021 Y102.750 E9.95286
G1 X119.479 Y102.750 E9.95860
G1 X113.079 Y96.350 E10.05441
G1 X112.893 Y96.707 E10.05866
G1 X118.936 Y102.750 E10.14913
G1 X118.394 Y102.750 E10.15487
G1 X112.893 Y97.249 E10.23723
G1 X112.352 Y97.250 E10.24295
G1 X117.852 Y102.750 E10.32529
G1 X117.310 Y102.750 E10.33103
G1 X111.810 Y97.250 E10.41336
G1 X111.268 Y97.250 E10.41910
G1 X116.767 Y102.750 E10.50144
G1 X116.225 Y102.750 E10.50718
G1 X110.726 Y97.250 E10.58952
G1 X110.473 Y96.998 F12000.000
G1 X109.826 Y96.350 F1080.000 E10.59921
G1 X109.283 Y96.350 E10.60495
G1 X115.683 Y102.750 E10.70076
G1 X115.140 Y102.750 E10.70650
G1 X108.741 Y96.350 E10.80231
G1 X108.199 Y96.350 E10.80805
G1 X114.598 Y102.750 E10.90386
G1 X114.056 Y102.750 E10.90960
G1 X107.656 Y96.350 E11.00541
G1 X107.114 Y96.350 E11.01115
G1 X113.514 Y102.750 E11.10696
G1 X112.971 Y102.750 E11.11270
G1 X106.572 Y96.350 E11.20851
G1 X106.030 Y96.350 E11.21425
G1 X112.429 Y102.750 E11.31006
G1 X111.887 Y102.750 E11.31580
G1 X105.487 Y96.350 E11.41161
G1 X104.945 Y96.350 E11.41735
G1 X111.345 Y102.750 E11.51315
G1 X110.802 Y102.750 E11.51890
G1 X104.673 Y96.621 E11.61065
G1 X104.673 Y97.163 E11.61639
G1 X110.260 Y102.750 E11.70003
G1 X109.718 Y102.750 E11.70577
G1 X104.218 Y97.250 E11.78811
G1 X103.676 Y97.250 E11.79385
G1 X109.175 Y102.750 E11.87618
G1 X108.633 Y102.750 E11.88192
G1 X103.134 Y97.250 E11.96426
G1 X102.591 Y97.250 E11.97000
G1 X108.091 Y102.750 E12.05233
G1 X107.549 Y102.750 E12.05807
G1 X102.049 Y97.250 E12.14041
G1 X101.507 Y97.250 E12.14615
G1 X107.006 Y102.750 E12.22848
G1 X106.464 Y102.750 E12.23423
G1 X100.965 Y97.250 E12.31656
G1 X100.422 Y97.250 E12.32230
G1 X105.922 Y102.750 E12.40464
G1 X105.380 Y102.750 E12.41038
G1 X99.880 Y97.250 E12.49271
G1 X99.338 Y97.250 F12000.000
G1 X104.837 Y102.750 F1080.000 E12.57505
G1 X104.295 Y102.750 E12.58079
G1 X97.896 Y96.350 E12.67660
G1 X97.353 Y96.350 E12.68234
G1 X103.753 Y102.750 E12.77814
G1 X103.210 Y102.750 E12.78389
G1 X96.811 Y96.350 E12.87969
G1 X96.269 Y96.350 E12.88544
G1 X102.668 Y102.750 E12.98124
G1 X102.126 Y102.750 E12.98698
G1 X95.726 Y96.350 E13.08279
G1 X95.184 Y96.350 E13.08853
G1 X101.584 Y102.750 E13.18434
G1 X101.041 Y102.750 E13.19008
G1 X94.953 Y96.662 E13.28123
G1 X94.953 Y97.204 E13.28697
G1 X100.499 Y102.750 E13.37000
G1 X99.957 Y102.750 E13.37574
G1 X94.457 Y97.250 E13.45807
G1 X93.915 Y97.250 E13.46381
G1 X99.415 Y102.750 E13.54615
G1 X98.872 Y102.750 E13.55189
G1 X93.373 Y97.250 E13.63422
G1 X92.831 Y97.250 E13.63996
G1 X98.330 Y102.750 E13.72230
G1 X97.788 Y102.750 E13.72804
G1 X92.288 Y97.250 E13.81037
G1 X91.746 Y97.250 E13.81611
G1 X97.245 Y102.750 E13.89845
G1 X96.703 Y102.750 E13.90419
G1 X91.204 Y97.250 E13.98652
G1 X91.033 Y97.079 F12000.000
G1 X90.304 Y96.350 F1080.000 E13.99744
G1 X89.761 Y96.350 E14.00318
G1 X96.161 Y102.750 E14.09899
G1 X95.619 Y102.750 E14.10473
G1 X89.219 Y96.350 E14.20054
G1 X88.677 Y96.350 E14.20628
G1 X95.076 Y102.750 E14.30209
G1 X94.534 Y102.750 E14.30783
G1 X88.135 Y96.350 E14.40364
G1 X87.592 Y96.350 E14.40938
G1 X93.992 Y102.750 E14.50519
G1 X93.450 Y102.750 E14.51093
G1 X87.050 Y96.350 E14.60674
G1 X86.508 Y96.350 E14.61248
G1 X92.907 Y102.750 E14.70829
G1 X92.365 Y102.750 E14.71403
G1 X85.966 Y96.350 E14.80984
G1 X85.423 Y96.350 E14.81558
G1 X91.823 Y102.750 E14.91139
G1 X91.280 Y102.750 E14.91713
G1 X85.233 Y96.703 E15.00766
G1 X85.233 Y97.245 E15.01340
G1 X90.738 Y102.750 E15.09582
G1 X90.196 Y102.750 E15.10156
G1 X84.696 Y97.250 E15.18389
G1 X84.154 Y97.250 E15.18963
G1 X89.654 Y102.750 E15.27197
G1 X89.111 Y102.750 E15.27771
G1 X83.612 Y97.250 E15.36004
G1 X83.070 Y97.250 E15.36578
G1 X88.569 Y102.750 E15.44812
G1 X88.027 Y102.750 E15.45386
G1 X82.527 Y97.250 E15.53619
G1 X81.985 Y97.250 E15.54193
G1 X87.485 Y102.750 E15.62427
G1 X86.942 Y102.750 E15.63001
G1 X81.443 Y97.250 E15.71234
G1 X81.313 Y97.120 F12000.000
G1 X80.543 Y96.350 F1080.000 E15.72387
G1 X80.001 Y96.350 E15.72961
G1 X86.400 Y102.750 E15.82542
G1 X85.858 Y102.750 E15.83116
G1 X79.458 Y96.350 E15.92697
G1 X78.916 Y96.350 E15.93271
G1 X85.315 Y102.750 E16.02852
G1 X84.773 Y102.750 E16.03426
G1 X78.374 Y96.350 E16.13007
G1 X77.831 Y96.350 E16.13581
G1 X84.231 Y102.750 E16.23162
G1 X83.689 Y102.750 E16.23736
G1 X77.289 Y96.350 E16.33317
G1 X76.747 Y96.350 E16.33891
G1 X83.146 Y102.750 E16.43472
G1 X82.604 Y102.750 E16.44046
G1 X76.205 Y96.350 E16.53627
G1 X75.662 Y96.350 E16.54201
G1 X82.062 Y102.750 E16.63782
G1 X81.520 Y102.750 E16.64356
G1 X75.120 Y96.350 E16.73937
G1 X74.578 Y96.350 E16.74511
G1 X80.977 Y102.750 E16.84092
G1 X80.435 Y102.750 E16.84666
G1 X74.036 Y96.350 E16.94247
G1 X74.013 Y96.870 E16.94798
G1 X79.893 Y102.750 E17.03600
G1 X79.350 Y102.750 E17.04174
G1 X73.851 Y97.250 E17.12408
G1 X73.309 Y97.250 E17.12982
G1 X78.808 Y102.750 E17.21215
G1 X78.266 Y102.750 E17.21789
G1 X72.766 Y97.250 E17.30023
G1 X72.224 Y97.250 E17.30597
G1 X77.724 Y102.750 E17.38830
G1 X77.181 Y102.750 E17.39404
G1 X71.682 Y97.250 E17.47638
G1 X71.140 Y97.250 E17.48212
G1 X76.639 Y102.750 E17.56446
G1 X76.097 Y102.750 E17.57020
G1 X70.597 Y97.250 E17.65253
G1 X70.055 Y97.250 E17.65827
G1 X75.555 Y102.750 E17.74061
G1 X75.313 Y103.050 E17.74469
G1 X69.513 Y97.250 E17.83153
G1 X68.971 Y97.250 E17.83727
G1 X75.313 Y103.593 E17.93222
G1 X74.828 Y103.650 E17.93739
G1 X74.013 Y102.835 E17.94958
G1 X73.928 Y102.750 F12000.000
G1 X68.428 Y97.250 F1080.000 E18.03192
G1 X67.886 Y97.250 E18.03766
G1 X73.385 Y102.750 E18.11999
G1 X72.843 Y102.750 E18.12573
G1 X67.344 Y97.250 E18.20807
G1 X66.801 Y97.250 E18.21381
G1 X72.301 Y102.750 E18.29614
G1 X71.759 Y102.750 E18.30189
G1 X66.259 Y97.250 E18.38422
G1 X65.793 Y97.327 E18.38922
G1 X71.216 Y102.750 E18.47040
G1 X70.674 Y102.750 E18.47615
G1 X65.793 Y97.869 E18.54922
G1 X65.793 Y98.411 E18.55496
G1 X70.132 Y102.750 E18.61991
G1 X69.590 Y102.750 E18.62565
G1 X65.793 Y98.954 E18.68248
G1 X65.793 Y99.496 E18.68822
G1 X69.047 Y102.750 E18.73694
G1 X68.505 Y102.750 E18.74268
G1 X65.793 Y100.038 E18.78327
G1 X65.793 Y100.580 E18.78901
G1 X67.963 Y102.750 E18.82149
G1 X67.420 Y102.750 E18.82723
G1 X65.793 Y101.123 E18.85159
G1 X65.793 Y101.665 E18.85733
G1 X66.878 Y102.750 E18.87357
G1 X66.336 Y102.750 E18.87931
G1 X65.793 Y102.207 E18.88743
G1 X65.794 Y102.750 E18.89318
G1 X74.013 Y103.378 F12000.000
G1 X74.285 Y103.650 F1080.000 E18.89725
G1 X81.313 Y96.578 F12000.000
G1 X81.085 Y96.350 F1080.000 E18.90066
G1 F1680.000 E16.90066
G92 E0
G1 X90.846 Y96.350 F12000.000
G1 F1680.000 E2.00000
G1 X91.033 Y96.537 F1080.000 E2.00280
G1 X99.253 Y96.623 F12000.000
G1 X98.980 Y96.350 F1080.000 E2.00688
G1 X98.438 Y96.350 E2.01262
G1 X99.253 Y97.165 E2.02483
