; generated by Slic3r 0.9.10b on 2013-10-21 at 14:46:17

; layer_height = 0.3
; perimeters = 2
; top_solid_layers = 3
; bottom_solid_layers = 3
; fill_density = 0.5
; perimeter_speed = 30
; infill_speed = 30
; travel_speed = 200
; nozzle_diameter = 0.5
; filament_diameter = 2.98
; extrusion_multiplier = 0.9
; perimeters extrusion width = 0.70mm
; infill extrusion width = 0.70mm
; solid infill extrusion width = 0.70mm
; top infill extrusion width = 0.70mm

G21 ; set units to millimeters
M107
M104 S190 ; set temperature
G28 ; home all axes
G1 Z15 F120 ; lift nozzle
M109 S190 ; wait for temperature to be reached
G90 ; use absolute coordinates
G92 E0
M82 ; use absolute distances for extrusion
G1 F1680.000 E-2.00000
G92 E0
G1 Z0.450 F12000.000
G1 X32.850 Y28.456
G1 F1680.000 E2.00000
G1 X33.270 Y27.986 F900.000 E2.02396
G1 X33.720 Y27.566 E2.04735
G1 X34.490 Y26.946 E2.08492
G1 X35.010 Y26.606 E2.10853
G1 X35.860 Y26.146 E2.14526
G1 X36.760 Y25.796 E2.18196
G1 X37.360 Y25.616 E2.20577
G1 X38.220 Y25.446 E2.23909
G1 X38.970 Y25.366 E2.26775
G1 X85.490 Y25.356 E4.03575
G1 X86.350 Y25.406 E4.06849
G1 X87.190 Y25.576 E4.10106
G1 X88.700 Y25.976 E4.16043
G1 X90.320 Y26.636 E4.22691
G1 X91.710 Y27.696 E4.29334
G1 X92.800 Y28.786 E4.35193
G1 X93.810 Y30.106 E4.41509
G1 X94.480 Y31.626 E4.47823
G1 X96.680 Y39.146 E4.77600
G1 X96.880 Y40.126 E4.81401
G1 X97.080 Y41.606 E4.87077
G1 X97.140 Y42.496 E4.90467
G1 X97.140 Y121.486 E7.90669
G1 X97.090 Y122.376 E7.94057
G1 X96.890 Y123.866 E7.99771
G1 X96.680 Y124.846 E8.03580
G1 X94.480 Y132.356 E8.33321
G1 X93.810 Y133.876 E8.39634
G1 X92.800 Y135.196 E8.45951
G1 X91.700 Y136.296 E8.51863
G1 X90.310 Y137.346 E8.58483
G1 X88.700 Y138.016 E8.65111
G1 X87.200 Y138.416 E8.71011
G1 X86.350 Y138.586 E8.74305
G1 X85.490 Y138.636 E8.77579
G1 X38.970 Y138.626 E10.54379
G1 X37.970 Y138.506 E10.58207
G1 X36.920 Y138.246 E10.62318
G1 X35.900 Y137.856 E10.66468
G1 X34.980 Y137.366 E10.70429
G1 X34.760 Y137.226 E10.71420
G1 X34.040 Y136.706 E10.74796
G1 X33.850 Y136.546 E10.75740
G1 X33.260 Y135.986 E10.78831
G1 X33.000 Y135.706 E10.80283
G1 X32.550 Y135.156 E10.82984
G1 X32.150 Y134.566 E10.85693
G1 X31.800 Y133.936 E10.88432
G1 X31.690 Y133.716 E10.89367
G1 X31.300 Y132.766 E10.93270
G1 X31.220 Y132.516 E10.94267
G1 X31.000 Y131.606 E10.97826
G1 X30.860 Y130.506 E11.02040
G1 X30.850 Y130.246 E11.03029
G1 X30.850 Y33.996 E14.68827
G1 X30.900 Y33.086 E14.72291
G1 X31.060 Y32.076 E14.76177
G1 X31.280 Y31.266 E14.79367
G1 X31.590 Y30.496 E14.82522
G1 X31.910 Y29.836 E14.85310
G1 X32.240 Y29.286 E14.87747
G1 X32.610 Y28.756 E14.90204
G1 X32.789 Y28.533 E14.91291
G1 F1680.000 E12.91291
G92 E0
G1 X82.487 Y41.296 F12000.000
G1 F1680.000 E2.00000
G1 X84.379 Y39.787 F900.000 E2.09200
G1 X86.739 Y40.325 E2.18400
G1 X87.790 Y42.506 E2.27600
G1 X86.739 Y44.687 E2.36801
G1 X84.379 Y45.226 E2.46001
G1 X82.487 Y43.717 E2.55201
G1 X82.487 Y41.394 E2.64028
G1 X83.141 Y41.611 F12000.000
G1 X84.541 Y40.495 F900.000 E2.70832
G1 X86.286 Y40.893 E2.77636
G1 X87.063 Y42.506 E2.84441
G1 X86.286 Y44.119 E2.91245
G1 X84.541 Y44.518 E2.98050
G1 X83.141 Y43.402 E3.04854
G1 X83.141 Y41.709 E3.11285
G1 X83.794 Y41.660 F12000.000
G1 F1680.000 E1.11285
G92 E0
G1 X74.672 Y41.006 F12000.000
G1 F1680.000 E2.00000
G1 X74.160 Y43.250 F900.000 E2.08748
G1 X72.725 Y45.050 E2.17496
G1 X70.651 Y46.049 E2.26243
G1 X68.349 Y46.049 E2.34991
G1 X66.275 Y45.050 E2.43739
G1 X64.840 Y43.250 E2.52487
G1 X64.328 Y41.006 E2.61235
G1 X64.840 Y38.762 E2.69982
G1 X66.275 Y36.963 E2.78730
G1 X68.349 Y35.964 E2.87478
G1 X70.651 Y35.964 E2.96226
G1 X72.725 Y36.963 E3.04974
G1 X74.160 Y38.762 E3.13721
G1 X74.650 Y40.911 E3.22096
G1 X74.001 Y41.006 F12000.000
G1 X73.555 Y42.959 F900.000 E3.29708
G1 X72.306 Y44.525 E3.37321
G1 X70.501 Y45.394 E3.44933
G1 X68.498 Y45.394 E3.52545
G1 X66.694 Y44.525 E3.60158
G1 X65.445 Y42.959 E3.67770
G1 X64.999 Y41.006 E3.75382
G1 X65.445 Y39.054 E3.82995
G1 X66.694 Y37.488 E3.90607
G1 X68.499 Y36.619 E3.98219
G1 X70.501 Y36.619 E4.05832
G1 X72.306 Y37.488 E4.13444
G1 X73.555 Y39.054 E4.21056
G1 X73.979 Y40.911 E4.28295
G1 X73.411 Y41.290 F12000.000
G1 F1680.000 E2.28295
G92 E0
G1 X56.790 Y42.506 F12000.000
G1 F1680.000 E2.00000
G1 X55.739 Y44.687 F900.000 E2.09200
G1 X53.379 Y45.226 E2.18400
G1 X51.487 Y43.717 E2.27600
G1 X51.487 Y41.296 E2.36800
G1 X53.379 Y39.787 E2.46000
G1 X55.739 Y40.325 E2.55201
G1 X56.747 Y42.418 E2.64028
G1 X56.063 Y42.506 F12000.000
G1 X55.286 Y44.119 F900.000 E2.70832
G1 X53.541 Y44.518 E2.77636
G1 X52.141 Y43.402 E2.84441
G1 X52.141 Y41.611 E2.91245
G1 X53.541 Y40.495 E2.98049
G1 X55.286 Y40.893 E3.04854
G1 X56.021 Y42.418 E3.11285
G1 X55.454 Y42.746 F12000.000
G1 F1680.000 E1.11285
G92 E0
G1 X53.379 Y70.787 F12000.000
G1 F1680.000 E2.00000
G1 X55.739 Y71.325 F900.000 E2.09200
G1 X56.790 Y73.506 E2.18400
G1 X55.739 Y75.687 E2.27601
G1 X53.379 Y76.226 E2.36801
G1 X51.487 Y74.717 E2.46001
G1 X51.487 Y72.296 E2.55201
G1 X53.302 Y70.848 E2.64028
G1 X53.541 Y71.495 F12000.000
G1 X55.286 Y71.893 F900.000 E2.70832
G1 X56.063 Y73.506 E2.77636
G1 X55.286 Y75.119 E2.84441
G1 X53.541 Y75.518 E2.91245
G1 X52.141 Y74.402 E2.98050
G1 X52.141 Y72.611 E3.04854
G1 X53.464 Y71.556 E3.11285
G1 X53.910 Y72.036 F12000.000
G1 F1680.000 E1.11285
G92 E0
G1 X53.379 Y87.774 F12000.000
G1 F1680.000 E2.00000
G1 X55.739 Y88.313 F900.000 E2.09200
G1 X56.790 Y90.494 E2.18400
G1 X55.739 Y92.675 E2.27600
G1 X53.379 Y93.213 E2.36801
G1 X51.487 Y91.704 E2.46001
G1 X51.487 Y89.283 E2.55201
G1 X53.302 Y87.835 E2.64028
G1 X53.541 Y88.482 F12000.000
G1 X55.286 Y88.881 F900.000 E2.70832
G1 X56.063 Y90.494 E2.77637
G1 X55.286 Y92.107 E2.84441
G1 X53.541 Y92.505 E2.91246
G1 X52.141 Y91.389 E2.98050
G1 X52.141 Y89.598 E3.04854
G1 X53.464 Y88.543 E3.11286
G1 X53.910 Y89.023 F12000.000
G1 F1680.000 E1.11286
G92 E0
G1 X82.487 Y120.283 F12000.000
G1 F1680.000 E2.00000
G1 X84.379 Y118.774 F900.000 E2.09200
G1 X86.739 Y119.313 E2.18400
G1 X87.790 Y121.494 E2.27600
G1 X86.739 Y123.675 E2.36801
G1 X84.379 Y124.213 E2.46001
G1 X82.487 Y122.704 E2.55201
G1 X82.487 Y120.381 E2.64028
G1 X83.141 Y120.598 F12000.000
G1 X84.541 Y119.482 F900.000 E2.70832
G1 X86.286 Y119.881 E2.77636
G1 X87.063 Y121.494 E2.84441
G1 X86.286 Y123.107 E2.91245
G1 X84.541 Y123.505 E2.98050
G1 X83.141 Y122.389 E3.04854
G1 X83.141 Y120.697 E3.11285
G1 X83.794 Y120.647 F12000.000
G1 F1680.000 E1.11285
G92 E0
G1 X56.790 Y121.494 F12000.000
G1 F1680.000 E2.00000
G1 X55.739 Y123.675 F900.000 E2.09200
G1 X53.379 Y124.213 E2.18400
G1 X51.487 Y122.704 E2.27601
G1 X51.487 Y120.283 E2.36801
G1 X53.379 Y118.774 E2.46001
G1 X55.739 Y119.313 E2.55201
G1 X56.747 Y121.405 E2.64028
G1 X56.063 Y121.494 F12000.000
G1 X55.286 Y123.107 F900.000 E2.70832
G1 X53.541 Y123.505 E2.77637
G1 X52.141 Y122.389 E2.84441
G1 X52.141 Y120.598 E2.91246
G1 X53.541 Y119.482 E2.98050
G1 X55.286 Y119.881 E3.04854
G1 X56.021 Y121.405 E3.11286
G1 X55.454 Y121.733 F12000.000
G1 F1680.000 E1.11286
G92 E0
G1 X64.328 Y122.994 F12000.000
G1 F1680.000 E2.00000
G1 X64.840 Y120.750 F900.000 E2.08748
G1 X66.275 Y118.950 E2.17495
G1 X68.349 Y117.951 E2.26243
G1 X70.651 Y117.951 E2.34991
G1 X72.725 Y118.950 E2.43739
G1 X73.968 Y120.509 E2.51318
G1 X74.160 Y120.750 E2.52487
G1 X74.672 Y122.994 E2.61235
G1 X74.160 Y125.238 E2.69982
G1 X73.968 Y125.478 E2.71151
G1 X72.725 Y127.037 E2.78730
G1 X70.651 Y128.036 E2.87478
G1 X68.349 Y128.036 E2.96226
G1 X66.275 Y127.037 E3.04974
G1 X64.840 Y125.238 E3.13721
G1 X64.350 Y123.089 E3.22096
G1 X64.999 Y122.994 F12000.000
G1 X65.445 Y121.041 F900.000 E3.29708
G1 X66.694 Y119.475 E3.37321
G1 X68.499 Y118.606 E3.44933
G1 X70.501 Y118.606 E3.52545
G1 X72.306 Y119.475 E3.60158
G1 X73.456 Y120.917 E3.67169
G1 X73.555 Y121.041 E3.67770
G1 X74.001 Y122.994 E3.75382
G1 X73.555 Y124.946 E3.82995
G1 X73.456 Y125.070 E3.83595
G1 X72.306 Y126.512 E3.90607
G1 X70.501 Y127.381 E3.98219
G1 X68.499 Y127.381 E4.05832
G1 X66.694 Y126.512 E4.13444
G1 X65.445 Y124.946 E4.21056
G1 X65.021 Y123.089 E4.28295
G1 X65.589 Y122.710 F12000.000
G1 F1680.000 E2.28295
G92 E0
G1 X87.218 Y129.985 F12000.000
G1 F1680.000 E2.00000
G1 X86.492 Y130.711 F900.000 E2.03902
G1 X85.371 Y131.012 E2.08313
G1 X39.508 Y131.011 E3.82616
G1 X39.323 Y130.996 E3.83319
G1 X39.137 Y130.944 E3.84055
G1 X38.963 Y130.858 E3.84791
G1 X38.809 Y130.741 E3.85526
G1 X38.611 Y130.488 E3.86748
G1 X38.501 Y130.186 E3.87970
G1 X38.482 Y129.978 E3.88765
G1 X38.483 Y128.949 E3.92675
G1 X38.528 Y128.691 E3.93669
G1 X38.635 Y128.457 E3.94649
G1 X38.798 Y128.257 E3.95628
G1 X39.005 Y128.104 E3.96608
G1 X39.245 Y128.008 E3.97587
G1 X39.435 Y127.978 E3.98322
G1 X42.044 Y127.975 E4.08236
G1 X42.183 Y128.311 E4.09615
G1 X43.500 Y128.856 E4.15033
G1 X44.817 Y128.311 E4.20451
G1 X45.363 Y126.994 E4.25869
G1 X44.817 Y125.676 E4.31287
G1 X44.482 Y125.538 E4.32667
G1 X44.482 Y91.123 E5.63460
G1 X44.782 Y90.002 E5.67871
G1 X45.508 Y89.276 E5.71773
G1 X46.629 Y88.975 E5.76184
G1 X49.695 Y88.975 E5.87836
G1 X50.502 Y87.648 E5.93740
G1 X51.400 Y86.810 E5.98407
G1 X52.490 Y86.245 E6.03074
G1 X53.692 Y85.995 E6.07741
G1 X54.917 Y86.079 E6.12408
G1 X56.074 Y86.490 E6.17075
G1 X57.078 Y87.198 E6.21741
G1 X57.853 Y88.151 E6.26408
G1 X58.342 Y89.277 E6.31075
G1 X58.509 Y90.494 E6.35742
G1 X58.342 Y91.710 E6.40409
G1 X57.853 Y92.836 E6.45075
G1 X57.078 Y93.789 E6.49742
G1 X56.309 Y94.331 E6.53317
G1 X56.518 Y96.053 E6.59908
G1 X56.518 Y109.975 E7.12820
G1 X56.549 Y109.975 E7.12939
G1 X57.035 Y112.183 E7.21528
G1 X57.942 Y114.143 E7.29736
G1 X59.249 Y115.862 E7.37944
G1 X60.895 Y117.260 E7.46152
G1 X62.803 Y118.272 E7.54360
G1 X64.804 Y118.827 E7.62251
G1 X65.862 Y117.839 E7.67752
G1 X67.387 Y117.049 E7.74282
G1 X69.069 Y116.699 E7.80811
G1 X70.784 Y116.817 E7.87341
G1 X72.403 Y117.392 E7.93871
G1 X73.806 Y118.383 E8.00401
G1 X74.288 Y118.975 E8.03305
G1 X81.152 Y118.975 E8.29389
G1 X82.400 Y117.810 E8.35879
G1 X83.490 Y117.245 E8.40545
G1 X84.692 Y116.995 E8.45212
G1 X85.917 Y117.079 E8.49879
G1 X87.074 Y117.490 E8.54546
G1 X88.078 Y118.198 E8.59213
G1 X88.853 Y119.151 E8.63880
G1 X89.342 Y120.277 E8.68546
G1 X89.509 Y121.494 E8.73213
G1 X89.342 Y122.710 E8.77880
G1 X88.853 Y123.836 E8.82547
G1 X88.078 Y124.789 E8.87214
G1 X87.518 Y125.184 E8.89816
G1 X87.518 Y128.864 E9.03804
G1 X87.243 Y129.891 E9.07842
G1 X87.805 Y130.324 F12000.000
G1 X86.831 Y131.298 F720.000 E9.13077
G1 X85.457 Y131.666 E9.18482
G1 X39.503 Y131.666 E10.93132
G1 X39.210 Y131.641 E10.94249
G1 X38.903 Y131.556 E10.95458
G1 X38.618 Y131.415 E10.96666
G1 X38.365 Y131.222 E10.97875
G1 X38.219 Y131.069 E10.98681
G1 X38.093 Y130.898 E10.99487
G1 X37.947 Y130.615 E11.00696
G1 X37.881 Y130.414 E11.01502
G1 X37.831 Y130.100 E11.02711
G1 X37.829 Y128.915 E11.07212
G1 X37.875 Y128.599 E11.08425
G1 X37.938 Y128.397 E11.09232
G1 X38.026 Y128.204 E11.10038
G1 X38.138 Y128.023 E11.10844
G1 X38.271 Y127.859 E11.11651
G1 X38.425 Y127.712 E11.12456
G1 X38.596 Y127.587 E11.13263
G1 X38.781 Y127.483 E11.14069
G1 X38.978 Y127.405 E11.14876
G1 X39.183 Y127.351 E11.15682
G1 X39.394 Y127.324 E11.16489
G1 X42.481 Y127.321 E11.28222
G1 X42.684 Y127.810 E11.30234
G1 X43.500 Y128.148 E11.33591
G1 X44.316 Y127.810 E11.36948
G1 X44.654 Y126.994 E11.40306
G1 X44.316 Y126.177 E11.43663
G1 X43.827 Y125.975 E11.45674
G1 X43.827 Y91.037 E12.78457
G1 X44.195 Y89.663 E12.83862
G1 X45.169 Y88.689 E12.89097
G1 X46.543 Y88.321 E12.94502
G1 X49.327 Y88.321 E13.05083
G1 X49.990 Y87.231 E13.09930
G1 X51.019 Y86.270 E13.15281
G1 X52.269 Y85.622 E13.20632
G1 X53.647 Y85.336 E13.25982
G1 X55.052 Y85.432 E13.31333
G1 X56.378 Y85.904 E13.36684
G1 X57.529 Y86.715 E13.42034
G1 X58.417 Y87.808 E13.47385
G1 X58.978 Y89.099 E13.52735
G1 X59.170 Y90.494 E13.58086
G1 X58.978 Y91.888 E13.63437
G1 X58.417 Y93.180 E13.68787
G1 X57.529 Y94.272 E13.74138
G1 X57.006 Y94.641 E13.76568
G1 X57.173 Y96.013 E13.81824
G1 X57.173 Y109.321 E14.32399
G1 X57.226 Y109.321 E14.32600
G1 X57.226 Y110.002 E14.35190
G1 X57.659 Y111.972 E14.42856
G1 X58.506 Y113.803 E14.50523
G1 X59.727 Y115.409 E14.58190
G1 X61.265 Y116.715 E14.65857
G1 X63.047 Y117.660 E14.73524
G1 X64.625 Y118.098 E14.79750
G1 X65.481 Y117.300 E14.84197
G1 X67.166 Y116.426 E14.91411
G1 X69.024 Y116.040 E14.98625
G1 X70.918 Y116.170 E15.05838
G1 X72.707 Y116.805 E15.13052
G1 X74.257 Y117.900 E15.20266
G1 X74.600 Y118.321 E15.22328
G1 X80.894 Y118.321 E15.46249
G1 X82.019 Y117.270 E15.52099
G1 X83.269 Y116.622 E15.57450
G1 X84.647 Y116.336 E15.62801
G1 X86.052 Y116.432 E15.68151
G1 X87.378 Y116.903 E15.73502
G1 X88.529 Y117.715 E15.78852
G1 X89.417 Y118.808 E15.84203
G1 X89.978 Y120.099 E15.89553
G1 X90.170 Y121.494 E15.94904
G1 X89.978 Y122.888 E16.00255
G1 X89.417 Y124.180 E16.05605
G1 X88.529 Y125.272 E16.10956
G1 X88.173 Y125.523 E16.12611
G1 X88.173 Y128.951 E16.25638
G1 X87.830 Y130.229 E16.30670
G1 X87.153 Y130.267 F12000.000
G1 F1680.000 E14.30670
G92 E0
G1 X56.074 Y77.510 F12000.000
G1 F1680.000 E2.00000
G1 X54.917 Y77.921 F900.000 E2.04667
G1 X53.692 Y78.005 E2.09334
G1 X52.490 Y77.755 E2.14001
G1 X51.400 Y77.190 E2.18667
G1 X50.502 Y76.352 E2.23334
G1 X49.695 Y75.025 E2.29238
G1 X46.629 Y75.025 E2.40890
G1 X45.508 Y74.724 E2.45301
G1 X44.782 Y73.998 E2.49204
G1 X44.482 Y72.877 E2.53614
G1 X44.482 Y38.462 E3.84408
G1 X44.817 Y38.324 E3.85787
G1 X45.363 Y37.006 E3.91205
G1 X44.817 Y35.689 E3.96623
G1 X43.500 Y35.144 E4.02041
G1 X42.183 Y35.689 E4.07459
G1 X42.044 Y36.025 E4.08839
G1 X39.435 Y36.022 E4.18753
G1 X39.245 Y35.992 E4.19487
G1 X39.005 Y35.896 E4.20467
G1 X38.798 Y35.743 E4.21446
G1 X38.671 Y35.597 E4.22183
G1 X38.549 Y35.370 E4.23161
G1 X38.498 Y35.183 E4.23897
G1 X38.482 Y34.995 E4.24615
G1 X38.484 Y33.942 E4.28617
G1 X38.533 Y33.689 E4.29596
G1 X38.644 Y33.456 E4.30575
G1 X38.809 Y33.259 E4.31555
G1 X39.019 Y33.109 E4.32534
G1 X39.260 Y33.017 E4.33513
G1 X39.508 Y32.989 E4.34461
G1 X85.371 Y32.988 E6.08764
G1 X86.492 Y33.289 E6.13174
G1 X87.218 Y34.015 E6.17077
G1 X87.518 Y35.136 E6.21488
G1 X87.518 Y38.816 E6.35476
G1 X88.078 Y39.211 E6.38078
G1 X88.853 Y40.164 E6.42745
G1 X89.342 Y41.290 E6.47411
G1 X89.509 Y42.506 E6.52078
G1 X89.342 Y43.723 E6.56745
G1 X88.853 Y44.849 E6.61412
G1 X88.078 Y45.802 E6.66079
G1 X87.074 Y46.510 E6.70746
G1 X85.917 Y46.921 E6.75413
G1 X84.692 Y47.005 E6.80079
G1 X83.490 Y46.755 E6.84746
G1 X82.400 Y46.190 E6.89413
G1 X81.152 Y45.025 E6.95903
G1 X74.288 Y45.025 E7.21987
G1 X73.806 Y45.617 E7.24890
G1 X72.403 Y46.608 E7.31420
G1 X70.784 Y47.183 E7.37950
G1 X69.069 Y47.301 E7.44480
G1 X67.387 Y46.951 E7.51010
G1 X65.862 Y46.161 E7.57540
G1 X64.804 Y45.173 E7.63041
G1 X62.803 Y45.728 E7.70931
G1 X60.895 Y46.740 E7.79140
G1 X59.249 Y48.138 E7.87348
G1 X57.942 Y49.857 E7.95555
G1 X57.035 Y51.817 E8.03763
G1 X56.549 Y54.025 E8.12353
G1 X56.518 Y54.025 E8.12472
G1 X56.518 Y67.947 E8.65384
G1 X56.309 Y69.669 E8.71975
G1 X57.078 Y70.211 E8.75549
G1 X57.853 Y71.164 E8.80216
G1 X58.342 Y72.290 E8.84883
G1 X58.509 Y73.506 E8.89550
G1 X58.342 Y74.723 E8.94217
G1 X57.853 Y75.849 E8.98883
G1 X57.078 Y76.802 E9.03550
G1 X56.155 Y77.453 E9.07844
G1 X56.378 Y78.096 F12000.000
G1 X55.052 Y78.568 F720.000 E9.13195
G1 X53.647 Y78.664 E9.18545
G1 X52.269 Y78.378 E9.23896
G1 X51.019 Y77.730 E9.29246
G1 X49.990 Y76.769 E9.34597
G1 X49.327 Y75.679 E9.39445
G1 X46.543 Y75.679 E9.50025
G1 X45.169 Y75.311 E9.55430
G1 X44.195 Y74.337 E9.60666
G1 X43.827 Y72.963 E9.66070
G1 X43.827 Y38.025 E10.98853
G1 X44.316 Y37.823 E11.00865
G1 X44.654 Y37.006 E11.04222
G1 X44.316 Y36.190 E11.07579
G1 X43.500 Y35.852 E11.10937
G1 X42.684 Y36.190 E11.14294
G1 X42.481 Y36.679 E11.16305
G1 X39.394 Y36.676 E11.28039
G1 X39.080 Y36.625 E11.29247
G1 X38.878 Y36.559 E11.30054
G1 X38.687 Y36.468 E11.30860
G1 X38.508 Y36.353 E11.31667
G1 X38.346 Y36.217 E11.32473
G1 X38.138 Y35.977 E11.33681
G1 X38.026 Y35.796 E11.34488
G1 X37.938 Y35.603 E11.35294
G1 X37.853 Y35.297 E11.36502
G1 X37.827 Y35.003 E11.37625
G1 X37.841 Y33.795 E11.42216
G1 X37.911 Y33.484 E11.43425
G1 X37.990 Y33.288 E11.44231
G1 X38.093 Y33.102 E11.45037
G1 X38.219 Y32.931 E11.45844
G1 X38.365 Y32.778 E11.46650
