; generated by Slic3r 1.2.9 on 2016-04-24 at 22:49:17

; external perimeters extrusion width = 0.50mm
; perimeters extrusion width = 0.50mm
; infill extrusion width = 0.50mm
; solid infill extrusion width = 0.50mm
; top infill extrusion width = 0.50mm
; support material extrusion width = 0.50mm

M104 S190 ; set temperature
G28 ; home all axes
G1 Z15 F120 ; lift nozzle
M109 S190 ; wait for temperature to be reached
G21 ; set units to millimeters
G90 ; use absolute coordinates
M82 ; use absolute distances for extrusion
G92 E0
M106 S102
G1 E-2.00000 F1680.00000
G92 E0
G1 Z0.400 F12000.000
G1 X49.881 Y60.810 F12000.000
G1 E2.00000 F1680.00000
G1 X51.599 Y59.400 E2.06657 F1200.000
G1 X54.471 Y58.588 E2.15593
G1 X94.173 Y56.962 E3.34577
G1 X131.334 Y56.957 E4.45851
G1 X133.556 Y57.354 E4.52609 F1200.000
G1 X135.503 Y58.495 E4.59368
G1 X136.934 Y60.240 E4.66126
G1 X137.642 Y62.193 E4.72345
G1 X137.881 Y63.469 E4.76232
G1 X137.990 Y64.651 E4.79786
G1 X137.990 Y115.483 E6.31998
G1 X137.310 Y118.358 E6.40846
G1 X136.738 Y119.501 E6.44673
G1 X135.387 Y121.309 E6.51432
G1 X133.494 Y122.539 E6.58190
G1 X131.000 Y123.043 E6.65810
G1 X93.837 Y123.038 E7.77090
G1 X54.469 Y121.412 E8.95076
G1 X52.265 Y120.924 E9.01834
G1 X50.367 Y119.703 E9.08593
G1 X49.009 Y117.901 E9.15351
G1 X48.316 Y115.000 E9.24281
G1 X48.316 Y65.000 E10.74001
G1 X48.713 Y62.778 E10.80760
G1 X49.834 Y60.867 E10.87395
G1 E8.87395 F1680.00000
G92 E0
G1 X54.984 Y101.461 F12000.000
G1 E2.00000 F1680.00000
G1 X54.984 Y65.250 E3.01941 F1200.000
G1 X89.016 Y65.250 E3.97749
G1 X89.016 Y114.750 E5.37101
G1 X54.984 Y114.750 E6.32909 F1200.000
G1 X54.984 Y101.536 E6.70109
G1 X55.214 Y114.313 F12000.000
G1 X55.421 Y114.520 E6.70932 F2400.000
G1 X55.976 Y114.520 E6.72495
G1 X55.214 Y113.758 E6.75529
G1 X55.214 Y113.202 E6.77093
G1 X56.531 Y114.520 E6.82338
G1 X57.087 Y114.520 E6.83902
G1 X55.214 Y112.647 E6.91358
G1 X55.214 Y112.091 E6.92922
G1 X57.642 Y114.520 E7.02589
G1 X58.198 Y114.520 E7.04153
G1 X55.214 Y111.536 E7.16032
G1 X55.214 Y110.981 E7.17595
G1 X58.753 Y114.520 E7.31685
G1 X59.308 Y114.520 E7.33249
G1 X55.214 Y110.425 E7.49550
G1 X55.214 Y109.870 E7.51114
G1 X59.864 Y114.520 E7.69627
G1 X60.419 Y114.520 E7.71190
G1 X55.214 Y109.314 E7.91914
G1 X55.214 Y108.759 E7.93478
G1 X60.975 Y114.520 E8.16413
G1 X61.530 Y114.520 E8.17977
G1 X55.214 Y108.204 E8.43124
G1 X55.214 Y107.648 E8.44687
G1 X62.085 Y114.520 E8.72045
G1 X62.641 Y114.520 E8.73609
G1 X55.214 Y107.093 E9.03178
G1 X55.214 Y106.537 E9.04741
G1 X63.196 Y114.520 E9.36522
G1 X63.752 Y114.520 E9.38085
G1 X55.214 Y105.982 E9.72077
G1 X55.214 Y105.427 E9.73641
G1 X64.307 Y114.520 E10.09843
G1 X64.862 Y114.520 E10.11407
G1 X55.214 Y104.871 E10.49821
G1 X55.214 Y104.316 E10.51385
G1 X65.418 Y114.520 E10.92010
G1 X65.973 Y114.520 E10.93574
G1 X55.214 Y103.761 E11.36411
G1 X55.214 Y103.205 E11.37974
G1 X66.528 Y114.520 E11.83022
G1 X67.084 Y114.520 E11.84586
G1 X55.214 Y102.650 E12.31845
G1 X55.214 Y102.094 E12.33409
G1 X67.639 Y114.520 E12.82879
G1 X68.195 Y114.520 E12.84443
G1 X55.214 Y101.539 E13.36125
G1 X55.214 Y100.984 E13.37689
G1 X68.750 Y114.520 E13.91582
G1 X69.305 Y114.520 E13.93145
G1 X55.214 Y100.428 E14.49250
G1 X55.214 Y99.873 E14.50813
G1 X69.861 Y114.520 E15.09129
G1 X70.416 Y114.520 E15.10693
G1 X55.214 Y99.317 E15.71220
G1 X55.214 Y98.762 E15.72783
G1 X70.972 Y114.520 E16.35521
G1 X71.527 Y114.520 E16.37085
G1 X55.214 Y98.207 E17.02035
G1 X55.214 Y97.651 E17.03598
G1 X72.082 Y114.520 E17.70759
G1 X72.638 Y114.520 E17.72323
G1 X55.214 Y97.096 E18.41695
G1 X55.214 Y96.540 E18.43258
G1 X73.193 Y114.520 E19.14842
G1 X73.749 Y114.520 E19.16405
G1 X55.214 Y95.985 E19.90200
G1 X55.214 Y95.430 E19.91763
G1 X74.304 Y114.520 E20.67769
G1 X74.859 Y114.520 E20.69333
G1 X55.214 Y94.874 E21.47550
G1 X55.214 Y94.319 E21.49114
G1 X75.415 Y114.520 E22.29542
G1 X75.970 Y114.520 E22.31106
G1 X55.214 Y93.764 E23.13745
G1 X55.214 Y93.208 E23.15309
G1 X76.526 Y114.520 E24.00160
G1 X77.081 Y114.520 E24.01724
G1 X55.214 Y92.653 E24.88786
G1 X55.214 Y92.097 E24.90350
G1 X77.636 Y114.520 E25.79623
G1 X78.192 Y114.520 E25.81187
G1 X55.214 Y91.542 E26.72672
G1 X55.214 Y90.987 E26.74235
G1 X78.747 Y114.520 E27.67931
G1 X79.302 Y114.520 E27.69495
G1 X55.214 Y90.431 E28.65402
G1 X55.214 Y89.876 E28.66966
G1 X79.858 Y114.520 E29.65084
G1 X80.413 Y114.520 E29.66648
G1 X55.214 Y89.320 E30.66978
G1 X55.214 Y88.765 E30.68542
G1 X80.969 Y114.520 E31.71083
G1 X81.524 Y114.520 E31.72646
G1 X55.214 Y88.210 E32.77399
G1 X55.214 Y87.654 E32.78963
G1 X82.079 Y114.520 E33.85926
G1 X82.635 Y114.520 E33.87490
G1 X55.214 Y87.099 E34.96665
G1 X55.214 Y86.543 E34.98228
G1 X83.190 Y114.520 E36.09615
G1 X83.746 Y114.520 E36.11178
G1 X55.214 Y85.988 E37.24776
G1 X55.214 Y85.433 E37.26340
G1 X84.301 Y114.520 E38.42148
G1 X84.856 Y114.520 E38.43712
G1 X55.214 Y84.877 E39.61732
G1 X55.214 Y84.322 E39.63296
G1 X85.412 Y114.520 E40.83527
G1 X85.967 Y114.520 E40.85091
G1 X55.214 Y83.767 E42.07533
G1 X55.214 Y83.211 E42.09097
G1 X86.523 Y114.520 E43.33751
G1 X87.078 Y114.520 E43.35315
G1 X55.214 Y82.656 E44.62180
G1 X55.214 Y82.100 E44.63743
G1 X87.633 Y114.520 E45.92820
G1 X88.189 Y114.520 E45.94384
G1 X55.214 Y81.545 E47.25671
G1 X55.214 Y80.990 E47.27235
G1 X88.744 Y114.520 E48.60734
G1 X88.786 Y114.006 E48.62185
G1 X55.214 Y80.434 E49.95850
G1 X55.214 Y79.879 E49.97414
G1 X88.786 Y113.451 E51.31079
G1 X88.786 Y112.895 E51.32643
G1 X55.214 Y79.323 E52.66308
G1 X55.214 Y78.768 E52.67872
G1 X88.786 Y112.340 E54.01537
G1 X88.786 Y111.784 E54.03101
G1 X55.214 Y78.213 E55.36767
G1 X55.214 Y77.657 E55.38330
G1 X88.786 Y111.229 E56.71996
G1 X88.786 Y110.674 E56.73559
G1 X55.214 Y77.102 E58.07225
G1 X55.214 Y76.546 E58.08788
G1 X88.786 Y110.118 E59.42454
G1 X88.786 Y109.563 E59.44017
G1 X55.214 Y75.991 E60.77683
G1 X55.214 Y75.436 E60.79246
G1 X88.786 Y109.007 E62.12912
G1 X88.786 Y108.452 E62.14476
G1 X55.214 Y74.880 E63.48141
G1 X55.214 Y74.325 E63.49705
G1 X88.786 Y107.897 E64.83370
G1 X88.786 Y107.341 E64.84934
G1 X55.214 Y73.770 E66.18599
G1 X55.214 Y73.214 E66.20163
G1 X88.786 Y106.786 E67.53828
G1 X88.786 Y106.230 E67.55392
G1 X55.214 Y72.659 E68.89057
G1 X55.214 Y72.103 E68.90621
G1 X88.786 Y105.675 E70.24286
G1 X88.786 Y105.120 E70.25850
G1 X55.214 Y71.548 E71.59516
G1 X55.214 Y70.993 E71.61079
G1 X88.786 Y104.564 E72.94745
G1 X88.786 Y104.009 E72.96308
G1 X55.214 Y70.437 E74.29974
G1 X55.214 Y69.882 E74.31537
G1 X88.786 Y103.454 E75.65203
G1 X88.786 Y102.898 E75.66766
G1 X55.214 Y69.326 E77.00432
G1 X55.214 Y68.771 E77.01996
G1 X88.786 Y102.343 E78.35661
G1 X88.786 Y101.787 E78.37225
G1 X55.214 Y68.216 E79.70890
G1 X55.214 Y67.660 E79.72454
G1 X88.786 Y101.232 E81.06119
G1 X88.786 Y100.677 E81.07683
G1 X55.214 Y67.105 E82.41348
G1 X55.214 Y66.549 E82.42912
G1 X88.786 Y100.121 E83.76577
G1 X88.786 Y99.566 E83.78141
G1 X55.214 Y65.994 E85.11806
G1 X55.256 Y65.480 E85.13257
G1 X88.786 Y99.010 E86.46756
G1 X88.786 Y98.455 E86.48320
G1 X55.811 Y65.480 E87.79608
G1 X56.367 Y65.480 E87.81171
G1 X88.786 Y97.900 E89.10248
G1 X88.786 Y97.344 E89.11812
G1 X56.922 Y65.480 E90.38677
G1 X57.477 Y65.480 E90.40240
G1 X88.786 Y96.789 E91.64895
G1 X88.786 Y96.233 E91.66458
G1 X58.033 Y65.480 E92.88901
G1 X58.588 Y65.480 E92.90464
G1 X88.786 Y95.678 E94.10696
G1 X88.786 Y95.123 E94.12260
G1 X59.144 Y65.480 E95.30280
G1 X59.699 Y65.480 E95.31843
G1 X88.786 Y94.567 E96.47652
G1 X88.786 Y94.012 E96.49216
G1 X60.254 Y65.480 E97.62814
G1 X60.810 Y65.480 E97.64377
G1 X88.786 Y93.457 E98.75764
G1 X88.786 Y92.901 E98.77327
G1 X61.365 Y65.480 E99.86502
G1 X61.921 Y65.480 E99.88066
G1 X88.786 Y92.346 E100.95030
G1 X88.786 Y91.790 E100.96593
G1 X62.476 Y65.480 E102.01346
G1 X63.031 Y65.480 E102.02909
G1 X88.786 Y91.235 E103.05451
G1 X88.786 Y90.680 E103.07014
G1 X63.587 Y65.480 E104.07344
G1 X64.142 Y65.480 E104.08908
G1 X88.786 Y90.124 E105.07027
G1 X88.786 Y89.569 E105.08590
G1 X64.698 Y65.480 E106.04498
G1 X65.253 Y65.480 E106.06061
G1 X88.786 Y89.013 E106.99758
G1 X88.786 Y88.458 E107.01321
G1 X65.808 Y65.480 E107.92806
G1 X66.364 Y65.480 E107.94370
G1 X88.786 Y87.903 E108.83643
G1 X88.786 Y87.347 E108.85207
G1 X66.919 Y65.480 E109.72269
G1 X67.474 Y65.480 E109.73833
G1 X88.786 Y86.792 E110.58684
G1 X88.786 Y86.236 E110.60248
G1 X68.030 Y65.480 E111.42887
G1 X68.585 Y65.480 E111.44451
G1 X88.786 Y85.681 E112.24879
G1 X88.786 Y85.126 E112.26443
G1 X69.141 Y65.480 E113.04660
G1 X69.696 Y65.480 E113.06224
G1 X88.786 Y84.570 E113.82230
G1 X88.786 Y84.015 E113.83794
G1 X70.251 Y65.480 E114.57588
G1 X70.807 Y65.480 E114.59152
G1 X88.786 Y83.460 E115.30735
G1 X88.786 Y82.904 E115.32299
G1 X71.362 Y65.480 E116.01671
G1 X71.918 Y65.480 E116.03235
G1 X88.786 Y82.349 E116.70395
G1 X88.786 Y81.793 E116.71959
G1 X72.473 Y65.480 E117.36909
G1 X73.028 Y65.480 E117.38472
G1 X88.786 Y81.238 E118.01211
G1 X88.786 Y80.683 E118.02774
G1 X73.584 Y65.480 E118.63301
G1 X74.139 Y65.480 E118.64865
G1 X88.786 Y80.127 E119.23181
G1 X88.786 Y79.572 E119.24744
G1 X74.695 Y65.480 E119.80849
G1 X75.250 Y65.480 E119.82412
G1 X88.786 Y79.016 E120.36306
G1 X88.786 Y78.461 E120.37869
G1 X75.805 Y65.480 E120.89551
G1 X76.361 Y65.480 E120.91115
G1 X88.786 Y77.906 E121.40585
G1 X88.786 Y77.350 E121.42149
G1 X76.916 Y65.480 E121.89408
G1 X77.471 Y65.480 E121.90972
G1 X88.786 Y76.795 E122.36020
G1 X88.786 Y76.239 E122.37584
G1 X78.027 Y65.480 E122.80421
G1 X78.582 Y65.480 E122.81984
G1 X88.786 Y75.684 E123.22610
G1 X88.786 Y75.129 E123.24173
G1 X79.138 Y65.480 E123.62588
G1 X79.693 Y65.480 E123.64151
G1 X88.786 Y74.573 E124.00354
G1 X88.786 Y74.018 E124.01918
G1 X80.248 Y65.480 E124.35910
G1 X80.804 Y65.480 E124.37473
G1 X88.786 Y73.463 E124.69254
G1 X88.786 Y72.907 E124.70817
G1 X81.359 Y65.480 E125.00386
G1 X81.915 Y65.480 E125.01950
G1 X88.786 Y72.352 E125.29308
G1 X88.786 Y71.796 E125.30872
G1 X82.470 Y65.480 E125.56018
G1 X83.025 Y65.480 E125.57582
G1 X88.786 Y71.241 E125.80517
G1 X88.786 Y70.686 E125.82081
G1 X83.581 Y65.480 E126.02805
G1 X84.136 Y65.480 E126.04369
G1 X88.786 Y70.130 E126.22881
G1 X88.786 Y69.575 E126.24445
G1 X84.692 Y65.480 E126.40746
G1 X85.247 Y65.480 E126.42310
G1 X88.786 Y69.019 E126.56400
G1 X88.786 Y68.464 E126.57964
G1 X85.802 Y65.480 E126.69843
G1 X86.358 Y65.480 E126.71407
G1 X88.786 Y67.909 E126.81074
G1 X88.786 Y67.353 E126.82638
G1 X86.913 Y65.480 E126.90094
G1 X87.468 Y65.480 E126.91658
G1 X88.786 Y66.798 E126.96903
G1 X88.786 Y66.242 E126.98467
G1 X88.024 Y65.480 E127.01501
G1 X88.579 Y65.480 E127.03064
G1 X88.786 Y65.687 E127.03887
G1 E125.03887 F1680.00000
G92 E0
G1 Z0.400 F12000.000
G1 X93.809 Y64.625 F12000.000
G1 E2.00000 F1680.00000
G1 X94.436 Y63.375 E2.03938 F1200.000
G1 X94.427 Y65.144 F12000.000
G1 X95.314 Y63.375 E2.09511 F1200.000
G1 X96.193 Y63.375 E2.11985
G1 X94.427 Y66.897 E2.23077
G1 X94.427 Y68.650 E2.28012
G1 X97.071 Y63.375 E2.44624
G1 X97.950 Y63.375 E2.47097
G1 X94.427 Y70.403 E2.69229
G1 X94.427 Y72.156 E2.74164
G1 X98.828 Y63.375 E3.01816
G1 X99.707 Y63.375 E3.04289
G1 X94.427 Y73.909 E3.37460
G1 X94.427 Y75.661 E3.42395
G1 X100.585 Y63.375 E3.81086
G1 X101.464 Y63.375 E3.83559
G1 X94.427 Y77.414 E4.27770
G1 X94.427 Y79.167 E4.32704
G1 X102.342 Y63.375 E4.82435
G1 X103.221 Y63.375 E4.84908
G1 X94.427 Y80.920 E5.40158
G1 X94.427 Y82.673 E5.45092
G1 X104.099 Y63.375 E6.05862
G1 X104.978 Y63.375 E6.08335
G1 X94.427 Y84.426 E6.74625
G1 X94.427 Y86.178 E6.79559
G1 X105.857 Y63.375 E7.51368
G1 X106.735 Y63.375 E7.53841
G1 X94.427 Y87.931 E8.31170
G1 X94.427 Y89.684 E8.36104
G1 X107.614 Y63.375 E9.18953
G1 X108.492 Y63.375 E9.21426
G1 X94.427 Y91.437 E10.09794
G1 X94.427 Y93.190 E10.14728
G1 X109.371 Y63.375 E11.08616
G1 X110.249 Y63.375 E11.11089
G1 X94.427 Y94.943 E12.10497
G1 X94.427 Y96.695 E12.15431
G1 X111.128 Y63.375 E13.20358
G1 X112.006 Y63.375 E13.22831
G1 X94.427 Y98.448 E14.33278
G1 X94.427 Y100.201 E14.38212
G1 X105.273 Y78.562 E15.06354
G1 X105.273 Y80.315 E15.11288
G1 X94.427 Y101.954 E15.79429
G1 X94.427 Y103.707 E15.84364
G1 X105.273 Y82.068 E16.52505
G1 X105.273 Y83.821 E16.57440
G1 X94.427 Y105.460 E17.25581
G1 X94.427 Y107.212 E17.30516
G1 X105.273 Y85.573 E17.98657
G1 X105.649 Y86.575 F12000.000
G1 X94.427 Y108.965 E18.69165 F1200.000
G1 X94.427 Y110.718 E18.74100
G1 X106.528 Y86.575 E19.50127
G1 X107.127 Y85.379 F12000.000
G1 X118.156 Y63.375 E20.19419 F1200.000
G1 X119.034 Y63.375 E20.21892
G1 X94.427 Y112.471 E21.76496
G1 X94.427 Y114.224 F12000.000
G1 X119.913 Y63.375 E23.36619 F1200.000
G1 X120.791 Y63.375 E23.39093
G1 X94.102 Y116.625 E25.06778
G1 X93.427 Y116.219 F12000.000
G1 X93.850 Y115.375 E25.09437 F1200.000
G1 X98.495 Y116.625 F12000.000
G1 X106.038 Y101.575 E25.56831 F1200.000
G1 X105.273 Y101.349 F12000.000
G1 X97.616 Y116.625 E26.04937 F1200.000
G1 X96.738 Y116.625 E26.07410
G1 X105.273 Y99.596 E26.61035
G1 X105.273 Y97.843 E26.65970
G1 X95.859 Y116.625 E27.25115
G1 X94.981 Y116.625 E27.27588
G1 X105.273 Y96.090 E27.92252
G1 X105.907 Y94.825 F12000.000
G1 X121.670 Y63.375 E28.91290 F1200.000
G1 X122.549 Y63.375 E28.93763
G1 X106.785 Y94.825 E29.92801
G1 X107.127 Y95.896 F12000.000
G1 X123.427 Y63.375 E30.95211 F1200.000
G1 X124.306 Y63.375 E30.97684
G1 X107.127 Y97.649 E32.05613
G1 X107.127 Y99.402 E32.10548
G1 X125.184 Y63.375 E33.23997
G1 X126.063 Y63.375 E33.26470
G1 X107.127 Y101.155 E34.45439
G1 X106.917 Y101.575 F12000.000
G1 X99.373 Y116.625 E34.92833 F1200.000
G1 X100.252 Y116.625 E34.95306
G1 X126.941 Y63.375 E36.62992
G1 X127.820 Y63.375 E36.65465
G1 X101.130 Y116.625 E38.33151
G1 X102.009 Y116.625 E38.35624
G1 X128.698 Y63.375 E40.03310
G1 X129.577 Y63.375 E40.05783
G1 X102.887 Y116.625 E41.73469
G1 X103.766 Y116.625 E41.75942
G1 X130.455 Y63.375 E43.43628
G1 X131.334 Y63.375 E43.46101
G1 X104.644 Y116.625 E45.13787
G1 X105.523 Y116.625 E45.16261
G1 X131.573 Y64.651 E46.79929
G1 X131.573 Y66.403 E46.84863
G1 X106.401 Y116.625 E48.43011
G1 X107.280 Y116.625 E48.45485
G1 X131.573 Y68.156 E49.98113
G1 X131.573 Y69.909 E50.03048
G1 X108.158 Y116.625 E51.50157
G1 X109.037 Y116.625 E51.52630
G1 X131.573 Y71.662 E52.94220
G1 X131.573 Y73.415 E52.99154
G1 X109.916 Y116.625 E54.35224
G1 X110.794 Y116.625 E54.37697
G1 X131.573 Y75.168 E55.68247
G1 X131.573 Y76.920 E55.73182
G1 X111.673 Y116.625 E56.98212
G1 X112.551 Y116.625 E57.00685
G1 X131.573 Y78.673 E58.20196
G1 X131.573 Y80.426 E58.25131
G1 X113.430 Y116.625 E59.39122
G1 X114.308 Y116.625 E59.41595
G1 X131.573 Y82.179 E60.50066
G1 X131.573 Y83.932 E60.55001
G1 X115.187 Y116.625 E61.57953
G1 X116.065 Y116.625 E61.60426
G1 X131.573 Y85.685 E62.57858
G1 X131.573 Y87.437 E62.62793
G1 X116.944 Y116.625 E63.54705
G1 X117.822 Y116.625 E63.57178
G1 X131.573 Y89.190 E64.43571
G1 X131.573 Y90.943 E64.48506
G1 X118.701 Y116.625 E65.29379
G1 X119.579 Y116.625 E65.31852
G1 X131.573 Y92.696 E66.07206
G1 X131.573 Y94.449 E66.12140
G1 X120.458 Y116.625 E66.81974
G1 X121.336 Y116.625 E66.84447
G1 X131.573 Y96.202 E67.48761
G1 X131.573 Y97.954 E67.53696
G1 X122.215 Y116.625 E68.12491
G1 X123.093 Y116.625 E68.14964
G1 X131.573 Y99.707 E68.68239
G1 X131.573 Y101.460 E68.73173
G1 X123.972 Y116.625 E69.20928
G1 X124.850 Y116.625 E69.23402
G1 X131.573 Y103.213 E69.65637
G1 X131.573 Y104.966 E69.70572
G1 X125.729 Y116.625 E70.07288
G1 X126.608 Y116.625 E70.09761
G1 X131.573 Y106.719 E70.40957
G1 X131.573 Y108.471 E70.45892
G1 X127.486 Y116.625 E70.71568
G1 X128.365 Y116.625 E70.74041
G1 X131.573 Y110.224 E70.94198
G1 X131.573 Y111.977 E70.99133
G1 X129.243 Y116.625 E71.13770
G1 X130.122 Y116.625 E71.16243
G1 X131.573 Y113.730 E71.25361
G1 X131.573 Y115.483 E71.30296
G1 X131.000 Y116.625 E71.33894
G1 X107.127 Y83.626 F12000.000
G1 X117.277 Y63.375 E71.97666 F1200.000
G1 X116.399 Y63.375 E72.00139
G1 X107.127 Y81.873 E72.58391
G1 X107.127 Y80.121 E72.63326
G1 X115.520 Y63.375 E73.16058
G1 X114.642 Y63.375 E73.18532
G1 X107.127 Y78.368 E73.65745
G1 X106.521 Y77.825 F12000.000
G1 X113.763 Y63.375 E74.11250 F1200.000
G1 X112.885 Y63.375 E74.13723
G1 X105.642 Y77.825 E74.59228
M104 S188 ; set temperature
G1 E72.59228 F1680.00000
G92 E0
G1 Z0.600 F12000.000
