; generated by Slic3r 1.2.1 on 2015-01-17 at 15:19:44

; external perimeters extrusion width = 0.50mm
; perimeters extrusion width = 0.50mm
; infill extrusion width = 0.50mm
; solid infill extrusion width = 0.50mm
; top infill extrusion width = 0.50mm

M104 S190 ; set temperature
G28 ; home all axes
G1 Z15 F120 ; lift nozzle
M109 S190 ; wait for temperature to be reached
G21 ; set units to millimeters
G90 ; use absolute coordinates
M82 ; use absolute distances for extrusion
G92 E0
M106 S102
G1 E-2.00000 F1680.000
G92 E0
G1 Z0.350 F12000.000
G1 X46.271 Y55.824 F12000.000
G1 E2.00000 F1680.000
G1 X48.017 Y54.388 E2.06363 F1200.000
G1 X51.169 Y53.564 E2.15535
G1 X118.831 Y53.564 E4.06018
G1 X121.056 Y53.961 E4.12381
G1 X123.007 Y55.102 E4.18745 F1200.000
G1 X124.443 Y56.848 E4.25108
G1 X125.268 Y60.000 E4.34280
G1 X125.268 Y110.000 E5.75039
G1 X124.871 Y112.225 E5.81402
G1 X123.729 Y114.176 E5.87766
G1 X121.983 Y115.612 E5.94129
G1 X118.831 Y116.436 E6.03301
G1 X51.169 Y116.436 E7.93784
G1 X48.944 Y116.039 E8.00147
G1 X46.993 Y114.898 E8.06510
G1 X45.557 Y113.152 E8.12873
G1 X44.732 Y110.000 E8.22045
G1 X44.732 Y60.000 E9.62805
G1 X45.129 Y57.775 E9.69168
G1 X46.233 Y55.889 E9.75320
G1 E7.75320 F1680.000
G92 E0
G1 X65.150 Y66.433 F12000.000
G1 E2.00000 F1680.000
G1 X65.629 Y65.774 E2.02122 F720.000
G1 X66.258 Y65.254 E2.04244
G1 X66.995 Y64.907 E2.06365
G1 X67.796 Y64.754 E2.08487
G1 X68.567 Y64.803 E2.10498
G1 X69.385 Y65.058 E2.12727 F720.000
G1 X70.073 Y65.494 E2.14849
G1 X70.631 Y66.089 E2.16971
G1 X71.024 Y66.803 E2.19093
G1 X71.226 Y67.592 E2.21215
G1 X71.226 Y68.408 E2.23336
G1 X71.024 Y69.197 E2.25458
G1 X70.631 Y69.911 E2.27580
G1 X70.102 Y70.475 E2.29591
G1 X69.385 Y70.942 E2.31820
G1 X68.609 Y71.194 E2.33942
G1 X67.796 Y71.246 E2.36064
G1 X66.995 Y71.093 E2.38186
G1 X66.296 Y70.764 E2.40197
G1 X65.629 Y70.226 E2.42426
G1 X65.150 Y69.567 E2.44548
G1 X64.850 Y68.809 E2.46669
G1 X64.748 Y68.000 E2.48791
G1 X64.850 Y67.191 E2.50913
G1 X65.123 Y66.503 E2.52840
G1 E0.52840 F1680.000
G92 E0
G1 X66.050 Y86.550 F12000.000
G1 E2.00000 F1680.000
G1 X71.550 Y86.550 E2.14316 F720.000
G1 X71.550 Y99.050 E2.46852
G1 X69.807 Y99.050 E2.51389 F720.000
G1 X69.739 Y99.283 E2.52020
G1 X70.073 Y99.494 E2.53048
G1 X70.631 Y100.089 E2.55169
G1 X71.024 Y100.803 E2.57291
G1 X71.226 Y101.592 E2.59413
G1 X71.226 Y102.408 E2.61535
G1 X71.024 Y103.197 E2.63657
G1 X70.631 Y103.911 E2.65778
G1 X70.073 Y104.506 E2.67900
G1 X69.385 Y104.942 E2.70022
G1 X68.609 Y105.194 E2.72144
G1 X67.796 Y105.246 E2.74265
G1 X66.995 Y105.093 E2.76387
G1 X66.257 Y104.746 E2.78509
G1 X65.629 Y104.226 E2.80631
G1 X65.150 Y103.567 E2.82753
G1 X64.850 Y102.809 E2.84874
G1 X64.748 Y102.000 E2.86996
G1 X64.850 Y101.191 E2.89118
G1 X65.150 Y100.433 E2.91240
G1 X65.629 Y99.774 E2.93362
G1 X66.504 Y99.050 E2.96317
G1 X66.050 Y99.050 E2.97500
G1 X66.050 Y86.625 E3.29841
G1 X85.230 Y60.250 F12000.000
G1 X118.581 Y60.250 E4.16650 F720.000
G1 X118.581 Y109.750 E5.45494
G1 X51.419 Y109.750 E7.20311 F720.000
G1 X51.419 Y60.250 E8.49155
G1 X85.155 Y60.250 E9.36968
G1 E7.36968 F1680.000
G92 E0
G1 X66.761 Y99.233 F12000.000
G1 E2.00000 F1680.000
G1 X67.032 Y99.061 E2.00837 F720.000
G1 X67.255 Y98.955 E2.01478
G1 X67.792 Y98.904 E2.02884
G1 X68.602 Y98.930 E2.04993
G1 X69.539 Y99.078 E2.07461
G1 E0.07461 F1680.000
G92 E0
G1 X64.593 Y102.900 F12000.000
G1 E2.00000 F1680.000
G1 X51.691 Y89.998 E2.47494 F1200.000
G1 X51.691 Y89.426 E2.48982
G1 X64.504 Y102.239 E2.96145
G1 X64.514 Y101.678 E2.97606
G1 X51.691 Y88.855 E3.44808
G1 X51.691 Y88.283 E3.46296
G1 X64.578 Y101.170 E3.93734
G1 X64.731 Y100.751 E3.94894
G1 X51.691 Y87.711 E4.42896
G1 X51.691 Y87.139 E4.44384
G1 X64.893 Y100.342 E4.92983
G1 X65.126 Y100.003 E4.94053
G1 X51.691 Y86.568 E5.43508
G1 X51.691 Y85.996 E5.44996
G1 X65.367 Y99.672 E5.95337
G1 X65.661 Y99.394 E5.96390
G1 X51.691 Y85.424 E6.47814
G1 X51.691 Y84.852 E6.49302
G1 X65.778 Y98.939 E7.01155
G1 X65.778 Y98.367 E7.02643
G1 X51.691 Y84.281 E7.54496
G1 X51.691 Y83.709 E7.55984
G1 X65.778 Y97.795 E8.07836
G1 X65.778 Y97.224 E8.09325
G1 X51.691 Y83.137 E8.61177
G1 X51.691 Y82.565 E8.62666
G1 X65.778 Y96.652 E9.14518
G1 X65.778 Y96.080 E9.16006
G1 X51.691 Y81.994 E9.67859
G1 X51.691 Y81.422 E9.69347
G1 X65.778 Y95.508 E10.21200
G1 X65.778 Y94.937 E10.22688
G1 X51.691 Y80.850 E10.74541
G1 X51.691 Y80.278 E10.76029
G1 X65.778 Y94.365 E11.27881
G1 X65.778 Y93.793 E11.29370
G1 X51.691 Y79.707 E11.81222
G1 X51.691 Y79.135 E11.82711
G1 X65.778 Y93.221 E12.34563
G1 X65.778 Y92.650 E12.36051
G1 X51.691 Y78.563 E12.87904
G1 X51.691 Y77.991 E12.89392
G1 X65.778 Y92.078 E13.41245
G1 X65.778 Y91.506 E13.42733
G1 X51.691 Y77.420 E13.94586
G1 X51.691 Y76.848 E13.96074
G1 X65.778 Y90.934 E14.47926
G1 X65.778 Y90.363 E14.49415
G1 X51.691 Y76.276 E15.01267
G1 X51.691 Y75.705 E15.02756
G1 X65.778 Y89.791 E15.54608
G1 X65.778 Y89.219 E15.56096
G1 X51.691 Y75.133 E16.07949
G1 X51.691 Y74.561 E16.09437
G1 X65.778 Y88.647 E16.61290
G1 X65.778 Y88.076 E16.62778
G1 X51.691 Y73.989 E17.14631
G1 X51.691 Y73.418 E17.16119
G1 X65.778 Y87.504 E17.67972
G1 X65.778 Y86.932 E17.69460
G1 X51.691 Y72.846 E18.21312
G1 X51.691 Y72.274 E18.22801
G1 X65.778 Y86.360 E18.74653
G1 X66.266 Y86.278 E18.75944
G1 X51.691 Y71.702 E19.29596
G1 X51.691 Y71.131 E19.31084
G1 X66.838 Y86.278 E19.86841
G1 X67.410 Y86.278 E19.88329
G1 X51.691 Y70.559 E20.46191
G1 X51.691 Y69.987 E20.47679
G1 X67.982 Y86.278 E21.07645
G1 X68.553 Y86.278 E21.09134
G1 X51.691 Y69.415 E21.71204
G1 X51.691 Y68.844 E21.72692
G1 X69.125 Y86.278 E22.36868
G1 X69.697 Y86.278 E22.38356
G1 X51.691 Y68.272 E23.04636
G1 X51.691 Y67.700 E23.06124
G1 X70.269 Y86.278 E23.74509
G1 X70.840 Y86.278 E23.75997
G1 X51.691 Y67.128 E24.46487
G1 X51.691 Y66.557 E24.47975
G1 X71.412 Y86.278 E25.20569
G1 X66.664 Y71.238 F12000.000
G1 X104.904 Y109.478 E26.61329 F1200.000
G1 X105.475 Y109.478 E26.62818
G1 X67.456 Y71.458 E28.02769
G1 X68.071 Y71.501 E28.04374
G1 X106.047 Y109.478 E29.44166
G1 X106.619 Y109.478 E29.45655
G1 X68.609 Y71.467 E30.85572
G1 X69.051 Y71.338 E30.86771
G1 X107.191 Y109.478 E32.27166
G1 X107.762 Y109.478 E32.28654
G1 X69.482 Y71.197 E33.69566
G1 X69.836 Y70.979 E33.70647
G1 X108.334 Y109.478 E35.12362
G1 X108.906 Y109.478 E35.13851
G1 X70.185 Y70.757 E36.56383
G1 X70.475 Y70.475 E36.57435
G1 X109.478 Y109.478 E38.01005
G1 X110.049 Y109.478 E38.02493
G1 X70.752 Y70.180 E39.47148
G1 X70.982 Y69.838 E39.48220
G1 X110.621 Y109.478 E40.94134
G1 X111.193 Y109.478 E40.95622
G1 X71.185 Y69.470 E42.42894
G1 X71.342 Y69.055 E42.44048
G1 X111.765 Y109.478 E43.92848
G1 X112.336 Y109.478 E43.94336
G1 X71.458 Y68.600 E45.44810
G1 X71.493 Y68.063 E45.46211
G1 X112.908 Y109.478 E46.98662
G1 X113.480 Y109.478 E47.00150
G1 X71.478 Y67.475 E48.54762
G1 X71.280 Y66.706 E48.56829
G1 X114.052 Y109.478 E50.14273
G1 X114.623 Y109.478 E50.15761
G1 X65.668 Y60.522 E51.95968
G1 X66.240 Y60.522 E51.97456
G1 X115.195 Y109.478 E53.77662
G1 X115.767 Y109.478 E53.79150
G1 X66.812 Y60.522 E55.59357
G1 X67.383 Y60.522 E55.60845
G1 X116.338 Y109.478 E57.41051
G1 X116.910 Y109.478 E57.42540
G1 X67.955 Y60.522 E59.22746
G1 X68.527 Y60.522 E59.24234
G1 X117.482 Y109.478 E61.04440
G1 X118.054 Y109.478 E61.05929
G1 X69.099 Y60.522 E62.86135
G1 X69.670 Y60.522 E62.87623
G1 X118.309 Y109.161 E64.66664
G1 X118.309 Y108.589 E64.68152
G1 X70.242 Y60.522 E66.45088
G1 X70.814 Y60.522 E66.46576
G1 X118.309 Y108.017 E68.21408
G1 X118.309 Y107.446 E68.22896
G1 X71.386 Y60.522 E69.95623
G1 X71.957 Y60.522 E69.97111
G1 X118.309 Y106.874 E71.67733
G1 X118.309 Y106.302 E71.69221
G1 X72.529 Y60.522 E73.37739
G1 X73.101 Y60.522 E73.39227
G1 X118.309 Y105.730 E75.05640
G1 X118.309 Y105.159 E75.07128
G1 X73.673 Y60.522 E76.71437
G1 X74.244 Y60.522 E76.72925
G1 X118.309 Y104.587 E78.35129
G1 X118.309 Y104.015 E78.36617
G1 X74.816 Y60.522 E79.96716
G1 X75.388 Y60.522 E79.98204
G1 X118.309 Y103.443 E81.56198
G1 X118.309 Y102.872 E81.57687
G1 X75.960 Y60.522 E83.13576
G1 X76.531 Y60.522 E83.15065
G1 X118.309 Y102.300 E84.68850
G1 X118.309 Y101.728 E84.70338
G1 X77.103 Y60.522 E86.22019
G1 X77.675 Y60.522 E86.23507
G1 X118.309 Y101.156 E87.73083
G1 X118.309 Y100.585 E87.74571
G1 X78.247 Y60.522 E89.22042
G1 X78.818 Y60.522 E89.23530
G1 X118.309 Y100.013 E90.68897
G1 X118.309 Y99.441 E90.70385
G1 X79.390 Y60.522 E92.13647
G1 X79.962 Y60.522 E92.15135
G1 X118.309 Y98.869 E93.56293
G1 X118.309 Y98.298 E93.57781
G1 X80.534 Y60.522 E94.96834
G1 X81.105 Y60.522 E94.98322
G1 X118.309 Y97.726 E96.35270
G1 X118.309 Y97.154 E96.36758
G1 X81.677 Y60.522 E97.71602
G1 X82.249 Y60.522 E97.73090
G1 X118.309 Y96.582 E99.05829
G1 X118.309 Y96.011 E99.07317
G1 X82.821 Y60.522 E100.37951
G1 X83.392 Y60.522 E100.39440
G1 X118.309 Y95.439 E101.67969
G1 X118.309 Y94.867 E101.69457
G1 X83.964 Y60.522 E102.95882
G1 X84.536 Y60.522 E102.97371
G1 X118.309 Y94.295 E104.21691
G1 X118.309 Y93.724 E104.23179
G1 X85.108 Y60.522 E105.45395
G1 X85.679 Y60.522 E105.46883
G1 X118.309 Y93.152 E106.66994
G1 X118.309 Y92.580 E106.68482
G1 X86.251 Y60.522 E107.86489
G1 X86.823 Y60.522 E107.87977
G1 X118.309 Y92.009 E109.03879
G1 X118.309 Y91.437 E109.05367
G1 X87.395 Y60.522 E110.19164
G1 X87.966 Y60.522 E110.20653
G1 X118.309 Y90.865 E111.32345
G1 X118.309 Y90.293 E111.33833
G1 X88.538 Y60.522 E112.43421
G1 X89.110 Y60.522 E112.44910
G1 X118.309 Y89.722 E113.52393
G1 X118.309 Y89.150 E113.53881
G1 X89.682 Y60.522 E114.59260
G1 X90.253 Y60.522 E114.60748
G1 X118.309 Y88.578 E115.64022
G1 X118.309 Y88.006 E115.65510
G1 X90.825 Y60.522 E116.66680
G1 X91.397 Y60.522 E116.68168
G1 X118.309 Y87.435 E117.67233
G1 X118.309 Y86.863 E117.68721
G1 X91.969 Y60.522 E118.65681
G1 X92.540 Y60.522 E118.67169
G1 X118.309 Y86.291 E119.62025
G1 X118.309 Y85.719 E119.63513
G1 X93.112 Y60.522 E120.56264
G1 X93.684 Y60.522 E120.57752
G1 X118.309 Y85.148 E121.48398
G1 X118.309 Y84.576 E121.49887
G1 X94.255 Y60.522 E122.38428
G1 X94.827 Y60.522 E122.39917
G1 X118.309 Y84.004 E123.26354
G1 X118.309 Y83.432 E123.27842
G1 X95.399 Y60.522 E124.12174
G1 X95.971 Y60.522 E124.13662
G1 X118.309 Y82.861 E124.95890
G1 X118.309 Y82.289 E124.97378
G1 X96.542 Y60.522 E125.77502
G1 X97.114 Y60.522 E125.78990
G1 X118.309 Y81.717 E126.57008
G1 X118.309 Y81.145 E126.58496
G1 X97.686 Y60.522 E127.34410
G1 X98.258 Y60.522 E127.35899
G1 X118.309 Y80.574 E128.09708
G1 X118.309 Y80.002 E128.11196
G1 X98.829 Y60.522 E128.82901
G1 X99.401 Y60.522 E128.84389
G1 X118.309 Y79.430 E129.53989
G1 X118.309 Y78.858 E129.55477
G1 X99.973 Y60.522 E130.22972
G1 X100.545 Y60.522 E130.24461
G1 X118.309 Y78.287 E130.89851
G1 X118.309 Y77.715 E130.91340
G1 X101.116 Y60.522 E131.54626
G1 X101.688 Y60.522 E131.56114
G1 X118.309 Y77.143 E132.17295
G1 X118.309 Y76.571 E132.18784
G1 X102.260 Y60.522 E132.77860
G1 X102.832 Y60.522 E132.79349
G1 X118.309 Y76.000 E133.36321
G1 X118.309 Y75.428 E133.37809
G1 X103.403 Y60.522 E133.92677
G1 X103.975 Y60.522 E133.94165
G1 X118.309 Y74.856 E134.46928
G1 X118.309 Y74.284 E134.48416
G1 X104.547 Y60.522 E134.99074
G1 X105.119 Y60.522 E135.00563
G1 X118.309 Y73.713 E135.49116
G1 X118.309 Y73.141 E135.50605
G1 X105.690 Y60.522 E135.97054
G1 X106.262 Y60.522 E135.98542
G1 X118.309 Y72.569 E136.42886
G1 X118.309 Y71.997 E136.44374
G1 X106.834 Y60.522 E136.86614
G1 X107.406 Y60.522 E136.88102
G1 X118.309 Y71.426 E137.28238
G1 X118.309 Y70.854 E137.29726
G1 X107.977 Y60.522 E137.67756
G1 X108.549 Y60.522 E137.69245
G1 X118.309 Y70.282 E138.05171
G1 X118.309 Y69.710 E138.06659
G1 X109.121 Y60.522 E138.40480
G1 X109.693 Y60.522 E138.41968
G1 X118.309 Y69.139 E138.73685
G1 X118.309 Y68.567 E138.75173
G1 X110.264 Y60.522 E139.04785
G1 X110.836 Y60.522 E139.06273
G1 X118.309 Y67.995 E139.33781
G1 X118.309 Y67.423 E139.35269
G1 X111.408 Y60.522 E139.60672
G1 X111.980 Y60.522 E139.62160
G1 X118.309 Y66.852 E139.85458
G1 X118.309 Y66.280 E139.86946
G1 X112.551 Y60.522 E140.08140
G1 X113.123 Y60.522 E140.09628
G1 X118.309 Y65.708 E140.28717
G1 X118.309 Y65.136 E140.30205
G1 X113.695 Y60.522 E140.47189
G1 X114.267 Y60.522 E140.48678
G1 X118.309 Y64.565 E140.63557
G1 X118.309 Y63.993 E140.65046
G1 X114.838 Y60.522 E140.77821
G1 X115.410 Y60.522 E140.79309
G1 X118.309 Y63.421 E140.89979
G1 X118.309 Y62.849 E140.91467
G1 X115.982 Y60.522 E141.00033
G1 X116.554 Y60.522 E141.01521
G1 X118.309 Y62.278 E141.07982
G1 X118.309 Y61.706 E141.09471
G1 X117.125 Y60.522 E141.13827
G1 X117.697 Y60.522 E141.15315
G1 X118.309 Y61.134 E141.17567
G1 X118.309 Y60.562 E141.19055
G1 X118.269 Y60.522 E141.19203
G1 X69.326 Y64.752 F12000.000
G1 X65.096 Y60.522 E141.34772 F1200.000
G1 X64.525 Y60.522 E141.36260
G1 X68.530 Y64.528 E141.51003
G1 X67.920 Y64.489 E141.52594
G1 X63.953 Y60.522 E141.67196
G1 X63.381 Y60.522 E141.68684
G1 X67.409 Y64.551 E141.83513
G1 X66.934 Y64.647 E141.84776
G1 X62.809 Y60.522 E141.99958
G1 X62.238 Y60.522 E142.01446
G1 X66.541 Y64.826 E142.17286
G1 X66.148 Y65.005 E142.18410
G1 X61.666 Y60.522 E142.34909
G1 X61.094 Y60.522 E142.36397
G1 X65.828 Y65.256 E142.53822
G1 X65.515 Y65.515 E142.54879
G1 X60.522 Y60.522 E142.73257
G1 X59.951 Y60.522 E142.74745
G1 X65.255 Y65.826 E142.94268
G1 X65.014 Y66.157 E142.95334
G1 X59.379 Y60.522 E143.16076
G1 X58.807 Y60.522 E143.17565
G1 X64.820 Y66.535 E143.39697
G1 X64.662 Y66.949 E143.40850
G1 X58.235 Y60.522 E143.64506
G1 X57.664 Y60.522 E143.65994
G1 X64.548 Y67.407 E143.91337
G1 X64.484 Y67.915 E143.92668
G1 X57.092 Y60.522 E144.19879
G1 X56.520 Y60.522 E144.21368
G1 X64.542 Y68.544 E144.50897
G1 X64.768 Y69.342 F12000.000
G1 X55.948 Y60.522 E144.83363 F1200.000
G1 X55.377 Y60.522 E144.84851
G1 X104.332 Y109.478 E146.65058
G1 X103.760 Y109.478 E146.66546
G1 X54.805 Y60.522 E148.46752
G1 X54.233 Y60.522 E148.48240
G1 X103.188 Y109.478 E150.28447
G1 X102.617 Y109.478 E150.29935
G1 X53.662 Y60.522 E152.10141
G1 X53.090 Y60.522 E152.11630
G1 X102.045 Y109.478 E153.91836
G1 X101.473 Y109.478 E153.93324
G1 X52.518 Y60.522 E155.73530
G1 X51.946 Y60.522 E155.75019
G1 X100.901 Y109.478 E157.55225
G1 X100.330 Y109.478 E157.56713
G1 X51.691 Y60.839 E159.35754
G1 X51.691 Y61.411 E159.37242
G1 X99.758 Y109.478 E161.14178
G1 X99.186 Y109.478 E161.15666
G1 X51.691 Y61.983 E162.90498
G1 X51.691 Y62.554 E162.91986
G1 X98.614 Y109.478 E164.64713
G1 X98.043 Y109.478 E164.66201
G1 X51.691 Y63.126 E166.36823
G1 X51.691 Y63.698 E166.38311
G1 X97.471 Y109.478 E168.06829
G1 X96.899 Y109.478 E168.08317
G1 X51.691 Y64.270 E169.74730
G1 X51.691 Y64.841 E169.76218
G1 X96.327 Y109.478 E171.40527
G1 X95.756 Y109.478 E171.42015
G1 X51.691 Y65.413 E173.04218
G1 X51.691 Y65.985 E173.05707
G1 X95.184 Y109.478 E174.65806
G1 X94.612 Y109.478 E174.67294
G1 X71.822 Y86.688 E175.51184
G1 X71.822 Y87.260 E175.52672
G1 X94.040 Y109.478 E176.34458
G1 X93.469 Y109.478 E176.35946
G1 X71.822 Y87.831 E177.15627
G1 X71.822 Y88.403 E177.17115
G1 X92.897 Y109.478 E177.94691
G1 X92.325 Y109.478 E177.96179
G1 X71.822 Y88.975 E178.71651
G1 X71.822 Y89.547 E178.73139
G1 X91.753 Y109.478 E179.46506
G1 X91.182 Y109.478 E179.47994
G1 X71.822 Y90.118 E180.19256
G1 X71.822 Y90.690 E180.20744
G1 X90.610 Y109.478 E180.89902
G1 X90.038 Y109.478 E180.91390
G1 X71.822 Y91.262 E181.58443
G1 X71.822 Y91.834 E181.59931
G1 X89.466 Y109.478 E182.24880
G1 X88.895 Y109.478 E182.26368
G1 X71.822 Y92.405 E182.89212
G1 X71.822 Y92.977 E182.90700
G1 X88.323 Y109.478 E183.51439
G1 X87.751 Y109.478 E183.52927
G1 X71.822 Y93.549 E184.11562
G1 X71.822 Y94.121 E184.13050
G1 X87.179 Y109.478 E184.69580
G1 X86.608 Y109.478 E184.71068
G1 X71.822 Y94.692 E185.25493
