; generated by Slic3r 1.2.9 on 2016-04-24 at 14:56:21

; external perimeters extrusion width = 0.50mm
; perimeters extrusion width = 0.50mm
; infill extrusion width = 0.50mm
; solid infill extrusion width = 0.50mm
; top infill extrusion width = 0.50mm
; support material extrusion width = 0.50mm

M104 S190 ; set temperature
G28 ; home all axes
G1 Z15 F120 ; lift nozzle
M109 S190 ; wait for temperature to be reached
G21 ; set units to millimeters
G90 ; use absolute coordinates
M82 ; use absolute distances for extrusion
G92 E0
M106 S102
G1 E-2.00000 F1680.00000
G92 E0
G1 Z0.350 F12000.000
G1 X49.977 Y60.768 F12000.000
G1 E2.00000 F1680.00000
G1 X51.655 Y59.388 E2.06116 F1200.000
G1 X54.543 Y58.569 E2.14567
G1 X94.192 Y56.941 E3.26280
G1 X131.460 Y56.935 E4.31196
G1 X133.685 Y57.332 E4.37559
G1 X135.636 Y58.474 E4.43922 F1200.000
G1 X137.072 Y60.220 E4.50286
G1 X137.879 Y62.905 E4.58180
G1 X137.994 Y64.478 E4.62619
G1 X138.011 Y64.944 E4.63933
G1 X138.011 Y115.365 E6.05876
G1 X137.328 Y118.249 E6.14219
G1 X136.695 Y119.512 E6.18198
G1 X135.343 Y121.324 E6.24561
G1 X133.448 Y122.556 E6.30924
G1 X130.941 Y123.065 E6.38126
G1 X93.670 Y123.059 E7.43052
G1 X54.540 Y121.431 E8.53306
G1 X52.333 Y120.942 E8.59669
G1 X50.431 Y119.720 E8.66032
G1 X49.069 Y117.916 E8.72396
G1 X48.371 Y115.000 E8.80837
G1 X48.371 Y65.000 E10.21596
G1 X48.768 Y62.775 E10.27959
G1 X49.919 Y60.816 E10.34356
G1 E8.34356 F1680.00000
G92 E0
G1 X73.692 Y114.750 F12000.000
G1 E2.00000 F1680.00000
G1 X55.057 Y114.750 E2.48503 F720.000
G1 X55.057 Y65.250 E3.77347
G1 X88.943 Y65.250 E4.65547
G1 X88.943 Y114.750 E5.94391
G1 X73.767 Y114.750 E6.33892 F720.000
G1 X55.506 Y114.513 F12000.000
G1 X55.295 Y114.302 E6.34674 F1200.000
G1 X55.295 Y113.728 E6.36174
G1 X56.079 Y114.513 E6.39078
G1 X56.653 Y114.513 E6.40578
G1 X55.295 Y113.155 E6.45604
G1 X55.295 Y112.581 E6.47105
G1 X57.226 Y114.513 E6.54253
G1 X57.800 Y114.513 E6.55753
G1 X55.295 Y112.007 E6.65023
G1 X55.295 Y111.434 E6.66524
G1 X58.373 Y114.513 E6.77916
G1 X58.947 Y114.513 E6.79417
G1 X55.295 Y110.860 E6.92932
G1 X55.295 Y110.287 E6.94432
G1 X59.520 Y114.513 E7.10069
G1 X60.094 Y114.513 E7.11570
G1 X55.295 Y109.713 E7.29329
G1 X55.295 Y109.140 E7.30829
G1 X60.667 Y114.513 E7.50711
G1 X61.241 Y114.513 E7.52211
G1 X55.295 Y108.566 E7.74215
G1 X55.295 Y107.993 E7.75716
G1 X61.814 Y114.513 E7.99841
G1 X62.388 Y114.513 E8.01342
G1 X55.295 Y107.419 E8.27590
G1 X55.295 Y106.846 E8.29091
G1 X62.962 Y114.513 E8.57461
G1 X63.535 Y114.513 E8.58962
G1 X55.295 Y106.272 E8.89454
G1 X55.295 Y105.699 E8.90955
G1 X64.109 Y114.513 E9.23569
G1 X64.682 Y114.513 E9.25070
G1 X55.295 Y105.125 E9.59807
G1 X55.295 Y104.552 E9.61308
G1 X65.256 Y114.513 E9.98167
G1 X65.829 Y114.513 E9.99667
G1 X55.295 Y103.978 E10.38649
G1 X55.295 Y103.405 E10.40149
G1 X66.403 Y114.513 E10.81253
G1 X66.976 Y114.513 E10.82754
G1 X55.295 Y102.831 E11.25980
G1 X55.295 Y102.258 E11.27480
G1 X67.550 Y114.513 E11.72828
G1 X68.123 Y114.513 E11.74329
G1 X55.295 Y101.684 E12.21799
G1 X55.295 Y101.111 E12.23300
G1 X68.697 Y114.513 E12.72892
G1 X69.270 Y114.513 E12.74393
G1 X55.295 Y100.537 E13.26108
G1 X55.295 Y99.963 E13.27609
G1 X69.844 Y114.513 E13.81446
G1 X70.417 Y114.513 E13.82946
G1 X55.295 Y99.390 E14.38905
G1 X55.295 Y98.816 E14.40406
G1 X70.991 Y114.513 E14.98488
G1 X71.564 Y114.513 E14.99988
G1 X55.295 Y98.243 E15.60192
G1 X55.295 Y97.669 E15.61693
G1 X72.138 Y114.513 E16.24018
G1 X72.711 Y114.513 E16.25519
G1 X55.295 Y97.096 E16.89967
G1 X55.295 Y96.522 E16.91468
G1 X73.285 Y114.513 E17.58038
G1 X73.858 Y114.513 E17.59539
G1 X55.295 Y95.949 E18.28232
G1 X55.295 Y95.375 E18.29732
G1 X74.432 Y114.513 E19.00547
G1 X75.006 Y114.513 E19.02048
G1 X55.295 Y94.802 E19.74985
G1 X55.295 Y94.228 E19.76485
G1 X75.579 Y114.513 E20.51545
G1 X76.153 Y114.513 E20.53045
G1 X55.295 Y93.655 E21.30227
G1 X55.295 Y93.081 E21.31728
G1 X76.726 Y114.513 E22.11031
G1 X77.300 Y114.513 E22.12532
G1 X55.295 Y92.508 E22.93958
G1 X55.295 Y91.934 E22.95459
G1 X77.873 Y114.513 E23.79007
G1 X78.447 Y114.513 E23.80508
G1 X55.295 Y91.361 E24.66178
G1 X55.295 Y90.787 E24.67679
G1 X79.020 Y114.513 E25.55471
G1 X79.594 Y114.513 E25.56972
G1 X55.295 Y90.214 E26.46887
G1 X55.295 Y89.640 E26.48388
G1 X80.167 Y114.513 E27.40425
G1 X80.741 Y114.513 E27.41926
G1 X55.295 Y89.067 E28.36085
G1 X55.295 Y88.493 E28.37586
G1 X81.314 Y114.513 E29.33867
G1 X81.888 Y114.513 E29.35368
G1 X55.295 Y87.919 E30.33772
G1 X55.295 Y87.346 E30.35272
G1 X82.461 Y114.513 E31.35798
G1 X83.035 Y114.513 E31.37299
G1 X55.295 Y86.772 E32.39947
G1 X55.295 Y86.199 E32.41448
G1 X83.608 Y114.513 E33.46219
G1 X84.182 Y114.513 E33.47719
G1 X55.295 Y85.625 E34.54612
G1 X55.295 Y85.052 E34.56113
G1 X84.755 Y114.513 E35.65128
G1 X85.329 Y114.513 E35.66628
G1 X55.295 Y84.478 E36.77766
G1 X55.295 Y83.905 E36.79266
G1 X85.902 Y114.513 E37.92526
G1 X86.476 Y114.513 E37.94026
G1 X55.295 Y83.331 E39.09408
G1 X55.295 Y82.758 E39.10909
G1 X87.050 Y114.513 E40.28413
G1 X87.623 Y114.513 E40.29913
G1 X55.295 Y82.184 E41.49540
G1 X55.295 Y81.611 E41.51040
G1 X88.197 Y114.513 E42.72789
G1 X88.705 Y114.448 E42.74131
G1 X55.295 Y81.037 E43.97762
G1 X55.295 Y80.464 E43.99262
G1 X88.705 Y113.874 E45.22894
G1 X88.705 Y113.301 E45.24394
G1 X55.295 Y79.890 E46.48025
G1 X55.295 Y79.317 E46.49526
G1 X88.705 Y112.727 E47.73157
G1 X88.705 Y112.154 E47.74658
G1 X55.295 Y78.743 E48.98289
G1 X55.295 Y78.170 E48.99790
G1 X88.705 Y111.580 E50.23421
G1 X88.705 Y111.007 E50.24921
G1 X55.295 Y77.596 E51.48553
G1 X55.295 Y77.023 E51.50053
G1 X88.705 Y110.433 E52.73684
G1 X88.705 Y109.860 E52.75185
G1 X55.295 Y76.449 E53.98816
G1 X55.295 Y75.875 E54.00317
G1 X88.705 Y109.286 E55.23948
G1 X88.705 Y108.713 E55.25449
G1 X55.295 Y75.302 E56.49080
G1 X55.295 Y74.728 E56.50580
G1 X88.705 Y108.139 E57.74211
G1 X88.705 Y107.566 E57.75712
G1 X55.295 Y74.155 E58.99343
G1 X55.295 Y73.581 E59.00844
G1 X88.705 Y106.992 E60.24475
G1 X88.705 Y106.419 E60.25976
G1 X55.295 Y73.008 E61.49607
G1 X55.295 Y72.434 E61.51107
G1 X88.705 Y105.845 E62.74739
G1 X88.705 Y105.272 E62.76239
G1 X55.295 Y71.861 E63.99870
G1 X55.295 Y71.287 E64.01371
G1 X88.705 Y104.698 E65.25002
G1 X88.705 Y104.125 E65.26503
G1 X55.295 Y70.714 E66.50134
G1 X55.295 Y70.140 E66.51635
G1 X88.705 Y103.551 E67.75266
G1 X88.705 Y102.977 E67.76766
G1 X55.295 Y69.567 E69.00398
G1 X55.295 Y68.993 E69.01898
G1 X88.705 Y102.404 E70.25529
G1 X88.705 Y101.830 E70.27030
G1 X55.295 Y68.420 E71.50661
G1 X55.295 Y67.846 E71.52162
G1 X88.705 Y101.257 E72.75793
G1 X88.705 Y100.683 E72.77294
G1 X55.295 Y67.273 E74.00925
G1 X55.295 Y66.699 E74.02425
G1 X88.705 Y100.110 E75.26057
G1 X88.705 Y99.536 E75.27557
G1 X55.295 Y66.126 E76.51188
G1 X55.295 Y65.552 E76.52689
G1 X88.705 Y98.963 E77.76320
G1 X88.705 Y98.389 E77.77821
G1 X55.803 Y65.487 E78.99569
G1 X56.377 Y65.487 E79.01070
G1 X88.705 Y97.816 E80.20696
G1 X88.705 Y97.242 E80.22197
G1 X56.950 Y65.487 E81.39701
G1 X57.524 Y65.487 E81.41202
G1 X88.705 Y96.669 E82.56583
G1 X88.705 Y96.095 E82.58084
G1 X58.097 Y65.487 E83.71344
G1 X58.671 Y65.487 E83.72844
G1 X88.705 Y95.522 E84.83982
G1 X88.705 Y94.948 E84.85482
G1 X59.245 Y65.487 E85.94498
G1 X59.818 Y65.487 E85.95998
G1 X88.705 Y94.375 E87.02891
G1 X88.705 Y93.801 E87.04392
G1 X60.392 Y65.487 E88.09163
G1 X60.965 Y65.487 E88.10663
G1 X88.705 Y93.228 E89.13312
G1 X88.705 Y92.654 E89.14812
G1 X61.539 Y65.487 E90.15339
G1 X62.112 Y65.487 E90.16839
G1 X88.705 Y92.081 E91.15243
G1 X88.705 Y91.507 E91.16744
G1 X62.686 Y65.487 E92.13026
G1 X63.259 Y65.487 E92.14526
G1 X88.705 Y90.934 E93.08686
G1 X88.705 Y90.360 E93.10186
G1 X63.833 Y65.487 E94.02224
G1 X64.406 Y65.487 E94.03724
G1 X88.705 Y89.786 E94.93639
G1 X88.705 Y89.213 E94.95140
G1 X64.980 Y65.487 E95.82933
G1 X65.553 Y65.487 E95.84434
G1 X88.705 Y88.639 E96.70104
G1 X88.705 Y88.066 E96.71605
G1 X66.127 Y65.487 E97.55153
G1 X66.700 Y65.487 E97.56654
G1 X88.705 Y87.492 E98.38080
G1 X88.705 Y86.919 E98.39581
G1 X67.274 Y65.487 E99.18885
G1 X67.847 Y65.487 E99.20385
G1 X88.705 Y86.345 E99.97567
G1 X88.705 Y85.772 E99.99068
G1 X68.421 Y65.487 E100.74127
G1 X68.994 Y65.487 E100.75628
G1 X88.705 Y85.198 E101.48565
G1 X88.705 Y84.625 E101.50066
G1 X69.568 Y65.487 E102.20881
G1 X70.141 Y65.487 E102.22381
G1 X88.705 Y84.051 E102.91074
G1 X88.705 Y83.478 E102.92575
G1 X70.715 Y65.487 E103.59145
G1 X71.289 Y65.487 E103.60646
G1 X88.705 Y82.904 E104.25094
G1 X88.705 Y82.331 E104.26595
G1 X71.862 Y65.487 E104.88921
G1 X72.436 Y65.487 E104.90421
G1 X88.705 Y81.757 E105.50625
G1 X88.705 Y81.184 E105.52126
G1 X73.009 Y65.487 E106.10208
G1 X73.583 Y65.487 E106.11708
G1 X88.705 Y80.610 E106.67668
G1 X88.705 Y80.037 E106.69168
G1 X74.156 Y65.487 E107.23005
G1 X74.730 Y65.487 E107.24506
G1 X88.705 Y79.463 E107.76221
G1 X88.705 Y78.890 E107.77722
G1 X75.303 Y65.487 E108.27314
G1 X75.877 Y65.487 E108.28815
G1 X88.705 Y78.316 E108.76285
G1 X88.705 Y77.742 E108.77786
G1 X76.450 Y65.487 E109.23134
G1 X77.024 Y65.487 E109.24635
G1 X88.705 Y77.169 E109.67861
G1 X88.705 Y76.595 E109.69362
G1 X77.597 Y65.487 E110.10465
G1 X78.171 Y65.487 E110.11966
G1 X88.705 Y76.022 E110.50947
G1 X88.705 Y75.448 E110.52448
G1 X78.744 Y65.487 E110.89307
G1 X79.318 Y65.487 E110.90808
G1 X88.705 Y74.875 E111.25545
G1 X88.705 Y74.301 E111.27046
G1 X79.891 Y65.487 E111.59661
G1 X80.465 Y65.487 E111.61161
G1 X88.705 Y73.728 E111.91654
G1 X88.705 Y73.154 E111.93154
G1 X81.038 Y65.487 E112.21525
G1 X81.612 Y65.487 E112.23026
G1 X88.705 Y72.581 E112.49274
G1 X88.705 Y72.007 E112.50774
G1 X82.185 Y65.487 E112.74900
G1 X82.759 Y65.487 E112.76401
G1 X88.705 Y71.434 E112.98405
G1 X88.705 Y70.860 E112.99905
G1 X83.333 Y65.487 E113.19787
G1 X83.906 Y65.487 E113.21287
G1 X88.705 Y70.287 E113.39047
G1 X88.705 Y69.713 E113.40547
G1 X84.480 Y65.487 E113.56184
G1 X85.053 Y65.487 E113.57685
G1 X88.705 Y69.140 E113.71200
G1 X88.705 Y68.566 E113.72700
G1 X85.627 Y65.487 E113.84093
G1 X86.200 Y65.487 E113.85593
G1 X88.705 Y67.993 E113.94864
G1 X88.705 Y67.419 E113.96364
G1 X86.774 Y65.487 E114.03512
G1 X87.347 Y65.487 E114.05013
G1 X88.705 Y66.846 E114.10039
G1 X88.705 Y66.272 E114.11539
G1 X87.921 Y65.487 E114.14443
G1 X88.494 Y65.487 E114.15944
G1 X88.705 Y65.698 E114.16725
G1 E112.16725 F1680.00000
G92 E0
G1 Z0.350 F12000.000
G1 X93.827 Y64.628 F12000.000
G1 E2.00000 F1680.00000
G1 X94.456 Y63.372 E2.03658 F1200.000
G1 X94.426 Y65.233 F12000.000
G1 X95.359 Y63.372 E2.09078 F1200.000
G1 X96.261 Y63.372 E2.11427
G1 X94.426 Y67.034 E2.22090
G1 X94.426 Y68.835 E2.26777
G1 X97.164 Y63.372 E2.42682
G1 X98.066 Y63.372 E2.45031
G1 X94.426 Y70.635 E2.66180
G1 X94.426 Y72.436 E2.70867
G1 X98.969 Y63.372 E2.97258
G1 X99.871 Y63.372 E2.99607
G1 X94.426 Y74.237 E3.31241
G1 X94.426 Y76.038 E3.35929
G1 X100.774 Y63.372 E3.72806
G1 X101.676 Y63.372 E3.75155
G1 X94.426 Y77.838 E4.17275
G1 X94.426 Y79.639 E4.21962
G1 X102.579 Y63.372 E4.69325
G1 X103.482 Y63.372 E4.71674
G1 X94.426 Y81.440 E5.24279
G1 X94.426 Y83.241 E5.28966
G1 X104.384 Y63.372 E5.86815
G1 X105.287 Y63.372 E5.89164
G1 X94.426 Y85.041 E6.52256
G1 X94.426 Y86.842 E6.56943
G1 X106.189 Y63.372 E7.25277
G1 X107.092 Y63.372 E7.27626
G1 X94.426 Y88.643 E8.01203
G1 X94.426 Y90.443 E8.05890
G1 X107.994 Y63.372 E8.84710
G1 X108.897 Y63.372 E8.87059
G1 X94.426 Y92.244 E9.71122
G1 X94.426 Y94.045 E9.75809
G1 X109.799 Y63.372 E10.65115
G1 X110.702 Y63.372 E10.67464
G1 X94.426 Y95.846 E11.62013
G1 X94.426 Y97.646 E11.66700
G1 X111.604 Y63.372 E12.66492
G1 X117.922 Y63.372 F12000.000
G1 X107.126 Y84.912 E13.29208 F1200.000
G1 X107.126 Y83.112 E13.33895
G1 X117.019 Y63.372 E13.91368
G1 X116.117 Y63.372 E13.93717
G1 X107.126 Y81.311 E14.45948
G1 X107.126 Y79.510 E14.50635
G1 X115.214 Y63.372 E14.97623
G1 X114.312 Y63.372 E14.99972
G1 X107.066 Y77.828 E15.42062
G1 X106.164 Y77.828 E15.44411
G1 X113.409 Y63.372 E15.86501
G1 X112.507 Y63.372 E15.88851
G1 X94.426 Y99.447 E16.93885
G1 X94.426 Y101.248 E16.98572
G1 X105.274 Y79.603 E17.61592
G1 X105.274 Y81.404 E17.66279
G1 X94.426 Y103.049 E18.29299
G1 X94.426 Y104.849 E18.33986
G1 X105.274 Y83.204 E18.97005
G1 X105.274 Y85.005 E19.01692
G1 X94.426 Y106.650 E19.64712
G1 X94.426 Y108.451 E19.69399
G1 X105.392 Y86.572 E20.33100
G1 X106.294 Y86.572 E20.35450
G1 X94.426 Y110.251 E21.04394
G1 X94.426 Y112.052 E21.09081
G1 X118.825 Y63.372 E22.50815
G1 X119.727 Y63.372 E22.53164
G1 X94.426 Y113.853 E24.00142
G1 X93.665 Y115.372 F12000.000
G1 X93.426 Y115.848 E24.01529 F1200.000
G1 X93.937 Y116.628 E24.03957
G1 X120.630 Y63.372 E25.59014
G1 X121.532 Y63.372 E25.61364
G1 X105.766 Y94.828 E26.52950
G1 X106.669 Y94.828 F12000.000
G1 X122.435 Y63.372 E27.44536 F1200.000
G1 X125.142 Y63.372 F12000.000
G1 X107.126 Y99.318 E28.49195 F1200.000
G1 X107.126 Y97.518 E28.53882
G1 X124.240 Y63.372 E29.53299
G1 X123.337 Y63.372 E29.55648
G1 X107.126 Y95.717 E30.49821
G1 X105.274 Y95.810 F12000.000
G1 X94.840 Y116.628 E31.10436 F1200.000
G1 X95.742 Y116.628 E31.12785
G1 X105.274 Y97.610 E31.68156
G1 X105.274 Y99.411 E31.72843
G1 X96.645 Y116.628 E32.22972
G1 X97.547 Y116.628 E32.25321
G1 X105.274 Y101.212 E32.70207
G1 X105.996 Y101.572 F12000.000
G1 X98.450 Y116.628 E33.14044 F1200.000
G1 X99.352 Y116.628 E33.16393
G1 X106.899 Y101.572 E33.60230
G1 X107.126 Y101.119 F12000.000
G1 X126.045 Y63.372 E34.70132 F1200.000
G1 X126.947 Y63.372 E34.72481
G1 X100.255 Y116.628 E36.27539
G1 X101.158 Y116.628 E36.29888
G1 X127.850 Y63.372 E37.84946
G1 X128.752 Y63.372 E37.87295
G1 X102.060 Y116.628 E39.42353
G1 X102.963 Y116.628 E39.44702
G1 X129.655 Y63.372 E40.99760
G1 X130.557 Y63.372 E41.02109
G1 X103.865 Y116.628 E42.57167
G1 X104.768 Y116.628 E42.59516
G1 X131.460 Y63.372 E44.14573
G1 X131.574 Y64.944 E44.18678
G1 X105.670 Y116.628 E45.69157
G1 X106.573 Y116.628 E45.71506
G1 X131.574 Y66.745 E47.16742
G1 X131.574 Y68.546 E47.21429
G1 X107.475 Y116.628 E48.61422
G1 X108.378 Y116.628 E48.63771
G1 X131.574 Y70.347 E49.98521
G1 X131.574 Y72.147 E50.03208
G1 X109.280 Y116.628 E51.32716
G1 X110.183 Y116.628 E51.35065
G1 X131.574 Y73.948 E52.59329
G1 X131.574 Y75.749 E52.64016
G1 X111.085 Y116.628 E53.83038
G1 X111.988 Y116.628 E53.85387
G1 X131.574 Y77.550 E54.99166
G1 X131.574 Y79.350 E55.03853
G1 X112.890 Y116.628 E56.12389
G1 X113.793 Y116.628 E56.14738
G1 X131.574 Y81.151 E57.18031
G1 X131.574 Y82.952 E57.22718
G1 X114.695 Y116.628 E58.20768
G1 X115.598 Y116.628 E58.23117
G1 X131.574 Y84.752 E59.15924
G1 X131.574 Y86.553 E59.20611
G1 X116.501 Y116.628 E60.08176
G1 X117.403 Y116.628 E60.10525
G1 X131.574 Y88.354 E60.92846
G1 X131.574 Y90.155 E60.97534
G1 X118.306 Y116.628 E61.74612
G1 X119.208 Y116.628 E61.76961
G1 X131.574 Y91.955 E62.48797
G1 X131.574 Y93.756 E62.53484
G1 X120.111 Y116.628 E63.20077
G1 X121.013 Y116.628 E63.22426
G1 X131.574 Y95.557 E63.83776
G1 X131.574 Y97.358 E63.88463
G1 X121.916 Y116.628 E64.44570
G1 X122.818 Y116.628 E64.46919
G1 X131.574 Y99.158 E64.97784
G1 X131.574 Y100.959 E65.02471
G1 X123.721 Y116.628 E65.48092
G1 X124.623 Y116.628 E65.50441
G1 X131.574 Y102.760 E65.90820
G1 X131.574 Y104.560 E65.95507
G1 X125.526 Y116.628 E66.30642
G1 X126.428 Y116.628 E66.32991
G1 X131.574 Y106.361 E66.62884
G1 X131.574 Y108.162 E66.67571
G1 X127.331 Y116.628 E66.92221
G1 X128.233 Y116.628 E66.94570
G1 X131.574 Y109.963 E67.13977
G1 X131.574 Y111.763 E67.18664
G1 X129.136 Y116.628 E67.32828
G1 X130.038 Y116.628 E67.35178
G1 X131.574 Y113.564 E67.44099
G1 X131.574 Y115.365 E67.48786
G1 X130.941 Y116.628 E67.52464
M104 S188 ; set temperature
G1 E65.52464 F1680.00000
G92 E0
G1 Z0.400 F12000.000
G1 X131.500 Y116.500 F12000.000
G1 E2.00000 F1680.00000
G1 X131.500 Y63.500 E2.18590 F2400.000
G1 X93.500 Y63.500 E2.31918
G1 X93.500 Y64.500 E2.32269
G1 X94.500 Y64.500 E2.32620
G1 X94.500 Y115.500 E2.50508
G1 X93.500 Y115.500 E2.50859
G1 X93.500 Y116.500 E2.51209
G1 X131.500 Y116.500 E2.64538
G1 X131.161 Y115.682 F12000.000
G1 X94.839 Y115.682 E2.77278 F2400.000
G1 X94.839 Y112.747 E2.78308
G1 X131.161 Y112.747 E2.91048
G1 X131.161 Y109.811 E2.92077
G1 X94.839 Y109.811 E3.04818
G1 X94.839 Y106.875 E3.05847
G1 X131.161 Y106.875 E3.18588
