; generated by Slic3r 0.9.9 on 2013-04-20 at 00:28:12

; layer_height = 0.4
; perimeters = 2
; top_solid_layers = 2
; bottom_solid_layers = 2
; fill_density = 0.2
; perimeter_speed = 30
; infill_speed = 60
; travel_speed = 130
; nozzle_diameter = 0.5
; filament_diameter = 3
; extrusion_multiplier = 0.8
; perimeters extrusion width = 0.53mm
; infill extrusion width = 0.53mm
; solid infill extrusion width = 0.53mm
; top infill extrusion width = 0.53mm
; first layer extrusion width = 1.00mm

G21 ; set units to millimeters
M107
M190 S105 ; wait for bed temperature to be reached
M104 S220 ; set temperature
G28 ; home all axes
G1 Z5 F150 ; lift nozzle
M109 S220 ; wait for temperature to be reached
G90 ; use absolute coordinates
G92 E0
M82 ; use absolute distances for extrusion
G1 F1800.000 E-2.00000
G92 E0
G1 Z0.500 F7800.000
G1 X49.950 Y72.420
G1 F1800.000 E2.00000
G1 X50.400 Y72.120 F540.000 E2.02732
G1 X50.870 Y71.860 E2.05445
G1 X51.610 Y71.530 E2.09539
G1 X51.870 Y71.440 E2.10928
G1 X52.660 Y71.240 E2.15045
G1 X52.920 Y71.190 E2.16383
G1 X53.730 Y71.110 E2.20494
G1 X146.270 Y71.110 E6.87973
G1 X147.080 Y71.190 E6.92085
G1 X147.610 Y71.300 E6.94820
G1 X148.130 Y71.440 E6.97540
G1 X148.890 Y71.740 E7.01668
G1 X149.600 Y72.120 E7.05736
G1 X150.050 Y72.420 E7.08468
G1 X150.480 Y72.760 E7.11237
G1 X150.680 Y72.940 E7.12596
G1 X151.240 Y73.520 E7.16669
G1 X151.580 Y73.950 E7.19438
G1 X151.730 Y74.170 E7.20783
G1 X152.010 Y74.630 E7.23504
G1 X152.260 Y75.110 E7.26238
G1 X152.560 Y75.870 E7.30365
G1 X152.700 Y76.390 E7.33085
G1 X152.810 Y76.920 E7.35820
G1 X152.890 Y77.730 E7.39932
G1 X152.890 Y119.280 E9.49827
G1 X152.840 Y119.820 E9.52567
G1 X152.760 Y120.370 E9.55375
G1 X152.700 Y120.640 E9.56772
G1 X152.630 Y120.900 E9.58132
G1 X152.450 Y121.420 E9.60912
G1 X152.120 Y122.180 E9.65097
G1 X151.690 Y122.890 E9.69291
G1 X151.190 Y123.540 E9.73433
G1 X150.610 Y124.130 E9.77613
G1 X150.180 Y124.480 E9.80413
G1 X149.500 Y124.940 E9.84561
G1 X149.020 Y125.200 E9.87318
G1 X148.770 Y125.310 E9.88698
G1 X147.990 Y125.600 E9.92902
G1 X147.460 Y125.740 E9.95671
G1 X147.190 Y125.790 E9.97058
G1 X146.640 Y125.860 E9.99859
G1 X114.640 Y128.860 E11.62221
G1 X114.000 Y128.890 E11.65457
G1 X53.730 Y128.890 E14.69920
G1 X52.920 Y128.810 E14.74031
G1 X52.390 Y128.700 E14.76766
G1 X51.870 Y128.560 E14.79486
G1 X51.110 Y128.260 E14.83614
G1 X50.400 Y127.880 E14.87682
G1 X49.950 Y127.580 E14.90414
G1 X49.520 Y127.240 E14.93183
G1 X49.320 Y127.060 E14.94542
G1 X48.760 Y126.480 E14.98615
G1 X48.420 Y126.050 E15.01384
G1 X48.270 Y125.830 E15.02729
G1 X47.990 Y125.370 E15.05450
G1 X47.740 Y124.890 E15.08184
G1 X47.440 Y124.130 E15.12311
G1 X47.300 Y123.610 E15.15032
G1 X47.190 Y123.080 E15.17766
G1 X47.110 Y122.270 E15.21878
G1 X47.110 Y77.730 E17.46878
G1 X47.190 Y76.920 E17.50990
G1 X47.300 Y76.390 E17.53724
G1 X47.440 Y75.870 E17.56445
G1 X47.530 Y75.610 E17.57835
G1 X47.860 Y74.870 E17.61928
G1 X48.120 Y74.400 E17.64641
G1 X48.270 Y74.170 E17.66028
G1 X48.420 Y73.950 E17.67373
G1 X48.760 Y73.520 E17.70142
G1 X49.320 Y72.940 E17.74215
G1 X49.844 Y72.502 E17.77666
G1 F1800.000 E15.77666
G92 E0
G1 X128.168 Y108.726 F7800.000
G1 F1800.000 E2.00000
G1 X128.492 Y108.139 F540.000 E2.03388
G1 X128.680 Y107.861 E2.05082
G1 X128.886 Y107.596 E2.06776
G1 X129.345 Y107.108 E2.10164
G1 X129.596 Y106.886 E2.11859
G1 X130.139 Y106.491 E2.15247
G1 X130.726 Y106.169 E2.18633
G1 X131.034 Y106.035 E2.20328
G1 X131.672 Y105.828 E2.23716
G1 X131.999 Y105.755 E2.25409
G1 X132.331 Y105.702 E2.27104
G1 X133.000 Y105.660 E2.30492
G1 X133.669 Y105.702 E2.33880
G1 X134.328 Y105.828 E2.37267
G1 X134.966 Y106.035 E2.40654
G1 X135.274 Y106.168 E2.42349
G1 X135.861 Y106.491 E2.45736
G1 X136.138 Y106.680 E2.47430
G1 X136.404 Y106.886 E2.49126
G1 X136.893 Y107.345 E2.52513
G1 X137.114 Y107.596 E2.54208
G1 X137.508 Y108.139 E2.57595
G1 X137.832 Y108.726 E2.60983
G1 X138.057 Y109.291 E2.64055
G1 X138.172 Y109.672 E2.66064
G1 X138.298 Y110.331 E2.69452
G1 X138.329 Y110.665 E2.71146
G1 X138.329 Y111.335 E2.74534
G1 X138.245 Y112.000 E2.77921
G1 X138.172 Y112.328 E2.79616
G1 X138.057 Y112.709 E2.81625
G1 X137.832 Y113.274 E2.84697
G1 X137.508 Y113.861 E2.88085
G1 X137.320 Y114.139 E2.89779
G1 X137.114 Y114.404 E2.91474
G1 X136.655 Y114.892 E2.94861
G1 X136.404 Y115.114 E2.96556
G1 X135.861 Y115.509 E2.99944
G1 X135.274 Y115.831 E3.03331
G1 X134.966 Y115.965 E3.05026
G1 X134.328 Y116.172 E3.08413
G1 X134.001 Y116.245 E3.10107
G1 X133.335 Y116.329 E3.13496
G1 X132.938 Y116.338 E3.15504
G1 X132.331 Y116.298 E3.18577
G1 X131.672 Y116.172 E3.21964
G1 X131.034 Y115.965 E3.25351
G1 X130.726 Y115.832 E3.27046
G1 X130.139 Y115.509 E3.30433
G1 X129.862 Y115.320 E3.32128
G1 X129.596 Y115.114 E3.33823
G1 X129.108 Y114.655 E3.37210
G1 X128.886 Y114.404 E3.38905
G1 X128.492 Y113.861 E3.42292
G1 X128.292 Y113.517 E3.44301
G1 X128.035 Y112.966 E3.47374
G1 X127.922 Y112.650 E3.49068
G1 X127.755 Y112.001 E3.52456
G1 X127.671 Y111.335 E3.55843
G1 X127.660 Y111.000 E3.57538
G1 X127.671 Y110.665 E3.59233
G1 X127.755 Y109.999 E3.62620
G1 X127.922 Y109.350 E3.66008
G1 X128.115 Y108.849 E3.68719
G1 X128.963 Y109.138 F7800.000
G1 X129.103 Y108.858 F540.000 E3.70303
G1 X129.403 Y108.386 E3.73124
G1 X129.574 Y108.166 E3.74535
G1 X129.956 Y107.759 E3.77356
G1 X130.166 Y107.574 E3.78767
G1 X130.617 Y107.246 E3.81588
G1 X131.107 Y106.977 E3.84409
G1 X131.363 Y106.866 E3.85820
G1 X131.894 Y106.693 E3.88641
G1 X132.167 Y106.632 E3.90052
G1 X132.443 Y106.588 E3.91463
G1 X133.000 Y106.553 E3.94284
G1 X133.557 Y106.588 E3.97105
G1 X134.106 Y106.693 E3.99926
G1 X134.637 Y106.866 E4.02746
G1 X134.893 Y106.977 E4.04158
G1 X135.383 Y107.246 E4.06978
G1 X135.614 Y107.403 E4.08389
G1 X135.834 Y107.574 E4.09801
G1 X136.241 Y107.956 E4.12622
G1 X136.426 Y108.166 E4.14033
G1 X136.754 Y108.617 E4.16854
G1 X137.023 Y109.107 E4.19675
G1 X137.217 Y109.594 E4.22322
G1 X137.307 Y109.894 E4.23906
G1 X137.412 Y110.443 E4.26727
G1 X137.438 Y110.721 E4.28138
G1 X137.438 Y111.279 E4.30959
G1 X137.368 Y111.833 E4.33780
G1 X137.307 Y112.106 E4.35191
G1 X137.217 Y112.406 E4.36775
G1 X137.023 Y112.893 E4.39423
G1 X136.754 Y113.383 E4.42244
G1 X136.597 Y113.614 E4.43655
G1 X136.426 Y113.834 E4.45066
G1 X136.044 Y114.241 E4.47887
G1 X135.834 Y114.426 E4.49298
G1 X135.383 Y114.754 E4.52119
G1 X134.893 Y115.023 E4.54940
G1 X134.637 Y115.134 E4.56351
G1 X134.106 Y115.307 E4.59172
G1 X133.833 Y115.368 E4.60583
G1 X133.279 Y115.438 E4.63404
G1 X132.966 Y115.445 E4.64988
G1 X132.443 Y115.412 E4.67636
G1 X131.894 Y115.307 E4.70456
G1 X131.363 Y115.134 E4.73277
G1 X131.107 Y115.023 E4.74688
G1 X130.617 Y114.754 E4.77509
G1 X130.386 Y114.597 E4.78920
G1 X130.166 Y114.426 E4.80331
G1 X129.759 Y114.044 E4.83152
G1 X129.574 Y113.834 E4.84564
G1 X129.246 Y113.383 E4.87384
G1 X129.088 Y113.112 E4.88968
G1 X128.866 Y112.637 E4.91616
G1 X128.771 Y112.374 E4.93027
G1 X128.632 Y111.833 E4.95848
G1 X128.562 Y111.279 E4.98669
G1 X128.553 Y111.000 E5.00080
G1 X128.562 Y110.721 E5.01492
G1 X128.632 Y110.167 E5.04312
G1 X128.771 Y109.626 E5.07133
G1 X128.910 Y109.261 E5.09105
G1 X128.783 Y108.882 F7800.000
G1 X121.339 Y104.339
G1 X144.661 Y104.339 F540.000 E6.26919
G1 X144.661 Y117.661 E6.94216
G1 X121.339 Y117.661 E8.12030
G1 X121.339 Y104.473 E8.78651
G1 X120.446 Y103.446 F7800.000
G1 X145.554 Y103.446 F378.000 E10.05484
G1 X145.554 Y118.554 E10.81801
G1 X120.446 Y118.554 E12.08634
G1 X120.446 Y103.580 E12.84274
G1 X121.219 Y103.893 F7800.000
G1 X138.819 Y104.986
G1 X144.014 Y110.181 F1080.000 E13.22456
G1 X144.014 Y111.480 E13.29205
G1 X137.520 Y104.986 E13.76932
G1 X136.221 Y104.986 E13.83681
G1 X144.014 Y112.779 E14.40953
G1 X144.014 Y108.883 F7800.000
G1 X140.117 Y104.986 F1080.000 E14.69590
G1 X141.416 Y104.986 E14.76339
G1 X144.014 Y107.584 E14.95431
G1 X144.014 Y106.285 E15.02180
G1 X142.715 Y104.986 E15.11727
G1 X144.014 Y104.986 E15.18477
G1 X138.420 Y108.484 F7800.000
G1 X144.014 Y114.078 F1080.000 E15.59588
G1 X144.014 Y115.376 E15.66337
G1 X138.944 Y110.306 E16.03599
G1 X138.949 Y111.610 E16.10376
G1 X144.014 Y116.675 E16.47600
G1 X143.054 Y117.014 E16.52890
G1 X138.733 Y112.693 E16.84646
G1 X138.368 Y113.627 E16.89856
G1 X141.755 Y117.014 E17.14749
G1 X140.456 Y117.014 E17.21499
G1 X137.885 Y114.443 E17.40396
G1 X137.297 Y115.153 E17.45190
G1 X139.158 Y117.014 E17.58864
G1 X137.859 Y117.014 E17.65613
G1 X136.615 Y115.770 E17.74758
G1 X136.560 Y117.014 E17.81230
G1 X135.883 Y116.337 E17.86205
G1 X135.261 Y117.014 E17.90982
G1 X130.524 Y117.015 F7800.000
G1 X130.692 Y116.523 F360.000 E17.92353
G1 X131.184 Y117.015 E17.94187
G1 X131.660 Y116.831 E17.95534
G1 X131.843 Y117.015 E17.96218
G1 X132.446 Y116.958 E17.97815
G1 X132.503 Y117.015 E17.98028
G1 X133.130 Y116.982 E17.99685
G1 X133.162 Y117.015 E17.99806
G1 X133.747 Y116.939 E18.01361
G1 X133.822 Y117.015 E18.01642
G1 X134.306 Y116.839 E18.03000
G1 X134.481 Y117.015 E18.03656
G1 X134.826 Y116.700 E18.04888
G1 X135.141 Y117.015 E18.06062
G1 X135.307 Y116.521 E18.07436
G1 X136.115 Y114.305 F7800.000
G1 X145.500 Y103.500
G1 X132.999 Y106.462
G1 X130.739 Y104.986
G1 X130.117 Y105.663 F1080.000 E18.12213
G1 X129.440 Y104.986 E18.17188
G1 X128.141 Y104.986 E18.23937
G1 X129.385 Y106.230 E18.33082
G1 X128.703 Y106.847 E18.37860
G1 X126.842 Y104.986 E18.51534
G1 X125.544 Y104.986 E18.58284
G1 X128.115 Y107.557 E18.77181
G1 X127.632 Y108.373 E18.82108
G1 X124.245 Y104.986 E19.07001
G1 X122.946 Y104.986 E19.13750
G1 X127.267 Y109.307 E19.45506
G1 X127.051 Y110.390 E19.51244
G1 X121.986 Y105.325 E19.88468
G1 X121.986 Y106.624 E19.95217
G1 X127.056 Y111.694 E20.32479
G1 X127.580 Y113.516 E20.42333
G1 X121.986 Y107.922 E20.83444
G1 X121.986 Y109.221 E20.90193
G1 X129.779 Y117.014 E21.47465
G1 X128.480 Y117.014 E21.54214
G1 X121.986 Y110.520 E22.01941
G1 X121.986 Y111.819 E22.08690
G1 X127.181 Y117.014 E22.46872
G1 X125.883 Y117.014 E22.53621
G1 X121.986 Y113.117 E22.82258
G1 X121.986 Y114.416 E22.89007
G1 X124.584 Y117.014 E23.08099
G1 X123.285 Y117.014 E23.14848
G1 X121.986 Y115.715 E23.24395
G1 X121.986 Y117.014 E23.31145
G1 X130.693 Y105.479 F7800.000
G1 X131.174 Y105.300 F360.000 E23.32499
G1 X130.859 Y104.985 E23.33673
G1 X131.519 Y104.985 E23.35413
G1 X131.694 Y105.161 E23.36069
G1 X132.178 Y104.985 E23.37427
G1 X132.253 Y105.061 E23.37708
G1 X132.838 Y104.985 E23.39263
G1 X132.870 Y105.018 E23.39384
G1 X133.497 Y104.985 E23.41041
G1 X133.554 Y105.042 E23.41254
G1 X134.157 Y104.985 E23.42851
G1 X134.340 Y105.169 E23.43535
G1 X134.816 Y104.985 E23.44882
G1 X135.308 Y105.477 E23.46716
G1 X135.476 Y104.985 E23.48087
G1 F1800.000 E21.48087
G92 E0
G1 X136.115 Y107.695 F7800.000
G1 X145.500 Y103.500
G1 X145.500 Y93.500
G1 X133.088 Y90.503
G1 X133.669 Y91.298
G1 F1800.000 E2.00000
G1 X133.273 Y91.331 F540.000 E2.02009
G1 X132.665 Y91.329 E2.05082
G1 X131.999 Y91.245 E2.08469
G1 X131.672 Y91.172 E2.10164
G1 X131.350 Y91.078 E2.11858
G1 X130.726 Y90.832 E2.15246
G1 X130.428 Y90.679 E2.16940
G1 X129.861 Y90.320 E2.20328
G1 X129.596 Y90.114 E2.22023
G1 X129.108 Y89.655 E2.25409
G1 X128.886 Y89.404 E2.27104
G1 X128.492 Y88.861 E2.30492
G1 X128.168 Y88.274 E2.33879
G1 X128.014 Y87.907 E2.35888
G1 X127.828 Y87.328 E2.38961
G1 X127.702 Y86.669 E2.42348
G1 X127.669 Y86.273 E2.44357
G1 X127.671 Y85.665 E2.47430
G1 X127.745 Y85.061 E2.50503
G1 X127.828 Y84.672 E2.52512
G1 X127.922 Y84.350 E2.54206
G1 X128.168 Y83.726 E2.57594
G1 X128.492 Y83.139 E2.60981
G1 X128.680 Y82.861 E2.62676
G1 X128.886 Y82.596 E2.64370
G1 X129.345 Y82.108 E2.67758
G1 X129.812 Y81.718 E2.70831
G1 X130.139 Y81.492 E2.72839
G1 X130.726 Y81.168 E2.76227
G1 X131.291 Y80.943 E2.79300
G1 X131.672 Y80.828 E2.81309
G1 X132.331 Y80.702 E2.84696
G1 X132.665 Y80.671 E2.86391
G1 X133.335 Y80.671 E2.89778
G1 X134.001 Y80.755 E2.93166
G1 X134.650 Y80.922 E2.96553
G1 X134.966 Y81.035 E2.98248
G1 X135.572 Y81.321 E3.01635
G1 X135.861 Y81.492 E3.03330
G1 X136.404 Y81.886 E3.06717
G1 X136.655 Y82.108 E3.08412
G1 X137.114 Y82.596 E3.11799
G1 X137.320 Y82.861 E3.13494
G1 X137.679 Y83.428 E3.16881
G1 X137.940 Y83.977 E3.19954
G1 X138.078 Y84.350 E3.21963
G1 X138.232 Y84.939 E3.25036
G1 X138.298 Y85.331 E3.27045
G1 X138.329 Y85.665 E3.28739
G1 X138.329 Y86.335 E3.32127
G1 X138.245 Y87.001 E3.35514
G1 X138.172 Y87.328 E3.37209
G1 X138.057 Y87.709 E3.39217
G1 X137.832 Y88.274 E3.42290
G1 X137.679 Y88.572 E3.43985
G1 X137.320 Y89.139 E3.47372
G1 X137.114 Y89.404 E3.49067
G1 X136.655 Y89.892 E3.52454
G1 X136.404 Y90.114 E3.54149
G1 X135.861 Y90.508 E3.57536
G1 X135.572 Y90.679 E3.59231
G1 X134.966 Y90.965 E3.62618
G1 X134.328 Y91.172 E3.66006
G1 X133.801 Y91.277 E3.68717
G1 X133.557 Y90.412 F7800.000
G1 X133.245 Y90.439 F540.000 E3.70301
G1 X132.721 Y90.438 E3.72949
G1 X132.167 Y90.368 E3.75770
G1 X131.894 Y90.307 E3.77181
G1 X131.626 Y90.229 E3.78592
G1 X131.107 Y90.023 E3.81413
G1 X130.858 Y89.897 E3.82824
G1 X130.386 Y89.597 E3.85645
G1 X130.166 Y89.426 E3.87056
G1 X129.759 Y89.044 E3.89877
G1 X129.574 Y88.834 E3.91288
G1 X129.246 Y88.383 E3.94109
G1 X128.977 Y87.893 E3.96930
G1 X128.854 Y87.605 E3.98514
G1 X128.693 Y87.106 E4.01162
G1 X128.588 Y86.557 E4.03983
G1 X128.561 Y86.245 E4.05567
G1 X128.562 Y85.721 E4.08214
G1 X128.627 Y85.201 E4.10862
G1 X128.693 Y84.894 E4.12446
G1 X128.854 Y84.395 E4.15094
G1 X128.977 Y84.107 E4.16678
G1 X129.246 Y83.617 E4.19499
G1 X129.403 Y83.386 E4.20910
G1 X129.574 Y83.166 E4.22321
G1 X129.956 Y82.759 E4.25142
G1 X130.359 Y82.424 E4.27790
G1 X130.617 Y82.246 E4.29374
G1 X131.107 Y81.977 E4.32195
G1 X131.594 Y81.783 E4.34842
G1 X131.894 Y81.693 E4.36426
G1 X132.443 Y81.588 E4.39247
G1 X132.721 Y81.562 E4.40658
G1 X133.279 Y81.562 E4.43479
G1 X133.833 Y81.632 E4.46300
G1 X134.374 Y81.771 E4.49121
G1 X134.637 Y81.866 E4.50532
G1 X135.142 Y82.103 E4.53353
G1 X135.383 Y82.246 E4.54764
G1 X135.834 Y82.574 E4.57585
G1 X136.044 Y82.759 E4.58996
G1 X136.426 Y83.166 E4.61817
G1 X136.597 Y83.386 E4.63228
G1 X136.897 Y83.858 E4.66049
G1 X137.121 Y84.332 E4.68697
G1 X137.229 Y84.626 E4.70281
G1 X137.360 Y85.133 E4.72928
G1 X137.412 Y85.443 E4.74512
G1 X137.438 Y85.721 E4.75924
G1 X137.438 Y86.279 E4.78744
G1 X137.368 Y86.833 E4.81565
G1 X137.307 Y87.106 E4.82976
G1 X137.217 Y87.406 E4.84560
G1 X137.023 Y87.893 E4.87208
G1 X136.897 Y88.142 E4.88619
G1 X136.597 Y88.614 E4.91440
G1 X136.426 Y88.834 E4.92851
G1 X136.044 Y89.241 E4.95672
G1 X135.834 Y89.426 E4.97083
G1 X135.383 Y89.754 E4.99904
G1 X135.142 Y89.897 E5.01315
G1 X134.637 Y90.134 E5.04136
G1 X134.106 Y90.307 E5.06957
G1 X133.690 Y90.391 E5.09102
G1 X133.434 Y90.700 F7800.000
G1 X144.661 Y92.661
G1 X121.339 Y92.661 F540.000 E6.26916
G1 X121.339 Y79.339 E6.94213
G1 X144.661 Y79.339 E8.12027
G1 X144.661 Y92.527 E8.78648
G1 X145.554 Y93.554 F7800.000
G1 X120.446 Y93.554 F378.000 E10.05481
G1 X120.446 Y78.446 E10.81798
G1 X145.554 Y78.446 E12.08631
G1 X145.554 Y93.420 E12.84272
G1 X144.781 Y93.107 F7800.000
G1 X130.524 Y92.015
G1 X130.692 Y91.523 F360.000 E12.85642
G1 X131.184 Y92.015 E12.87476
G1 X131.660 Y91.831 E12.88823
G1 X131.843 Y92.015 E12.89507
G1 X132.446 Y91.958 E12.91104
G1 X132.503 Y92.015 E12.91317
G1 X133.130 Y91.982 E12.92974
G1 X133.162 Y92.015 E12.93095
G1 X133.747 Y91.939 E12.94650
G1 X133.822 Y92.015 E12.94931
G1 X134.306 Y91.839 E12.96289
G1 X134.481 Y92.015 E12.96945
G1 X134.826 Y91.700 E12.98177
G1 X135.141 Y92.015 E12.99351
G1 X135.307 Y91.521 E13.00725
G1 X135.261 Y92.014 F7800.000
G1 X135.883 Y91.337 F1080.000 E13.05501
G1 X136.560 Y92.014 E13.10476
G1 X136.615 Y90.770 E13.16949
G1 X137.859 Y92.014 E13.26094
