; generated by Slic3r 0.9.9 on 2013-05-28 at 01:18:02

; layer_height = 0.4
; perimeters = 3
; top_solid_layers = 3
; bottom_solid_layers = 3
; fill_density = 0.4
; perimeter_speed = 30
; infill_speed = 60
; travel_speed = 130
; nozzle_diameter = 0.5
; filament_diameter = 3
; extrusion_multiplier = 1
; perimeters extrusion width = 0.53mm
; infill extrusion width = 0.53mm
; solid infill extrusion width = 0.53mm
; top infill extrusion width = 0.53mm
; first layer extrusion width = 0.70mm

G21 ; set units to millimeters
M107
M104 S200 ; set temperature
G28 ; home all axes
G1 Z5 F5000 ; lift nozzle

M109 S200 ; wait for temperature to be reached
G90 ; use absolute coordinates
G92 E0
M82 ; use absolute distances for extrusion
G1 F1800.000 E-1.00000
G92 E0
G1 Z0.350 F7800.000
G1 X37.447 Y90.250
G1 F1800.000 E1.00000
G1 X38.007 Y90.040 F540.000 E1.01946
G1 X38.597 Y89.890 E1.03927
G1 X56.797 Y85.990 E1.64485
G1 X57.347 Y85.900 E1.66298
G1 X58.187 Y85.840 E1.69038
G1 X165.387 Y85.840 E5.17815
G1 X166.207 Y85.890 E5.20488
G1 X166.757 Y85.980 E5.22302
G1 X167.287 Y86.120 E5.24085
G1 X167.547 Y86.200 E5.24970
G1 X168.057 Y86.400 E5.26752
G1 X168.797 Y86.780 E5.29459
G1 X169.257 Y87.080 E5.31246
G1 X169.477 Y87.250 E5.32150
G1 X170.097 Y87.790 E5.34825
G1 X172.787 Y90.490 E5.47226
G1 X173.307 Y91.130 E5.49908
G1 X173.607 Y91.590 E5.51695
G1 X173.867 Y92.080 E5.53500
G1 X173.987 Y92.330 E5.54402
G1 X174.187 Y92.840 E5.56185
G1 X174.407 Y93.630 E5.58853
G1 X174.497 Y94.180 E5.60666
G1 X174.537 Y94.720 E5.62428
G1 X174.547 Y102.500 E5.87740
G1 X174.517 Y103.070 E5.89597
G1 X174.447 Y103.640 E5.91465
G1 X174.327 Y104.190 E5.93297
G1 X174.157 Y104.740 E5.95170
G1 X173.817 Y105.520 E5.97938
G1 X173.537 Y106.020 E5.99803
G1 X173.217 Y106.490 E6.01653
G1 X172.137 Y107.820 E6.07227
G1 X171.367 Y108.610 E6.10816
G1 X169.557 Y110.190 E6.18633
G1 X168.877 Y110.670 E6.21341
G1 X168.387 Y110.940 E6.23161
G1 X167.877 Y111.170 E6.24982
G1 X167.087 Y111.440 E6.27698
G1 X166.547 Y111.560 E6.29498
G1 X147.567 Y114.100 E6.91800
G1 X146.687 Y114.160 E6.94670
G1 X58.187 Y114.160 E9.82606
G1 X57.627 Y114.130 E9.84431
G1 X56.797 Y114.010 E9.87159
G1 X38.597 Y110.110 E10.47718
G1 X38.007 Y109.960 E10.49698
G1 X37.157 Y109.630 E10.52665
G1 X31.657 Y107.050 E10.72430
G1 X31.137 Y106.770 E10.74352
G1 X30.877 Y106.620 E10.75328
G1 X30.167 Y106.090 E10.78211
G1 X29.737 Y105.680 E10.80144
G1 X29.337 Y105.240 E10.82079
G1 X28.677 Y104.310 E10.85789
G1 X28.427 Y103.880 E10.87407
G1 X27.917 Y102.730 E10.91500
G1 X27.707 Y102.080 E10.93723
G1 X27.567 Y101.420 E10.95918
G1 X27.467 Y100.700 E10.98283
G1 X27.437 Y100.360 E10.99393
G1 X27.437 Y99.670 E11.01638
G1 X27.507 Y98.990 E11.03862
G1 X27.627 Y98.260 E11.06269
G1 X27.707 Y97.920 E11.07406
G1 X27.917 Y97.270 E11.09628
G1 X28.427 Y96.110 E11.13751
G1 X28.677 Y95.680 E11.15369
G1 X29.157 Y94.980 E11.18131
G1 X29.537 Y94.520 E11.20072
G1 X30.167 Y93.900 E11.22948
G1 X30.397 Y93.710 E11.23918
G1 X30.887 Y93.370 E11.25859
G1 X31.137 Y93.210 E11.26824
G1 X31.667 Y92.940 E11.28760
G1 X37.356 Y90.289 E11.49181
G1 F1800.000 E10.49181
G92 E0
G1 X60.365 Y94.671 F7800.000
G1 F1800.000 E1.00000
G1 X66.022 Y94.671 F540.000 E1.18405
G1 X66.022 Y96.729 E1.25098
G1 X60.365 Y96.729 E1.43504
G1 X60.365 Y94.770 E1.49876
G1 X60.365 Y94.014 F7800.000
G1 F1800.000 E0.49876
G92 E0
G1 X76.565 Y94.671 F7800.000
G1 F1800.000 E1.00000
G1 X82.222 Y94.671 F540.000 E1.18405
G1 X82.222 Y96.729 E1.25098
G1 X76.565 Y96.729 E1.43504
G1 X76.565 Y94.770 E1.49876
G1 X76.565 Y94.014 F7800.000
G1 F1800.000 E0.49876
G92 E0
G1 X157.565 Y94.671 F7800.000
G1 F1800.000 E1.00000
G1 X163.222 Y94.671 F540.000 E1.18405
G1 X163.222 Y96.729 E1.25098
G1 X157.565 Y96.729 E1.43504
G1 X157.565 Y94.770 E1.49876
G1 X157.565 Y94.014 F7800.000
G1 F1800.000 E0.49876
G92 E0
G1 X130.822 Y94.671 F7800.000
G1 F1800.000 E1.00000
G1 X130.822 Y96.729 F540.000 E1.06693
G1 X125.165 Y96.729 E1.25098
G1 X125.165 Y94.671 E1.31791
G1 X130.723 Y94.671 E1.49876
G1 X131.479 Y94.671 F7800.000
G1 X132.136 Y94.143
G1 X133.850 Y94.143 F540.000 E1.55454
G1 X133.850 Y98.043 E1.68143
G1 X143.336 Y98.043 E1.99004
G1 X143.336 Y94.143 E2.11693
G1 X145.050 Y94.143 E2.17271
G1 X145.050 Y98.043 E2.29960
G1 X154.536 Y98.043 E2.60821
G1 X154.536 Y96.643 E2.65376
G1 X156.250 Y96.643 E2.70954
G1 X156.250 Y98.043 E2.75509
G1 X164.536 Y98.043 E3.02466
G1 X164.536 Y96.643 E3.07021
G1 X166.250 Y96.643 E3.12599
G1 X166.250 Y100.857 E3.26312
G1 X165.350 Y100.857 E3.29240
G1 X165.350 Y101.957 E3.32819
G1 X163.750 Y101.957 E3.38024
G1 X163.750 Y103.357 E3.42579
G1 X157.036 Y103.357 E3.64425
G1 X157.036 Y101.957 E3.68980
G1 X145.050 Y101.957 E4.07975
G1 X145.050 Y105.857 E4.20664
G1 X143.336 Y105.857 E4.26242
G1 X143.336 Y101.957 E4.38931
G1 X131.350 Y101.957 E4.77926
G1 X131.350 Y103.357 E4.82481
G1 X124.636 Y103.357 E5.04327
G1 X124.636 Y101.957 E5.08882
G1 X117.650 Y101.957 E5.31609
G1 X117.650 Y103.357 E5.36164
G1 X105.936 Y103.357 E5.74277
G1 X105.936 Y101.957 E5.78832
G1 X98.950 Y101.957 E6.01559
G1 X98.950 Y103.357 E6.06114
G1 X89.736 Y103.357 E6.36094
G1 X89.736 Y101.957 E6.40649
G1 X82.750 Y101.957 E6.63376
G1 X82.750 Y103.357 E6.67931
G1 X76.036 Y103.357 E6.89777
G1 X76.036 Y101.957 E6.94332
G1 X59.050 Y101.957 E7.49595
G1 X59.050 Y103.357 E7.54150
G1 X57.336 Y103.357 E7.59728
G1 X57.336 Y101.957 E7.64283
G1 X41.636 Y101.957 E8.15363
G1 X41.636 Y98.043 E8.28100
G1 X57.336 Y98.043 E8.79180
G1 X57.336 Y96.643 E8.83735
G1 X59.050 Y96.643 E8.89313
G1 X59.050 Y98.043 E8.93868
G1 X67.336 Y98.043 E9.20825
G1 X67.336 Y94.143 E9.33514
G1 X69.050 Y94.143 E9.39092
G1 X69.050 Y98.043 E9.51781
G1 X73.536 Y98.043 E9.66374
G1 X73.536 Y96.643 E9.70929
G1 X75.250 Y96.643 E9.76508
G1 X75.250 Y98.043 E9.81063
G1 X83.536 Y98.043 E10.08019
G1 X83.536 Y96.643 E10.12574
G1 X85.250 Y96.643 E10.18153
G1 X85.250 Y98.043 E10.22708
G1 X89.736 Y98.043 E10.37301
G1 X89.736 Y94.143 E10.49990
G1 X91.450 Y94.143 E10.55568
G1 X91.450 Y98.043 E10.68257
G1 X99.736 Y98.043 E10.95214
G1 X99.736 Y94.143 E11.07902
G1 X101.450 Y94.143 E11.13481
G1 X101.450 Y98.043 E11.26170
G1 X108.436 Y98.043 E11.48897
G1 X108.436 Y94.143 E11.61586
G1 X110.150 Y94.143 E11.67164
G1 X110.150 Y98.043 E11.79853
G1 X122.136 Y98.043 E12.18847
G1 X122.136 Y96.643 E12.23402
G1 X123.850 Y96.643 E12.28981
G1 X123.850 Y98.043 E12.33536
G1 X132.136 Y98.043 E12.60493
G1 X132.136 Y94.241 E12.72861
G1 X131.479 Y93.486 F7800.000
G1 X134.508 Y93.486 F540.000 E12.82715
G1 X134.508 Y97.386 E12.95403
G1 X142.679 Y97.386 E13.21989
G1 X142.679 Y93.486 E13.34678
G1 X145.708 Y93.486 E13.44532
G1 X145.708 Y97.386 E13.57220
G1 X153.879 Y97.386 E13.83806
G1 X153.879 Y95.986 E13.88361
G1 X156.908 Y95.986 E13.98215
G1 X156.908 Y97.386 E14.02770
G1 X163.879 Y97.386 E14.25451
G1 X163.879 Y95.986 E14.30006
G1 X166.908 Y95.986 E14.39860
G1 X166.908 Y101.514 E14.57848
G1 X166.008 Y101.514 E14.60776
G1 X166.008 Y102.614 E14.64355
G1 X164.408 Y102.614 E14.69560
G1 X164.408 Y104.014 E14.74115
G1 X156.379 Y104.014 E15.00237
G1 X156.379 Y102.614 E15.04792
G1 X145.708 Y102.614 E15.39511
G1 X145.708 Y106.514 E15.52200
G1 X142.679 Y106.514 E15.62054
G1 X142.679 Y102.614 E15.74743
G1 X132.008 Y102.614 E16.09462
G1 X132.008 Y104.014 E16.14017
G1 X123.979 Y104.014 E16.40139
G1 X123.979 Y102.614 E16.44693
G1 X118.308 Y102.614 E16.63145
G1 X118.308 Y104.014 E16.67700
G1 X105.279 Y104.014 E17.10089
G1 X105.279 Y102.614 E17.14644
G1 X99.608 Y102.614 E17.33096
G1 X99.608 Y104.014 E17.37651
G1 X89.079 Y104.014 E17.71906
G1 X89.079 Y102.614 E17.76461
G1 X83.408 Y102.614 E17.94913
G1 X83.408 Y104.014 E17.99468
G1 X75.379 Y104.014 E18.25589
G1 X75.379 Y102.614 E18.30144
G1 X59.708 Y102.614 E18.81131
G1 X59.708 Y104.014 E18.85686
G1 X56.679 Y104.014 E18.95540
G1 X56.679 Y102.614 E19.00095
G1 X40.979 Y102.614 E19.51175
G1 X40.979 Y97.386 E19.68187
G1 X56.679 Y97.386 E20.19267
G1 X56.679 Y95.986 E20.23822
G1 X59.708 Y95.986 E20.33676
G1 X59.708 Y97.386 E20.38231
G1 X66.679 Y97.386 E20.60912
G1 X66.679 Y93.486 E20.73601
G1 X69.708 Y93.486 E20.83455
G1 X69.708 Y97.386 E20.96144
G1 X72.879 Y97.386 E21.06462
G1 X72.879 Y95.986 E21.11017
G1 X75.908 Y95.986 E21.20871
G1 X75.908 Y97.386 E21.25426
G1 X82.879 Y97.386 E21.48107
G1 X82.879 Y95.986 E21.52662
G1 X85.908 Y95.986 E21.62516
G1 X85.908 Y97.386 E21.67071
G1 X89.079 Y97.386 E21.77389
G1 X89.079 Y93.486 E21.90077
G1 X92.108 Y93.486 E21.99931
G1 X92.108 Y97.386 E22.12620
G1 X99.079 Y97.386 E22.35301
G1 X99.079 Y93.486 E22.47990
G1 X102.108 Y93.486 E22.57844
G1 X102.108 Y97.386 E22.70533
G1 X107.779 Y97.386 E22.88984
G1 X107.779 Y93.486 E23.01673
G1 X110.808 Y93.486 E23.11527
G1 X110.808 Y97.386 E23.24216
G1 X121.479 Y97.386 E23.58935
G1 X121.479 Y95.986 E23.63490
G1 X124.508 Y95.986 E23.73344
G1 X124.508 Y97.386 E23.77899
G1 X131.479 Y97.386 E24.00580
G1 X131.479 Y93.584 E24.12948
G1 X135.165 Y92.829 F7800.000
G1 X135.165 Y96.729 F378.000 E24.25637
G1 X142.022 Y96.729 E24.47947
G1 X142.022 Y94.671 E24.54639
G1 X139.522 Y94.671 E24.62773
G1 X139.522 Y92.829 E24.68769
G1 X148.865 Y92.829 E24.99166
G1 X148.865 Y94.671 E25.05162
G1 X146.365 Y94.671 E25.13296
G1 X146.365 Y96.729 E25.19989
G1 X153.222 Y96.729 E25.42299
G1 X153.222 Y95.329 E25.46854
G1 X155.722 Y95.329 E25.54987
G1 X155.722 Y92.829 E25.63121
G1 X165.065 Y92.829 E25.93519
G1 X165.065 Y95.329 E26.01652
G1 X167.565 Y95.329 E26.09786
G1 X167.565 Y102.171 E26.32050
G1 X166.665 Y102.171 E26.34978
G1 X166.665 Y103.271 E26.38557
G1 X165.065 Y103.271 E26.43762
G1 X165.065 Y104.671 E26.48317
G1 X155.722 Y104.671 E26.78715
G1 X155.722 Y103.271 E26.83270
G1 X146.365 Y103.271 E27.13713
G1 X146.365 Y107.171 E27.26402
G1 X139.522 Y107.171 E27.48665
G1 X139.522 Y105.329 E27.54661
G1 X142.022 Y105.329 E27.62795
G1 X142.022 Y103.271 E27.69488
G1 X132.665 Y103.271 E27.99931
G1 X132.665 Y104.671 E28.04486
G1 X123.322 Y104.671 E28.34884
G1 X123.322 Y103.271 E28.39439
G1 X118.965 Y103.271 E28.53615
G1 X118.965 Y104.671 E28.58169
G1 X104.622 Y104.671 E29.04834
G1 X104.622 Y103.271 E29.09389
G1 X100.265 Y103.271 E29.23565
G1 X100.265 Y104.671 E29.28120
G1 X88.422 Y104.671 E29.66651
G1 X88.422 Y103.271 E29.71206
G1 X84.065 Y103.271 E29.85382
G1 X84.065 Y104.671 E29.89937
G1 X74.722 Y104.671 E30.20335
G1 X74.722 Y103.271 E30.24889
G1 X60.365 Y103.271 E30.71600
G1 X60.365 Y105.329 E30.78293
G1 X70.365 Y105.329 E31.10828
G1 X70.365 Y107.171 E31.16824
G1 X58.522 Y107.171 E31.55356
G1 X58.522 Y104.671 E31.63489
G1 X56.022 Y104.671 E31.71623
G1 X56.022 Y103.271 E31.76178
G1 X40.322 Y103.271 E32.27258
G1 X40.322 Y96.729 E32.48546
G1 X56.022 Y96.729 E32.99626
G1 X56.022 Y95.329 E33.04181
G1 X58.522 Y95.329 E33.12315
G1 X58.522 Y92.829 E33.20449
G1 X70.365 Y92.829 E33.58980
G1 X70.365 Y96.729 E33.71669
G1 X72.222 Y96.729 E33.77711
G1 X72.222 Y95.329 E33.82266
G1 X74.722 Y95.329 E33.90399
G1 X74.722 Y92.829 E33.98533
G1 X84.065 Y92.829 E34.28931
G1 X84.065 Y95.329 E34.37064
G1 X86.565 Y95.329 E34.45198
G1 X86.565 Y96.729 E34.49753
G1 X88.422 Y96.729 E34.55795
G1 X88.422 Y92.829 E34.68484
G1 X92.765 Y92.829 E34.82614
G1 X92.765 Y96.729 E34.95303
G1 X98.422 Y96.729 E35.13708
G1 X98.422 Y92.829 E35.26397
G1 X102.765 Y92.829 E35.40526
G1 X102.765 Y96.729 E35.53215
G1 X107.122 Y96.729 E35.67391
G1 X107.122 Y94.671 E35.74084
G1 X104.622 Y94.671 E35.82218
G1 X104.622 Y92.829 E35.88214
G1 X118.965 Y92.829 E36.34879
G1 X118.965 Y94.671 E36.40875
G1 X111.465 Y94.671 E36.65276
G1 X111.465 Y96.729 E36.71969
G1 X120.822 Y96.729 E37.02412
G1 X120.822 Y95.329 E37.06967
G1 X123.322 Y95.329 E37.15101
G1 X123.322 Y92.829 E37.23235
G1 X135.066 Y92.829 E37.61445
G1 X134.836 Y93.398 F7800.000
G1 F1800.000 E36.61445
G92 E0
G1 X39.165 Y99.304 F7800.000
G1 F1800.000 E1.00000
G1 X39.165 Y100.696 F540.000 E1.04532
G1 X34.641 Y100.696 E1.19248
G1 X34.469 Y100.293 E1.20676
G1 X34.427 Y100.000 E1.21638
G1 X34.469 Y99.707 E1.22601
G1 X34.641 Y99.304 E1.24029
G1 X39.066 Y99.304 E1.38424
G1 F1800.000 E0.38424
G92 E0
G1 X42.112 Y101.481 F7800.000
G1 F1800.000 E1.00000
G1 X42.112 Y100.550 F1080.000 E1.03036
G1 X43.043 Y101.481 E1.07329
G1 X43.974 Y101.481 E1.10364
G1 X42.112 Y99.619 E1.18950
G1 X42.112 Y98.688 E1.21985
G1 X44.906 Y101.481 E1.34862
G1 X45.837 Y101.481 E1.37898
G1 X42.874 Y98.519 E1.51553
G1 X43.806 Y98.519 E1.54588
G1 X46.768 Y101.481 E1.68244
G1 X47.699 Y101.481 E1.71279
G1 X44.737 Y98.519 E1.84934
G1 X45.668 Y98.519 E1.87970
G1 X48.630 Y101.481 E2.01625
G1 X49.561 Y101.481 E2.04660
G1 X46.599 Y98.519 E2.18316
G1 X47.530 Y98.519 E2.21351
G1 X50.492 Y101.481 E2.35006
G1 X51.423 Y101.481 E2.38041
G1 X48.461 Y98.519 E2.51697
G1 X49.392 Y98.519 E2.54732
G1 X52.354 Y101.481 E2.68388
G1 X53.285 Y101.481 E2.71423
G1 X50.323 Y98.519 E2.85078
G1 X51.254 Y98.519 E2.88113
G1 X54.216 Y101.481 E3.01769
G1 X55.147 Y101.481 E3.04804
G1 X52.185 Y98.519 E3.18460
G1 X53.116 Y98.519 E3.21495
G1 X56.078 Y101.481 E3.35150
G1 X57.009 Y101.481 E3.38185
G1 X54.047 Y98.519 E3.51841
G1 X54.978 Y98.519 E3.54876
G1 X57.940 Y101.481 E3.68532
G1 X58.871 Y101.481 E3.71567
G1 X55.909 Y98.519 E3.85222
G1 X56.840 Y98.519 E3.88257
G1 X59.802 Y101.481 E4.01913
G1 X60.734 Y101.481 E4.04948
G1 X57.771 Y98.519 E4.18604
G1 X58.702 Y98.519 E4.21639
G1 X61.665 Y101.481 E4.35294
G1 X62.596 Y101.481 E4.38329
G1 X59.634 Y98.519 E4.51985
G1 X60.565 Y98.519 E4.55020
G1 X63.527 Y101.481 E4.68676
G1 X64.458 Y101.481 E4.71711
G1 X61.496 Y98.519 E4.85366
G1 X62.427 Y98.519 E4.88401
G1 X65.389 Y101.481 E5.02057
G1 X66.320 Y101.481 E5.05092
G1 X63.358 Y98.519 E5.18747
G1 X64.289 Y98.519 E5.21783
G1 X67.251 Y101.481 E5.35438
G1 X68.182 Y101.481 E5.38473
G1 X65.220 Y98.519 E5.52129
G1 X66.151 Y98.519 E5.55164
G1 X69.113 Y101.481 E5.68819
G1 X70.044 Y101.481 E5.71855
G1 X67.082 Y98.519 E5.85510
G1 X68.013 Y98.519 E5.88545
G1 X70.975 Y101.481 E6.02201
G1 X71.906 Y101.481 E6.05236
G1 X68.944 Y98.519 E6.18891
G1 X69.875 Y98.519 E6.21926
G1 X72.837 Y101.481 E6.35582
G1 X73.768 Y101.481 E6.38617
G1 X70.806 Y98.519 E6.52273
G1 X71.737 Y98.519 E6.55308
G1 X74.699 Y101.481 E6.68963
G1 X75.630 Y101.481 E6.71998
G1 X72.668 Y98.519 E6.85654
G1 X73.599 Y98.519 E6.88689
G1 X77.961 Y102.881 E7.08799
G1 X78.893 Y102.881 E7.11834
G1 X74.530 Y98.519 E7.31944
G1 X75.462 Y98.519 E7.34979
G1 X79.824 Y102.881 E7.55088
G1 X80.755 Y102.881 E7.58124
G1 X76.393 Y98.519 E7.78233
G1 X77.324 Y98.519 E7.81268
G1 X81.686 Y102.881 E8.01378
G1 X82.274 Y102.538 E8.03598
G1 X78.255 Y98.519 E8.22128
G1 X79.186 Y98.519 E8.25163
G1 X82.274 Y101.607 E8.39402
G1 X83.079 Y101.481 E8.42057
G1 X80.117 Y98.519 E8.55712
G1 X81.048 Y98.519 E8.58748
G1 X84.010 Y101.481 E8.72403
G1 X84.941 Y101.481 E8.75438
G1 X81.979 Y98.519 E8.89094
G1 X82.910 Y98.519 E8.92129
G1 X85.872 Y101.481 E9.05784
G1 X86.803 Y101.481 E9.08820
G1 X83.841 Y98.519 E9.22475
G1 X84.772 Y98.519 E9.25510
G1 X87.734 Y101.481 E9.39166
G1 X88.665 Y101.481 E9.42201
G1 X85.703 Y98.519 E9.55856
G1 X86.634 Y98.519 E9.58891
G1 X89.596 Y101.481 E9.72547
G1 X90.212 Y102.097 F7800.000
G1 X90.996 Y102.881 F1080.000 E9.76162
G1 X91.927 Y102.881 E9.79197
G1 X87.565 Y98.519 E9.99307
G1 X88.496 Y98.519 E10.02342
G1 X92.858 Y102.881 E10.22452
G1 X93.789 Y102.881 E10.25487
G1 X89.427 Y98.519 E10.45597
G1 X90.358 Y98.519 E10.48632
G1 X94.721 Y102.881 E10.68741
G1 X95.652 Y102.881 E10.71776
G1 X91.290 Y98.519 E10.91886
G1 X92.221 Y98.519 E10.94921
G1 X96.583 Y102.881 E11.15031
G1 X97.514 Y102.881 E11.18066
G1 X93.152 Y98.519 E11.38176
G1 X94.083 Y98.519 E11.41211
G1 X98.445 Y102.881 E11.61321
G1 X98.474 Y101.979 E11.64261
G1 X95.014 Y98.519 E11.80215
G1 X95.945 Y98.519 E11.83250
G1 X98.907 Y101.481 E11.96905
G1 X99.838 Y101.481 E11.99940
G1 X96.876 Y98.519 E12.13596
G1 X97.807 Y98.519 E12.16631
G1 X100.769 Y101.481 E12.30286
G1 X101.700 Y101.481 E12.33322
G1 X98.738 Y98.519 E12.46977
G1 X99.669 Y98.519 E12.50012
G1 X102.631 Y101.481 E12.63668
G1 X103.562 Y101.481 E12.66703
G1 X100.600 Y98.519 E12.80358
G1 X101.531 Y98.519 E12.83394
G1 X104.493 Y101.481 E12.97049
G1 X105.424 Y101.481 E13.00084
G1 X102.462 Y98.519 E13.13740
G1 X103.393 Y98.519 E13.16775
G1 X106.355 Y101.481 E13.30430
