; generated by Slic3r 0.9.10b on 2013-11-09 at 20:03:18

; layer_height = 0.3
; perimeters = 1
; top_solid_layers = 2
; bottom_solid_layers = 2
; fill_density = 0.5
; perimeter_speed = 30
; infill_speed = 30
; travel_speed = 200
; nozzle_diameter = 0.5
; filament_diameter = 2.98
; extrusion_multiplier = 0.9
; perimeters extrusion width = 0.50mm
; infill extrusion width = 0.50mm
; solid infill extrusion width = 0.50mm
; top infill extrusion width = 0.50mm

G21 ; set units to millimeters
M107
M104 S190 ; set temperature
G28 ; home all axes
G1 Z15 F120 ; lift nozzle
M109 S190 ; wait for temperature to be reached
G90 ; use absolute coordinates
G92 E0
M82 ; use absolute distances for extrusion
G1 F1680.000 E-2.00000
G92 E0
G1 Z0.450 F12000.000
G1 X46.191 Y65.287
G1 F1680.000 E2.00000
G1 X47.341 Y64.647 F900.000 E2.03821
G1 X48.601 Y64.247 E2.07659
G1 X49.911 Y64.117 E2.11481
G1 X90.411 Y64.117 E3.29068
G1 X91.681 Y64.237 E3.32772
G1 X92.901 Y64.607 E3.36473
G1 X94.021 Y65.217 E3.40176
G1 X95.011 Y66.017 E3.43871
G1 X95.811 Y67.007 E3.47567
G1 X96.421 Y68.127 E3.51270
G1 X96.791 Y69.347 E3.54971
G1 X96.911 Y70.617 E3.58675
G1 X96.911 Y103.197 E4.53267
G1 X96.771 Y104.547 E4.57207
G1 X96.351 Y105.827 E4.61118
G1 X95.681 Y107.007 E4.65058
G1 X94.781 Y108.017 E4.68986
G1 X93.681 Y108.817 E4.72935
G1 X92.451 Y109.367 E4.76847
G1 X91.131 Y109.657 E4.80771
G1 X54.191 Y113.747 E5.88677
G1 X53.691 Y113.777 E5.90131
G1 X52.801 Y113.787 E5.92715
G1 X52.281 Y113.767 E5.94226
G1 X51.511 Y113.697 E5.96471
G1 X50.511 Y113.557 E5.99402
G1 X50.021 Y113.457 E6.00854
G1 X48.781 Y113.117 E6.04587
G1 X48.301 Y112.957 E6.06056
G1 X47.311 Y112.547 E6.09168
G1 X46.191 Y111.977 E6.12816
G1 X45.761 Y111.727 E6.14260
G1 X44.921 Y111.167 E6.17191
G1 X43.891 Y110.357 E6.20996
G1 X43.521 Y110.027 E6.22435
G1 X42.781 Y109.277 E6.25494
G1 X42.211 Y108.617 E6.28026
G1 X41.681 Y107.927 E6.30552
G1 X41.351 Y107.447 E6.32244
G1 X40.911 Y106.717 E6.34718
G1 X40.671 Y106.277 E6.36173
G1 X40.261 Y105.407 E6.38966
G1 X39.921 Y104.557 E6.41624
G1 X39.651 Y103.747 E6.44103
G1 X39.531 Y103.317 E6.45399
G1 X39.301 Y102.327 E6.48350
G1 X39.221 Y101.837 E6.49791
G1 X39.121 Y100.937 E6.52420
G1 X39.081 Y99.917 E6.55384
G1 X39.091 Y99.157 E6.57591
G1 X39.121 Y98.637 E6.59103
G1 X39.211 Y97.817 E6.61498
G1 X43.481 Y69.647 E7.44220
G1 X43.811 Y68.367 E7.48058
G1 X44.391 Y67.187 E7.51876
G1 X45.191 Y66.147 E7.55685
G1 X46.134 Y65.336 E7.59297
G1 F1680.000 E5.59297
G92 E0
G1 X72.112 Y96.117 F12000.000
G1 F1680.000 E2.00000
G1 X72.566 Y95.805 F900.000 E2.01599
G1 X73.073 Y95.590 E2.03197
G1 X73.612 Y95.481 E2.04796
G1 X74.163 Y95.481 E2.06394
G1 X74.702 Y95.590 E2.07993
G1 X75.209 Y95.805 E2.09591
G1 X75.663 Y96.117 E2.11189
G1 X75.934 Y96.380 E2.12286
G1 X76.254 Y96.815 E2.13855
G1 X76.485 Y97.315 E2.15453
G1 X76.613 Y97.850 E2.17051
G1 X76.631 Y98.401 E2.18651
G1 X76.540 Y98.944 E2.20249
G1 X76.342 Y99.457 E2.21847
G1 X76.046 Y99.921 E2.23446
G1 X75.663 Y100.317 E2.25044
G1 X75.358 Y100.540 E2.26140
G1 X74.876 Y100.783 E2.27709
G1 X74.345 Y100.929 E2.29307
G1 X73.795 Y100.966 E2.30906
G1 X73.250 Y100.892 E2.32504
G1 X72.730 Y100.712 E2.34102
G1 X72.256 Y100.431 E2.35700
G1 X71.848 Y100.062 E2.37299
G1 X71.521 Y99.618 E2.38898
G1 X71.289 Y99.119 E2.40497
G1 X71.162 Y98.584 E2.42095
G1 X71.143 Y98.033 E2.43694
G1 X71.235 Y97.490 E2.45292
G1 X71.433 Y96.977 E2.46890
G1 X71.729 Y96.512 E2.48489
G1 X72.056 Y96.167 E2.49870
G1 X70.958 Y84.109 F12000.000
G1 X70.558 Y84.109 F900.000 E2.51032
G1 X70.166 Y84.029 E2.52195
G1 X69.797 Y83.873 E2.53357
G1 X69.467 Y83.646 E2.54520
G1 X69.189 Y83.358 E2.55683
G1 X69.037 Y83.138 E2.56458
G1 X68.869 Y82.775 E2.57621
G1 X68.776 Y82.385 E2.58783
G1 X68.763 Y81.985 E2.59946
G1 X68.829 Y81.590 E2.61108
G1 X68.973 Y81.216 E2.62271
G1 X69.189 Y80.879 E2.63434
G1 X69.467 Y80.591 E2.64596
G1 X69.797 Y80.364 E2.65759
G1 X70.166 Y80.208 E2.66921
G1 X70.558 Y80.128 E2.68084
G1 X70.958 Y80.128 E2.69246
G1 X71.351 Y80.208 E2.70409
G1 X71.719 Y80.364 E2.71571
G1 X72.050 Y80.591 E2.72734
G1 X72.328 Y80.879 E2.73896
G1 X72.479 Y81.099 E2.74672
G1 X72.648 Y81.462 E2.75835
G1 X72.741 Y81.852 E2.76997
G1 X72.754 Y82.252 E2.78160
G1 X72.687 Y82.647 E2.79322
G1 X72.543 Y83.021 E2.80485
G1 X72.328 Y83.358 E2.81647
G1 X72.050 Y83.646 E2.82810
G1 X71.719 Y83.873 E2.83972
G1 X71.351 Y84.029 E2.85135
G1 X71.033 Y84.099 E2.86080
G1 X58.033 Y82.827 F12000.000
G1 X57.906 Y83.363 F900.000 E2.87679
G1 X57.674 Y83.862 E2.89277
G1 X57.348 Y84.305 E2.90875
G1 X56.939 Y84.675 E2.92474
G1 X56.465 Y84.955 E2.94073
G1 X56.122 Y85.087 E2.95140
G1 X55.583 Y85.197 E2.96738
G1 X55.032 Y85.197 E2.98337
G1 X54.493 Y85.087 E2.99934
G1 X53.986 Y84.872 E3.01533
G1 X53.532 Y84.561 E3.03132
G1 X53.150 Y84.165 E3.04730
G1 X52.853 Y83.701 E3.06328
G1 X52.655 Y83.187 E3.07926
G1 X52.564 Y82.644 E3.09525
G1 X52.582 Y82.094 E3.11124
G1 X52.710 Y81.558 E3.12722
G1 X52.942 Y81.059 E3.14321
G1 X53.268 Y80.616 E3.15919
G1 X53.677 Y80.246 E3.17519
G1 X54.150 Y79.966 E3.19116
G1 X54.670 Y79.785 E3.20715
G1 X55.206 Y79.713 E3.22285
G1 X55.587 Y79.725 E3.23390
G1 X56.123 Y79.834 E3.24979
G1 X56.630 Y80.049 E3.26577
G1 X57.083 Y80.360 E3.28175
G1 X57.466 Y80.756 E3.29773
G1 X57.762 Y81.220 E3.31372
G1 X57.960 Y81.734 E3.32970
G1 X58.052 Y82.277 E3.34569
G1 X58.041 Y82.753 E3.35950
G1 X61.919 Y84.837 F12000.000
G1 X67.219 Y87.897 F900.000 E3.53719
G1 X67.219 Y94.017 E3.71487
G1 X61.919 Y97.077 E3.89255
G1 X56.619 Y94.017 E4.07024
G1 X56.619 Y87.897 E4.24792
G1 X61.854 Y84.875 E4.42343
G1 F1680.000 E2.42343
G92 E0
G1 X54.042 Y98.042 F12000.000
G1 F1680.000 E2.00000
G1 X54.372 Y98.269 F900.000 E2.01162
G1 X54.650 Y98.557 E2.02325
G1 X54.866 Y98.894 E2.03488
G1 X55.010 Y99.268 E2.04650
G1 X55.076 Y99.663 E2.05813
G1 X55.076 Y99.930 E2.06588
G1 X55.010 Y100.325 E2.07751
G1 X54.866 Y100.698 E2.08913
G1 X54.650 Y101.036 E2.10076
G1 X54.372 Y101.324 E2.11239
G1 X54.042 Y101.550 E2.12401
G1 X53.673 Y101.706 E2.13564
G1 X53.281 Y101.786 E2.14726
G1 X52.880 Y101.786 E2.15889
G1 X52.488 Y101.706 E2.17051
G1 X52.119 Y101.550 E2.18214
G1 X51.789 Y101.324 E2.19376
G1 X51.597 Y101.138 E2.20152
G1 X51.360 Y100.815 E2.21315
G1 X51.191 Y100.452 E2.22477
G1 X51.098 Y100.063 E2.23640
G1 X51.085 Y99.663 E2.24802
G1 X51.152 Y99.268 E2.25965
G1 X51.295 Y98.894 E2.27127
G1 X51.511 Y98.557 E2.28290
G1 X51.789 Y98.269 E2.29452
G1 X52.119 Y98.042 E2.30615
G1 X52.488 Y97.886 E2.31778
G1 X52.880 Y97.806 E2.32940
G1 X53.281 Y97.806 E2.34103
G1 X53.673 Y97.886 E2.35265
G1 X53.975 Y98.008 E2.36211
G1 X50.169 Y93.149 F12000.000
G1 X50.169 Y70.870 F720.000 E3.00894
G1 X90.169 Y70.870 E4.17029
G1 X90.169 Y102.957 E5.10191
G1 X59.613 Y102.957 E5.98909
G1 X59.303 Y103.517 E6.00766
G1 X59.041 Y103.924 E6.02171
G1 X58.752 Y104.312 E6.03576
G1 X58.438 Y104.680 E6.04981
G1 X58.101 Y105.027 E6.06386
G1 X57.740 Y105.350 E6.07791
G1 X57.360 Y105.649 E6.09196
G1 X56.960 Y105.921 E6.10601
G1 X56.542 Y106.166 E6.12006
G1 X56.110 Y106.383 E6.13410
G1 X55.664 Y106.570 E6.14815
G1 X55.206 Y106.727 E6.16220
G1 X54.739 Y106.854 E6.17625
G1 X54.264 Y106.949 E6.19030
G1 X53.785 Y107.012 E6.20435
G1 X53.302 Y107.043 E6.21840
G1 X52.818 Y107.041 E6.23245
G1 X52.335 Y107.008 E6.24650
G1 X51.856 Y106.942 E6.26055
G1 X51.382 Y106.844 E6.27459
G1 X50.915 Y106.715 E6.28864
G1 X50.459 Y106.555 E6.30269
G1 X50.014 Y106.365 E6.31674
G1 X49.582 Y106.146 E6.33079
G1 X49.167 Y105.899 E6.34484
G1 X48.768 Y105.624 E6.35889
G1 X48.389 Y105.323 E6.37294
G1 X48.031 Y104.998 E6.38699
G1 X47.695 Y104.650 E6.40104
G1 X47.383 Y104.280 E6.41508
G1 X47.097 Y103.890 E6.42913
G1 X46.837 Y103.481 E6.44318
G1 X46.605 Y103.057 E6.45723
G1 X46.402 Y102.617 E6.47128
G1 X46.229 Y102.166 E6.48533
G1 X46.086 Y101.703 E6.49938
G1 X45.974 Y101.232 E6.51343
G1 X45.894 Y100.755 E6.52748
G1 X45.846 Y100.274 E6.54153
G1 X45.831 Y99.790 E6.55558
G1 X45.847 Y99.306 E6.56962
G1 X45.896 Y98.825 E6.58367
G1 X45.977 Y98.348 E6.59772
G1 X46.089 Y97.877 E6.61177
G1 X46.233 Y97.415 E6.62582
G1 X46.407 Y96.964 E6.63987
G1 X46.611 Y96.525 E6.65392
G1 X46.843 Y96.101 E6.66797
G1 X47.104 Y95.693 E6.68202
G1 X47.391 Y95.303 E6.69607
G1 X47.703 Y94.934 E6.71011
G1 X48.040 Y94.586 E6.72416
G1 X48.398 Y94.261 E6.73821
G1 X48.778 Y93.961 E6.75226
G1 X49.177 Y93.687 E6.76631
G1 X49.593 Y93.440 E6.78036
G1 X50.102 Y93.182 E6.79694
G1 X53.540 Y97.485 F12000.000
G1 X49.797 Y93.743 F1200.000 E6.95133
G1 X49.351 Y94.007 E6.96646
G1 X52.805 Y97.461 E7.10894
G1 X52.234 Y97.601 E7.12608
G1 X48.933 Y94.300 E7.26225
G1 X48.542 Y94.619 E7.27698
G1 X51.765 Y97.842 E7.40995
G1 X51.378 Y98.166 E7.42466
G1 X48.177 Y94.965 E7.55672
G1 X47.838 Y95.336 E7.57139
G1 X51.067 Y98.565 E7.70461
G1 X50.848 Y99.057 E7.72031
G1 X47.524 Y95.733 E7.85743
G1 X47.238 Y96.157 E7.87236
G1 X50.732 Y99.651 E8.01652
G1 X50.819 Y100.448 E8.03991
G1 X46.978 Y96.608 E8.19835
G1 X46.749 Y97.088 E8.21389
G1 X55.786 Y106.126 E8.58673
G1 X55.271 Y106.322 E8.60279
G1 X46.554 Y97.604 E8.96245
G1 X46.395 Y98.156 E8.97920
G1 X54.722 Y106.483 E9.32273
G1 X54.130 Y106.601 E9.34036
G1 X46.277 Y98.748 E9.66434
G1 X46.207 Y99.389 E9.68314
G1 X53.486 Y106.668 E9.98344
G1 X52.783 Y106.676 E10.00393
G1 X46.203 Y100.096 E10.27540
G1 X46.284 Y100.887 E10.29860
G1 X51.992 Y106.595 E10.53409
G1 X51.068 Y106.381 E10.56174
G1 X46.499 Y101.812 E10.75025
G1 X47.000 Y103.024 E10.78851
G1 X49.854 Y105.878 E10.90624
G1 X56.269 Y105.898 F12000.000
G1 X52.430 Y102.059 F1200.000 E11.06461
G1 X53.224 Y102.143 E11.08791
G1 X56.722 Y105.641 E11.23219
G1 X57.147 Y105.355 E11.24713
G1 X53.822 Y102.031 E11.38427
G1 X54.311 Y101.809 E11.39992
G1 X57.543 Y105.041 E11.53325
G1 X57.913 Y104.700 E11.54792
G1 X54.714 Y101.502 E11.67987
G1 X55.039 Y101.116 E11.69458
G1 X58.257 Y104.334 E11.82736
G1 X58.576 Y103.942 E11.84209
G1 X55.279 Y100.646 E11.97809
G1 X55.416 Y100.072 E11.99529
G1 X58.867 Y103.524 E12.13768
G1 X59.132 Y103.077 E12.15281
G1 X55.398 Y99.344 E12.30684
G1 X57.246 Y94.798 F12000.000
G1 X65.044 Y102.595 F1200.000 E12.62852
G1 X64.333 Y102.595 E12.64925
G1 X50.532 Y88.794 E13.21863
G1 X50.532 Y89.504 E13.23936
G1 X63.623 Y102.595 E13.77943
G1 X62.912 Y102.595 E13.80015
G1 X50.532 Y90.215 E14.31091
G1 X50.532 Y90.925 E14.33164
G1 X62.202 Y102.595 E14.81309
G1 X61.491 Y102.595 E14.83381
G1 X50.532 Y91.635 E15.28595
G1 X50.532 Y92.346 E15.30668
G1 X60.781 Y102.595 E15.72951
G1 X60.070 Y102.595 E15.75023
G1 X50.532 Y93.056 E16.14375
G1 X50.269 Y93.504 E16.15889
G1 X59.385 Y102.620 E16.53497
G1 X58.927 Y95.768 F12000.000
G1 X65.754 Y102.595 F1200.000 E16.81661
G1 X66.465 Y102.595 E16.83734
G1 X60.608 Y96.739 E17.07894
G1 X62.019 Y97.438 E17.12486
G1 X67.175 Y102.595 E17.33760
G1 X67.886 Y102.595 E17.35832
G1 X62.469 Y97.178 E17.58179
G1 X62.919 Y96.918 E17.59696
G1 X68.596 Y102.595 E17.83115
G1 X69.306 Y102.595 E17.85188
G1 X63.370 Y96.658 E18.09680
G1 X63.820 Y96.398 E18.11197
G1 X70.017 Y102.595 E18.36762
G1 X70.727 Y102.595 E18.38835
G1 X64.271 Y96.138 E18.65472
G1 X64.721 Y95.878 E18.66990
G1 X71.438 Y102.595 E18.94700
G1 X72.148 Y102.595 E18.96773
G1 X65.172 Y95.618 E19.25556
G1 X65.622 Y95.358 E19.27074
G1 X72.859 Y102.595 E19.56930
G1 X83.516 Y102.595 F12000.000
G1 X52.153 Y71.232 F1200.000 E20.86319
G1 X52.864 Y71.232 E20.88392
G1 X84.226 Y102.595 E22.17781
G1 X84.937 Y102.595 E22.19853
G1 X53.574 Y71.232 E23.49243
G1 X54.285 Y71.232 E23.51315
G1 X85.647 Y102.595 E24.80704
G1 X86.358 Y102.595 E24.82777
G1 X54.995 Y71.232 E26.12166
G1 X55.706 Y71.232 E26.14239
G1 X87.068 Y102.595 E27.43628
G1 X87.779 Y102.595 E27.45700
G1 X56.416 Y71.232 E28.75090
G1 X57.127 Y71.232 E28.77162
G1 X68.447 Y82.552 E29.23865
G1 X68.416 Y81.811 E29.26030
G1 X57.837 Y71.232 E29.69674
G1 X58.547 Y71.232 E29.71746
G1 X68.568 Y81.253 E30.13086
G1 X68.816 Y80.790 E30.14617
G1 X59.258 Y71.232 E30.54049
G1 X59.968 Y71.232 E30.56122
G1 X69.144 Y80.408 E30.93977
G1 X69.549 Y80.102 E30.95457
G1 X60.679 Y71.232 E31.32050
G1 X61.389 Y71.232 E31.34123
G1 X70.037 Y79.880 E31.69799
G1 X70.631 Y79.763 E31.71565
G1 X62.100 Y71.232 E32.06760
G1 X62.810 Y71.232 E32.08832
G1 X71.448 Y79.869 E32.44466
G1 F1680.000 E30.44466
G92 E0
G1 X70.335 Y84.441 F12000.000
G1 F1680.000 E2.00000
G1 X88.489 Y102.595 F1200.000 E2.74897
G1 X89.200 Y102.595 E2.76970
G1 X71.056 Y84.451 E3.51824
G1 X71.623 Y84.307 E3.53530
G1 X89.807 Y102.492 E4.28550
G1 X89.807 Y101.781 E4.30623
G1 X72.089 Y84.063 E5.03718
G1 X72.471 Y83.735 E5.05188
G1 X89.807 Y101.071 E5.76709
G1 X89.807 Y100.360 E5.78781
G1 X72.776 Y83.329 E6.49043
G1 X72.997 Y82.839 E6.50611
G1 X89.807 Y99.650 E7.19964
G1 X89.807 Y98.939 E7.22036
G1 X73.109 Y82.241 E7.90924
G1 X73.006 Y81.428 E7.93317
G1 X89.807 Y98.229 E8.62632
G1 X89.807 Y97.518 E8.64704
G1 X63.521 Y71.232 E9.73150
G1 X64.231 Y71.232 E9.75222
G1 X89.807 Y96.808 E10.80736
G1 X89.807 Y96.097 E10.82809
G1 X64.942 Y71.232 E11.85392
G1 X65.652 Y71.232 E11.87465
G1 X89.807 Y95.387 E12.87117
G1 X89.807 Y94.676 E12.89189
G1 X66.363 Y71.232 E13.85910
G1 X67.073 Y71.232 E13.87983
G1 X89.807 Y93.966 E14.81773
G1 X89.807 Y93.255 E14.83845
G1 X67.784 Y71.232 E15.74704
G1 X68.494 Y71.232 E15.76776
G1 X89.807 Y92.545 E16.64704
G1 X89.807 Y91.835 E16.66777
G1 X69.205 Y71.232 E17.51773
G1 X69.915 Y71.232 E17.53846
G1 X89.807 Y91.124 E18.35911
G1 X89.807 Y90.414 E18.37983
G1 X70.626 Y71.232 E19.17118
G1 X71.336 Y71.232 E19.19190
G1 X89.807 Y89.703 E19.95393
G1 X89.807 Y88.993 E19.97466
G1 X72.047 Y71.232 E20.70738
G1 X72.757 Y71.232 E20.72811
G1 X89.807 Y88.282 E21.43151
G1 X89.807 Y87.572 E21.45224
G1 X73.467 Y71.232 E22.12634
G1 X74.178 Y71.232 E22.14706
G1 X89.807 Y86.861 E22.79185
G1 X89.807 Y86.151 E22.81258
G1 X74.888 Y71.232 E23.42805
G1 X75.599 Y71.232 E23.44878
G1 X89.807 Y85.440 E24.03494
G1 X89.807 Y84.730 E24.05567
G1 X76.309 Y71.232 E24.61252
G1 X77.020 Y71.232 E24.63325
G1 X89.807 Y84.019 E25.16079
G1 X89.807 Y83.309 E25.18152
G1 X77.730 Y71.232 E25.67975
G1 X78.441 Y71.232 E25.70047
G1 X89.807 Y82.598 E26.16939
G1 X89.807 Y81.888 E26.19012
G1 X79.151 Y71.232 E26.62973
G1 X79.862 Y71.232 E26.65046
G1 X89.807 Y81.177 E27.06075
G1 X89.807 Y80.467 E27.08148
G1 X80.572 Y71.232 E27.46247
G1 X81.283 Y71.232 E27.48319
G1 X89.807 Y79.756 E27.83487
G1 X89.807 Y79.046 E27.85559
G1 X81.993 Y71.232 E28.17796
G1 X82.704 Y71.232 E28.19869
G1 X89.807 Y78.335 E28.49174
G1 X89.807 Y77.625 E28.51246
G1 X83.414 Y71.232 E28.77621
G1 X84.125 Y71.232 E28.79693
G1 X89.807 Y76.915 E29.03136
G1 X89.807 Y76.204 E29.05209
G1 X84.835 Y71.232 E29.25721
G1 X85.546 Y71.232 E29.27794
G1 X89.807 Y75.494 E29.45375
G1 X89.807 Y74.783 E29.47447
G1 X86.256 Y71.232 E29.62097
G1 X86.967 Y71.232 E29.64170
G1 X89.807 Y74.073 E29.75888
G1 X89.807 Y73.362 E29.77961
G1 X87.677 Y71.232 E29.86749
G1 X88.387 Y71.232 E29.88821
G1 X89.807 Y72.652 E29.94678
G1 X89.807 Y71.941 E29.96750
G1 X89.098 Y71.232 E29.99676
G1 X67.582 Y88.082 F12000.000
G1 X74.725 Y95.225 F1200.000 E30.29145
G1 X73.896 Y95.106 E30.31589
G1 X67.582 Y88.792 E30.57637
G1 X67.582 Y89.503 E30.59710
G1 X73.251 Y95.172 E30.83098
G1 X72.708 Y95.339 E30.84756
G1 X67.582 Y90.213 E31.05903
G1 X67.582 Y90.924 E31.07975
G1 X72.241 Y95.583 E31.27198
G1 X71.834 Y95.886 E31.28679
G1 X67.582 Y91.634 E31.46220
G1 X67.582 Y92.345 E31.48293
G1 X71.481 Y96.244 E31.64381
G1 X71.191 Y96.664 E31.65870
G1 X67.582 Y93.055 E31.80760
G1 X67.582 Y93.765 E31.82832
G1 X70.966 Y97.150 E31.96794
G1 X70.818 Y97.712 E31.98490
G1 X67.424 Y94.318 E32.12492
G1 X66.973 Y94.578 E32.14009
G1 X70.780 Y98.385 E32.29715
G1 X70.962 Y99.277 E32.32371
G1 X66.523 Y94.838 E32.50684
G1 X66.072 Y95.098 E32.52201
G1 X73.569 Y102.595 E32.83130
G1 X74.280 Y102.595 E32.85203
G1 X72.827 Y101.142 E32.91197
G1 X73.717 Y101.321 E32.93846
G1 X74.990 Y102.595 E32.99100
G1 X75.701 Y102.595 E33.01172
G1 X74.388 Y101.282 E33.06588
G1 X74.954 Y101.138 E33.08292
G1 X76.411 Y102.595 E33.14303
G1 X77.122 Y102.595 E33.16375
G1 X75.439 Y100.912 E33.23316
G1 X75.857 Y100.619 E33.24804
G1 X77.832 Y102.595 E33.32955
G1 X78.543 Y102.595 E33.35027
G1 X76.218 Y100.270 E33.44618
G1 X76.522 Y99.864 E33.46099
G1 X79.253 Y102.595 E33.57366
