; generated by Slic3r 0.9.10b on 2013-11-09 at 20:05:19

; layer_height = 0.3
; perimeters = 1
; top_solid_layers = 2
; bottom_solid_layers = 2
; fill_density = 0.5
; perimeter_speed = 30
; infill_speed = 30
; travel_speed = 200
; nozzle_diameter = 0.5
; filament_diameter = 2.98
; extrusion_multiplier = 0.9
; perimeters extrusion width = 0.50mm
; infill extrusion width = 0.50mm
; solid infill extrusion width = 0.50mm
; top infill extrusion width = 0.50mm

G21 ; set units to millimeters
M107
M104 S190 ; set temperature
G28 ; home all axes
G1 Z15 F120 ; lift nozzle
M109 S190 ; wait for temperature to be reached
G90 ; use absolute coordinates
G92 E0
M82 ; use absolute distances for extrusion
G1 F1680.000 E-2.00000
G92 E0
G1 Z0.450 F12000.000
G1 X60.127 Y60.352
G1 F1680.000 E2.00000
G1 X60.477 Y60.002 F900.000 E2.01437
G1 X61.117 Y59.422 E2.03945
G1 X61.877 Y58.822 E2.06756
G1 X62.267 Y58.542 E2.08150
G1 X62.977 Y58.082 E2.10606
G1 X63.407 Y57.832 E2.12050
G1 X64.207 Y57.422 E2.14660
G1 X64.747 Y57.182 E2.16376
G1 X65.437 Y56.912 E2.18527
G1 X66.337 Y56.622 E2.21273
G1 X66.817 Y56.492 E2.22716
G1 X67.837 Y56.282 E2.25740
G1 X68.197 Y56.222 E2.26800
G1 X69.077 Y56.122 E2.29371
G1 X69.967 Y56.082 E2.31958
G1 X70.877 Y56.092 E2.34600
G1 X71.727 Y56.162 E2.37076
G1 X108.047 Y60.462 E3.43263
G1 X109.367 Y60.752 E3.47187
G1 X110.587 Y61.312 E3.51084
G1 X111.677 Y62.112 E3.55010
G1 X112.567 Y63.122 E3.58918
G1 X113.237 Y64.292 E3.62833
G1 X113.647 Y65.572 E3.66735
G1 X113.787 Y66.912 E3.70647
G1 X113.787 Y104.272 E4.79117
G1 X113.667 Y105.542 E4.82820
G1 X113.297 Y106.762 E4.86522
G1 X112.687 Y107.882 E4.90225
G1 X111.887 Y108.872 E4.93920
G1 X110.897 Y109.672 E4.97616
G1 X109.777 Y110.282 E5.01319
G1 X108.557 Y110.652 E5.05020
G1 X107.287 Y110.772 E5.08724
G1 X66.787 Y110.772 E6.26310
G1 X65.447 Y110.632 E6.30222
G1 X64.167 Y110.222 E6.34124
G1 X63.007 Y109.552 E6.38014
G1 X61.997 Y108.662 E6.41922
G1 X61.197 Y107.582 E6.45824
G1 X60.637 Y106.362 E6.49722
G1 X60.337 Y105.052 E6.53623
G1 X56.287 Y71.622 E7.51393
G1 X56.217 Y70.782 E7.53840
G1 X56.217 Y69.472 E7.57644
G1 X56.247 Y68.972 E7.59098
G1 X56.347 Y68.072 E7.61727
G1 X56.497 Y67.222 E7.64233
G1 X56.617 Y66.692 E7.65811
G1 X56.877 Y65.772 E7.68586
G1 X57.137 Y65.042 E7.70836
G1 X57.317 Y64.592 E7.72243
G1 X57.737 Y63.702 E7.75101
G1 X57.957 Y63.282 E7.76477
G1 X58.397 Y62.552 E7.78952
G1 X58.667 Y62.142 E7.80377
G1 X59.247 Y61.362 E7.83199
G1 X59.547 Y60.992 E7.84582
G1 X60.076 Y60.407 E7.86872
G1 F1680.000 E5.86872
G92 E0
G1 X68.535 Y68.570 F12000.000
G1 F1680.000 E2.00000
G1 X68.869 Y68.268 F900.000 E2.01308
G1 X69.257 Y68.038 E2.02616
G1 X69.682 Y67.890 E2.03923
G1 X70.127 Y67.830 E2.05226
G1 X70.429 Y67.840 E2.06104
G1 X70.871 Y67.930 E2.07412
G1 X71.285 Y68.106 E2.08720
G1 X71.657 Y68.361 E2.10028
G1 X71.970 Y68.684 E2.11335
G1 X72.212 Y69.064 E2.12643
G1 X72.374 Y69.485 E2.13951
G1 X72.449 Y69.929 E2.15259
G1 X72.434 Y70.379 E2.16567
G1 X72.330 Y70.817 E2.17875
G1 X72.140 Y71.226 E2.19182
G1 X71.873 Y71.588 E2.20490
G1 X71.657 Y71.797 E2.21363
G1 X71.285 Y72.052 E2.22671
G1 X70.871 Y72.228 E2.23979
G1 X70.429 Y72.318 E2.25287
G1 X69.979 Y72.318 E2.26594
G1 X69.537 Y72.228 E2.27902
G1 X69.123 Y72.052 E2.29210
G1 X68.751 Y71.797 E2.30518
G1 X68.438 Y71.474 E2.31826
G1 X68.196 Y71.094 E2.33134
G1 X68.034 Y70.674 E2.34441
G1 X67.959 Y70.229 E2.35749
G1 X67.974 Y69.779 E2.37057
G1 X68.078 Y69.341 E2.38365
G1 X68.268 Y68.932 E2.39673
G1 X68.487 Y68.627 E2.40764
G1 F1680.000 E0.40764
G92 E0
G1 X84.626 Y70.243 F12000.000
G1 F1680.000 E2.00000
G1 X84.753 Y69.707 F900.000 E2.01599
G1 X84.985 Y69.208 E2.03197
G1 X85.312 Y68.765 E2.04795
G1 X85.720 Y68.395 E2.06394
G1 X86.194 Y68.115 E2.07992
G1 X86.714 Y67.934 E2.09591
G1 X87.257 Y67.861 E2.11183
G1 X87.640 Y67.875 E2.12294
G1 X88.166 Y67.983 E2.13854
G1 X88.673 Y68.198 E2.15453
G1 X89.127 Y68.509 E2.17051
G1 X89.510 Y68.905 E2.18650
G1 X89.806 Y69.369 E2.20248
G1 X90.004 Y69.883 E2.21847
G1 X90.095 Y70.426 E2.23445
G1 X90.077 Y70.976 E2.25043
G1 X89.949 Y71.512 E2.26642
G1 X89.718 Y72.011 E2.28240
G1 X89.391 Y72.454 E2.29839
G1 X89.117 Y72.718 E2.30944
G1 X88.673 Y73.021 E2.32504
G1 X88.166 Y73.236 E2.34102
G1 X87.627 Y73.346 E2.35701
G1 X87.076 Y73.346 E2.37299
G1 X86.537 Y73.236 E2.38898
G1 X86.030 Y73.021 E2.40496
G1 X85.576 Y72.710 E2.42095
G1 X85.193 Y72.314 E2.43693
G1 X84.897 Y71.850 E2.45292
G1 X84.699 Y71.336 E2.46890
G1 X84.607 Y70.793 E2.48489
G1 X84.618 Y70.317 E2.49870
G1 X83.637 Y71.767 F12000.000
G1 X84.085 Y72.075 F720.000 E2.51447
G1 X84.531 Y72.427 E2.53096
G1 X84.952 Y72.808 E2.54745
G1 X85.347 Y73.216 E2.56395
G1 X85.714 Y73.650 E2.58044
G1 X86.051 Y74.107 E2.59693
G1 X86.368 Y74.608 E2.61415
G1 X86.629 Y75.084 E2.62992
G1 X86.869 Y75.600 E2.64641
G1 X87.073 Y76.130 E2.66290
G1 X87.241 Y76.672 E2.67940
G1 X87.373 Y77.225 E2.69589
G1 X87.470 Y77.810 E2.71310
G1 X87.524 Y78.350 E2.72887
G1 X87.543 Y78.918 E2.74537
G1 X87.524 Y79.486 E2.76186
G1 X87.467 Y80.051 E2.77835
G1 X87.372 Y80.613 E2.79491
G1 X87.241 Y81.164 E2.81134
G1 X87.073 Y81.706 E2.82783
G1 X86.869 Y82.236 E2.84433
G1 X86.629 Y82.752 E2.86082
G1 X86.356 Y83.250 E2.87731
G1 X86.051 Y83.728 E2.89380
G1 X85.714 Y84.186 E2.91030
G1 X85.347 Y84.620 E2.92679
G1 X84.952 Y85.028 E2.94328
G1 X84.518 Y85.419 E2.96023
G1 X84.085 Y85.761 E2.97627
G1 X83.617 Y86.083 E2.99276
G1 X83.128 Y86.372 E3.00925
G1 X82.621 Y86.628 E3.02575
G1 X82.098 Y86.850 E3.04224
G1 X81.546 Y87.041 E3.05919
G1 X81.013 Y87.186 E3.07522
G1 X80.457 Y87.300 E3.09172
G1 X79.894 Y87.375 E3.10821
G1 X79.327 Y87.413 E3.12470
G1 X78.759 Y87.413 E3.14120
G1 X78.192 Y87.375 E3.15769
G1 X77.605 Y87.295 E3.17490
G1 X77.072 Y87.186 E3.19067
G1 X76.524 Y87.036 E3.20717
G1 X75.988 Y86.850 E3.22366
G1 X75.465 Y86.628 E3.24015
G1 X74.958 Y86.372 E3.25665
G1 X74.469 Y86.083 E3.27314
G1 X73.981 Y85.746 E3.29035
G1 X73.555 Y85.409 E3.30612
G1 X73.134 Y85.028 E3.32262
G1 X72.739 Y84.620 E3.33911
G1 X72.372 Y84.186 E3.35560
G1 X72.035 Y83.729 E3.37210
G1 X71.729 Y83.250 E3.38859
G1 X71.456 Y82.752 E3.40508
G1 X71.217 Y82.236 E3.42157
G1 X71.013 Y81.706 E3.43807
G1 X70.839 Y81.139 E3.45528
G1 X70.713 Y80.611 E3.47105
G1 X70.619 Y80.051 E3.48754
G1 X70.562 Y79.486 E3.50404
G1 X70.543 Y78.918 E3.52053
G1 X70.562 Y78.350 E3.53702
G1 X70.619 Y77.785 E3.55352
G1 X70.719 Y77.201 E3.57073
G1 X70.845 Y76.672 E3.58650
G1 X71.013 Y76.130 E3.60299
G1 X71.217 Y75.600 E3.61949
G1 X71.456 Y75.084 E3.63598
G1 X71.729 Y74.586 E3.65247
G1 X72.035 Y74.107 E3.66897
G1 X72.372 Y73.650 E3.68546
G1 X72.739 Y73.216 E3.70195
G1 X73.134 Y72.808 E3.71845
G1 X73.555 Y72.427 E3.73494
G1 X74.001 Y72.075 E3.75143
G1 X74.469 Y71.753 E3.76792
G1 X74.958 Y71.464 E3.78442
G1 X75.465 Y71.207 E3.80091
G1 X75.988 Y70.986 E3.81740
G1 X76.524 Y70.799 E3.83390
G1 X77.072 Y70.649 E3.85039
G1 X77.629 Y70.536 E3.86688
G1 X78.192 Y70.460 E3.88338
G1 X78.759 Y70.422 E3.89987
G1 X79.327 Y70.422 E3.91636
G1 X79.894 Y70.460 E3.93285
G1 X80.457 Y70.536 E3.94935
G1 X81.037 Y70.656 E3.96656
G1 X81.561 Y70.799 E3.98233
G1 X82.098 Y70.986 E3.99883
G1 X82.621 Y71.207 E4.01532
G1 X83.128 Y71.464 E4.03181
G1 X83.574 Y71.728 E4.04685
G1 F1680.000 E2.04685
G92 E0
G1 X72.510 Y85.126 F12000.000
G1 F1680.000 E2.00000
G1 X72.893 Y85.522 F900.000 E2.01598
G1 X73.107 Y85.837 E2.02704
G1 X73.332 Y86.324 E2.04264
G1 X73.460 Y86.860 E2.05862
G1 X73.478 Y87.410 E2.07460
G1 X73.387 Y87.953 E2.09059
G1 X73.191 Y88.463 E2.10645
G1 X72.896 Y88.926 E2.12239
G1 X72.653 Y89.196 E2.13294
G1 X72.507 Y89.329 E2.13866
G1 X72.220 Y89.541 E2.14903
G1 X72.053 Y89.640 E2.15468
G1 X71.556 Y89.851 E2.17036
G1 X71.370 Y89.902 E2.17593
G1 X71.010 Y89.963 E2.18654
G1 X70.458 Y89.963 E2.20256
G1 X69.918 Y89.853 E2.21856
G1 X69.414 Y89.639 E2.23445
G1 X68.964 Y89.331 E2.25030
G1 X68.822 Y89.203 E2.25586
G1 X68.579 Y88.934 E2.26638
G1 X68.283 Y88.473 E2.28227
G1 X68.134 Y88.121 E2.29338
G1 X68.041 Y87.782 E2.30358
G1 X68.008 Y87.583 E2.30943
G1 X67.990 Y87.043 E2.32513
G1 X68.082 Y86.500 E2.34112
G1 X68.280 Y85.986 E2.35710
G1 X68.576 Y85.522 E2.37309
G1 X68.959 Y85.126 E2.38907
G1 X69.413 Y84.815 E2.40506
G1 X69.920 Y84.600 E2.42104
G1 X70.459 Y84.490 E2.43703
G1 X71.010 Y84.490 E2.45301
G1 X71.549 Y84.600 E2.46900
G1 X72.056 Y84.815 E2.48498
G1 X72.451 Y85.080 E2.49879
G1 F1680.000 E0.49879
G92 E0
G1 X85.677 Y87.308 F12000.000
G1 F1680.000 E2.00000
G1 X85.810 Y86.878 F900.000 E2.01307
G1 X86.027 Y86.483 E2.02616
G1 X86.318 Y86.139 E2.03925
G1 X86.671 Y85.860 E2.05231
G1 X87.073 Y85.657 E2.06539
G1 X87.507 Y85.538 E2.07845
G1 X87.956 Y85.508 E2.09152
G1 X88.257 Y85.538 E2.10031
G1 X88.691 Y85.657 E2.11336
G1 X89.093 Y85.861 E2.12646
G1 X89.446 Y86.139 E2.13951
G1 X89.736 Y86.483 E2.15257
G1 X89.953 Y86.878 E2.16566
G1 X90.087 Y87.308 E2.17874
G1 X90.132 Y87.757 E2.19184
G1 X90.087 Y88.205 E2.20491
G1 X89.953 Y88.636 E2.21801
G1 X89.736 Y89.031 E2.23108
G1 X89.446 Y89.374 E2.24413
G1 X89.093 Y89.653 E2.25721
G1 X88.690 Y89.857 E2.27031
G1 X88.256 Y89.975 E2.28336
G1 X87.957 Y90.006 E2.29210
G1 X87.507 Y89.975 E2.30520
G1 X87.073 Y89.856 E2.31827
G1 X86.670 Y89.653 E2.33136
G1 X86.317 Y89.374 E2.34441
G1 X86.027 Y89.031 E2.35748
G1 X85.810 Y88.634 E2.37060
G1 X85.676 Y88.204 E2.38368
G1 X85.632 Y87.756 E2.39675
G1 X85.664 Y87.382 E2.40764
G1 F1680.000 E0.40764
G92 E0
G1 X85.244 Y104.022 F12000.000
G1 F1680.000 E2.00000
G1 X67.043 Y104.022 F720.000 E2.52846
G1 X67.043 Y100.168 E2.64037
G1 X107.043 Y100.168 E3.80172
G1 X107.043 Y104.022 E3.91363
G1 X85.319 Y104.022 E4.54434
G1 F1680.000 E2.54434
G92 E0
G1 X67.043 Y94.668 F12000.000
G1 F1680.000 E2.00000
G1 X67.043 Y81.384 F720.000 E2.38569
G1 X66.924 Y80.707 E2.40564
G1 X66.846 Y80.053 E2.42476
G1 X66.802 Y79.396 E2.44388
G1 X66.794 Y78.738 E2.46300
G1 X66.822 Y78.080 E2.48211
G1 X66.884 Y77.424 E2.50123
G1 X67.009 Y76.596 E2.52555
G1 X66.436 Y76.273 E2.54464
G1 X66.037 Y76.012 E2.55849
G1 X65.656 Y75.725 E2.57233
G1 X65.295 Y75.414 E2.58618
G1 X64.954 Y75.079 E2.60003
G1 X64.637 Y74.723 E2.61388
G1 X64.344 Y74.347 E2.62773
G1 X64.076 Y73.952 E2.64158
G1 X63.834 Y73.541 E2.65543
G1 X63.620 Y73.115 E2.66928
G1 X63.435 Y72.675 E2.68313
G1 X63.279 Y72.224 E2.69698
G1 X63.153 Y71.764 E2.71083
G1 X63.057 Y71.297 E2.72468
G1 X62.993 Y70.824 E2.73852
G1 X62.959 Y70.349 E2.75237
G1 X62.957 Y69.872 E2.76622
G1 X62.986 Y69.395 E2.78007
G1 X63.047 Y68.922 E2.79392
G1 X63.139 Y68.454 E2.80777
G1 X63.261 Y67.993 E2.82162
G1 X63.413 Y67.541 E2.83547
G1 X63.595 Y67.100 E2.84932
G1 X63.805 Y66.672 E2.86317
G1 X64.043 Y66.258 E2.87702
G1 X64.307 Y65.861 E2.89087
G1 X64.597 Y65.483 E2.90471
G1 X64.907 Y65.129 E2.91837
G1 X65.249 Y64.787 E2.93241
G1 X65.608 Y64.472 E2.94626
G1 X65.986 Y64.182 E2.96011
G1 X66.383 Y63.918 E2.97396
G1 X66.797 Y63.680 E2.98781
G1 X67.225 Y63.470 E3.00166
G1 X67.666 Y63.288 E3.01551
G1 X68.118 Y63.136 E3.02936
G1 X68.579 Y63.014 E3.04321
G1 X69.041 Y62.923 E3.05686
G1 X69.520 Y62.861 E3.07090
G1 X69.997 Y62.832 E3.08475
G1 X70.474 Y62.834 E3.09860
G1 X70.949 Y62.868 E3.11245
G1 X71.415 Y62.931 E3.12611
G1 X71.889 Y63.028 E3.14015
G1 X72.349 Y63.154 E3.15400
G1 X72.800 Y63.310 E3.16785
G1 X73.240 Y63.495 E3.18170
G1 X73.666 Y63.709 E3.19555
G1 X74.077 Y63.951 E3.20940
G1 X74.472 Y64.219 E3.22324
G1 X74.848 Y64.512 E3.23709
G1 X75.204 Y64.829 E3.25094
G1 X75.534 Y65.165 E3.26460
G1 X75.850 Y65.531 E3.27864
G1 X76.137 Y65.912 E3.29249
G1 X76.398 Y66.311 E3.30634
G1 X76.721 Y66.884 E3.32543
G1 X77.517 Y66.763 E3.34879
G1 X78.139 Y66.701 E3.36696
G1 X78.764 Y66.671 E3.38513
G1 X79.390 Y66.673 E3.40330
G1 X80.015 Y66.707 E3.42147
G1 X80.637 Y66.772 E3.43964
G1 X81.255 Y66.869 E3.45781
G1 X81.868 Y66.998 E3.47597
G1 X82.510 Y67.168 E3.49527
G1 X107.043 Y67.168 E4.20754
G1 X107.043 Y94.668 E5.00597
G1 X67.118 Y94.668 E6.16514
G1 F1680.000 E4.16514
G92 E0
G1 X68.085 Y103.660 F12000.000
G1 F1680.000 E2.00000
G1 X67.405 Y102.980 F1200.000 E2.02806
G1 X67.405 Y102.269 E2.04878
G1 X68.796 Y103.660 E2.10615
G1 X69.506 Y103.660 E2.12688
G1 X67.405 Y101.559 E2.21356
G1 X67.405 Y100.848 E2.23428
G1 X70.217 Y103.660 E2.35027
G1 X70.927 Y103.660 E2.37099
G1 X67.798 Y100.530 E2.50011
G1 X68.508 Y100.530 E2.52083
G1 X71.638 Y103.660 E2.64995
G1 X72.348 Y103.660 E2.67067
G1 X69.218 Y100.530 E2.79979
G1 X69.929 Y100.530 E2.82051
G1 X73.059 Y103.660 E2.94962
G1 X73.769 Y103.660 E2.97035
G1 X70.639 Y100.530 E3.09946
G1 X71.350 Y100.530 E3.12019
G1 X74.480 Y103.660 E3.24930
G1 X75.190 Y103.660 E3.27003
G1 X72.060 Y100.530 E3.39914
G1 X72.771 Y100.530 E3.41987
G1 X75.900 Y103.660 E3.54898
G1 X76.611 Y103.660 E3.56970
G1 X73.481 Y100.530 E3.69882
G1 X74.192 Y100.530 E3.71954
G1 X77.321 Y103.660 E3.84866
G1 X78.032 Y103.660 E3.86938
G1 X74.902 Y100.530 E3.99850
G1 X75.613 Y100.530 E4.01922
G1 X78.742 Y103.660 E4.14834
G1 X79.453 Y103.660 E4.16906
G1 X76.323 Y100.530 E4.29817
G1 X77.033 Y100.530 E4.31890
G1 X80.163 Y103.660 E4.44801
G1 X80.874 Y103.660 E4.46874
G1 X77.744 Y100.530 E4.59785
G1 X78.454 Y100.530 E4.61858
G1 X81.584 Y103.660 E4.74769
G1 X82.295 Y103.660 E4.76842
G1 X79.165 Y100.530 E4.89753
G1 X79.875 Y100.530 E4.91825
G1 X83.005 Y103.660 E5.04737
G1 X83.715 Y103.660 E5.06809
G1 X80.586 Y100.530 E5.19721
G1 X81.296 Y100.530 E5.21793
G1 X84.426 Y103.660 E5.34705
G1 X85.136 Y103.660 E5.36777
G1 X82.007 Y100.530 E5.49689
G1 X82.717 Y100.530 E5.51761
G1 X85.847 Y103.660 E5.64672
G1 X86.557 Y103.660 E5.66745
G1 X83.428 Y100.530 E5.79656
G1 X84.138 Y100.530 E5.81729
G1 X87.268 Y103.660 E5.94640
G1 X87.978 Y103.660 E5.96713
G1 X84.848 Y100.530 E6.09624
G1 X85.559 Y100.530 E6.11697
G1 X88.689 Y103.660 E6.24608
G1 X89.399 Y103.660 E6.26680
G1 X86.269 Y100.530 E6.39592
G1 X86.980 Y100.530 E6.41664
G1 X90.110 Y103.660 E6.54576
G1 X90.820 Y103.660 E6.56648
G1 X87.690 Y100.530 E6.69560
G1 X88.401 Y100.530 E6.71632
G1 X91.530 Y103.660 E6.84543
G1 X92.241 Y103.660 E6.86616
G1 X89.111 Y100.530 E6.99527
G1 X89.822 Y100.530 E7.01600
G1 X92.951 Y103.660 E7.14511
G1 X93.662 Y103.660 E7.16584
G1 X90.532 Y100.530 E7.29495
G1 X91.243 Y100.530 E7.31568
G1 X94.372 Y103.660 E7.44479
G1 X95.083 Y103.660 E7.46552
G1 X91.953 Y100.530 E7.59463
G1 X92.663 Y100.530 E7.61535
G1 X95.793 Y103.660 E7.74447
G1 X96.504 Y103.660 E7.76519
G1 X93.374 Y100.530 E7.89431
G1 X94.084 Y100.530 E7.91503
G1 X97.214 Y103.660 E8.04415
G1 X97.925 Y103.660 E8.06487
G1 X94.795 Y100.530 E8.19398
G1 X95.505 Y100.530 E8.21471
G1 X98.635 Y103.660 E8.34382
G1 X99.345 Y103.660 E8.36455
G1 X96.216 Y100.530 E8.49366
G1 X96.926 Y100.530 E8.51439
G1 X100.056 Y103.660 E8.64350
G1 X100.766 Y103.660 E8.66423
G1 X97.637 Y100.530 E8.79334
G1 X98.347 Y100.530 E8.81406
G1 X101.477 Y103.660 E8.94318
G1 X102.187 Y103.660 E8.96390
G1 X99.058 Y100.530 E9.09302
G1 X99.768 Y100.530 E9.11374
G1 X102.898 Y103.660 E9.24286
G1 X103.608 Y103.660 E9.26358
G1 X100.478 Y100.530 E9.39270
G1 X101.189 Y100.530 E9.41342
G1 X104.319 Y103.660 E9.54253
G1 X105.029 Y103.660 E9.56326
G1 X101.899 Y100.530 E9.69237
G1 X102.610 Y100.530 E9.71310
G1 X105.740 Y103.660 E9.84221
G1 X106.450 Y103.660 E9.86294
G1 X103.320 Y100.530 E9.99205
G1 X104.031 Y100.530 E10.01278
G1 X106.680 Y103.180 E10.12209
G1 X106.680 Y102.470 E10.14281
G1 X104.741 Y100.530 E10.22282
G1 X105.452 Y100.530 E10.24354
G1 X106.680 Y101.759 E10.29424
G1 X106.680 Y101.049 E10.31496
G1 X106.162 Y100.530 E10.33635
G1 F1680.000 E8.33635
G92 E0
G1 X106.331 Y94.306 F12000.000
G1 F1680.000 E2.00000
G1 X86.959 Y74.933 F1200.000 E2.79545
G1 X87.162 Y73.715 F12000.000
G1 X106.680 Y93.234 F1200.000 E3.59690
G1 X106.680 Y93.944 F12000.000
G1 X86.350 Y73.614 F1200.000 E4.43166
G1 X87.840 Y73.683 F12000.000
G1 X106.680 Y92.523 F1200.000 E5.20525
G1 X106.680 Y91.813 F12000.000
G1 X88.405 Y73.537 F1200.000 E5.95565
G1 X88.890 Y73.312 F12000.000
G1 X106.680 Y91.102 F1200.000 E6.68612
G1 X106.680 Y90.392 F12000.000
G1 X89.310 Y73.021 F1200.000 E7.39936
G1 X89.676 Y72.677 F12000.000
G1 X106.680 Y89.681 F1200.000 E8.09756
G1 X106.680 Y88.971 F12000.000
G1 X89.978 Y72.269 F1200.000 E8.78334
G1 X90.220 Y71.800 F12000.000
G1 X106.680 Y88.260 F1200.000 E9.45920
