; generated by Slic3r 0.9.10b on 2013-11-10 at 15:04:42

; layer_height = 0.3
; perimeters = 1
; top_solid_layers = 2
; bottom_solid_layers = 2
; fill_density = 0.5
; perimeter_speed = 30
; infill_speed = 30
; travel_speed = 200
; nozzle_diameter = 0.5
; filament_diameter = 2.98
; extrusion_multiplier = 0.9
; perimeters extrusion width = 0.50mm
; infill extrusion width = 0.50mm
; solid infill extrusion width = 0.50mm
; top infill extrusion width = 0.50mm

G21 ; set units to millimeters
M107
M104 S190 ; set temperature
G28 ; home all axes
G1 Z15 F120 ; lift nozzle
M109 S190 ; wait for temperature to be reached
G90 ; use absolute coordinates
G92 E0
M82 ; use absolute distances for extrusion
G1 F1680.000 E-2.00000
G92 E0
G1 Z0.450 F12000.000
G1 X57.981 Y61.247
G1 F1680.000 E2.00000
G1 X58.971 Y60.447 F900.000 E2.03696
G1 X60.091 Y59.837 E2.07398
G1 X61.311 Y59.467 E2.11100
G1 X62.581 Y59.347 E2.14803
G1 X103.081 Y59.347 E3.32390
G1 X104.411 Y59.487 E3.36273
G1 X105.681 Y59.887 E3.40139
G1 X106.851 Y60.547 E3.44039
G1 X107.851 Y61.427 E3.47906
G1 X108.651 Y62.497 E3.51785
G1 X109.221 Y63.707 E3.55669
G1 X109.531 Y65.007 E3.59549
G1 X113.801 Y97.937 E4.55957
G1 X113.901 Y99.157 E4.59511
G1 X113.901 Y100.417 E4.63169
G1 X113.871 Y100.937 E4.64682
G1 X113.771 Y101.837 E4.67311
G1 X113.691 Y102.327 E4.68752
G1 X113.461 Y103.317 E4.71703
G1 X113.341 Y103.747 E4.72999
G1 X113.071 Y104.557 E4.75478
G1 X112.761 Y105.347 E4.77942
G1 X112.561 Y105.797 E4.79372
G1 X112.301 Y106.317 E4.81060
G1 X111.841 Y107.117 E4.83739
G1 X111.361 Y107.847 E4.86276
G1 X111.071 Y108.247 E4.87710
G1 X110.781 Y108.617 E4.89075
G1 X110.211 Y109.277 E4.91607
G1 X109.471 Y110.027 E4.94666
G1 X109.101 Y110.357 E4.96106
G1 X108.071 Y111.167 E4.99910
G1 X107.231 Y111.727 E5.02841
G1 X106.801 Y111.977 E5.04285
G1 X106.101 Y112.347 E5.06584
G1 X105.221 Y112.747 E5.09391
G1 X103.951 Y113.197 E5.13302
G1 X103.461 Y113.337 E5.14782
G1 X102.481 Y113.557 E5.17698
G1 X101.211 Y113.727 E5.21418
G1 X100.721 Y113.767 E5.22846
G1 X99.681 Y113.787 E5.25866
G1 X99.281 Y113.777 E5.27027
G1 X98.471 Y113.717 E5.29386
G1 X61.861 Y109.657 E6.36330
G1 X60.541 Y109.367 E6.40254
G1 X59.311 Y108.817 E6.44165
G1 X58.211 Y108.017 E6.48114
G1 X57.311 Y107.007 E6.52042
G1 X56.641 Y105.827 E6.55982
G1 X56.221 Y104.547 E6.59893
G1 X56.081 Y103.197 E6.63834
G1 X56.081 Y65.847 E7.72275
G1 X56.201 Y64.577 E7.75978
G1 X56.571 Y63.357 E7.79680
G1 X57.181 Y62.237 E7.83383
G1 X57.933 Y61.306 E7.86860
G1 F1680.000 E5.86860
G92 E0
G1 X80.069 Y96.630 F12000.000
G1 F1680.000 E2.00000
G1 X80.560 Y96.381 F900.000 E2.01598
G1 X81.091 Y96.236 E2.03197
G1 X81.640 Y96.199 E2.04795
G1 X82.186 Y96.272 E2.06394
G1 X82.706 Y96.453 E2.07993
G1 X83.180 Y96.734 E2.09590
G1 X83.588 Y97.103 E2.11189
G1 X83.915 Y97.546 E2.12788
G1 X84.146 Y98.046 E2.14386
G1 X84.274 Y98.581 E2.15984
G1 X84.292 Y99.131 E2.17583
G1 X84.201 Y99.674 E2.19181
G1 X84.003 Y100.188 E2.20780
G1 X83.810 Y100.512 E2.21876
G1 X83.460 Y100.925 E2.23445
G1 X83.028 Y101.266 E2.25043
G1 X82.537 Y101.514 E2.26641
G1 X82.006 Y101.659 E2.28240
G1 X81.456 Y101.696 E2.29839
G1 X80.911 Y101.623 E2.31437
G1 X80.550 Y101.510 E2.32534
G1 X80.069 Y101.266 E2.34102
G1 X79.637 Y100.925 E2.35700
G1 X79.281 Y100.504 E2.37300
G1 X79.017 Y100.021 E2.38897
G1 X78.853 Y99.495 E2.40496
G1 X78.798 Y98.947 E2.42095
G1 X78.853 Y98.400 E2.43693
G1 X79.016 Y97.874 E2.45291
G1 X79.281 Y97.391 E2.46890
G1 X79.637 Y96.971 E2.48488
G1 X80.007 Y96.672 E2.49870
G1 X81.909 Y84.091 F12000.000
G1 X81.523 Y83.985 F900.000 E2.51032
G1 X81.166 Y83.804 E2.52195
G1 X80.851 Y83.556 E2.53358
G1 X80.593 Y83.250 E2.54520
G1 X80.400 Y82.899 E2.55683
G1 X80.282 Y82.517 E2.56845
G1 X80.242 Y82.118 E2.58008
G1 X80.282 Y81.720 E2.59170
G1 X80.400 Y81.338 E2.60333
G1 X80.593 Y80.987 E2.61495
G1 X80.851 Y80.681 E2.62658
G1 X81.055 Y80.508 E2.63434
G1 X81.400 Y80.304 E2.64596
G1 X81.778 Y80.173 E2.65759
G1 X82.175 Y80.119 E2.66921
G1 X82.574 Y80.146 E2.68084
G1 X82.961 Y80.252 E2.69246
G1 X83.318 Y80.433 E2.70409
G1 X83.632 Y80.681 E2.71571
G1 X83.811 Y80.879 E2.72347
G1 X84.027 Y81.216 E2.73510
G1 X84.171 Y81.590 E2.74672
G1 X84.237 Y81.985 E2.75835
G1 X84.224 Y82.385 E2.76997
G1 X84.131 Y82.775 E2.78160
G1 X83.963 Y83.138 E2.79322
G1 X83.725 Y83.460 E2.80485
G1 X83.428 Y83.729 E2.81647
G1 X83.084 Y83.933 E2.82810
G1 X82.705 Y84.064 E2.83973
G1 X82.309 Y84.118 E2.85135
G1 X81.983 Y84.101 E2.86080
G1 X84.259 Y85.888 F12000.000
G1 X84.589 Y85.469 F720.000 E2.87630
G1 X84.970 Y85.048 E2.89280
G1 X85.379 Y84.653 E2.90929
G1 X85.813 Y84.286 E2.92578
G1 X86.270 Y83.949 E2.94228
G1 X86.749 Y83.644 E2.95877
G1 X87.278 Y83.356 E2.97625
G1 X87.762 Y83.132 E2.99175
G1 X88.292 Y82.927 E3.00825
G1 X88.868 Y82.751 E3.02573
G1 X89.387 Y82.628 E3.04123
G1 X89.948 Y82.533 E3.05772
G1 X90.547 Y82.475 E3.07521
G1 X91.081 Y82.457 E3.09071
G1 X91.648 Y82.476 E3.10720
G1 X92.214 Y82.533 E3.12369
G1 X92.774 Y82.628 E3.14019
G1 X93.326 Y82.759 E3.15668
G1 X93.869 Y82.928 E3.17317
G1 X94.399 Y83.132 E3.18967
G1 X94.914 Y83.371 E3.20616
G1 X95.412 Y83.644 E3.22265
G1 X96.081 Y84.070 E3.24567
G1 X96.133 Y84.027 E3.24764
G1 X95.971 Y83.606 E3.26074
G1 X95.874 Y83.252 E3.27141
G1 X95.819 Y82.704 E3.28740
G1 X95.874 Y82.156 E3.30338
G1 X96.037 Y81.630 E3.31937
G1 X96.302 Y81.148 E3.33535
G1 X96.529 Y80.859 E3.34601
G1 X96.793 Y80.604 E3.35668
G1 X97.089 Y80.386 E3.36735
G1 X97.412 Y80.209 E3.37802
G1 X97.753 Y80.078 E3.38864
G1 X97.937 Y80.028 E3.39417
G1 X98.476 Y79.956 E3.40997
G1 X98.832 Y79.967 E3.42032
G1 X99.029 Y79.993 E3.42608
G1 X99.557 Y80.138 E3.44198
G1 X100.049 Y80.386 E3.45798
G1 X100.481 Y80.727 E3.47396
G1 X100.836 Y81.148 E3.48995
G1 X101.101 Y81.631 E3.50593
G1 X101.264 Y82.156 E3.52192
G1 X101.313 Y82.520 E3.53258
G1 X101.313 Y82.888 E3.54325
G1 X101.264 Y83.252 E3.55392
G1 X101.167 Y83.606 E3.56458
G1 X101.023 Y83.945 E3.57525
G1 X100.836 Y84.260 E3.58591
G1 X100.609 Y84.549 E3.59658
G1 X100.345 Y84.804 E3.60724
G1 X100.049 Y85.022 E3.61791
G1 X99.727 Y85.199 E3.62858
G1 X99.384 Y85.331 E3.63924
G1 X99.027 Y85.416 E3.64990
G1 X98.661 Y85.453 E3.66057
G1 X98.294 Y85.440 E3.67124
G1 X97.932 Y85.379 E3.68190
G1 X97.491 Y85.239 E3.69533
G1 X97.443 Y85.306 E3.69772
G1 X97.924 Y85.915 E3.72025
G1 X98.245 Y86.384 E3.73674
G1 X98.535 Y86.872 E3.75323
G1 X98.791 Y87.379 E3.76972
G1 X99.013 Y87.902 E3.78622
G1 X99.199 Y88.439 E3.80271
G1 X99.349 Y88.987 E3.81920
G1 X99.462 Y89.544 E3.83570
G1 X99.538 Y90.106 E3.85219
G1 X99.576 Y90.673 E3.86868
G1 X99.576 Y91.241 E3.88518
G1 X99.533 Y91.842 E3.90266
G1 X99.462 Y92.371 E3.91816
G1 X99.349 Y92.928 E3.93465
G1 X99.199 Y93.476 E3.95115
G1 X99.013 Y94.012 E3.96764
G1 X98.791 Y94.535 E3.98413
G1 X98.535 Y95.042 E4.00062
G1 X98.245 Y95.531 E4.01712
G1 X97.924 Y95.999 E4.03361
G1 X97.572 Y96.445 E4.05010
G1 X97.191 Y96.867 E4.06660
G1 X96.782 Y97.261 E4.08309
G1 X96.349 Y97.628 E4.09958
G1 X95.891 Y97.965 E4.11608
G1 X95.412 Y98.271 E4.13257
G1 X94.883 Y98.558 E4.15005
G1 X94.399 Y98.783 E4.16555
G1 X93.869 Y98.987 E4.18204
G1 X93.326 Y99.155 E4.19854
G1 X92.774 Y99.287 E4.21503
G1 X92.214 Y99.382 E4.23152
G1 X91.648 Y99.438 E4.24802
G1 X91.081 Y99.457 E4.26451
G1 X90.513 Y99.438 E4.28100
G1 X90.076 Y99.394 E4.29376
G1 X89.387 Y99.287 E4.31398
G1 X88.835 Y99.155 E4.33048
G1 X88.292 Y98.987 E4.34697
G1 X87.762 Y98.783 E4.36346
G1 X87.247 Y98.544 E4.37995
G1 X86.749 Y98.271 E4.39645
G1 X86.270 Y97.965 E4.41294
G1 X85.787 Y97.606 E4.43042
G1 X85.379 Y97.261 E4.44592
G1 X84.970 Y96.867 E4.46242
G1 X84.589 Y96.445 E4.47891
G1 X84.237 Y95.999 E4.49540
G1 X83.916 Y95.531 E4.51190
G1 X83.626 Y95.042 E4.52839
G1 X83.370 Y94.535 E4.54488
G1 X83.148 Y94.012 E4.56138
G1 X82.953 Y93.443 E4.57886
G1 X82.812 Y92.928 E4.59436
G1 X82.699 Y92.371 E4.61085
G1 X82.623 Y91.808 E4.62735
G1 X82.585 Y91.241 E4.64384
G1 X82.585 Y90.673 E4.66033
G1 X82.623 Y90.106 E4.67682
G1 X82.699 Y89.543 E4.69332
G1 X82.812 Y88.987 E4.70981
G1 X82.962 Y88.439 E4.72630
G1 X83.148 Y87.902 E4.74280
G1 X83.370 Y87.379 E4.75929
G1 X83.626 Y86.872 E4.77578
G1 X83.916 Y86.384 E4.79228
G1 X84.214 Y85.949 E4.80758
G1 F1680.000 E2.80758
G92 E0
G1 X98.436 Y98.454 F12000.000
G1 F1680.000 E2.00000
G1 X98.733 Y98.186 F900.000 E2.01162
G1 X99.077 Y97.982 E2.02325
G1 X99.327 Y97.886 E2.03101
G1 X99.719 Y97.806 E2.04263
G1 X100.120 Y97.806 E2.05426
G1 X100.512 Y97.886 E2.06589
G1 X100.881 Y98.042 E2.07751
G1 X101.211 Y98.269 E2.08913
G1 X101.489 Y98.557 E2.10076
G1 X101.705 Y98.894 E2.11239
G1 X101.848 Y99.268 E2.12401
G1 X101.915 Y99.663 E2.13564
G1 X101.902 Y100.063 E2.14726
G1 X101.809 Y100.452 E2.15889
G1 X101.640 Y100.815 E2.17051
G1 X101.403 Y101.138 E2.18214
G1 X101.106 Y101.406 E2.19376
G1 X100.761 Y101.610 E2.20539
G1 X100.383 Y101.742 E2.21701
G1 X99.986 Y101.795 E2.22864
G1 X99.587 Y101.768 E2.24027
G1 X99.201 Y101.663 E2.25189
G1 X98.843 Y101.482 E2.26352
G1 X98.628 Y101.324 E2.27127
G1 X98.350 Y101.036 E2.28290
G1 X98.134 Y100.698 E2.29452
G1 X97.990 Y100.325 E2.30615
G1 X97.924 Y99.930 E2.31778
G1 X97.937 Y99.530 E2.32940
G1 X98.030 Y99.140 E2.34103
G1 X98.199 Y98.777 E2.35265
G1 X98.388 Y98.512 E2.36211
G1 X93.387 Y102.957 F12000.000
G1 X62.831 Y102.957 F720.000 E3.24928
G1 X62.831 Y74.957 E4.06223
G1 X102.831 Y74.957 E5.22358
G1 X102.831 Y93.149 E5.75174
G1 X103.407 Y93.440 E5.77049
G1 X103.823 Y93.687 E5.78454
G1 X104.222 Y93.961 E5.79859
G1 X104.602 Y94.261 E5.81264
G1 X104.960 Y94.586 E5.82669
G1 X105.297 Y94.934 E5.84074
G1 X105.609 Y95.303 E5.85478
G1 X105.896 Y95.693 E5.86883
G1 X106.157 Y96.101 E5.88288
G1 X106.389 Y96.525 E5.89693
G1 X106.593 Y96.964 E5.91098
G1 X106.767 Y97.415 E5.92503
G1 X106.911 Y97.877 E5.93908
G1 X107.023 Y98.348 E5.95313
G1 X107.104 Y98.825 E5.96717
G1 X107.153 Y99.306 E5.98123
G1 X107.169 Y99.790 E5.99527
G1 X107.154 Y100.274 E6.00932
G1 X107.106 Y100.755 E6.02337
G1 X107.026 Y101.232 E6.03742
G1 X106.914 Y101.703 E6.05147
G1 X106.771 Y102.166 E6.06552
G1 X106.598 Y102.617 E6.07957
G1 X106.395 Y103.057 E6.09362
G1 X106.163 Y103.481 E6.10767
G1 X105.903 Y103.890 E6.12172
G1 X105.617 Y104.280 E6.13577
G1 X105.305 Y104.650 E6.14982
G1 X104.969 Y104.998 E6.16386
G1 X104.611 Y105.323 E6.17791
G1 X104.232 Y105.624 E6.19196
G1 X103.833 Y105.899 E6.20601
G1 X103.418 Y106.146 E6.22006
G1 X102.986 Y106.365 E6.23411
G1 X102.541 Y106.555 E6.24816
G1 X102.085 Y106.715 E6.26220
G1 X101.618 Y106.844 E6.27625
G1 X101.144 Y106.942 E6.29030
G1 X100.665 Y107.008 E6.30435
G1 X100.182 Y107.041 E6.31840
G1 X99.698 Y107.043 E6.33245
G1 X99.215 Y107.012 E6.34650
G1 X98.736 Y106.949 E6.36055
G1 X98.261 Y106.854 E6.37460
G1 X97.794 Y106.727 E6.38865
G1 X97.336 Y106.570 E6.40270
G1 X96.890 Y106.383 E6.41674
G1 X96.458 Y106.166 E6.43080
G1 X96.040 Y105.921 E6.44484
G1 X95.640 Y105.649 E6.45889
G1 X95.260 Y105.350 E6.47294
G1 X94.899 Y105.027 E6.48699
G1 X94.562 Y104.680 E6.50104
G1 X94.248 Y104.312 E6.51509
G1 X93.959 Y103.924 E6.52914
G1 X93.697 Y103.517 E6.54319
G1 X93.424 Y103.023 E6.55958
G1 F1680.000 E4.55958
G92 E0
G1 X102.831 Y70.457 F12000.000
G1 F1680.000 E2.00000
G1 X62.831 Y70.457 F720.000 E3.16135
G1 X62.831 Y66.103 E3.28777
G1 X102.831 Y66.103 E4.44912
G1 X102.831 Y70.382 E4.57337
G1 F1680.000 E2.57337
G92 E0
G1 X96.767 Y84.693 F12000.000
G1 F1680.000 E2.00000
G1 X97.270 Y84.896 F900.000 E2.01575
G1 X96.671 Y84.544 F12000.000
G1 X96.501 Y84.317 F900.000 E2.02397
G1 X96.501 Y84.317 F12000.000
G1 X96.403 Y84.082 F900.000 E2.03137
G1 X96.671 Y84.544 F12000.000
G1 X96.767 Y84.693 F900.000 E2.03654
G1 X96.585 Y84.772 E2.04230
G1 F1680.000 E0.04230
G92 E0
G1 X102.468 Y81.101 F12000.000
G1 F1680.000 E2.00000
G1 X96.687 Y75.320 F1200.000 E2.23853
G1 X97.397 Y75.320 E2.25925
G1 X102.468 Y80.391 E2.46847
G1 X102.468 Y79.680 E2.48920
G1 X98.107 Y75.320 E2.66910
G1 X98.818 Y75.320 E2.68983
G1 X102.468 Y78.970 E2.84042
G1 X102.468 Y78.259 E2.86115
G1 X99.528 Y75.320 E2.98243
G1 X100.239 Y75.320 E3.00316
G1 X102.468 Y77.549 E3.09513
G1 X102.468 Y76.839 E3.11585
G1 X100.949 Y75.320 E3.17851
G1 X101.660 Y75.320 E3.19924
G1 X102.468 Y76.128 E3.23259
G1 X102.468 Y75.418 E3.25331
G1 X102.370 Y75.320 E3.25735
G1 F1680.000 E1.25735
G92 E0
G1 X102.468 Y93.180 F12000.000
G1 F1680.000 E2.00000
G1 X99.938 Y90.649 F1200.000 E2.10440
G1 X99.872 Y89.873 E2.12711
G1 X102.468 Y92.469 E2.23421
G1 X102.468 Y91.759 E2.25494
G1 X99.725 Y89.015 E2.36812
G1 X99.436 Y88.016 E2.39847
G1 X102.468 Y91.048 E2.52358
G1 X102.468 Y90.338 E2.54431
G1 X98.877 Y86.747 E2.69245
G1 X98.671 Y85.829 E2.71988
G1 X102.468 Y89.627 E2.87656
G1 X102.468 Y88.917 E2.89728
G1 X99.285 Y85.733 E3.02862
G1 X99.813 Y85.551 E3.04492
G1 X102.468 Y88.206 E3.15446
G1 X102.468 Y87.496 E3.17518
G1 X100.277 Y85.304 E3.26560
G1 X100.676 Y84.993 E3.28037
G1 X102.468 Y86.785 E3.35432
G1 X102.468 Y86.075 E3.37504
G1 X101.017 Y84.624 E3.43490
G1 X101.297 Y84.193 E3.44988
G1 X102.468 Y85.364 E3.49820
G1 X102.468 Y84.654 E3.51893
G1 X101.516 Y83.702 E3.55820
G1 X101.647 Y83.122 E3.57554
G1 X102.468 Y83.943 E3.60943
G1 X102.468 Y83.233 E3.63016
G1 X101.666 Y82.431 E3.66325
G1 X102.468 Y82.522 E3.68679
G1 X101.435 Y81.489 E3.72943
G1 X102.468 Y81.812 E3.76102
G1 X95.976 Y75.320 E4.02886
G1 X95.266 Y75.320 E4.04958
G1 X99.788 Y79.842 E4.23614
G1 X98.847 Y79.612 E4.26439
G1 X94.555 Y75.320 E4.44145
G1 X93.845 Y75.320 E4.46218
G1 X98.150 Y79.625 E4.63979
G1 X97.573 Y79.759 E4.65705
G1 X93.134 Y75.320 E4.84020
G1 X92.424 Y75.320 E4.86093
G1 X97.077 Y79.973 E5.05289
G1 X96.651 Y80.258 E5.06782
G1 X91.713 Y75.320 E5.27155
G1 X91.003 Y75.320 E5.29228
G1 X96.284 Y80.601 E5.51015
G1 X95.970 Y80.997 E5.52490
G1 X90.292 Y75.320 E5.75914
G1 X89.582 Y75.320 E5.77987
G1 X95.723 Y81.461 E6.03321
G1 X95.544 Y81.993 E6.04958
G1 X88.871 Y75.320 E6.32488
G1 X88.161 Y75.320 E6.34560
G1 X95.459 Y82.618 E6.64670
G1 X95.264 Y83.134 E6.66278
G1 X87.450 Y75.320 E6.98516
G1 X86.740 Y75.320 E7.00588
G1 X94.016 Y82.596 E7.30606
G1 X93.024 Y82.315 E7.33613
G1 X86.029 Y75.320 E7.62471
G1 X85.319 Y75.320 E7.64544
G1 X92.163 Y82.164 E7.92779
G1 X91.394 Y82.105 E7.95030
G1 X84.608 Y75.320 E8.23023
G1 X83.898 Y75.320 E8.25096
G1 X90.686 Y82.108 E8.53100
G1 X90.028 Y82.161 E8.55025
G1 X83.187 Y75.320 E8.83248
G1 X82.477 Y75.320 E8.85320
G1 X89.413 Y82.256 E9.13935
G1 X88.834 Y82.387 E9.15667
G1 X81.766 Y75.320 E9.44825
G1 X81.056 Y75.320 E9.46897
G1 X88.286 Y82.550 E9.76726
G1 X87.767 Y82.741 E9.78340
G1 X80.346 Y75.320 E10.08959
G1 X79.635 Y75.320 E10.11031
G1 X87.274 Y82.959 E10.42546
G1 X86.805 Y83.200 E10.44086
G1 X78.925 Y75.320 E10.76596
G1 X78.214 Y75.320 E10.78668
G1 X82.702 Y79.808 E10.97185
G1 X81.967 Y79.783 E10.99331
G1 X77.504 Y75.320 E11.17745
G1 X76.793 Y75.320 E11.19817
G1 X81.396 Y79.923 E11.38808
G1 X80.927 Y80.164 E11.40347
G1 X76.083 Y75.320 E11.60334
G1 X75.372 Y75.320 E11.62406
G1 X80.540 Y80.487 E11.83726
G1 X80.229 Y80.887 E11.85202
G1 X74.662 Y75.320 E12.08169
G1 X73.951 Y75.320 E12.10242
G1 X80.003 Y81.371 E12.35207
G1 X79.894 Y81.973 E12.36991
G1 X73.241 Y75.320 E12.64439
G1 X72.530 Y75.320 E12.66512
G1 X79.968 Y82.758 E12.97197
G1 X81.600 Y84.389 F12000.000
G1 X83.532 Y86.321 F1200.000 E13.05167
G1 X83.815 Y85.894 E13.06663
G1 X82.392 Y84.471 E13.12533
G1 X82.982 Y84.351 E13.14290
G1 X84.116 Y85.484 E13.18967
G1 X84.438 Y85.096 E13.20439
G1 X83.467 Y84.125 E13.24444
G1 X83.869 Y83.817 E13.25923
G1 X84.780 Y84.728 E13.29681
G1 X85.142 Y84.379 E13.31147
G1 X84.195 Y83.432 E13.35054
G1 X84.440 Y82.967 E13.36588
G1 X85.527 Y84.053 E13.41071
G1 X85.932 Y83.748 E13.42551
G1 X84.586 Y82.402 E13.48106
G1 X84.559 Y81.665 E13.50257
G1 X86.358 Y83.463 E13.57677
G1 X83.271 Y86.771 F12000.000
G1 X71.820 Y75.320 F1200.000 E14.04921
G1 X71.109 Y75.320 E14.06993
G1 X83.036 Y87.246 E14.56197
G1 X82.822 Y87.743 E14.57775
G1 X70.399 Y75.320 E15.09029
G1 X69.688 Y75.320 E15.11101
G1 X82.638 Y88.269 E15.64524
G1 X82.481 Y88.823 E15.66203
G1 X68.978 Y75.320 E16.21912
G1 X68.267 Y75.320 E16.23984
G1 X82.356 Y89.409 E16.82109
G1 X82.268 Y90.030 E16.83941
G1 X67.557 Y75.320 E17.44631
G1 X66.846 Y75.320 E17.46704
G1 X82.223 Y90.696 E18.10140
G1 X82.234 Y91.417 E18.12245
