; generated by Slic3r 0.9.10b on 2013-11-15 at 23:30:33

; layer_height = 0.3
; perimeters = 1
; top_solid_layers = 2
; bottom_solid_layers = 2
; fill_density = 0.5
; perimeter_speed = 30
; infill_speed = 30
; travel_speed = 200
; nozzle_diameter = 0.5
; filament_diameter = 2.98
; extrusion_multiplier = 0.9
; perimeters extrusion width = 0.50mm
; infill extrusion width = 0.50mm
; solid infill extrusion width = 0.50mm
; top infill extrusion width = 0.50mm

G21 ; set units to millimeters
M107
M104 S190 ; set temperature
G28 ; home all axes
G1 Z15 F120 ; lift nozzle
M109 S190 ; wait for temperature to be reached
G90 ; use absolute coordinates
G92 E0
M82 ; use absolute distances for extrusion
G1 F1680.000 E-2.00000
G92 E0
G1 Z0.450 F12000.000
G1 X36.960 Y41.450
G1 F1680.000 E2.00000
G1 X37.970 Y40.560 F900.000 E2.03908
G1 X39.130 Y39.900 E2.07783
G1 X40.410 Y39.490 E2.11686
G1 X41.750 Y39.350 E2.15597
G1 X54.050 Y39.350 E2.51309
G1 X55.330 Y39.400 E2.55028
G1 X56.480 Y39.500 E2.58379
G1 X58.350 Y39.800 E2.63878
G1 X59.300 Y40.010 E2.66703
G1 X59.700 Y40.110 E2.67900
G1 X61.210 Y40.560 E2.72475
G1 X62.590 Y41.070 E2.76746
G1 X63.540 Y41.480 E2.79750
G1 X65.230 Y42.340 E2.85256
G1 X66.450 Y43.070 E2.89384
G1 X125.530 Y82.270 E4.95238
G1 X126.730 Y83.100 E4.99475
G1 X128.300 Y84.290 E5.05194
G1 X129.540 Y85.340 E5.09912
G1 X130.530 Y86.250 E5.13816
G1 X131.940 Y87.710 E5.19709
G1 X133.040 Y88.970 E5.24565
G1 X133.860 Y90.000 E5.28387
G1 X135.030 Y91.630 E5.34213
G1 X135.760 Y92.760 E5.38119
G1 X136.600 Y94.200 E5.42959
G1 X137.370 Y95.700 E5.47854
G1 X138.180 Y97.510 E5.53612
G1 X138.780 Y99.050 E5.58410
G1 X139.210 Y100.320 E5.62303
G1 X139.670 Y101.940 E5.67193
G1 X140.040 Y103.520 E5.71904
G1 X140.110 Y103.890 E5.72997
G1 X140.390 Y105.510 E5.77770
G1 X140.560 Y106.840 E5.81663
G1 X140.710 Y108.860 E5.87544
G1 X140.740 Y110.210 E5.91465
G1 X140.640 Y111.490 E5.95192
G1 X140.290 Y112.720 E5.98905
G1 X139.700 Y113.870 E6.02658
G1 X138.910 Y114.880 E6.06381
G1 X137.920 Y115.710 E6.10132
G1 X136.800 Y116.330 E6.13849
G1 X135.570 Y116.710 E6.17586
G1 X69.580 Y130.510 E8.13324
G1 X68.920 Y130.620 E8.15267
G1 X68.250 Y130.650 E8.17214
G1 X41.750 Y130.650 E8.94154
G1 X40.420 Y130.510 E8.98036
G1 X39.150 Y130.110 E9.01902
G1 X37.980 Y129.450 E9.05802
G1 X36.980 Y128.560 E9.09689
G1 X36.180 Y127.490 E9.13568
G1 X30.180 Y117.490 E9.47427
G1 X29.490 Y115.890 E9.52486
G1 X29.250 Y114.150 E9.57585
G1 X29.250 Y94.950 E10.13330
G1 X29.300 Y94.160 E10.15628
G1 X35.300 Y45.060 E11.59244
G1 X35.600 Y43.750 E11.63146
G1 X36.160 Y42.530 E11.67044
G1 X36.915 Y41.510 E11.70728
G1 F1680.000 E9.70728
G92 E0
G1 X43.000 Y55.600 F12000.000
G1 F1680.000 E2.00000
G1 X60.500 Y55.600 F720.000 E2.50809
G1 X60.500 Y61.100 E2.66778
G1 X43.000 Y61.100 E3.17587
G1 X43.000 Y55.675 E3.33337
G1 F1680.000 E1.33337
G92 E0
G1 X102.872 Y90.465 F12000.000
G1 F1680.000 E2.00000
G1 X103.097 Y90.113 F900.000 E2.01213
G1 X103.345 Y89.776 E2.02425
G1 X103.615 Y89.457 E2.03638
G1 X103.905 Y89.157 E2.04851
G1 X104.215 Y88.877 E2.06064
G1 X104.543 Y88.618 E2.07276
G1 X104.887 Y88.382 E2.08489
G1 X105.246 Y88.169 E2.09702
G1 X105.619 Y87.981 E2.10915
G1 X106.004 Y87.817 E2.12127
G1 X106.398 Y87.680 E2.13340
G1 X106.801 Y87.570 E2.14553
G1 X107.210 Y87.487 E2.15765
G1 X107.624 Y87.431 E2.16978
G1 X108.041 Y87.403 E2.18191
G1 X108.459 Y87.403 E2.19404
G1 X108.876 Y87.431 E2.20616
G1 X109.290 Y87.487 E2.21829
G1 X109.699 Y87.570 E2.23042
G1 X110.102 Y87.680 E2.24255
G1 X110.496 Y87.817 E2.25467
G1 X110.881 Y87.981 E2.26680
G1 X111.254 Y88.169 E2.27893
G1 X111.613 Y88.382 E2.29106
G1 X111.957 Y88.618 E2.30318
G1 X112.285 Y88.877 E2.31531
G1 X112.595 Y89.157 E2.32744
G1 X112.920 Y89.498 E2.34111
G1 X113.155 Y89.776 E2.35169
G1 X113.403 Y90.113 E2.36382
G1 X113.628 Y90.465 E2.37594
G1 X113.828 Y90.831 E2.38807
G1 X114.004 Y91.210 E2.40020
G1 X114.154 Y91.600 E2.41232
G1 X114.290 Y92.051 E2.42600
G1 X114.375 Y92.405 E2.43658
G1 X114.444 Y92.817 E2.44870
G1 X114.486 Y93.233 E2.46083
G1 X114.500 Y93.650 E2.47296
G1 X114.486 Y94.067 E2.48508
G1 X114.444 Y94.483 E2.49721
G1 X114.363 Y94.947 E2.51089
G1 X114.278 Y95.301 E2.52146
G1 X114.154 Y95.700 E2.53359
G1 X114.004 Y96.090 E2.54572
G1 X113.828 Y96.469 E2.55785
G1 X113.628 Y96.835 E2.56997
G1 X113.403 Y97.187 E2.58210
G1 X113.155 Y97.524 E2.59423
G1 X112.885 Y97.842 E2.60636
G1 X112.595 Y98.143 E2.61848
G1 X112.285 Y98.423 E2.63061
G1 X111.957 Y98.682 E2.64274
G1 X111.567 Y98.945 E2.65641
G1 X111.254 Y99.131 E2.66699
G1 X110.881 Y99.319 E2.67912
G1 X110.496 Y99.483 E2.69124
G1 X110.050 Y99.634 E2.70492
G1 X109.699 Y99.730 E2.71549
G1 X109.290 Y99.813 E2.72762
G1 X108.876 Y99.869 E2.73975
G1 X108.459 Y99.897 E2.75188
G1 X108.041 Y99.897 E2.76400
G1 X107.624 Y99.869 E2.77613
G1 X107.210 Y99.813 E2.78826
G1 X106.801 Y99.730 E2.80039
G1 X106.398 Y99.620 E2.81251
G1 X106.004 Y99.483 E2.82464
G1 X105.619 Y99.319 E2.83677
G1 X105.246 Y99.131 E2.84889
G1 X104.887 Y98.918 E2.86102
G1 X104.543 Y98.682 E2.87315
G1 X104.215 Y98.423 E2.88528
G1 X103.868 Y98.104 E2.89895
G1 X103.615 Y97.842 E2.90953
G1 X103.345 Y97.524 E2.92165
G1 X103.097 Y97.187 E2.93378
G1 X102.872 Y96.835 E2.94591
G1 X102.672 Y96.469 E2.95804
G1 X102.496 Y96.090 E2.97016
G1 X102.346 Y95.700 E2.98229
G1 X102.222 Y95.301 E2.99442
G1 X102.125 Y94.895 E3.00655
G1 X102.056 Y94.483 E3.01867
G1 X102.014 Y94.067 E3.03080
G1 X102.000 Y93.650 E3.04293
G1 X102.014 Y93.233 E3.05506
G1 X102.056 Y92.817 E3.06718
G1 X102.125 Y92.405 E3.07931
G1 X102.222 Y91.999 E3.09144
G1 X102.346 Y91.600 E3.10356
G1 X102.496 Y91.210 E3.11569
G1 X102.672 Y90.831 E3.12782
G1 X102.836 Y90.531 E3.13777
G1 X88.500 Y90.650 F12000.000
G1 X88.483 Y91.168 F720.000 E3.15281
G1 X88.431 Y91.683 E3.16784
G1 X88.345 Y92.194 E3.18288
G1 X88.225 Y92.698 E3.19792
G1 X88.071 Y93.192 E3.21296
G1 X87.885 Y93.676 E3.22800
G1 X87.667 Y94.145 E3.24303
G1 X87.418 Y94.600 E3.25807
G1 X87.140 Y95.036 E3.27311
G1 X86.791 Y95.503 E3.29002
G1 X86.498 Y95.849 E3.30318
G1 X86.138 Y96.221 E3.31822
G1 X85.754 Y96.568 E3.33326
G1 X85.347 Y96.889 E3.34829
G1 X84.920 Y97.183 E3.36333
G1 X84.475 Y97.446 E3.37837
G1 X84.012 Y97.680 E3.39341
G1 X83.535 Y97.882 E3.40844
G1 X83.046 Y98.052 E3.42348
G1 X82.547 Y98.189 E3.43852
G1 X82.039 Y98.292 E3.45356
G1 X81.526 Y98.361 E3.46860
G1 X81.009 Y98.396 E3.48363
G1 X80.491 Y98.396 E3.49867
G1 X79.974 Y98.361 E3.51371
G1 X79.461 Y98.292 E3.52875
G1 X78.891 Y98.172 E3.54566
G1 X78.454 Y98.052 E3.55882
G1 X77.965 Y97.882 E3.57386
G1 X77.488 Y97.680 E3.58889
G1 X77.025 Y97.446 E3.60393
G1 X76.580 Y97.183 E3.61897
G1 X76.153 Y96.889 E3.63401
G1 X75.746 Y96.568 E3.64905
G1 X75.362 Y96.221 E3.66408
G1 X74.960 Y95.799 E3.68100
G1 X74.668 Y95.453 E3.69415
G1 X74.360 Y95.036 E3.70919
G1 X74.082 Y94.600 E3.72423
G1 X73.833 Y94.145 E3.73927
G1 X73.615 Y93.676 E3.75431
G1 X73.429 Y93.192 E3.76934
G1 X73.275 Y92.698 E3.78438
G1 X73.155 Y92.194 E3.79942
G1 X73.069 Y91.683 E3.81446
G1 X73.017 Y91.168 E3.82949
G1 X73.000 Y90.650 E3.84453
G1 X73.017 Y90.132 E3.85957
G1 X73.069 Y89.617 E3.87461
G1 X73.155 Y89.106 E3.88965
G1 X73.294 Y88.541 E3.90656
G1 X73.429 Y88.108 E3.91972
G1 X73.615 Y87.624 E3.93476
G1 X73.864 Y87.098 E3.95167
G1 X74.082 Y86.700 E3.96483
G1 X74.360 Y86.264 E3.97986
G1 X74.668 Y85.847 E3.99490
G1 X75.196 Y85.251 E4.01803
G1 X75.746 Y84.732 E4.03999
G1 X76.153 Y84.411 E4.05503
G1 X76.580 Y84.117 E4.07007
G1 X77.025 Y83.854 E4.08511
G1 X77.488 Y83.620 E4.10014
G1 X77.965 Y83.418 E4.11518
G1 X78.454 Y83.248 E4.13022
G1 X78.953 Y83.111 E4.14526
G1 X79.525 Y82.999 E4.16217
G1 X79.974 Y82.939 E4.17533
G1 X80.491 Y82.904 E4.19037
G1 X81.009 Y82.904 E4.20541
G1 X81.526 Y82.939 E4.22044
G1 X82.039 Y83.008 E4.23548
G1 X82.609 Y83.128 E4.25239
G1 X83.046 Y83.248 E4.26555
G1 X83.535 Y83.418 E4.28059
G1 X84.012 Y83.620 E4.29563
G1 X84.475 Y83.854 E4.31067
G1 X84.920 Y84.117 E4.32570
G1 X85.347 Y84.411 E4.34074
G1 X85.754 Y84.732 E4.35578
G1 X86.138 Y85.079 E4.37082
G1 X86.540 Y85.501 E4.38773
G1 X86.832 Y85.847 E4.40089
G1 X87.140 Y86.264 E4.41593
G1 X87.418 Y86.700 E4.43096
G1 X87.667 Y87.155 E4.44600
G1 X87.885 Y87.624 E4.46104
G1 X88.071 Y88.108 E4.47608
G1 X88.225 Y88.602 E4.49112
G1 X88.345 Y89.106 E4.50615
G1 X88.431 Y89.617 E4.52119
G1 X88.483 Y90.132 E4.53623
G1 X88.498 Y90.575 E4.54909
G1 F1680.000 E2.54909
G92 E0
G1 X66.000 Y99.700 F12000.000
G1 F1680.000 E2.00000
G1 X66.000 Y110.400 F900.000 E2.31066
G1 X61.300 Y110.400 E2.44712
G1 X61.300 Y99.700 E2.75778
G1 X65.925 Y99.700 E2.89206
G1 X42.200 Y99.700 F12000.000
G1 X42.200 Y110.400 F900.000 E3.20272
G1 X37.500 Y110.400 E3.33918
G1 X37.500 Y99.700 E3.64984
G1 X42.125 Y99.700 E3.78412
G1 X43.000 Y108.900 F12000.000
G1 X60.500 Y108.900 F720.000 E4.29221
G1 X60.500 Y114.400 E4.45190
G1 X43.000 Y114.400 E4.95999
G1 X43.000 Y108.975 E5.11750
G1 X42.000 Y113.900 F12000.000
G1 X36.000 Y113.900 F720.000 E5.29170
G1 X36.000 Y95.200 E5.83463
G1 X42.000 Y95.200 E6.00883
G1 X42.000 Y46.100 E7.43439
G1 X53.828 Y46.100 E7.77779
G1 X54.761 Y46.131 E7.80491
G1 X55.887 Y46.237 E7.83773
G1 X56.908 Y46.400 E7.86775
G1 X57.915 Y46.626 E7.89772
G1 X58.930 Y46.921 E7.92840
G1 X59.916 Y47.276 E7.95883
G1 X60.885 Y47.696 E7.98949
G1 X61.820 Y48.172 E8.01996
G1 X62.729 Y48.710 E8.05062
G1 X63.599 Y49.302 E8.08119
G1 X64.431 Y49.947 E8.11175
G1 X65.220 Y50.644 E8.14232
G1 X65.965 Y51.389 E8.17288
G1 X66.660 Y52.179 E8.20345
G1 X67.305 Y53.011 E8.23401
G1 X67.897 Y53.882 E8.26458
G1 X68.432 Y54.788 E8.29514
G1 X68.910 Y55.726 E8.32571
G1 X69.327 Y56.693 E8.35627
G1 X69.683 Y57.683 E8.38684
G1 X69.976 Y58.695 E8.41740
G1 X70.205 Y59.722 E8.44797
G1 X70.550 Y61.923 E8.51266
G1 X70.797 Y63.072 E8.54678
G1 X71.110 Y64.205 E8.58090
G1 X71.489 Y65.317 E8.61502
G1 X71.932 Y66.406 E8.64914
G1 X72.437 Y67.467 E8.68326
G1 X73.003 Y68.497 E8.71738
G1 X73.627 Y69.493 E8.75151
G1 X74.309 Y70.451 E8.78563
G1 X75.044 Y71.367 E8.81975
G1 X75.832 Y72.239 E8.85387
G1 X76.669 Y73.064 E8.88799
G1 X77.530 Y73.820 E8.92127
G1 X78.479 Y74.562 E8.95623
G1 X79.446 Y75.230 E8.99035
G1 X80.450 Y75.840 E9.02448
G1 X81.488 Y76.391 E9.05860
G1 X82.557 Y76.881 E9.09272
G1 X83.651 Y77.308 E9.12684
G1 X84.769 Y77.671 E9.16096
G1 X85.903 Y77.968 E9.19498
G1 X113.264 Y84.285 E10.01029
G1 X114.557 Y84.617 E10.04903
G1 X115.828 Y85.013 E10.08768
G1 X117.060 Y85.464 E10.12579
G1 X118.304 Y85.991 E10.16499
G1 X119.502 Y86.571 E10.20364
G1 X120.653 Y87.201 E10.24174
G1 X121.805 Y87.906 E10.28095
G1 X122.903 Y88.658 E10.31960
G1 X123.963 Y89.464 E10.35825
G1 X124.982 Y90.321 E10.39691
G1 X125.956 Y91.228 E10.43556
G1 X126.884 Y92.183 E10.47421
G1 X127.764 Y93.182 E10.51287
G1 X128.593 Y94.224 E10.55152
G1 X129.369 Y95.306 E10.59017
G1 X130.090 Y96.425 E10.62883
G1 X130.754 Y97.578 E10.66748
G1 X131.360 Y98.764 E10.70613
G1 X131.907 Y99.978 E10.74479
G1 X132.393 Y101.217 E10.78344
G1 X132.816 Y102.479 E10.82209
G1 X133.176 Y103.761 E10.86075
G1 X133.471 Y105.059 E10.89940
G1 X133.702 Y106.370 E10.93805
G1 X133.867 Y107.691 E10.97670
G1 X133.967 Y109.019 E11.01536
G1 X133.994 Y110.100 E11.04675
G1 X68.000 Y110.100 E12.96279
G1 X68.000 Y123.900 E13.36346
G1 X42.000 Y123.900 E14.11833
G1 X42.000 Y113.975 E14.40649
G1 X42.953 Y108.538 F12000.000
G1 X42.562 Y108.147 F1200.000 E14.42255
G1 X42.562 Y107.439 E14.44315
G1 X43.661 Y108.538 E14.48834
G1 X44.369 Y108.538 E14.50894
G1 X42.562 Y106.731 E14.58326
G1 X42.562 Y106.022 E14.60386
G1 X45.078 Y108.538 E14.70732
G1 X45.786 Y108.538 E14.72792
G1 X42.562 Y105.314 E14.86050
G1 X42.562 Y104.606 E14.88110
G1 X46.494 Y108.538 E15.04282
G1 X47.203 Y108.538 E15.06342
G1 X42.562 Y103.897 E15.25427
G1 X42.562 Y103.189 E15.27487
G1 X47.911 Y108.538 E15.49486
G1 X48.619 Y108.538 E15.51546
G1 X42.562 Y102.481 E15.76457
G1 X42.562 Y101.772 E15.78517
G1 X49.328 Y108.538 E16.06342
G1 X50.036 Y108.538 E16.08402
G1 X42.562 Y101.064 E16.39140
G1 X42.562 Y100.356 E16.41200
G1 X50.744 Y108.538 E16.74852
G1 X51.452 Y108.538 E16.76912
G1 X42.562 Y99.648 E17.13476
G1 X42.252 Y99.338 F12000.000
G1 X38.477 Y95.562 F1200.000 E17.29004
G1 X39.186 Y95.562 E17.31064
G1 X52.161 Y108.538 E17.84430
G1 X52.869 Y108.538 E17.86490
G1 X39.894 Y95.562 E18.39857
G1 X40.602 Y95.562 E18.41917
G1 X53.577 Y108.538 E18.95284
G1 X54.286 Y108.538 E18.97344
G1 X41.310 Y95.562 E19.50710
G1 X42.019 Y95.562 E19.52770
G1 X54.994 Y108.538 E20.06137
G1 X55.702 Y108.538 E20.08197
G1 X42.362 Y95.198 E20.63064
G1 X42.362 Y94.489 E20.65124
G1 X56.411 Y108.538 E21.22904
G1 X57.119 Y108.538 E21.24964
G1 X42.362 Y93.781 E21.85657
G1 X42.362 Y93.073 E21.87717
G1 X57.827 Y108.538 E22.51324
G1 X58.536 Y108.538 E22.53384
G1 X42.362 Y92.364 E23.19903
G1 X42.362 Y91.656 E23.21963
G1 X59.244 Y108.538 E23.91396
G1 X59.952 Y108.538 E23.93456
G1 X42.362 Y90.948 E24.65803
G1 X42.362 Y90.240 E24.67863
G1 X60.660 Y108.538 E25.43122
G1 X60.938 Y108.106 E25.44613
G1 X42.362 Y89.531 E26.21012
G1 X42.362 Y88.823 E26.23072
G1 X60.938 Y107.398 E26.99471
G1 X60.938 Y106.690 E27.01531
G1 X42.362 Y88.115 E27.77931
G1 X42.362 Y87.406 E27.79991
G1 X60.938 Y105.982 E28.56390
G1 X60.938 Y105.273 E28.58450
G1 X42.362 Y86.698 E29.34849
G1 X42.362 Y85.990 E29.36909
G1 X60.938 Y104.565 E30.13309
G1 X60.938 Y103.857 E30.15369
G1 X42.362 Y85.281 E30.91768
G1 X42.362 Y84.573 E30.93828
G1 X60.938 Y103.148 E31.70227
G1 X60.938 Y102.440 E31.72287
G1 X42.362 Y83.865 E32.48687
G1 X42.362 Y83.156 E32.50747
G1 X60.938 Y101.732 E33.27146
G1 X60.938 Y101.023 E33.29206
G1 X42.362 Y82.448 E34.05605
G1 X42.362 Y81.740 E34.07665
G1 X60.938 Y100.315 E34.84065
G1 X60.938 Y99.607 E34.86125
G1 X42.362 Y81.031 E35.62524
G1 X42.362 Y80.323 E35.64584
G1 X61.377 Y99.338 E36.42790
G1 X62.085 Y99.338 E36.44850
G1 X42.362 Y79.615 E37.25969
G1 X42.362 Y78.907 E37.28029
G1 X62.793 Y99.338 E38.12061
G1 X63.502 Y99.338 E38.14121
G1 X42.362 Y78.198 E39.01066
G1 X42.362 Y77.490 E39.03126
G1 X64.210 Y99.338 E39.92985
G1 X64.918 Y99.338 E39.95045
G1 X42.362 Y76.782 E40.87817
G1 X42.362 Y76.073 E40.89877
G1 X65.627 Y99.338 E41.85562
G1 X66.335 Y99.338 F12000.000
G1 X42.362 Y75.365 F1200.000 E42.84160
G1 X42.362 Y74.657 E42.86220
G1 X77.443 Y109.738 E44.30507
G1 X78.152 Y109.738 E44.32567
G1 X42.362 Y73.948 E45.79767
G1 X42.362 Y73.240 E45.81827
G1 X78.860 Y109.738 E47.31940
G1 X79.568 Y109.738 E47.34000
G1 X42.362 Y72.532 E48.87026
G1 X42.362 Y71.823 E48.89086
G1 X80.277 Y109.738 E50.45026
G1 X80.985 Y109.738 E50.47086
G1 X42.362 Y71.115 E52.05938
G1 X42.362 Y70.407 E52.07998
G1 X81.693 Y109.738 E53.69764
G1 X82.401 Y109.738 E53.71824
G1 X42.362 Y69.699 E55.36504
G1 X42.362 Y68.990 E55.38564
G1 X83.110 Y109.738 E57.06156
G1 X83.818 Y109.738 E57.08216
G1 X42.362 Y68.282 E58.78722
G1 X42.362 Y67.574 E58.80782
G1 X84.526 Y109.738 E60.54201
G1 X85.235 Y109.738 E60.56261
G1 X42.362 Y66.865 E62.32593
G1 X42.362 Y66.157 E62.34653
G1 X85.943 Y109.738 E64.13899
G1 X86.651 Y109.738 E64.15959
G1 X42.362 Y65.449 E65.98118
G1 X42.362 Y64.740 E66.00178
G1 X87.360 Y109.738 E67.85250
G1 X88.068 Y109.738 E67.87310
G1 X42.362 Y64.032 E69.75295
G1 X42.362 Y63.324 E69.77355
G1 X73.705 Y94.667 E71.06267
G1 X73.104 Y93.357 E71.10460
G1 X42.362 Y62.615 E72.36898
G1 X42.362 Y61.907 E72.38958
G1 X72.824 Y92.369 E73.64247
G1 X72.689 Y91.525 E73.66733
G1 X42.626 Y61.462 E74.90381
G1 X43.334 Y61.462 E74.92441
G1 X72.641 Y90.769 E76.12980
G1 X72.658 Y90.078 E76.14991
G1 X44.043 Y61.462 E77.32687
G1 X44.751 Y61.462 E77.34747
G1 X72.731 Y89.442 E78.49828
G1 X72.846 Y88.849 E78.51587
G1 X45.459 Y61.462 E79.64226
G1 X46.167 Y61.462 E79.66286
G1 X72.993 Y88.288 E80.76620
