; generated by Slic3r 0.9.10b on 2013-11-15 at 23:32:46

; layer_height = 0.3
; perimeters = 1
; top_solid_layers = 2
; bottom_solid_layers = 2
; fill_density = 0.5
; perimeter_speed = 30
; infill_speed = 30
; travel_speed = 200
; nozzle_diameter = 0.5
; filament_diameter = 2.98
; extrusion_multiplier = 0.9
; perimeters extrusion width = 0.50mm
; infill extrusion width = 0.50mm
; solid infill extrusion width = 0.50mm
; top infill extrusion width = 0.50mm

G21 ; set units to millimeters
M107
M104 S190 ; set temperature
G28 ; home all axes
G1 Z15 F120 ; lift nozzle
M109 S190 ; wait for temperature to be reached
G90 ; use absolute coordinates
G92 E0
M82 ; use absolute distances for extrusion
G1 F1680.000 E-2.00000
G92 E0
G1 Z0.450 F12000.000
G1 X36.980 Y41.440
G1 F1680.000 E2.00000
G1 X37.980 Y40.550 F900.000 E2.03887
G1 X39.150 Y39.890 E2.07787
G1 X40.420 Y39.490 E2.11653
G1 X41.750 Y39.350 E2.15536
G1 X68.250 Y39.350 E2.92475
G1 X68.920 Y39.380 E2.94422
G1 X69.580 Y39.490 E2.96365
G1 X135.570 Y53.290 E4.92103
G1 X136.800 Y53.670 E4.95841
G1 X137.920 Y54.290 E4.99557
G1 X138.910 Y55.120 E5.03308
G1 X139.710 Y56.130 E5.07049
G1 X140.290 Y57.280 E5.10788
G1 X140.640 Y58.510 E5.14501
G1 X140.740 Y59.800 E5.18258
G1 X140.710 Y61.140 E5.22149
G1 X140.560 Y63.150 E5.28001
G1 X140.390 Y64.480 E5.31894
G1 X140.050 Y66.440 E5.37670
G1 X139.750 Y67.750 E5.41572
G1 X139.210 Y69.670 E5.47363
G1 X138.780 Y70.940 E5.51255
G1 X138.180 Y72.480 E5.56054
G1 X137.370 Y74.290 E5.61811
G1 X136.760 Y75.490 E5.65720
G1 X135.760 Y77.230 E5.71546
G1 X134.860 Y78.610 E5.76330
G1 X133.870 Y79.980 E5.81237
G1 X133.030 Y81.030 E5.85141
G1 X131.960 Y82.250 E5.89853
G1 X130.530 Y83.740 E5.95849
G1 X129.540 Y84.650 E5.99753
G1 X128.300 Y85.700 E6.04471
G1 X126.730 Y86.890 E6.10190
G1 X125.530 Y87.720 E6.14426
G1 X66.150 Y127.110 E8.21312
G1 X65.230 Y127.650 E8.24409
G1 X63.970 Y128.310 E8.28539
G1 X62.190 Y129.070 E8.34158
G1 X60.820 Y129.550 E8.38373
G1 X59.300 Y129.980 E8.42959
G1 X58.300 Y130.200 E8.45932
G1 X56.890 Y130.430 E8.50080
G1 X55.350 Y130.580 E8.54572
G1 X53.840 Y130.650 E8.58961
G1 X41.750 Y130.650 E8.94063
G1 X40.410 Y130.510 E8.97975
G1 X39.130 Y130.100 E9.01877
G1 X37.970 Y129.440 E9.05752
G1 X36.960 Y128.550 E9.09660
G1 X36.160 Y127.470 E9.13562
G1 X35.600 Y126.250 E9.17460
G1 X35.300 Y124.940 E9.21362
G1 X29.300 Y75.840 E10.64978
G1 X29.250 Y75.050 E10.67276
G1 X29.250 Y55.850 E11.23021
G1 X29.490 Y54.110 E11.28120
G1 X30.180 Y52.510 E11.33179
G1 X36.180 Y42.510 E11.67038
G1 X36.935 Y41.500 E11.70699
G1 F1680.000 E9.70699
G92 E0
G1 X102.672 Y73.531 F12000.000
G1 F1680.000 E2.00000
G1 X102.901 Y73.120 F900.000 E2.01368
G1 X103.097 Y72.813 E2.02425
G1 X103.345 Y72.476 E2.03638
G1 X103.615 Y72.158 E2.04851
G1 X103.905 Y71.857 E2.06063
G1 X104.215 Y71.577 E2.07276
G1 X104.543 Y71.318 E2.08489
G1 X104.887 Y71.082 E2.09702
G1 X105.294 Y70.845 E2.11069
G1 X105.619 Y70.681 E2.12127
G1 X106.004 Y70.517 E2.13339
G1 X106.450 Y70.366 E2.14707
G1 X106.801 Y70.270 E2.15765
G1 X107.210 Y70.187 E2.16977
G1 X107.624 Y70.131 E2.18190
G1 X108.041 Y70.103 E2.19403
G1 X108.459 Y70.103 E2.20615
G1 X108.929 Y70.138 E2.21983
G1 X109.290 Y70.187 E2.23041
G1 X109.699 Y70.270 E2.24253
G1 X110.152 Y70.398 E2.25621
G1 X110.496 Y70.517 E2.26679
G1 X110.881 Y70.681 E2.27891
G1 X111.254 Y70.869 E2.29104
G1 X111.613 Y71.082 E2.30317
G1 X111.957 Y71.318 E2.31529
G1 X112.285 Y71.577 E2.32742
G1 X112.595 Y71.857 E2.33955
G1 X112.885 Y72.157 E2.35168
G1 X113.187 Y72.520 E2.36535
G1 X113.403 Y72.813 E2.37593
G1 X113.628 Y73.165 E2.38805
G1 X113.828 Y73.531 E2.40018
G1 X114.004 Y73.910 E2.41231
G1 X114.154 Y74.300 E2.42444
G1 X114.290 Y74.751 E2.43811
G1 X114.375 Y75.105 E2.44869
G1 X114.444 Y75.517 E2.46082
G1 X114.488 Y75.986 E2.47449
G1 X114.500 Y76.350 E2.48507
G1 X114.486 Y76.767 E2.49719
G1 X114.444 Y77.183 E2.50932
G1 X114.375 Y77.595 E2.52145
G1 X114.278 Y78.001 E2.53358
G1 X114.154 Y78.400 E2.54570
G1 X114.004 Y78.790 E2.55783
G1 X113.828 Y79.169 E2.56996
G1 X113.628 Y79.535 E2.58208
G1 X113.403 Y79.887 E2.59421
G1 X113.155 Y80.224 E2.60634
G1 X112.885 Y80.543 E2.61847
G1 X112.595 Y80.843 E2.63059
G1 X112.285 Y81.123 E2.64272
G1 X111.913 Y81.412 E2.65640
G1 X111.613 Y81.618 E2.66697
G1 X111.254 Y81.831 E2.67910
G1 X110.881 Y82.019 E2.69123
G1 X110.446 Y82.200 E2.70490
G1 X110.102 Y82.320 E2.71548
G1 X109.699 Y82.430 E2.72761
G1 X109.290 Y82.513 E2.73973
G1 X108.876 Y82.569 E2.75186
G1 X108.459 Y82.597 E2.76399
G1 X108.041 Y82.597 E2.77612
G1 X107.624 Y82.569 E2.78824
G1 X107.210 Y82.513 E2.80037
G1 X106.801 Y82.430 E2.81250
G1 X106.398 Y82.320 E2.82462
G1 X106.004 Y82.183 E2.83675
G1 X105.619 Y82.019 E2.84888
G1 X105.200 Y81.804 E2.86256
G1 X104.887 Y81.618 E2.87313
G1 X104.543 Y81.382 E2.88526
G1 X104.215 Y81.123 E2.89739
G1 X103.905 Y80.843 E2.90951
G1 X103.615 Y80.543 E2.92164
G1 X103.345 Y80.224 E2.93377
G1 X103.097 Y79.887 E2.94589
G1 X102.872 Y79.535 E2.95802
G1 X102.672 Y79.169 E2.97015
G1 X102.496 Y78.790 E2.98228
G1 X102.346 Y78.400 E2.99440
G1 X102.210 Y77.949 E3.00808
G1 X102.125 Y77.595 E3.01865
G1 X102.056 Y77.183 E3.03078
G1 X102.014 Y76.767 E3.04291
G1 X102.000 Y76.350 E3.05504
G1 X102.014 Y75.933 E3.06716
G1 X102.056 Y75.517 E3.07929
G1 X102.125 Y75.105 E3.09142
G1 X102.222 Y74.699 E3.10355
G1 X102.346 Y74.300 E3.11567
G1 X102.496 Y73.910 E3.12780
G1 X102.640 Y73.599 E3.13775
G1 X88.225 Y77.302 F12000.000
G1 X88.345 Y77.806 F720.000 E3.15279
G1 X88.431 Y78.317 E3.16783
G1 X88.483 Y78.832 E3.18286
G1 X88.498 Y79.415 E3.19978
G1 X88.483 Y79.868 E3.21294
G1 X88.431 Y80.383 E3.22797
G1 X88.345 Y80.894 E3.24301
G1 X88.225 Y81.398 E3.25805
G1 X88.071 Y81.892 E3.27309
G1 X87.885 Y82.376 E3.28812
G1 X87.667 Y82.845 E3.30316
G1 X87.418 Y83.300 E3.31820
G1 X87.140 Y83.736 E3.33324
G1 X86.832 Y84.153 E3.34828
G1 X86.498 Y84.549 E3.36331
G1 X86.138 Y84.921 E3.37835
G1 X85.754 Y85.268 E3.39339
G1 X85.347 Y85.589 E3.40843
G1 X84.865 Y85.916 E3.42534
G1 X84.475 Y86.146 E3.43850
G1 X84.012 Y86.380 E3.45354
G1 X83.535 Y86.582 E3.46857
G1 X83.046 Y86.752 E3.48361
G1 X82.547 Y86.889 E3.49865
G1 X82.039 Y86.992 E3.51369
G1 X81.526 Y87.061 E3.52872
G1 X81.009 Y87.096 E3.54376
G1 X80.491 Y87.096 E3.55880
G1 X79.974 Y87.061 E3.57384
G1 X79.461 Y86.992 E3.58888
G1 X78.891 Y86.872 E3.60579
G1 X78.454 Y86.752 E3.61895
G1 X77.965 Y86.582 E3.63399
G1 X77.488 Y86.380 E3.64902
G1 X76.970 Y86.113 E3.66594
G1 X76.580 Y85.883 E3.67909
G1 X76.153 Y85.589 E3.69413
G1 X75.746 Y85.268 E3.70917
G1 X75.362 Y84.921 E3.72421
G1 X75.002 Y84.549 E3.73925
G1 X74.668 Y84.153 E3.75428
G1 X74.360 Y83.736 E3.76932
G1 X74.082 Y83.300 E3.78436
G1 X73.833 Y82.845 E3.79940
G1 X73.592 Y82.315 E3.81631
G1 X73.429 Y81.892 E3.82947
G1 X73.275 Y81.398 E3.84451
G1 X73.155 Y80.894 E3.85954
G1 X73.069 Y80.383 E3.87458
G1 X73.017 Y79.868 E3.88962
G1 X73.002 Y79.285 E3.90653
G1 X73.017 Y78.832 E3.91969
G1 X73.069 Y78.317 E3.93473
G1 X73.155 Y77.806 E3.94977
G1 X73.275 Y77.302 E3.96480
G1 X73.429 Y76.808 E3.97984
G1 X73.615 Y76.324 E3.99488
G1 X73.833 Y75.855 E4.00992
G1 X74.082 Y75.400 E4.02496
G1 X74.399 Y74.912 E4.04187
G1 X74.668 Y74.547 E4.05503
G1 X75.002 Y74.151 E4.07007
G1 X75.362 Y73.779 E4.08510
G1 X75.746 Y73.432 E4.10014
G1 X76.153 Y73.111 E4.11518
G1 X76.635 Y72.784 E4.13209
G1 X77.025 Y72.554 E4.14525
G1 X77.488 Y72.320 E4.16029
G1 X77.965 Y72.118 E4.17533
G1 X78.454 Y71.948 E4.19036
G1 X78.953 Y71.811 E4.20540
G1 X79.461 Y71.708 E4.22044
G1 X79.974 Y71.639 E4.23548
G1 X80.491 Y71.604 E4.25051
G1 X81.009 Y71.604 E4.26555
G1 X81.526 Y71.639 E4.28059
G1 X82.103 Y71.721 E4.29750
G1 X82.547 Y71.811 E4.31066
G1 X83.046 Y71.948 E4.32570
G1 X83.535 Y72.118 E4.34074
G1 X84.012 Y72.320 E4.35578
G1 X84.475 Y72.554 E4.37081
G1 X84.920 Y72.817 E4.38585
G1 X85.347 Y73.111 E4.40089
G1 X85.754 Y73.432 E4.41593
G1 X86.183 Y73.826 E4.43284
G1 X86.498 Y74.151 E4.44600
G1 X86.832 Y74.547 E4.46104
G1 X87.140 Y74.964 E4.47607
G1 X87.418 Y75.400 E4.49111
G1 X87.667 Y75.855 E4.50615
G1 X87.885 Y76.324 E4.52119
G1 X88.071 Y76.808 E4.53623
G1 X88.203 Y77.231 E4.54909
G1 F1680.000 E2.54909
G92 E0
G1 X66.000 Y70.300 F12000.000
G1 F1680.000 E2.00000
G1 X61.300 Y70.300 F900.000 E2.13646
G1 X61.300 Y59.600 E2.44712
G1 X66.000 Y59.600 E2.58358
G1 X66.000 Y70.225 E2.89206
G1 F1680.000 E0.89206
G92 E0
G1 X60.500 Y61.100 F12000.000
G1 F1680.000 E2.00000
G1 X43.000 Y61.100 F720.000 E2.50809
G1 X43.000 Y55.600 E2.66778
G1 X60.500 Y55.600 E3.17587
G1 X60.500 Y61.025 E3.33337
G1 F1680.000 E1.33337
G92 E0
G1 X42.200 Y59.600 F12000.000
G1 F1680.000 E2.00000
G1 X42.200 Y70.300 F900.000 E2.31066
G1 X37.500 Y70.300 E2.44712
G1 X37.500 Y59.600 E2.75778
G1 X42.125 Y59.600 E2.89206
G1 X43.000 Y108.900 F12000.000
G1 X60.500 Y108.900 F720.000 E3.40015
G1 X60.500 Y114.400 E3.55984
G1 X43.000 Y114.400 E4.06793
G1 X43.000 Y108.975 E4.22543
G1 X42.000 Y123.900 F12000.000
G1 X42.000 Y74.800 F720.000 E5.65099
G1 X36.000 Y74.800 E5.82519
G1 X36.000 Y56.100 E6.36812
G1 X42.000 Y56.100 E6.54232
G1 X42.000 Y46.100 E6.83266
G1 X68.000 Y46.100 E7.58754
G1 X68.000 Y59.900 E7.98820
G1 X133.994 Y59.900 E9.90425
G1 X133.967 Y60.981 E9.93564
G1 X133.867 Y62.309 E9.97429
G1 X133.702 Y63.630 E10.01294
G1 X133.471 Y64.941 E10.05160
G1 X133.176 Y66.239 E10.09025
G1 X132.816 Y67.521 E10.12890
G1 X132.393 Y68.783 E10.16756
G1 X131.907 Y70.022 E10.20621
G1 X131.360 Y71.236 E10.24486
G1 X130.754 Y72.422 E10.28352
G1 X130.090 Y73.575 E10.32217
G1 X129.369 Y74.694 E10.36082
G1 X128.593 Y75.776 E10.39948
G1 X127.764 Y76.818 E10.43813
G1 X126.897 Y77.803 E10.47623
G1 X125.956 Y78.772 E10.51543
G1 X124.981 Y79.679 E10.55409
G1 X123.963 Y80.536 E10.59274
G1 X122.903 Y81.342 E10.63139
G1 X121.805 Y82.094 E10.67005
G1 X120.670 Y82.790 E10.70870
G1 X119.502 Y83.429 E10.74735
G1 X118.304 Y84.009 E10.78601
G1 X117.078 Y84.529 E10.82466
G1 X115.828 Y84.987 E10.86331
G1 X114.557 Y85.383 E10.90197
G1 X113.264 Y85.715 E10.94071
G1 X85.903 Y92.032 E11.75602
G1 X84.769 Y92.329 E11.79004
G1 X83.651 Y92.692 E11.82416
G1 X82.557 Y93.119 E11.85828
G1 X81.488 Y93.609 E11.89240
G1 X80.450 Y94.160 E11.92652
G1 X79.446 Y94.770 E11.96064
G1 X78.479 Y95.438 E11.99476
G1 X77.552 Y96.160 E12.02889
G1 X76.690 Y96.917 E12.06217
G1 X75.832 Y97.761 E12.09713
G1 X75.044 Y98.633 E12.13125
G1 X74.309 Y99.550 E12.16537
G1 X73.627 Y100.507 E12.19949
G1 X73.003 Y101.503 E12.23361
G1 X72.437 Y102.533 E12.26773
G1 X71.932 Y103.594 E12.30186
G1 X71.489 Y104.683 E12.33598
G1 X71.110 Y105.795 E12.37010
G1 X70.797 Y106.928 E12.40422
G1 X70.550 Y108.077 E12.43834
G1 X70.205 Y110.278 E12.50303
G1 X69.976 Y111.305 E12.53359
G1 X69.683 Y112.317 E12.56416
G1 X69.327 Y113.307 E12.59472
G1 X68.910 Y114.274 E12.62529
G1 X68.432 Y115.212 E12.65585
G1 X67.897 Y116.118 E12.68642
G1 X67.305 Y116.989 E12.71698
G1 X66.660 Y117.821 E12.74755
G1 X65.965 Y118.611 E12.77811
G1 X65.220 Y119.356 E12.80868
G1 X64.431 Y120.052 E12.83924
G1 X63.599 Y120.698 E12.86981
G1 X62.729 Y121.290 E12.90038
G1 X61.820 Y121.828 E12.93104
G1 X60.882 Y122.306 E12.96162
G1 X59.916 Y122.724 E12.99216
G1 X58.925 Y123.080 E13.02274
G1 X57.915 Y123.374 E13.05329
G1 X56.886 Y123.604 E13.08388
G1 X55.846 Y123.768 E13.11445
G1 X54.761 Y123.869 E13.14609
G1 X53.828 Y123.900 E13.17320
G1 X42.075 Y123.900 E13.51443
G1 X42.370 Y123.538 F12000.000
G1 X42.362 Y122.822 F1200.000 E13.53526
G1 X43.078 Y123.538 E13.56470
G1 X43.787 Y123.538 E13.58530
G1 X42.362 Y122.113 E13.64388
G1 X42.362 Y121.405 E13.66448
G1 X44.495 Y123.538 E13.75219
G1 X45.203 Y123.538 E13.77279
G1 X42.362 Y120.697 E13.88963
G1 X42.362 Y119.988 E13.91023
G1 X45.912 Y123.538 E14.05620
G1 X46.620 Y123.538 E14.07680
G1 X42.362 Y119.280 E14.25191
G1 X42.362 Y118.572 E14.27251
G1 X47.328 Y123.538 E14.47675
G1 X48.036 Y123.538 E14.49735
G1 X42.362 Y117.864 E14.73072
G1 X42.362 Y117.155 E14.75132
G1 X48.745 Y123.538 E15.01383
G1 X49.453 Y123.538 E15.03443
G1 X42.362 Y116.447 E15.32607
G1 X42.362 Y115.739 E15.34667
G1 X50.161 Y123.538 E15.66744
G1 X50.870 Y123.538 E15.68804
G1 X42.362 Y115.030 E16.03794
G1 X42.803 Y114.762 E16.05293
G1 X51.578 Y123.538 E16.41385
G1 X52.286 Y123.538 E16.43445
G1 X43.511 Y114.762 E16.79538
G1 X44.219 Y114.762 E16.81598
G1 X52.995 Y123.538 E17.17690
G1 X53.703 Y123.538 E17.19750
G1 X44.928 Y114.762 E17.55842
G1 X45.636 Y114.762 E17.57902
G1 X54.392 Y123.519 E17.93917
G1 X55.060 Y123.478 E17.95862
G1 X46.344 Y114.762 E18.31709
G1 X47.053 Y114.762 E18.33769
G1 X55.708 Y123.418 E18.69370
G1 X56.324 Y123.326 E18.71181
G1 X47.761 Y114.762 E19.06402
G1 X48.469 Y114.762 E19.08462
G1 X56.929 Y123.222 E19.43257
G1 X57.509 Y123.094 E19.44984
G1 X49.178 Y114.762 E19.79251
G1 X49.886 Y114.762 E19.81311
G1 X58.072 Y122.949 E20.14981
G1 X58.622 Y122.791 E20.16646
G1 X50.594 Y114.762 E20.49667
G1 X51.302 Y114.762 E20.51727
G1 X59.153 Y122.613 E20.84017
G1 X59.674 Y122.426 E20.85627
G1 X52.011 Y114.762 E21.17147
G1 X52.719 Y114.762 E21.19207
G1 X60.174 Y122.217 E21.49869
G1 X60.669 Y122.004 E21.51436
G1 X53.427 Y114.762 E21.81218
G1 X54.136 Y114.762 E21.83278
G1 X61.141 Y121.767 E22.12089
G1 X61.610 Y121.528 E22.13620
G1 X54.844 Y114.762 E22.41447
G1 X55.552 Y114.762 E22.43507
G1 X62.057 Y121.267 E22.70259
G1 X62.502 Y121.003 E22.71763
G1 X56.261 Y114.762 E22.97432
G1 X56.969 Y114.762 E22.99492
G1 X62.925 Y120.718 E23.23989
G1 X63.347 Y120.432 E23.25472
G1 X57.677 Y114.762 E23.48789
G1 X58.386 Y114.762 E23.50849
G1 X63.747 Y120.124 E23.72903
G1 X64.146 Y119.815 E23.74371
G1 X59.094 Y114.762 E23.95151
G1 X59.802 Y114.762 E23.97211
G1 X64.526 Y119.486 E24.16639
G1 X64.902 Y119.154 E24.18098
G1 X60.510 Y114.762 E24.36160
G1 X60.862 Y114.406 E24.37616
G1 X65.260 Y118.804 E24.55704
G1 X65.614 Y118.449 E24.57161
G1 X60.862 Y113.698 E24.76704
G1 X60.862 Y112.989 E24.78764
G1 X65.951 Y118.078 E24.99695
G1 X66.283 Y117.702 E25.01154
G1 X60.862 Y112.281 E25.23449
G1 X60.862 Y111.573 E25.25509
G1 X66.599 Y117.309 E25.49103
G1 X66.908 Y116.910 E25.50571
G1 X60.862 Y110.864 E25.75437
G1 X60.862 Y110.156 E25.77497
G1 X67.202 Y116.496 E26.03573
G1 X67.489 Y116.074 E26.05056
G1 X60.862 Y109.448 E26.32310
G1 X60.862 Y108.740 E26.34370
G1 X67.760 Y115.637 E26.62739
G1 X68.023 Y115.192 E26.64243
G1 X42.362 Y89.531 E27.69785
G1 X42.362 Y88.823 E27.71845
G1 X68.270 Y114.731 E28.78403
G1 X68.509 Y114.261 E28.79935
G1 X42.362 Y88.115 E29.87476
G1 X42.362 Y87.406 E29.89536
G1 X68.731 Y113.774 E30.97987
G1 X68.944 Y113.280 E30.99554
G1 X42.362 Y86.698 E32.08884
G1 X42.362 Y85.990 E32.10944
G1 X69.137 Y112.764 E33.21068
G1 X69.324 Y112.243 E33.22678
G1 X42.362 Y85.281 E34.33572
G1 X42.362 Y84.573 E34.35632
G1 X69.486 Y111.696 E35.47189
G1 X69.641 Y111.143 E35.48859
G1 X42.362 Y83.865 E36.61056
G1 X42.362 Y83.156 E36.63116
G1 X69.770 Y110.564 E37.75843
G1 X69.886 Y109.972 E37.77598
G1 X42.362 Y82.448 E38.90803
G1 X42.362 Y81.740 E38.92863
G1 X69.982 Y109.360 E40.06462
G1 X70.078 Y108.747 E40.08265
G1 X42.362 Y81.031 E41.22258
G1 X42.362 Y80.323 E41.24318
G1 X70.174 Y108.134 E42.38705
G1 X70.293 Y107.546 E42.40452
G1 X42.362 Y79.615 E43.55330
G1 X42.362 Y78.907 E43.57390
G1 X70.419 Y106.963 E44.72785
G1 X70.566 Y106.402 E44.74471
G1 X42.362 Y78.198 E45.90473
G1 X42.362 Y77.490 E45.92533
G1 X70.720 Y105.847 E47.09166
G1 X70.893 Y105.312 E47.10803
G1 X42.362 Y76.782 E48.28147
G1 X42.362 Y76.073 E48.30207
G1 X71.073 Y104.784 E49.48295
G1 X71.266 Y104.269 E49.49896
G1 X42.362 Y75.365 E50.68776
G1 X42.362 Y74.657 E50.70836
G1 X71.471 Y103.765 E51.90559
G1 X71.684 Y103.270 E51.92126
G1 X39.076 Y70.662 E53.26242
G1 X39.785 Y70.662 E53.28302
G1 X71.913 Y102.791 E54.60444
G1 X72.144 Y102.313 E54.61986
G1 X40.493 Y70.662 E55.92165
G1 X41.201 Y70.662 E55.94225
G1 X72.395 Y101.856 E57.22524
G1 X72.646 Y101.399 E57.24041
G1 X41.910 Y70.662 E58.50460
G1 X42.562 Y70.607 E58.52365
G1 X72.915 Y100.960 E59.77206
G1 X73.188 Y100.525 E59.78701
G1 X42.562 Y69.899 E61.04665
G1 X42.562 Y69.190 E61.06725
G1 X73.472 Y100.100 E62.33855
G1 X73.767 Y99.686 E62.35333
G1 X42.562 Y68.482 E63.63674
G1 X42.562 Y67.774 E63.65734
G1 X74.064 Y99.275 E64.95299
G1 X74.379 Y98.882 E64.96765
G1 X42.562 Y67.065 E66.27627
