; generated by Slic3r 0.9.10b on 2013-10-22 at 22:42:51

; layer_height = 0.3
; perimeters = 2
; top_solid_layers = 3
; bottom_solid_layers = 3
; fill_density = 0.4
; perimeter_speed = 30
; infill_speed = 30
; travel_speed = 200
; nozzle_diameter = 0.5
; filament_diameter = 2.9
; extrusion_multiplier = 0.95
; perimeters extrusion width = 0.70mm
; infill extrusion width = 0.70mm
; solid infill extrusion width = 0.70mm
; top infill extrusion width = 0.70mm

G21 ; set units to millimeters
M107
M190 S100 ; wait for bed temperature to be reached
M104 S230 ; set temperature
G28 ; home all axes
G1 Z15 F120 ; lift nozzle
M109 S230 ; wait for temperature to be reached
G90 ; use absolute coordinates
G92 E0
M82 ; use absolute distances for extrusion
G1 F1680.000 E-2.00000
G92 E0
G1 Z0.450 F12000.000
G1 X33.866 Y33.773
G1 F1680.000 E2.00000
G1 X34.486 Y33.183 F900.000 E2.03625
G1 X35.166 Y32.693 E2.07176
G1 X36.036 Y32.143 E2.11536
G1 X36.766 Y31.743 E2.15062
G1 X37.526 Y31.433 E2.18539
G1 X38.506 Y31.113 E2.22906
G1 X39.326 Y30.903 E2.26492
G1 X40.156 Y30.803 E2.30033
G1 X41.116 Y30.743 E2.34107
G1 X88.626 Y30.733 E4.35361
G1 X120.716 Y30.793 E5.71296
G1 X121.916 Y30.833 E5.76382
G1 X122.496 Y30.923 E5.78868
G1 X123.416 Y31.103 E5.82839
G1 X124.206 Y31.313 E5.86302
G1 X124.966 Y31.613 E5.89763
G1 X125.816 Y32.013 E5.93742
G1 X126.516 Y32.393 E5.97116
G1 X127.166 Y32.853 E6.00489
G1 X127.896 Y33.443 E6.04465
G1 X128.556 Y34.063 E6.08301
G1 X129.126 Y34.753 E6.12092
G1 X129.676 Y35.523 E6.16101
G1 X130.116 Y36.223 E6.19603
G1 X130.466 Y36.973 E6.23109
G1 X130.806 Y37.843 E6.27066
G1 X131.056 Y38.613 E6.30495
G1 X131.206 Y39.413 E6.33943
G1 X131.326 Y40.343 E6.37915
G1 X131.376 Y41.193 E6.41522
G1 X131.376 Y116.793 E9.61766
G1 X131.326 Y117.643 E9.65373
G1 X131.206 Y118.573 E9.69345
G1 X131.056 Y119.363 E9.72751
G1 X130.816 Y120.123 E9.76127
G1 X130.476 Y121.003 E9.80123
G1 X130.116 Y121.783 E9.83762
G1 X129.656 Y122.503 E9.87382
G1 X129.106 Y123.263 E9.91356
G1 X128.566 Y123.923 E9.94968
G1 X127.946 Y124.503 E9.98564
G1 X127.216 Y125.103 E10.02567
G1 X126.546 Y125.583 E10.06058
G1 X125.816 Y125.983 E10.09585
G1 X124.966 Y126.383 E10.13564
G1 X124.176 Y126.693 E10.17159
G1 X123.346 Y126.903 E10.20786
G1 X122.426 Y127.073 E10.24749
G1 X121.326 Y127.183 E10.29431
G1 X120.716 Y127.193 E10.32016
G1 X88.626 Y127.263 E11.67950
G1 X41.166 Y127.253 E13.68992
G1 X40.126 Y127.183 E13.73408
G1 X39.306 Y127.073 E13.76912
G1 X38.506 Y126.873 E13.80405
G1 X37.526 Y126.553 E13.84772
G1 X36.766 Y126.243 E13.88249
G1 X36.036 Y125.843 E13.91775
G1 X35.166 Y125.293 E13.96135
G1 X34.496 Y124.813 E13.99627
G1 X33.896 Y124.243 E14.03132
G1 X33.186 Y123.493 E14.07507
G1 X32.636 Y122.843 E14.11114
G1 X32.186 Y122.123 E14.14711
G1 X31.686 Y121.213 E14.19109
G1 X31.316 Y120.443 E14.22728
G1 X31.056 Y119.623 E14.26372
G1 X30.806 Y118.623 E14.30738
G1 X30.666 Y117.823 E14.34179
G1 X30.616 Y117.013 E14.37616
G1 X30.616 Y40.973 E17.59724
G1 X30.666 Y40.163 E17.63162
G1 X30.806 Y39.363 E17.66602
G1 X31.056 Y38.363 E17.70968
G1 X31.326 Y37.533 E17.74666
G1 X31.696 Y36.743 E17.78361
G1 X32.196 Y35.843 E17.82722
G1 X32.636 Y35.153 E17.86189
G1 X33.156 Y34.533 E17.89616
G1 X33.799 Y33.845 E17.93606
G1 F1680.000 E15.93606
G92 E0
G1 X118.610 Y40.900 F12000.000
G1 F1680.000 E2.00000
G1 X118.759 Y40.319 F900.000 E2.02541
G1 X119.048 Y39.794 E2.05081
G1 X119.459 Y39.357 E2.07621
G1 X119.965 Y39.035 E2.10161
G1 X120.535 Y38.850 E2.12701
G1 X121.134 Y38.812 E2.15241
G1 X121.723 Y38.925 E2.17782
G1 X122.266 Y39.180 E2.20322
G1 X122.728 Y39.562 E2.22863
G1 X123.080 Y40.048 E2.25403
G1 X123.271 Y40.531 E2.27604
G1 X123.301 Y40.605 E2.27944
G1 X123.376 Y41.200 E2.30483
G1 X123.301 Y41.795 E2.33024
G1 X123.271 Y41.869 E2.33363
G1 X123.080 Y42.353 E2.35564
G1 X122.728 Y42.838 E2.38104
G1 X122.266 Y43.220 E2.40644
G1 X121.723 Y43.475 E2.43185
G1 X121.134 Y43.588 E2.45725
G1 X120.535 Y43.550 E2.48265
G1 X119.965 Y43.365 E2.50806
G1 X119.459 Y43.043 E2.53346
G1 X119.048 Y42.606 E2.55886
G1 X118.759 Y42.081 E2.58426
G1 X118.610 Y41.500 E2.60967
G1 X118.610 Y40.998 E2.63091
G1 X119.172 Y40.691 F12000.000
G1 F1680.000 E0.63091
G92 E0
G1 X121.134 Y83.812 F12000.000
G1 F1680.000 E2.00000
G1 X121.723 Y83.925 F900.000 E2.02541
G1 X122.266 Y84.180 E2.05081
G1 X122.728 Y84.562 E2.07621
G1 X123.080 Y85.047 E2.10162
G1 X123.271 Y85.531 E2.12363
G1 X123.301 Y85.605 E2.12702
G1 X123.376 Y86.200 E2.15242
G1 X123.301 Y86.795 E2.17782
G1 X123.271 Y86.869 E2.18122
G1 X123.080 Y87.353 E2.20323
G1 X122.728 Y87.838 E2.22863
G1 X122.266 Y88.220 E2.25403
G1 X122.193 Y88.254 E2.25742
G1 X121.723 Y88.475 E2.27943
G1 X121.134 Y88.588 E2.30484
G1 X120.535 Y88.550 E2.33024
G1 X119.965 Y88.365 E2.35564
G1 X119.459 Y88.043 E2.38104
G1 X119.048 Y87.606 E2.40645
G1 X118.759 Y87.081 E2.43185
G1 X118.610 Y86.500 E2.45725
G1 X118.610 Y85.900 E2.48265
G1 X118.759 Y85.319 E2.50806
G1 X119.048 Y84.794 E2.53346
G1 X119.459 Y84.357 E2.55886
G1 X119.965 Y84.035 E2.58427
G1 X120.535 Y83.850 E2.60967
G1 X121.036 Y83.819 E2.63091
G1 X121.378 Y84.360 F12000.000
G1 F1680.000 E0.63091
G92 E0
G1 X43.455 Y115.347 F12000.000
G1 F1680.000 E2.00000
G1 X43.676 Y115.905 F900.000 E2.02540
G1 X43.751 Y116.500 E2.05081
G1 X43.676 Y117.095 E2.07621
G1 X43.455 Y117.652 E2.10161
G1 X43.103 Y118.138 E2.12702
G1 X42.641 Y118.520 E2.15242
G1 X42.098 Y118.775 E2.17782
G1 X41.509 Y118.888 E2.20323
G1 X40.910 Y118.850 E2.22862
G1 X40.340 Y118.665 E2.25402
G1 X39.834 Y118.343 E2.27943
G1 X39.423 Y117.906 E2.30484
G1 X39.134 Y117.381 E2.33023
G1 X38.985 Y116.800 E2.35564
G1 X38.985 Y116.200 E2.38104
G1 X39.134 Y115.619 E2.40645
G1 X39.423 Y115.094 E2.43185
G1 X39.834 Y114.657 E2.45725
G1 X40.340 Y114.335 E2.48266
G1 X40.911 Y114.150 E2.50806
G1 X41.509 Y114.112 E2.53346
G1 X42.098 Y114.225 E2.55886
G1 X42.641 Y114.480 E2.58427
G1 X43.103 Y114.862 E2.60967
G1 X43.397 Y115.268 E2.63091
G1 X43.123 Y115.847 F12000.000
G1 F1680.000 E0.63091
G92 E0
G1 X41.509 Y73.888 F12000.000
G1 F1680.000 E2.00000
G1 X40.910 Y73.850 F900.000 E2.02540
G1 X40.834 Y73.825 E2.02879
G1 X40.340 Y73.665 E2.05080
G1 X39.834 Y73.343 E2.07620
G1 X39.423 Y72.906 E2.10161
G1 X39.134 Y72.381 E2.12700
G1 X38.985 Y71.800 E2.15241
G1 X38.985 Y71.200 E2.17782
G1 X39.134 Y70.619 E2.20322
G1 X39.423 Y70.094 E2.22862
G1 X39.834 Y69.657 E2.25402
G1 X40.340 Y69.335 E2.27943
G1 X40.911 Y69.150 E2.30483
G1 X41.509 Y69.112 E2.33023
G1 X42.098 Y69.225 E2.35563
G1 X42.641 Y69.480 E2.38104
G1 X43.103 Y69.862 E2.40644
G1 X43.455 Y70.347 E2.43184
G1 X43.676 Y70.905 E2.45724
G1 X43.751 Y71.500 E2.48265
G1 X43.676 Y72.095 E2.50805
G1 X43.455 Y72.652 E2.53345
G1 X43.103 Y73.138 E2.55886
G1 X42.641 Y73.520 E2.58426
G1 X42.098 Y73.775 E2.60966
G1 X41.605 Y73.869 E2.63091
G1 X41.198 Y73.375 F12000.000
G1 F1680.000 E0.63091
G92 E0
G1 X72.459 Y43.043 F12000.000
G1 F1680.000 E2.00000
G1 X72.048 Y42.606 F900.000 E2.02540
G1 X71.759 Y42.081 E2.05081
G1 X71.610 Y41.500 E2.07621
G1 X71.610 Y40.900 E2.10161
G1 X71.759 Y40.319 E2.12702
G1 X72.048 Y39.794 E2.15242
G1 X72.459 Y39.357 E2.17782
G1 X72.965 Y39.035 E2.20322
G1 X73.535 Y38.850 E2.22862
G1 X74.134 Y38.812 E2.25402
G1 X74.723 Y38.925 E2.27943
G1 X75.266 Y39.180 E2.30483
G1 X75.728 Y39.562 E2.33023
G1 X76.080 Y40.048 E2.35564
G1 X76.301 Y40.605 E2.38104
G1 X76.376 Y41.200 E2.40644
G1 X76.301 Y41.795 E2.43185
G1 X76.080 Y42.353 E2.45725
G1 X75.728 Y42.838 E2.48265
G1 X75.266 Y43.220 E2.50805
G1 X74.723 Y43.475 E2.53346
G1 X74.134 Y43.588 E2.55886
G1 X73.535 Y43.550 E2.58426
G1 X72.965 Y43.365 E2.60966
G1 X72.542 Y43.096 E2.63091
G1 X72.583 Y42.457 F12000.000
G1 F1680.000 E0.63091
G92 E0
G1 X87.340 Y69.335 F12000.000
G1 F1680.000 E2.00000
G1 X87.911 Y69.150 F900.000 E2.02540
G1 X88.509 Y69.112 E2.05080
G1 X89.098 Y69.225 E2.07620
G1 X89.641 Y69.480 E2.10161
G1 X90.103 Y69.862 E2.12701
G1 X90.455 Y70.347 E2.15241
G1 X90.676 Y70.905 E2.17781
G1 X90.751 Y71.500 E2.20322
G1 X90.676 Y72.095 E2.22862
G1 X90.455 Y72.652 E2.25402
G1 X90.103 Y73.138 E2.27943
G1 X89.641 Y73.520 E2.30483
G1 X89.098 Y73.775 E2.33023
G1 X88.509 Y73.888 E2.35564
G1 X87.910 Y73.850 E2.38104
G1 X87.340 Y73.665 E2.40643
G1 X86.834 Y73.343 E2.43184
G1 X86.423 Y72.906 E2.45725
G1 X86.134 Y72.381 E2.48264
G1 X85.985 Y71.800 E2.50805
G1 X85.985 Y71.200 E2.53345
G1 X86.134 Y70.619 E2.55886
G1 X86.423 Y70.094 E2.58426
G1 X86.834 Y69.657 E2.60966
G1 X87.257 Y69.388 E2.63091
G1 X87.818 Y69.698 F12000.000
G1 F1680.000 E0.63091
G92 E0
G1 X75.666 Y84.511 F12000.000
G1 F1680.000 E2.00000
G1 X75.728 Y84.562 F900.000 E2.00339
G1 X76.080 Y85.047 E2.02880
G1 X76.301 Y85.605 E2.05420
G1 X76.376 Y86.200 E2.07960
G1 X76.301 Y86.795 E2.10501
G1 X76.080 Y87.353 E2.13041
G1 X75.728 Y87.838 E2.15581
G1 X75.266 Y88.220 E2.18121
G1 X75.193 Y88.254 E2.18460
G1 X74.723 Y88.475 E2.20662
G1 X74.134 Y88.588 E2.23202
G1 X73.535 Y88.550 E2.25742
G1 X72.965 Y88.365 E2.28282
G1 X72.459 Y88.043 E2.30823
G1 X72.048 Y87.606 E2.33363
G1 X71.759 Y87.081 E2.35903
G1 X71.610 Y86.500 E2.38444
G1 X71.610 Y85.900 E2.40984
G1 X71.759 Y85.319 E2.43524
G1 X72.048 Y84.794 E2.46064
G1 X72.459 Y84.357 E2.48605
G1 X72.965 Y84.035 E2.51145
G1 X73.535 Y83.850 E2.53685
G1 X74.134 Y83.812 E2.56225
G1 X74.723 Y83.925 E2.58766
G1 X75.266 Y84.180 E2.61306
G1 X75.590 Y84.449 E2.63091
G1 X75.653 Y84.590 F12000.000
G1 F1680.000 E0.63091
G92 E0
G1 X87.340 Y114.335 F12000.000
G1 F1680.000 E2.00000
G1 X87.911 Y114.150 F900.000 E2.02540
G1 X88.429 Y114.117 E2.04741
G1 X88.509 Y114.112 E2.05080
G1 X89.098 Y114.225 E2.07620
G1 X89.641 Y114.480 E2.10161
G1 X90.103 Y114.862 E2.12701
G1 X90.455 Y115.347 E2.15241
G1 X90.676 Y115.905 E2.17781
G1 X90.751 Y116.500 E2.20322
G1 X90.676 Y117.095 E2.22862
G1 X90.455 Y117.652 E2.25402
G1 X90.103 Y118.138 E2.27943
G1 X89.641 Y118.520 E2.30483
G1 X89.098 Y118.775 E2.33023
G1 X88.509 Y118.888 E2.35564
G1 X87.910 Y118.850 E2.38104
G1 X87.340 Y118.665 E2.40643
G1 X86.834 Y118.343 E2.43184
G1 X86.423 Y117.906 E2.45725
G1 X86.134 Y117.381 E2.48264
G1 X85.985 Y116.800 E2.50805
G1 X85.985 Y116.200 E2.53345
G1 X86.134 Y115.619 E2.55886
G1 X86.423 Y115.094 E2.58426
G1 X86.834 Y114.657 E2.60966
G1 X87.257 Y114.388 E2.63091
G1 X87.818 Y114.698 F12000.000
G1 F1680.000 E0.63091
G92 E0
G1 X89.401 Y119.568 F12000.000
G1 F1680.000 E2.00000
G1 X90.584 Y118.589 F900.000 E2.06505
G1 X91.033 Y117.970 E2.09746
G1 X91.315 Y117.259 E2.12986
G1 X91.411 Y116.500 E2.16227
G1 X91.315 Y115.741 E2.19468
G1 X91.033 Y115.030 E2.22709
G1 X90.584 Y114.411 E2.25949
G1 X89.994 Y113.923 E2.29189
G1 X89.302 Y113.597 E2.32431
G1 X88.550 Y113.454 E2.35672
G1 X87.592 Y113.514 E2.39738
G1 X87.517 Y113.300 E2.40702
G1 X104.369 Y101.500 E3.27845
G1 X86.749 Y89.163 E4.18957
G1 X86.360 Y88.916 E4.20911
G1 X85.822 Y88.343 E4.24240
G1 X85.443 Y87.654 E4.27569
G1 X85.248 Y86.893 E4.30898
G1 X85.248 Y86.107 E4.34228
G1 X85.443 Y85.346 E4.37557
G1 X85.822 Y84.657 E4.40886
G1 X86.360 Y84.084 E4.44216
G1 X87.024 Y83.663 E4.47545
G1 X87.771 Y83.420 E4.50874
G1 X88.556 Y83.371 E4.54204
G1 X88.875 Y83.432 E4.55582
G1 X119.429 Y83.432 E5.85010
G1 X118.515 Y84.406 E5.90672
G1 X118.146 Y85.076 E5.93912
G1 X117.956 Y85.818 E5.97153
G1 X117.956 Y86.582 E6.00393
G1 X118.146 Y87.323 E6.03634
G1 X118.515 Y87.994 E6.06875
G1 X119.429 Y88.968 E6.12537
G1 X98.566 Y88.968 E7.00914
G1 X98.125 Y90.369 E7.07136
G1 X110.326 Y98.913 E7.70232
G1 X110.262 Y99.003 E7.70701
G1 X110.996 Y99.610 E7.74735
G1 X111.403 Y100.170 E7.77666
G1 X111.657 Y100.813 E7.80597
G1 X111.744 Y101.500 E7.83528
G1 X111.657 Y102.186 E7.86459
G1 X111.403 Y102.830 E7.89390
G1 X110.996 Y103.390 E7.92322
G1 X110.262 Y103.997 E7.96355
G1 X110.326 Y104.087 E7.96825
G1 X98.125 Y112.631 E8.59921
G1 X98.566 Y114.032 E8.66143
G1 X119.627 Y114.032 E9.55356
G1 X119.627 Y114.141 E9.55820
G1 X121.157 Y114.045 E9.62315
G1 X121.837 Y114.175 E9.65245
G1 X122.463 Y114.469 E9.68177
G1 X122.996 Y114.910 E9.71108
G1 X123.403 Y115.470 E9.74039
G1 X123.658 Y116.113 E9.76970
G1 X123.744 Y116.800 E9.79901
G1 X123.658 Y117.486 E9.82832
G1 X123.403 Y118.130 E9.85764
G1 X122.996 Y118.690 E9.88695
G1 X122.463 Y119.131 E9.91626
G1 X121.837 Y119.425 E9.94557
G1 X121.157 Y119.555 E9.97488
G1 X119.627 Y119.459 E10.03982
G1 X119.627 Y119.568 E10.04446
G1 X89.499 Y119.568 E11.32070
G1 X88.937 Y120.223 F12000.000
G1 X88.597 Y120.288 F720.000 E11.33537
G1 X87.648 Y120.228 E11.37567
G1 X86.743 Y119.934 E11.41597
G1 X85.940 Y119.424 E11.45627
G1 X85.288 Y118.731 E11.49657
G1 X84.821 Y117.862 E11.53835
G1 X84.594 Y116.976 E11.57711
G1 X84.594 Y116.024 E11.61741
G1 X84.830 Y115.103 E11.65771
G1 X85.288 Y114.269 E11.69801
G1 X85.749 Y113.779 E11.72650
G1 X85.730 Y113.752 E11.72790
G1 X85.859 Y113.661 E11.73459
G1 X85.940 Y113.576 E11.73956
G1 X86.386 Y113.292 E11.76196
G1 X103.227 Y101.500 E12.63287
G1 X86.386 Y89.708 E13.50377
G1 X85.940 Y89.424 E13.52617
G1 X85.859 Y89.339 E13.53114
G1 X85.730 Y89.248 E13.53783
G1 X85.749 Y89.221 E13.53923
G1 X85.288 Y88.731 E13.56772
G1 X84.830 Y87.897 E13.60802
G1 X84.594 Y86.976 E13.64832
G1 X84.594 Y86.024 E13.68862
G1 X84.830 Y85.103 E13.72891
G1 X85.288 Y84.269 E13.76921
G1 X85.940 Y83.576 E13.80951
G1 X86.743 Y83.066 E13.84981
G1 X87.648 Y82.772 E13.89011
G1 X88.597 Y82.712 E13.93040
G1 X88.937 Y82.777 E13.94507
G1 X120.281 Y82.777 E15.27283
G1 X120.281 Y82.844 E15.27566
G1 X121.198 Y82.787 E15.31459
G1 X122.041 Y82.947 E15.35090
G1 X122.816 Y83.312 E15.38722
G1 X123.477 Y83.859 E15.42353
G1 X123.981 Y84.552 E15.45985
G1 X124.296 Y85.349 E15.49617
G1 X124.404 Y86.200 E15.53248
G1 X124.296 Y87.051 E15.56880
G1 X123.981 Y87.848 E15.60511
G1 X123.477 Y88.541 E15.64143
G1 X122.816 Y89.088 E15.67775
G1 X122.041 Y89.453 E15.71407
G1 X121.199 Y89.613 E15.75038
G1 X120.281 Y89.556 E15.78930
G1 X120.281 Y89.623 E15.79214
G1 X99.046 Y89.623 E16.69167
G1 X98.893 Y90.108 E16.71324
G1 X111.237 Y98.752 E17.35159
G1 X111.145 Y98.884 E17.35843
G1 X111.477 Y99.159 E17.37668
G1 X111.981 Y99.852 E17.41300
G1 X112.296 Y100.649 E17.44932
G1 X112.404 Y101.500 E17.48563
G1 X112.296 Y102.351 E17.52195
G1 X111.981 Y103.148 E17.55826
G1 X111.477 Y103.841 E17.59458
G1 X111.145 Y104.116 E17.61284
G1 X111.237 Y104.248 E17.61967
G1 X98.893 Y112.892 E18.25803
G1 X99.046 Y113.377 E18.27959
G1 X120.281 Y113.377 E19.17912
G1 X120.281 Y113.444 E19.18196
G1 X121.199 Y113.387 E19.22089
G1 X122.041 Y113.547 E19.25720
G1 X122.816 Y113.912 E19.29352
G1 X123.477 Y114.459 E19.32983
G1 X123.981 Y115.152 E19.36615
G1 X124.296 Y115.949 E19.40247
G1 X124.404 Y116.800 E19.43878
G1 X124.296 Y117.651 E19.47510
G1 X123.981 Y118.448 E19.51141
G1 X123.477 Y119.141 E19.54773
G1 X122.816 Y119.688 E19.58405
G1 X122.041 Y120.053 E19.62037
G1 X121.198 Y120.213 E19.65668
G1 X120.281 Y120.156 E19.69560
G1 X120.281 Y120.223 E19.69844
G1 X89.035 Y120.223 E21.02203
G1 X88.728 Y119.947 F12000.000
G1 F1680.000 E19.02203
G92 E0
G1 X123.744 Y71.800 F12000.000
G1 F1680.000 E2.00000
G1 X123.658 Y72.487 F900.000 E2.02931
G1 X123.403 Y73.130 E2.05862
G1 X122.996 Y73.690 E2.08794
G1 X122.463 Y74.131 E2.11724
G1 X121.837 Y74.425 E2.14656
G1 X121.157 Y74.555 E2.17587
G1 X119.627 Y74.459 E2.24081
G1 X119.627 Y74.568 E2.24545
G1 X89.401 Y74.568 E3.52585
G1 X90.584 Y73.589 E3.59090
G1 X91.033 Y72.970 E3.62331
G1 X91.315 Y72.259 E3.65571
G1 X91.411 Y71.500 E3.68812
G1 X91.315 Y70.741 E3.72053
G1 X91.033 Y70.030 E3.75294
G1 X90.584 Y69.411 E3.78534
G1 X89.994 Y68.923 E3.81774
G1 X89.302 Y68.597 E3.85016
G1 X88.550 Y68.454 E3.88257
G1 X87.592 Y68.514 E3.92323
G1 X87.517 Y68.300 E3.93287
G1 X104.369 Y56.500 E4.80430
G1 X86.749 Y44.163 E5.71542
G1 X86.360 Y43.916 E5.73496
G1 X85.822 Y43.343 E5.76825
G1 X85.443 Y42.654 E5.80154
G1 X85.248 Y41.893 E5.83483
G1 X85.248 Y41.107 E5.86813
G1 X85.443 Y40.346 E5.90142
G1 X85.822 Y39.657 E5.93471
G1 X86.360 Y39.084 E5.96801
G1 X87.024 Y38.663 E6.00130
G1 X87.771 Y38.420 E6.03459
G1 X88.556 Y38.371 E6.06789
G1 X88.875 Y38.432 E6.08167
G1 X119.429 Y38.432 E7.37595
G1 X118.515 Y39.406 E7.43256
G1 X118.146 Y40.076 E7.46497
G1 X117.956 Y40.818 E7.49738
G1 X117.956 Y41.582 E7.52978
G1 X118.146 Y42.323 E7.56219
