; generated by Slic3r 0.9.10b on 2013-11-03 at 21:54:58

; layer_height = 0.3
; perimeters = 1
; top_solid_layers = 2
; bottom_solid_layers = 2
; fill_density = 0.2
; perimeter_speed = 30
; infill_speed = 30
; travel_speed = 200
; nozzle_diameter = 0.5
; filament_diameter = 2.9
; extrusion_multiplier = 0.95
; perimeters extrusion width = 0.70mm
; infill extrusion width = 0.70mm
; solid infill extrusion width = 0.70mm
; top infill extrusion width = 0.70mm

G21 ; set units to millimeters
M107
M190 S100 ; wait for bed temperature to be reached
M104 S230 ; set temperature
G28 ; home all axes
G1 Z15 F120 ; lift nozzle
M109 S230 ; wait for temperature to be reached
G90 ; use absolute coordinates
G92 E0
M82 ; use absolute distances for extrusion
G1 F1680.000 E-2.00000
G92 E0
G1 Z0.450 F12000.000
G1 X24.152 Y23.681
G1 F1680.000 E2.00000
G1 X24.742 Y23.131 F900.000 E2.03417
G1 X25.392 Y22.651 E2.06840
G1 X26.552 Y21.911 E2.12668
G1 X27.282 Y21.511 E2.16194
G1 X28.052 Y21.201 E2.19710
G1 X29.362 Y20.771 E2.25551
G1 X30.192 Y20.551 E2.29188
G1 X31.032 Y20.451 E2.32772
G1 X32.332 Y20.371 E2.38289
G1 X92.832 Y20.361 E4.94569
G1 X135.552 Y20.441 E6.75532
G1 X136.372 Y20.451 E6.79006
G1 X136.972 Y20.481 E6.81551
G1 X137.562 Y20.571 E6.84079
G1 X138.792 Y20.811 E6.89387
G1 X139.592 Y21.011 E6.92880
G1 X140.352 Y21.321 E6.96357
G1 X141.482 Y21.851 E7.01644
G1 X142.212 Y22.251 E7.05170
G1 X142.882 Y22.741 E7.08687
G1 X143.852 Y23.541 E7.14013
G1 X144.482 Y24.131 E7.17669
G1 X145.032 Y24.801 E7.21341
G1 X145.762 Y25.821 E7.26654
G1 X146.192 Y26.501 E7.30062
G1 X146.542 Y27.241 E7.33530
G1 X147.002 Y28.401 E7.38816
G1 X147.252 Y29.181 E7.42286
G1 X147.412 Y30.001 E7.45825
G1 X147.572 Y31.241 E7.51121
G1 X147.622 Y32.091 E7.54728
G1 X147.622 Y129.891 E11.69011
G1 X147.572 Y130.731 E11.72576
G1 X147.412 Y131.981 E11.77914
G1 X147.252 Y132.801 E11.81453
G1 X147.002 Y133.591 E11.84963
G1 X146.542 Y134.751 E11.90249
G1 X146.192 Y135.491 E11.93717
G1 X145.762 Y136.171 E11.97125
G1 X145.032 Y137.191 E12.02438
G1 X144.482 Y137.861 E12.06110
G1 X143.852 Y138.451 E12.09766
G1 X142.882 Y139.251 E12.15093
G1 X142.212 Y139.741 E12.18609
G1 X141.482 Y140.141 E12.22135
G1 X140.352 Y140.671 E12.27422
G1 X139.562 Y140.981 E12.31017
G1 X138.742 Y141.191 E12.34602
G1 X137.512 Y141.421 E12.39903
G1 X136.372 Y141.531 E12.44755
G1 X135.552 Y141.541 E12.48228
G1 X92.832 Y141.631 E14.29192
G1 X32.432 Y141.621 E16.85048
G1 X31.052 Y141.541 E16.90904
G1 X30.202 Y141.441 E16.94529
G1 X29.362 Y141.221 E16.98207
G1 X28.052 Y140.791 E17.04048
G1 X27.282 Y140.481 E17.07564
G1 X26.552 Y140.081 E17.11090
G1 X25.392 Y139.341 E17.16919
G1 X24.742 Y138.861 E17.20341
G1 X24.152 Y138.311 E17.23758
G1 X23.202 Y137.311 E17.29601
G1 X22.642 Y136.651 E17.33267
G1 X22.182 Y135.921 E17.36923
G1 X21.522 Y134.711 E17.42761
G1 X21.172 Y133.951 E17.46305
G1 X20.912 Y133.161 E17.49828
G1 X20.572 Y131.821 E17.55685
G1 X20.422 Y131.001 E17.59216
G1 X20.372 Y130.181 E17.62696
G1 X20.372 Y31.801 E21.79436
G1 X20.422 Y30.971 E21.82959
G1 X20.572 Y30.151 E21.86490
G1 X20.912 Y28.821 E21.92305
G1 X21.172 Y28.031 E21.95828
G1 X21.522 Y27.281 E21.99334
G1 X22.182 Y26.071 E22.05172
G1 X22.642 Y25.341 E22.08827
G1 X23.202 Y24.681 E22.12494
G1 X24.084 Y23.752 E22.17921
G1 F1680.000 E20.17921
G92 E0
G1 X132.923 Y31.714 F12000.000
G1 F1680.000 E2.00000
G1 X133.115 Y30.966 F900.000 E2.03271
G1 X133.487 Y30.290 E2.06541
G1 X134.015 Y29.727 E2.09811
G1 X134.667 Y29.313 E2.13081
G1 X135.401 Y29.075 E2.16351
G1 X136.172 Y29.026 E2.19622
G1 X136.930 Y29.171 E2.22892
G1 X137.629 Y29.499 E2.26163
G1 X138.223 Y29.992 E2.29433
G1 X138.677 Y30.616 E2.32703
G1 X138.961 Y31.334 E2.35974
G1 X139.058 Y32.100 E2.39244
G1 X138.961 Y32.866 E2.42514
G1 X138.677 Y33.584 E2.45784
G1 X138.223 Y34.208 E2.49055
G1 X137.629 Y34.700 E2.52324
G1 X136.930 Y35.029 E2.55595
G1 X136.172 Y35.174 E2.58866
G1 X135.401 Y35.125 E2.62136
G1 X134.667 Y34.887 E2.65406
G1 X134.015 Y34.473 E2.68676
G1 X133.487 Y33.910 E2.71946
G1 X133.115 Y33.234 E2.75217
G1 X132.923 Y32.486 E2.78487
G1 X132.923 Y31.812 E2.81341
G1 F1680.000 E0.81341
G92 E0
G1 X136.172 Y86.026 F12000.000
G1 F1680.000 E2.00000
G1 X136.930 Y86.171 F900.000 E2.03271
G1 X137.629 Y86.499 E2.06541
G1 X138.223 Y86.992 E2.09811
G1 X138.677 Y87.616 E2.13082
G1 X138.961 Y88.334 E2.16352
G1 X139.058 Y89.100 E2.19622
G1 X138.961 Y89.866 E2.22893
G1 X138.677 Y90.584 E2.26163
G1 X138.223 Y91.208 E2.29433
G1 X137.629 Y91.700 E2.32703
G1 X136.930 Y92.029 E2.35974
G1 X136.172 Y92.174 E2.39244
G1 X135.401 Y92.125 E2.42514
G1 X134.667 Y91.887 E2.45784
G1 X134.015 Y91.473 E2.49055
G1 X133.487 Y90.910 E2.52325
G1 X133.448 Y90.840 E2.52664
G1 X133.115 Y90.234 E2.55595
G1 X132.923 Y89.486 E2.58866
G1 X132.923 Y88.714 E2.62135
G1 X133.095 Y88.044 E2.65067
G1 X133.115 Y87.966 E2.65406
G1 X133.487 Y87.290 E2.68676
G1 X134.015 Y86.727 E2.71947
G1 X134.667 Y86.313 E2.75217
G1 X135.401 Y86.075 E2.78487
G1 X136.074 Y86.032 E2.81341
G1 F1680.000 E0.81341
G92 E0
G1 X35.177 Y128.016 F12000.000
G1 F1680.000 E2.00000
G1 X35.461 Y128.734 F900.000 E2.03270
G1 X35.558 Y129.500 E2.06541
G1 X35.461 Y130.266 E2.09811
G1 X35.177 Y130.984 E2.13081
G1 X34.723 Y131.608 E2.16352
G1 X34.129 Y132.101 E2.19622
G1 X33.430 Y132.429 E2.22892
G1 X32.672 Y132.574 E2.26163
G1 X31.901 Y132.525 E2.29433
G1 X31.167 Y132.287 E2.32702
G1 X30.515 Y131.873 E2.35973
G1 X29.987 Y131.310 E2.39244
G1 X29.615 Y130.634 E2.42513
G1 X29.423 Y129.886 E2.45784
G1 X29.423 Y129.114 E2.49055
G1 X29.615 Y128.366 E2.52325
G1 X29.987 Y127.690 E2.55595
G1 X30.515 Y127.127 E2.58865
G1 X31.167 Y126.713 E2.62136
G1 X31.901 Y126.475 E2.65406
G1 X32.672 Y126.426 E2.68676
G1 X33.430 Y126.571 E2.71946
G1 X34.129 Y126.900 E2.75217
G1 X34.723 Y127.392 E2.78487
G1 X35.119 Y127.937 E2.81341
G1 F1680.000 E0.81341
G92 E0
G1 X32.672 Y75.574 F12000.000
G1 F1680.000 E2.00000
G1 X31.901 Y75.525 F900.000 E2.03270
G1 X31.825 Y75.500 E2.03609
G1 X31.167 Y75.287 E2.06540
G1 X30.515 Y74.873 E2.09810
G1 X29.987 Y74.310 E2.13081
G1 X29.615 Y73.634 E2.16350
G1 X29.423 Y72.886 E2.19621
G1 X29.423 Y72.114 E2.22892
G1 X29.615 Y71.366 E2.26162
G1 X29.987 Y70.690 E2.29432
G1 X30.515 Y70.127 E2.32702
G1 X31.167 Y69.713 E2.35973
G1 X31.901 Y69.475 E2.39243
G1 X32.672 Y69.426 E2.42513
G1 X33.351 Y69.556 E2.45444
G1 X33.430 Y69.571 E2.45783
G1 X34.129 Y69.900 E2.49054
G1 X34.723 Y70.392 E2.52324
G1 X35.177 Y71.016 E2.55594
G1 X35.461 Y71.734 E2.58864
G1 X35.558 Y72.500 E2.62135
G1 X35.461 Y73.266 E2.65405
G1 X35.177 Y73.984 E2.68675
G1 X34.723 Y74.608 E2.71946
G1 X34.129 Y75.101 E2.75216
G1 X33.430 Y75.429 E2.78486
G1 X32.768 Y75.555 E2.81341
G1 F1680.000 E0.81341
G92 E0
G1 X74.015 Y34.473 F12000.000
G1 F1680.000 E2.00000
G1 X73.487 Y33.910 F900.000 E2.03270
G1 X73.448 Y33.840 E2.03610
G1 X73.115 Y33.234 E2.06541
G1 X72.923 Y32.486 E2.09811
G1 X72.923 Y31.714 E2.13081
G1 X73.115 Y30.966 E2.16352
G1 X73.487 Y30.290 E2.19622
G1 X74.015 Y29.727 E2.22892
G1 X74.667 Y29.313 E2.26162
G1 X75.401 Y29.075 E2.29432
G1 X76.172 Y29.026 E2.32702
G1 X76.930 Y29.171 E2.35973
G1 X77.629 Y29.499 E2.39243
G1 X78.223 Y29.992 E2.42513
G1 X78.630 Y30.551 E2.45445
G1 X78.677 Y30.616 E2.45784
G1 X78.961 Y31.334 E2.49055
G1 X79.058 Y32.100 E2.52324
G1 X78.961 Y32.866 E2.55595
G1 X78.677 Y33.584 E2.58865
G1 X78.223 Y34.208 E2.62135
G1 X77.629 Y34.700 E2.65405
G1 X76.930 Y35.029 E2.68676
G1 X76.172 Y35.174 E2.71946
G1 X75.401 Y35.125 E2.75216
G1 X74.667 Y34.887 E2.78487
G1 X74.098 Y34.526 E2.81341
G1 F1680.000 E0.81341
G92 E0
G1 X91.167 Y69.713 F12000.000
G1 F1680.000 E2.00000
G1 X91.901 Y69.475 F900.000 E2.03270
G1 X92.672 Y69.426 E2.06540
G1 X93.430 Y69.571 E2.09810
G1 X94.129 Y69.900 E2.13081
G1 X94.723 Y70.392 E2.16351
G1 X95.177 Y71.016 E2.19621
G1 X95.461 Y71.734 E2.22891
G1 X95.558 Y72.500 E2.26162
G1 X95.461 Y73.266 E2.29432
G1 X95.177 Y73.984 E2.32702
G1 X94.723 Y74.608 E2.35973
G1 X94.129 Y75.101 E2.39243
G1 X93.430 Y75.429 E2.42513
G1 X92.672 Y75.574 E2.45784
G1 X91.901 Y75.525 E2.49053
G1 X91.167 Y75.287 E2.52323
G1 X90.515 Y74.873 E2.55594
G1 X89.987 Y74.310 E2.58865
G1 X89.615 Y73.634 E2.62134
G1 X89.423 Y72.886 E2.65405
G1 X89.423 Y72.114 E2.68675
G1 X89.615 Y71.366 E2.71946
G1 X89.987 Y70.690 E2.75216
G1 X90.515 Y70.127 E2.78486
G1 X91.084 Y69.766 E2.81341
G1 F1680.000 E0.81341
G92 E0
G1 X77.629 Y86.499 F12000.000
G1 F1680.000 E2.00000
G1 X78.223 Y86.992 F900.000 E2.03270
G1 X78.677 Y87.616 E2.06541
G1 X78.961 Y88.334 E2.09811
G1 X79.058 Y89.100 E2.13081
G1 X78.961 Y89.866 E2.16351
G1 X78.677 Y90.584 E2.19622
G1 X78.223 Y91.208 E2.22892
G1 X77.629 Y91.700 E2.26162
G1 X76.930 Y92.029 E2.29432
G1 X76.172 Y92.174 E2.32703
G1 X75.401 Y92.125 E2.35973
G1 X74.667 Y91.887 E2.39243
G1 X74.015 Y91.473 E2.42514
G1 X73.487 Y90.910 E2.45784
G1 X73.115 Y90.234 E2.49054
G1 X72.923 Y89.486 E2.52325
G1 X72.923 Y88.714 E2.55594
G1 X73.115 Y87.966 E2.58865
G1 X73.487 Y87.290 E2.62135
G1 X74.015 Y86.727 E2.65406
G1 X74.667 Y86.313 E2.68676
G1 X75.401 Y86.075 E2.71946
G1 X76.172 Y86.026 E2.75216
G1 X76.930 Y86.171 E2.78486
G1 X77.540 Y86.458 E2.81341
G1 F1680.000 E0.81341
G92 E0
G1 X91.167 Y126.713 F12000.000
G1 F1680.000 E2.00000
G1 X91.901 Y126.475 F900.000 E2.03270
G1 X92.592 Y126.431 E2.06200
G1 X92.672 Y126.426 E2.06540
G1 X93.430 Y126.571 E2.09810
G1 X94.129 Y126.900 E2.13081
G1 X94.723 Y127.392 E2.16351
G1 X95.177 Y128.016 E2.19621
G1 X95.461 Y128.734 E2.22891
G1 X95.558 Y129.500 E2.26162
G1 X95.461 Y130.266 E2.29432
G1 X95.177 Y130.984 E2.32702
G1 X94.723 Y131.608 E2.35973
G1 X94.129 Y132.101 E2.39243
G1 X93.430 Y132.429 E2.42513
G1 X92.672 Y132.574 E2.45784
G1 X91.901 Y132.525 E2.49054
G1 X91.167 Y132.287 E2.52323
G1 X90.515 Y131.873 E2.55594
G1 X89.987 Y131.310 E2.58865
G1 X89.615 Y130.634 E2.62134
G1 X89.423 Y129.886 E2.65405
G1 X89.423 Y129.114 E2.68676
G1 X89.615 Y128.366 E2.71946
G1 X89.987 Y127.690 E2.75216
G1 X90.515 Y127.127 E2.78486
G1 X91.084 Y126.766 E2.81341
G1 X89.788 Y125.132 F12000.000
G1 X112.113 Y109.500 F720.000 E3.96791
G1 X89.788 Y93.868 E5.12240
G1 X89.183 Y93.484 E5.15276
G1 X89.074 Y93.368 E5.15949
G1 X88.821 Y93.191 E5.17255
G1 X88.858 Y93.138 E5.17528
G1 X88.296 Y92.539 E5.21010
G1 X87.671 Y91.403 E5.26500
G1 X87.349 Y90.148 E5.31990
G1 X87.349 Y88.852 E5.37480
G1 X87.671 Y87.597 E5.42969
G1 X88.296 Y86.461 E5.48459
G1 X89.183 Y85.516 E5.53949
G1 X90.277 Y84.822 E5.59439
G1 X91.510 Y84.421 E5.64929
G1 X92.803 Y84.340 E5.70419
G1 X93.260 Y84.427 E5.72389
G1 X135.151 Y84.427 E7.49841
G1 X135.151 Y84.509 E7.50190
G1 X136.272 Y84.439 E7.54945
G1 X137.421 Y84.658 E7.59904
G1 X138.481 Y85.157 E7.64863
G1 X139.383 Y85.903 E7.69822
G1 X140.071 Y86.850 E7.74781
G1 X140.502 Y87.939 E7.79740
G1 X140.648 Y89.100 E7.84699
G1 X140.502 Y90.261 E7.89658
G1 X140.071 Y91.350 E7.94617
G1 X139.383 Y92.297 E7.99576
G1 X138.481 Y93.043 E8.04534
G1 X137.421 Y93.542 E8.09494
G1 X136.272 Y93.761 E8.14452
G1 X135.151 Y93.690 E8.19208
G1 X135.151 Y93.773 E8.19557
G1 X106.792 Y93.773 E9.39686
G1 X106.639 Y94.258 E9.41843
G1 X123.135 Y105.809 E10.27148
G1 X123.007 Y105.992 E10.28095
G1 X123.383 Y106.303 E10.30162
G1 X124.071 Y107.250 E10.35120
G1 X124.502 Y108.339 E10.40079
G1 X124.648 Y109.500 E10.45038
G1 X124.502 Y110.661 E10.49997
G1 X124.071 Y111.750 E10.54956
G1 X123.383 Y112.697 E10.59915
G1 X123.007 Y113.008 E10.61981
G1 X123.135 Y113.191 E10.62928
G1 X106.639 Y124.742 E11.48234
G1 X106.792 Y125.227 E11.50390
G1 X135.151 Y125.227 E12.70520
G1 X135.151 Y125.310 E12.70868
G1 X136.272 Y125.239 E12.75624
G1 X137.421 Y125.458 E12.80583
G1 X138.481 Y125.957 E12.85542
G1 X139.383 Y126.703 E12.90501
G1 X140.071 Y127.650 E12.95460
G1 X140.502 Y128.739 E13.00419
G1 X140.648 Y129.900 E13.05378
G1 X140.502 Y131.061 E13.10336
G1 X140.071 Y132.150 E13.15295
G1 X139.383 Y133.097 E13.20255
G1 X138.481 Y133.843 E13.25213
G1 X137.421 Y134.341 E13.30173
G1 X136.272 Y134.561 E13.35131
G1 X135.151 Y134.491 E13.39887
G1 X135.151 Y134.573 E13.40235
G1 X93.260 Y134.573 E15.17687
G1 X92.803 Y134.660 E15.19658
G1 X91.510 Y134.579 E15.25148
G1 X90.277 Y134.178 E15.30638
G1 X89.183 Y133.484 E15.36128
G1 X88.296 Y132.539 E15.41618
G1 X87.671 Y131.403 E15.47108
G1 X87.349 Y130.148 E15.52597
G1 X87.349 Y128.852 E15.58087
G1 X87.671 Y127.597 E15.63577
G1 X88.296 Y126.461 E15.69067
G1 X88.858 Y125.862 E15.72548
G1 X88.821 Y125.809 E15.72821
G1 X89.074 Y125.632 E15.74127
G1 X89.183 Y125.516 E15.74801
G1 X89.705 Y125.185 E15.77420
G1 F1680.000 E13.77420
G92 E0
G1 X92.767 Y77.658 F12000.000
G1 F1680.000 E2.00000
G1 X91.510 Y77.579 F720.000 E2.05337
G1 X90.277 Y77.178 E2.10827
G1 X89.183 Y76.484 E2.16316
G1 X88.296 Y75.539 E2.21806
G1 X87.671 Y74.403 E2.27296
G1 X87.349 Y73.148 E2.32786
G1 X87.349 Y71.852 E2.38276
G1 X87.671 Y70.597 E2.43765
G1 X88.296 Y69.461 E2.49255
G1 X88.858 Y68.862 E2.52737
G1 X88.821 Y68.809 E2.53010
G1 X89.074 Y68.632 E2.54316
G1 X89.183 Y68.516 E2.54989
G1 X89.788 Y68.132 E2.58025
G1 X112.113 Y52.500 E3.73474
G1 X89.788 Y36.868 E4.88924
G1 X89.183 Y36.484 E4.91959
G1 X89.074 Y36.368 E4.92633
G1 X88.821 Y36.191 E4.93939
G1 X88.858 Y36.138 E4.94212
G1 X88.296 Y35.539 E4.97694
G1 X87.671 Y34.403 E5.03183
G1 X87.349 Y33.148 E5.08673
G1 X87.349 Y31.852 E5.14163
G1 X87.671 Y30.597 E5.19652
G1 X88.296 Y29.461 E5.25143
G1 X89.183 Y28.516 E5.30632
G1 X90.277 Y27.822 E5.36122
G1 X91.510 Y27.421 E5.41612
G1 X92.803 Y27.340 E5.47102
G1 X93.260 Y27.427 E5.49073
G1 X135.151 Y27.427 E7.26525
G1 X135.151 Y27.509 E7.26873
G1 X136.272 Y27.439 E7.31629
G1 X137.421 Y27.658 E7.36588
G1 X138.481 Y28.157 E7.41547
G1 X139.383 Y28.903 E7.46505
G1 X140.071 Y29.850 E7.51465
G1 X140.502 Y30.939 E7.56424
G1 X140.648 Y32.100 E7.61382
G1 X140.502 Y33.261 E7.66341
G1 X140.071 Y34.350 E7.71300
G1 X139.383 Y35.297 E7.76259
G1 X138.481 Y36.043 E7.81218
G1 X137.421 Y36.542 E7.86177
G1 X136.272 Y36.761 E7.91136
G1 X135.151 Y36.690 E7.95892
G1 X135.151 Y36.773 E7.96241
G1 X106.792 Y36.773 E9.16370
G1 X106.639 Y37.258 E9.18526
G1 X123.135 Y48.809 E10.03832
G1 X123.007 Y48.992 E10.04779
G1 X123.383 Y49.303 E10.06845
G1 X124.071 Y50.250 E10.11804
G1 X124.502 Y51.339 E10.16763
G1 X124.648 Y52.500 E10.21722
G1 X124.502 Y53.661 E10.26681
G1 X124.071 Y54.750 E10.31640
G1 X123.383 Y55.697 E10.36599
G1 X123.007 Y56.008 E10.38665
G1 X123.135 Y56.191 E10.39612
G1 X106.639 Y67.742 E11.24917
G1 X106.792 Y68.227 E11.27074
G1 X135.151 Y68.227 E12.47203
G1 X135.151 Y68.310 E12.47552
G1 X136.272 Y68.239 E12.52308
G1 X137.421 Y68.458 E12.57266
G1 X138.481 Y68.957 E12.62226
G1 X139.383 Y69.703 E12.67184
G1 X140.071 Y70.650 E12.72143
G1 X140.502 Y71.739 E12.77102
G1 X140.648 Y72.900 E12.82061
G1 X140.502 Y74.061 E12.87020
G1 X140.071 Y75.150 E12.91979
G1 X139.383 Y76.097 E12.96938
G1 X138.481 Y76.843 E13.01897
G1 X137.421 Y77.342 E13.06856
G1 X136.272 Y77.561 E13.11815
G1 X135.151 Y77.491 E13.16571
G1 X135.151 Y77.573 E13.16919
G1 X93.260 Y77.573 E14.94371
G1 X92.864 Y77.648 E14.96079
G1 F1680.000 E12.96079
G92 E0
G1 X80.502 Y74.061 F12000.000
G1 F1680.000 E2.00000
G1 X80.071 Y75.150 F720.000 E2.04959
G1 X79.383 Y76.097 E2.09918
G1 X78.481 Y76.843 E2.14877
G1 X77.421 Y77.342 E2.19836
G1 X76.272 Y77.561 E2.24795
G1 X75.151 Y77.491 E2.29551
G1 X75.151 Y77.573 E2.29899
G1 X33.260 Y77.573 E4.07351
G1 X32.803 Y77.660 E4.09322
G1 X31.510 Y77.579 E4.14812
G1 X30.277 Y77.178 E4.20301
G1 X29.183 Y76.484 E4.25791
G1 X28.296 Y75.539 E4.31281
G1 X27.671 Y74.403 E4.36771
G1 X27.349 Y73.148 E4.42260
G1 X27.349 Y71.852 E4.47751
G1 X27.671 Y70.597 E4.53240
G1 X28.296 Y69.461 E4.58730
G1 X28.858 Y68.862 E4.62212
