; generated by Slic3r 0.9.10b on 2014-02-12 at 14:44:20

; layer_height = 0.2
; perimeters = 2
; top_solid_layers = 2
; bottom_solid_layers = 2
; fill_density = 0.25
; perimeter_speed = 30
; infill_speed = 30
; travel_speed = 200
; nozzle_diameter = 0.5
; filament_diameter = 2.9
; extrusion_multiplier = 0.95
; perimeters extrusion width = 0.50mm
; infill extrusion width = 0.50mm
; solid infill extrusion width = 0.50mm
; top infill extrusion width = 0.50mm

G21 ; set units to millimeters
M107
M190 S100 ; wait for bed temperature to be reached
M104 S230 ; set temperature
G28 ; home all axes
G1 Z15 F120 ; lift nozzle
M109 S230 ; wait for temperature to be reached
G90 ; use absolute coordinates
G92 E0
M82 ; use absolute distances for extrusion
G1 F1680.000 E-2.00000
G92 E0
G1 Z0.300 F12000.000
G1 X49.131 Y50.339
G1 F1680.000 E2.00000
G1 X50.461 Y49.189 F900.000 E2.03793
G1 X51.591 Y48.329 E2.06857
G1 X53.041 Y47.349 E2.10632
G1 X54.401 Y46.569 E2.14015
G1 X55.831 Y45.859 E2.17459
G1 X57.141 Y45.309 E2.20524
G1 X58.821 Y44.739 E2.24352
G1 X60.361 Y44.329 E2.27790
G1 X61.921 Y44.019 E2.31221
G1 X63.221 Y43.839 E2.34053
G1 X64.821 Y43.719 E2.37514
G1 X66.201 Y43.699 E2.40492
G1 X120.301 Y44.359 E3.57215
G1 X121.611 Y44.419 E3.60044
G1 X123.051 Y44.559 E3.63166
G1 X124.471 Y44.779 E3.66266
G1 X125.901 Y45.089 E3.69422
G1 X127.431 Y45.519 E3.72851
G1 X128.671 Y45.939 E3.75676
G1 X130.151 Y46.549 E3.79129
G1 X131.331 Y47.109 E3.81947
G1 X132.621 Y47.829 E3.85134
G1 X133.961 Y48.679 E3.88558
G1 X135.021 Y49.439 E3.91371
G1 X136.171 Y50.399 E3.94603
G1 X137.301 Y51.449 E3.97931
G1 X138.111 Y52.279 E4.00433
G1 X139.041 Y53.349 E4.03492
G1 X139.821 Y54.349 E4.06228
G1 X140.491 Y55.289 E4.08718
G1 X141.231 Y56.479 E4.11741
G1 X141.871 Y57.609 E4.14543
G1 X142.381 Y58.639 E4.17023
G1 X142.941 Y59.939 E4.20076
G1 X143.381 Y61.129 E4.22813
G1 X143.731 Y62.229 E4.25304
G1 X144.061 Y63.469 E4.28072
G1 X144.351 Y64.879 E4.31178
G1 X144.511 Y66.019 E4.33661
G1 X144.641 Y67.449 E4.36759
G1 X144.671 Y68.599 E4.39241
G1 X144.641 Y69.939 E4.42132
G1 X144.551 Y71.819 E4.46193
G1 X144.321 Y73.449 E4.49744
G1 X143.871 Y75.449 E4.54167
G1 X143.381 Y77.009 E4.57695
G1 X142.721 Y78.699 E4.61609
G1 X141.881 Y80.489 E4.65875
G1 X141.081 Y81.929 E4.69429
G1 X112.571 Y130.769 E5.91434
G1 X111.571 Y132.229 E5.95252
G1 X110.691 Y133.349 E5.98325
G1 X109.521 Y134.659 E6.02114
G1 X108.501 Y135.659 E6.05196
G1 X107.211 Y136.789 E6.08895
G1 X106.081 Y137.659 E6.11972
G1 X104.621 Y138.629 E6.15754
G1 X103.231 Y139.429 E6.19214
G1 X101.831 Y140.119 E6.22581
G1 X100.341 Y140.749 E6.26071
G1 X98.991 Y141.209 E6.29148
G1 X97.451 Y141.619 E6.32586
G1 X95.731 Y141.969 E6.36373
G1 X94.431 Y142.149 E6.39204
G1 X93.001 Y142.269 E6.42300
G1 X91.371 Y142.299 E6.45817
G1 X89.921 Y142.229 E6.48949
G1 X88.611 Y142.099 E6.51789
G1 X87.191 Y141.879 E6.54889
G1 X85.761 Y141.569 E6.58046
G1 X84.231 Y141.139 E6.61475
G1 X82.991 Y140.719 E6.64299
G1 X81.501 Y140.109 E6.67773
G1 X80.331 Y139.549 E6.70571
G1 X78.921 Y138.759 E6.74058
G1 X77.691 Y137.979 E6.77200
G1 X76.641 Y137.219 E6.79996
G1 X75.391 Y136.169 E6.83518
G1 X74.441 Y135.279 E6.86327
G1 X73.471 Y134.269 E6.89348
G1 X72.631 Y133.309 E6.92100
G1 X71.831 Y132.299 E6.94879
G1 X71.171 Y131.359 E6.97357
G1 X70.491 Y130.279 E7.00111
G1 X69.821 Y129.099 E7.03038
G1 X43.861 Y79.449 E8.23911
G1 X43.141 Y77.839 E8.27716
G1 X42.521 Y76.179 E8.31539
G1 X42.021 Y74.459 E8.35403
G1 X41.651 Y72.699 E8.39283
G1 X41.401 Y70.739 E8.43546
G1 X41.331 Y69.419 E8.46397
G1 X41.321 Y67.889 E8.49698
G1 X41.381 Y66.409 E8.52894
G1 X41.511 Y65.109 E8.55712
G1 X41.761 Y63.519 E8.59185
G1 X42.081 Y62.089 E8.62346
G1 X42.511 Y60.649 E8.65588
G1 X43.011 Y59.319 E8.68654
G1 X43.631 Y57.869 E8.72056
G1 X44.271 Y56.589 E8.75143
G1 X45.091 Y55.199 E8.78625
G1 X45.991 Y53.889 E8.82054
G1 X46.961 Y52.649 E8.85450
G1 X48.121 Y51.339 E8.89225
G1 X49.078 Y50.391 E8.92130
G1 F1680.000 E6.92130
G92 E0
G1 X117.948 Y93.534 F12000.000
G1 F1680.000 E2.00000
G1 X118.106 Y93.284 F900.000 E2.00638
G1 X118.294 Y93.057 E2.01275
G1 X118.509 Y92.855 E2.01912
G1 X118.748 Y92.681 E2.02549
G1 X119.007 Y92.539 E2.03185
G1 X119.282 Y92.430 E2.03823
G1 X119.568 Y92.357 E2.04460
G1 X119.861 Y92.320 E2.05098
G1 X120.156 Y92.320 E2.05734
G1 X120.449 Y92.357 E2.06371
G1 X120.735 Y92.430 E2.07008
G1 X121.010 Y92.539 E2.07646
G1 X121.268 Y92.681 E2.08283
G1 X121.507 Y92.855 E2.08920
G1 X121.722 Y93.057 E2.09556
G1 X121.911 Y93.285 E2.10194
G1 X122.069 Y93.534 E2.10831
G1 X122.195 Y93.801 E2.11468
G1 X122.286 Y94.082 E2.12105
G1 X122.341 Y94.372 E2.12742
G1 X122.360 Y94.667 E2.13379
G1 X122.341 Y94.961 E2.14016
G1 X122.286 Y95.251 E2.14653
G1 X122.195 Y95.532 E2.15291
G1 X122.069 Y95.799 E2.15927
G1 X121.874 Y96.093 E2.16687
G1 X121.722 Y96.277 E2.17201
G1 X121.507 Y96.478 E2.17838
G1 X121.218 Y96.680 E2.18598
G1 X121.010 Y96.794 E2.19111
G1 X120.735 Y96.903 E2.19748
G1 X120.449 Y96.977 E2.20386
G1 X120.156 Y97.013 E2.21023
G1 X119.861 Y97.013 E2.21659
G1 X119.568 Y96.977 E2.22297
G1 X119.281 Y96.903 E2.22934
G1 X119.007 Y96.794 E2.23571
G1 X118.702 Y96.618 E2.24331
G1 X118.509 Y96.479 E2.24844
G1 X118.294 Y96.277 E2.25481
G1 X118.075 Y96.001 E2.26241
G1 X117.948 Y95.799 E2.26755
G1 X117.822 Y95.532 E2.27392
G1 X117.720 Y95.195 E2.28151
G1 X117.675 Y94.961 E2.28665
G1 X117.657 Y94.667 E2.29302
G1 X117.675 Y94.372 E2.29939
G1 X117.731 Y94.082 E2.30577
G1 X117.822 Y93.801 E2.31213
G1 X117.916 Y93.602 E2.31688
G1 X118.376 Y93.799 F12000.000
G1 X118.511 Y93.579 F900.000 E2.32245
G1 X118.659 Y93.400 E2.32746
G1 X118.829 Y93.241 E2.33248
G1 X119.017 Y93.104 E2.33749
G1 X119.220 Y92.992 E2.34250
G1 X119.436 Y92.907 E2.34751
G1 X119.662 Y92.849 E2.35253
G1 X119.892 Y92.820 E2.35754
G1 X120.124 Y92.820 E2.36256
G1 X120.355 Y92.849 E2.36757
G1 X120.580 Y92.907 E2.37258
G1 X120.796 Y92.992 E2.37760
G1 X121.000 Y93.104 E2.38261
G1 X121.188 Y93.241 E2.38762
G1 X121.357 Y93.400 E2.39264
G1 X121.505 Y93.579 E2.39765
G1 X121.630 Y93.775 E2.40266
G1 X121.729 Y93.985 E2.40768
G1 X121.801 Y94.206 E2.41269
G1 X121.844 Y94.435 E2.41771
G1 X121.859 Y94.667 E2.42272
G1 X121.844 Y94.899 E2.42773
G1 X121.801 Y95.127 E2.43274
G1 X121.729 Y95.348 E2.43776
G1 X121.630 Y95.558 E2.44277
G1 X121.489 Y95.774 E2.44834
G1 X121.357 Y95.933 E2.45280
G1 X121.188 Y96.092 E2.45781
G1 X120.977 Y96.241 E2.46337
G1 X120.796 Y96.341 E2.46783
G1 X120.580 Y96.427 E2.47284
G1 X120.355 Y96.484 E2.47786
G1 X120.124 Y96.513 E2.48287
G1 X119.892 Y96.513 E2.48789
G1 X119.662 Y96.484 E2.49290
G1 X119.436 Y96.427 E2.49791
G1 X119.220 Y96.341 E2.50293
G1 X118.996 Y96.214 E2.50849
G1 X118.829 Y96.092 E2.51295
G1 X118.659 Y95.933 E2.51796
G1 X118.497 Y95.733 E2.52353
G1 X118.387 Y95.558 E2.52799
G1 X118.288 Y95.348 E2.53300
G1 X118.211 Y95.102 E2.53856
G1 X118.172 Y94.899 E2.54302
G1 X118.158 Y94.667 E2.54804
G1 X118.172 Y94.435 E2.55305
G1 X118.216 Y94.206 E2.55806
G1 X118.344 Y93.866 E2.56590
G1 X118.634 Y93.791 F12000.000
G1 X119.635 Y89.131
G1 X117.904 Y88.958 F900.000 E2.60342
G1 X116.117 Y88.739 E2.64226
G1 X115.776 Y88.721 E2.64962
G1 X115.450 Y88.519 E2.65789
G1 X113.744 Y88.140 E2.69559
G1 X112.918 Y87.866 E2.71438
G1 X110.925 Y87.076 E2.76063
G1 X110.491 Y86.667 E2.77349
G1 X110.460 Y86.751 E2.77541
G1 X108.926 Y85.896 E2.81328
G1 X108.164 Y85.359 E2.83342
G1 X106.813 Y84.293 E2.87053
G1 X106.585 Y84.159 E2.87623
G1 X106.285 Y83.773 E2.88678
G1 X106.272 Y83.579 E2.89099
G1 X105.312 Y82.821 E2.91738
G1 X104.914 Y82.447 E2.92915
G1 X104.228 Y81.663 E2.95163
G1 X103.615 Y80.837 E2.97382
G1 X102.709 Y79.531 E3.00812
G1 X102.784 Y79.452 E3.01047
G1 X101.947 Y78.035 E3.04596
G1 X101.487 Y77.102 E3.06842
G1 X101.098 Y76.139 E3.09082
G1 X100.563 Y74.445 E3.12913
G1 X100.625 Y74.428 E3.13051
G1 X100.218 Y73.164 E3.15918
G1 X100.023 Y72.132 E3.18182
G1 X99.700 Y69.262 E3.24413
G1 X99.786 Y69.269 E3.24598
G1 X99.773 Y68.074 E3.27177
G1 X99.854 Y67.032 E3.29432
G1 X100.264 Y64.292 E3.35409
G1 X100.330 Y64.304 E3.35554
G1 X100.713 Y62.887 E3.38719
G1 X101.023 Y61.922 E3.40906
G1 X101.396 Y60.967 E3.43119
G1 X101.909 Y59.912 E3.45649
G1 X101.895 Y59.908 E3.45680
G1 X102.197 Y59.320 E3.47106
G1 X102.211 Y59.329 E3.47142
G1 X102.813 Y58.226 E3.49853
G1 X103.363 Y57.355 E3.52075
G1 X103.981 Y56.526 E3.54305
G1 X104.968 Y55.415 E3.57511
G1 X104.866 Y55.339 E3.57786
G1 X106.978 Y53.414 E3.63952
G1 X109.225 Y51.673 E3.70084
G1 X109.270 Y51.758 E3.70293
G1 X110.510 Y51.041 E3.73384
G1 X111.436 Y50.589 E3.75606
G1 X112.388 Y50.199 E3.77826
G1 X114.243 Y49.569 E3.82053
G1 X114.260 Y49.784 E3.82519
G1 X115.046 Y49.421 E3.84388
G1 X115.574 Y49.231 E3.85599
G1 X116.622 Y48.976 E3.87926
G1 X117.690 Y48.827 E3.90252
G1 X119.716 Y48.679 E3.94634
G1 X119.696 Y48.770 E3.94834
G1 X120.836 Y48.758 E3.97295
G1 X121.873 Y48.812 E3.99536
G1 X122.909 Y48.939 E4.01787
G1 X124.132 Y49.186 E4.04479
G1 X124.131 Y49.127 E4.04606
G1 X126.037 Y49.673 E4.08885
G1 X127.011 Y50.011 E4.11109
G1 X127.978 Y50.411 E4.13366
G1 X129.005 Y50.915 E4.15835
G1 X129.014 Y50.866 E4.15945
G1 X129.565 Y51.190 E4.17324
G1 X129.786 Y51.299 E4.17854
G1 X129.773 Y51.313 E4.17896
G1 X130.791 Y51.913 E4.20446
G1 X131.656 Y52.476 E4.22673
G1 X132.498 Y53.124 E4.24965
G1 X133.670 Y54.271 E4.28503
G1 X133.644 Y54.310 E4.28605
G1 X134.849 Y55.386 E4.32090
G1 X135.502 Y56.132 E4.34228
G1 X136.846 Y57.964 E4.39130
G1 X136.851 Y58.089 E4.39401
G1 X137.741 Y59.477 E4.42958
G1 X138.065 Y60.155 E4.44579
G1 X138.606 Y61.459 E4.47625
G1 X138.908 Y62.253 E4.49458
G1 X138.995 Y62.613 E4.50256
G1 X138.986 Y62.697 E4.50439
G1 X139.505 Y64.455 E4.54393
G1 X139.670 Y65.243 E4.56129
G1 X139.931 Y66.794 E4.59523
G1 X139.948 Y67.032 E4.60037
G1 X140.022 Y67.368 E4.60780
G1 X140.032 Y67.957 E4.62050
G1 X139.660 Y68.482 E4.63439
G1 X139.950 Y68.782 E4.64339
G1 X139.981 Y70.066 E4.67110
G1 X139.918 Y71.094 E4.69331
G1 X139.781 Y72.103 E4.71527
G1 X139.422 Y73.883 E4.75446
G1 X139.300 Y73.843 E4.75723
G1 X139.066 Y75.080 E4.78441
G1 X138.733 Y76.116 E4.80787
G1 X138.311 Y77.107 E4.83110
G1 X137.700 Y78.319 E4.86040
G1 X137.717 Y78.326 E4.86079
G1 X136.773 Y79.956 E4.90143
G1 X136.182 Y80.830 E4.92419
G1 X135.524 Y81.664 E4.94712
G1 X134.710 Y82.545 E4.97299
G1 X134.791 Y82.590 E4.97500
G1 X132.574 Y84.615 E5.03977
G1 X131.765 Y85.256 E5.06205
G1 X130.664 Y85.947 E5.09009
G1 X130.675 Y85.959 E5.09043
G1 X128.997 Y86.944 E5.13240
G1 X128.061 Y87.406 E5.15492
G1 X127.077 Y87.783 E5.17766
G1 X125.968 Y88.070 E5.20237
G1 X125.991 Y88.107 E5.20332
G1 X124.136 Y88.658 E5.24506
G1 X123.132 Y88.842 E5.26710
G1 X121.139 Y89.045 E5.31032
G1 X120.550 Y89.010 E5.32304
G1 X120.550 Y89.223 E5.32765
G1 X119.709 Y89.139 E5.34589
G1 F1680.000 E3.34589
G92 E0
G1 X111.179 Y84.198 F12000.000
G1 F1680.000 E2.00000
G1 X110.797 Y83.427 F900.000 E2.01855
G1 X110.575 Y83.113 E2.02685
G1 X110.310 Y82.831 E2.03520
G1 X110.007 Y82.581 E2.04367
G1 X109.673 Y82.367 E2.05224
G1 X109.321 Y82.191 E2.06073
G1 X108.182 Y81.824 E2.08654
G1 X108.892 Y80.980 E2.11035
G1 X110.553 Y79.236 E2.16230
G1 X110.817 Y79.002 E2.16992
G1 X111.578 Y78.157 E2.19446
G1 X111.874 Y77.881 E2.20318
G1 X112.210 Y77.651 E2.21196
G1 X112.600 Y77.499 E2.22098
G1 X112.993 Y77.466 E2.22949
G1 X113.250 Y77.416 E2.23514
G1 X113.528 Y77.472 E2.24125
G1 X113.741 Y77.625 E2.24692
G1 X113.891 Y77.836 E2.25249
G1 X114.036 Y78.262 E2.26220
G1 X114.105 Y78.728 E2.27236
G1 X113.516 Y80.065 E2.30390
G1 X112.860 Y81.309 E2.33424
G1 X111.218 Y84.134 E2.40472
G1 X111.113 Y83.702 F12000.000
G1 X107.705 Y81.391
G1 X107.489 Y80.542 F900.000 E2.42362
G1 X107.339 Y80.162 E2.43243
G1 X107.144 Y79.805 E2.44123
G1 X106.906 Y79.475 E2.44999
G1 X106.629 Y79.180 E2.45872
G1 X106.318 Y78.924 E2.46742
G1 X105.976 Y78.712 E2.47610
G1 X105.186 Y78.366 E2.49470
G1 X106.015 Y77.773 E2.51669
G1 X107.646 Y76.787 E2.55780
G1 X108.031 Y76.578 E2.56725
G1 X109.193 Y75.810 E2.59731
G1 X109.623 Y75.585 E2.60778
G1 X110.086 Y75.428 E2.61832
G1 X110.585 Y75.375 E2.62915
G1 X111.297 Y75.477 E2.64466
G1 X111.522 Y75.579 E2.64999
G1 X111.690 Y75.742 E2.65504
G1 X111.804 Y75.949 E2.66013
G1 X111.875 Y76.358 E2.66909
G1 X111.812 Y76.780 E2.67829
G1 X111.593 Y77.187 E2.68828
G1 X111.343 Y77.545 E2.69768
G1 X110.780 Y78.183 E2.71605
G1 X110.186 Y78.778 E2.73419
G1 X109.633 Y79.384 E2.75189
G1 X107.757 Y81.337 E2.81031
G1 X107.750 Y80.893 F12000.000
G1 F1680.000 E0.81031
G92 E0
G1 X105.689 Y77.369 F12000.000
G1 F1680.000 E2.00000
G1 X104.889 Y77.844 F900.000 E2.02008
G1 X104.887 Y76.981 E2.03870
G1 X104.844 Y76.572 E2.04758
G1 X104.759 Y76.171 E2.05643
G1 X104.630 Y75.784 E2.06521
G1 X104.459 Y75.419 E2.07391
G1 X104.245 Y75.080 E2.08255
G1 X103.989 Y74.774 E2.09118
G1 X103.396 Y74.241 E2.10838
G1 X104.121 Y73.894 E2.12573
G1 X105.174 Y73.611 E2.14925
G1 X105.659 Y73.462 E2.16019
G1 X106.145 Y73.353 E2.17094
G1 X107.624 Y72.866 E2.20454
G1 X108.149 Y72.742 E2.21618
G1 X108.688 Y72.693 E2.22785
G1 X109.238 Y72.756 E2.23979
G1 X109.776 Y72.964 E2.25222
G1 X110.044 Y73.122 E2.25893
G1 X110.196 Y73.387 E2.26553
G1 X110.207 Y73.668 E2.27160
G1 X110.143 Y73.926 E2.27734
G1 X109.958 Y74.359 E2.28750
G1 X109.803 Y74.795 E2.29746
G1 X108.786 Y75.520 E2.32442
G1 X105.753 Y77.330 E2.40062
G1 X105.252 Y77.125 F12000.000
G1 F1680.000 E0.40062
G92 E0
G1 X104.734 Y73.113 F12000.000
G1 F1680.000 E2.00000
G1 X103.062 Y73.620 F900.000 E2.03770
G1 X103.252 Y72.807 E2.05571
G1 X103.299 Y72.430 E2.06391
G1 X103.281 Y71.647 E2.08080
G1 X103.113 Y70.888 E2.09757
G1 X102.666 Y69.872 E2.12151
G1 X103.573 Y69.698 E2.14144
G1 X105.781 Y69.650 E2.18907
G1 X106.166 Y69.673 E2.19740
G1 X107.388 Y69.573 E2.22385
G1 X107.820 Y69.573 E2.23318
G1 X108.249 Y69.644 E2.24256
G1 X108.659 Y69.824 E2.25221
G1 X109.204 Y70.294 E2.26773
G1 X109.342 Y70.556 E2.27411
G1 X109.363 Y70.833 E2.28011
G1 X109.295 Y71.099 E2.28604
G1 X109.037 Y71.523 E2.29675
G1 X108.689 Y71.870 E2.30736
G1 X108.026 Y72.153 E2.32291
G1 X107.384 Y72.380 E2.33760
G1 X106.090 Y72.755 E2.36667
G1 X104.806 Y73.091 E2.39531
G1 X104.373 Y72.766 F12000.000
G1 F1680.000 E0.39531
G92 E0
G1 X116.724 Y69.567 F12000.000
G1 F1680.000 E2.00000
G1 X116.645 Y68.862 F900.000 E2.01530
G1 X116.713 Y68.156 E2.03061
G1 X116.928 Y67.479 E2.04592
G1 X117.285 Y66.871 E2.06113
G1 X117.525 Y66.592 E2.06908
G1 X118.118 Y66.083 E2.08594
G1 X118.489 Y65.864 E2.09523
G1 X118.883 Y65.705 E2.10440
G1 X119.292 Y65.604 E2.11348
G1 X119.709 Y65.559 E2.12254
G1 X120.129 Y65.566 E2.13161
G1 X120.545 Y65.625 E2.14067
G1 X120.952 Y65.732 E2.14973
G1 X121.342 Y65.886 E2.15880
G1 X121.712 Y66.085 E2.16785
G1 X122.053 Y66.328 E2.17689
G1 X122.360 Y66.614 E2.18594
G1 X122.626 Y66.940 E2.19503
G1 X122.844 Y67.306 E2.20421
G1 X123.006 Y67.709 E2.21357
G1 X123.175 Y68.492 E2.23085
G1 X123.201 Y68.869 E2.23901
G1 X123.178 Y69.241 E2.24706
G1 X123.109 Y69.612 E2.25520
G1 X122.852 Y70.292 E2.27088
G1 X122.450 Y70.906 E2.28671
G1 X121.929 Y71.421 E2.30252
G1 X121.309 Y71.812 E2.31833
G1 X120.621 Y72.049 E2.33403
G1 X120.244 Y72.104 E2.34224
G1 X119.866 Y72.108 E2.35040
G1 X119.327 Y72.045 E2.36211
G1 X118.800 Y71.894 E2.37393
G1 X118.304 Y71.658 E2.38578
G1 X117.862 Y71.347 E2.39744
G1 X117.581 Y71.113 E2.40533
G1 X117.327 Y70.840 E2.41337
G1 X116.951 Y70.240 E2.42865
G1 X116.748 Y69.638 E2.44236
G1 X117.104 Y69.242 F12000.000
G1 F1680.000 E0.44236
G92 E0
G1 X123.678 Y71.308 F12000.000
G1 F1680.000 E2.00000
G1 X123.918 Y70.873 F900.000 E2.01072
G1 X124.237 Y70.365 E2.02368
G1 X124.805 Y70.381 E2.03592
G1 X125.725 Y70.631 E2.05650
G1 X126.627 Y70.814 E2.07634
G1 X127.083 Y71.015 E2.08710
G1 X127.485 Y71.296 E2.09768
G1 X127.831 Y71.640 E2.10821
G1 X128.119 Y72.035 E2.11875
G1 X128.350 Y72.465 E2.12928
G1 X128.521 Y72.919 E2.13975
G1 X128.660 Y73.499 E2.15261
G1 X128.416 Y73.764 E2.16038
G1 X128.195 Y73.905 E2.16604
G1 X127.740 Y74.041 E2.17628
G1 X126.852 Y74.111 E2.19550
G1 X126.381 Y74.078 E2.20569
G1 X125.947 Y73.931 E2.21557
G1 X125.565 Y73.702 E2.22518
G1 X125.223 Y73.422 E2.23472
G1 X124.621 Y72.820 E2.25309
G1 X124.038 Y72.284 E2.27019
G1 X123.796 Y72.123 E2.27644
G1 X123.632 Y71.861 E2.28312
