; generated by Slic3r 1.0.0RC1 on 2014-02-12 at 14:39:26

; layer_height = 0.2
; perimeters = 2
; top_solid_layers = 2
; bottom_solid_layers = 2
; fill_density = 0.25
; perimeter_speed = 30
; infill_speed = 30
; travel_speed = 200
; nozzle_diameter = 0.5
; filament_diameter = 2.98
; extrusion_multiplier = 0.9
; perimeters extrusion width = 0.50mm
; infill extrusion width = 0.50mm
; solid infill extrusion width = 0.50mm
; top infill extrusion width = 0.50mm

G21 ; set units to millimeters
M107
M104 S190 ; set temperature
G28 ; home all axes
G1 Z15 F120 ; lift nozzle
M109 S190 ; wait for temperature to be reached
G90 ; use absolute coordinates
G92 E0
M82 ; use absolute distances for extrusion
G1 F1680.000 E-2.00000
G92 E0
G1 Z0.300 F12000.000
G1 X9.510 Y12.090 F12000.000
G1 E2.00000 F1680.000
G1 X10.830 Y11.080 E2.03217 F900.000
G1 X12.220 Y10.150 E2.06454
G1 X13.580 Y9.370 E2.09489
G1 X14.860 Y8.730 E2.12259
G1 X16.320 Y8.110 E2.15329
G1 X17.830 Y7.590 E2.18420
G1 X19.540 Y7.130 E2.21848
G1 X21.100 Y6.820 E2.24926
G1 X22.400 Y6.640 E2.27466
G1 X24.000 Y6.520 E2.30572
G1 X25.450 Y6.500 E2.33379
G1 X26.910 Y6.560 E2.36207
G1 X28.210 Y6.690 E2.38736
G1 X29.660 Y6.920 E2.41578
G1 X31.210 Y7.260 E2.44649
G1 X32.630 Y7.660 E2.47505
G1 X33.970 Y8.130 E2.50253
G1 X35.180 Y8.620 E2.52780
G1 X36.610 Y9.310 E2.55853
G1 X65.930 Y25.190 E3.20394
G1 X66.230 Y25.380 E3.21081
G1 X66.500 Y25.620 E3.21780
G1 X75.350 Y34.410 E3.45924
G1 X79.680 Y38.750 E3.57790
G1 X83.930 Y43.100 E3.69561
G1 X84.150 Y43.360 E3.70221
G1 X85.110 Y44.650 E3.73333
G1 X86.170 Y46.300 E3.77129
G1 X87.010 Y47.880 E3.80593
G1 X87.670 Y49.350 E3.83711
G1 X88.290 Y51.010 E3.87141
G1 X88.840 Y52.920 E3.90989
G1 X89.160 Y54.490 E3.94090
G1 X89.410 Y56.450 E3.97914
G1 X89.480 Y57.770 E4.00473
G1 X89.500 Y59.170 E4.03183
G1 X89.440 Y60.640 E4.06031
G1 X89.300 Y62.080 E4.08831
G1 X89.050 Y63.670 E4.11946
G1 X88.730 Y65.100 E4.14783
G1 X88.360 Y66.360 E4.17325
G1 X87.840 Y67.770 E4.20233
G1 X87.180 Y69.320 E4.23494
G1 X86.540 Y70.600 E4.26264
G1 X85.720 Y71.990 E4.29388
G1 X84.820 Y73.300 E4.32464
G1 X83.750 Y74.660 E4.35814
G1 X82.690 Y75.850 E4.38898
G1 X81.680 Y76.850 E4.41649
G1 X80.480 Y77.900 E4.44736
G1 X79.220 Y78.860 E4.47802
G1 X77.770 Y79.840 E4.51189
G1 X76.540 Y80.550 E4.53938
G1 X74.980 Y81.330 E4.57314
G1 X73.670 Y81.880 E4.60064
G1 X72.160 Y82.400 E4.63155
G1 X70.450 Y82.860 E4.66583
G1 X68.890 Y83.170 E4.69661
G1 X67.590 Y83.350 E4.72202
G1 X66.010 Y83.470 E4.75269
G1 X64.530 Y83.500 E4.78134
G1 X63.080 Y83.430 E4.80944
G1 X61.780 Y83.300 E4.83473
G1 X60.330 Y83.070 E4.86314
G1 X58.780 Y82.730 E4.89386
G1 X57.360 Y82.330 E4.92241
G1 X56.020 Y81.860 E4.94990
G1 X54.810 Y81.370 E4.97517
G1 X53.380 Y80.680 E5.00590
G1 X24.060 Y64.800 E5.65130
G1 X23.760 Y64.610 E5.65818
G1 X23.490 Y64.370 E5.66517
G1 X14.640 Y55.580 E5.90660
G1 X10.310 Y51.240 E6.02527
G1 X6.060 Y46.890 E6.14298
G1 X5.840 Y46.630 E6.14957
G1 X4.880 Y45.340 E6.18069
G1 X3.920 Y43.850 E6.21500
G1 X3.060 Y42.280 E6.24965
G1 X2.320 Y40.640 E6.28448
G1 X1.700 Y38.980 E6.31878
G1 X1.200 Y37.260 E6.35345
G1 X0.830 Y35.500 E6.38826
G1 X0.580 Y33.540 E6.42650
G1 X0.510 Y32.220 E6.45209
G1 X0.500 Y30.690 E6.48170
G1 X0.560 Y29.210 E6.51037
G1 X0.690 Y27.910 E6.53566
G1 X0.910 Y26.480 E6.56366
G1 X1.260 Y24.890 E6.59518
G1 X1.630 Y23.630 E6.62060
G1 X2.150 Y22.220 E6.64968
G1 X2.810 Y20.670 E6.68229
G1 X3.450 Y19.390 E6.70999
G1 X4.360 Y17.860 E6.74445
G1 X5.170 Y16.690 E6.77199
G1 X6.140 Y15.450 E6.80246
G1 X7.190 Y14.260 E6.83318
G1 X8.310 Y13.140 E6.86384
G1 X9.453 Y12.139 E6.89325
G1 F1680.000 E4.89325
G92 E0
G1 X62.643 Y32.333 F12000.000
G1 E2.00000 F1680.000
G1 X62.769 Y32.066 E2.00572 F900.000
G1 X62.927 Y31.816 E2.01143
G1 X63.115 Y31.589 E2.01715
G1 X63.330 Y31.387 E2.02286
G1 X63.569 Y31.213 E2.02858
G1 X63.828 Y31.071 E2.03429
G1 X64.133 Y30.950 E2.04066
G1 X64.133 Y30.746 E2.04461
G1 X65.270 Y30.889 E2.06678
G1 X65.556 Y30.962 E2.07250
G1 X65.830 Y31.071 E2.07821
G1 X66.089 Y31.213 E2.08393
G1 X66.328 Y31.387 E2.08964
G1 X66.543 Y31.589 E2.09536
G1 X66.732 Y31.816 E2.10107
G1 X66.890 Y32.066 E2.10679
G1 X67.016 Y32.333 E2.11250
G1 X67.107 Y32.614 E2.11822
G1 X67.162 Y32.904 E2.12394
G1 X67.181 Y33.199 E2.12965
G1 X67.162 Y33.493 E2.13537
G1 X67.107 Y33.783 E2.14108
G1 X67.016 Y34.064 E2.14680
G1 X66.890 Y34.331 E2.15251
G1 X66.732 Y34.581 E2.15823
G1 X66.543 Y34.808 E2.16395
G1 X66.328 Y35.010 E2.16966
G1 X66.089 Y35.184 E2.17538
G1 X65.830 Y35.326 E2.18109
G1 X65.556 Y35.435 E2.18681
G1 X65.270 Y35.509 E2.19253
G1 X64.977 Y35.545 E2.19824
G1 X64.682 Y35.545 E2.20395
G1 X64.389 Y35.509 E2.20967
G1 X64.102 Y35.435 E2.21539
G1 X63.828 Y35.326 E2.22111
G1 X63.569 Y35.184 E2.22682
G1 X63.330 Y35.010 E2.23254
G1 X63.115 Y34.808 E2.23825
G1 X62.927 Y34.581 E2.24397
G1 X62.769 Y34.331 E2.24969
G1 X62.643 Y34.064 E2.25540
G1 X62.569 Y33.838 E2.26001
G1 X62.496 Y33.493 E2.26682
G1 X62.478 Y33.199 E2.27254
G1 X62.496 Y32.904 E2.27825
G1 X62.552 Y32.614 E2.28397
G1 X62.620 Y32.404 E2.28824
G1 X63.109 Y32.517 F12000.000
G1 X63.208 Y32.307 E2.29273 F900.000
G1 X63.332 Y32.111 E2.29723
G1 X63.480 Y31.932 E2.30173
G1 X63.650 Y31.773 E2.30623
G1 X63.838 Y31.636 E2.31073
G1 X64.041 Y31.524 E2.31522
G1 X64.257 Y31.439 E2.31972
G1 X64.633 Y31.342 E2.32724
G1 X64.633 Y31.313 E2.32781
G1 X65.176 Y31.381 E2.33839
G1 X65.425 Y31.448 E2.34339
G1 X65.617 Y31.524 E2.34739
G1 X65.821 Y31.636 E2.35188
G1 X66.009 Y31.773 E2.35638
G1 X66.178 Y31.932 E2.36088
G1 X66.326 Y32.111 E2.36538
G1 X66.451 Y32.307 E2.36988
G1 X66.550 Y32.517 E2.37437
G1 X66.626 Y32.764 E2.37937
G1 X66.665 Y32.967 E2.38337
G1 X66.680 Y33.199 E2.38786
G1 X66.665 Y33.430 E2.39236
G1 X66.622 Y33.659 E2.39686
G1 X66.550 Y33.880 E2.40136
G1 X66.451 Y34.090 E2.40585
G1 X66.326 Y34.286 E2.41035
G1 X66.178 Y34.465 E2.41485
G1 X66.009 Y34.624 E2.41935
G1 X65.821 Y34.761 E2.42385
G1 X65.617 Y34.873 E2.42834
G1 X65.401 Y34.959 E2.43284
G1 X65.176 Y35.016 E2.43734
G1 X64.945 Y35.045 E2.44184
G1 X64.713 Y35.045 E2.44634
G1 X64.482 Y35.016 E2.45083
G1 X64.257 Y34.959 E2.45533
G1 X64.041 Y34.873 E2.45983
G1 X63.838 Y34.761 E2.46433
G1 X63.650 Y34.624 E2.46883
G1 X63.480 Y34.465 E2.47332
G1 X63.332 Y34.286 E2.47782
G1 X63.208 Y34.090 E2.48232
G1 X63.109 Y33.880 E2.48682
G1 X63.045 Y33.683 E2.49082
G1 X62.993 Y33.431 E2.49581
G1 X62.979 Y33.199 E2.50031
G1 X62.993 Y32.967 E2.50481
G1 X63.085 Y32.589 E2.51234
G1 X62.964 Y32.335 F12000.000
G1 X64.287 Y38.642 F12000.000
G1 X66.933 Y38.908 E2.56381 F900.000
G1 X68.720 Y39.126 E2.59866
G1 X69.061 Y39.145 E2.60526
G1 X69.387 Y39.346 E2.61268
G1 X71.093 Y39.725 E2.64650
G1 X71.920 Y39.999 E2.66336
G1 X73.912 Y40.790 E2.70486
G1 X74.347 Y41.198 E2.71640
G1 X74.378 Y41.114 E2.71812
G1 X75.911 Y41.969 E2.75210
G1 X76.674 Y42.507 E2.77016
G1 X78.024 Y43.573 E2.80346
G1 X78.252 Y43.706 E2.80857
G1 X78.552 Y44.092 E2.81804
G1 X78.566 Y44.286 E2.82181
G1 X79.526 Y45.044 E2.84549
G1 X79.923 Y45.418 E2.85605
G1 X80.609 Y46.202 E2.87622
G1 X81.222 Y47.029 E2.89613
G1 X82.129 Y48.334 E2.92690
G1 X82.054 Y48.413 E2.92901
G1 X82.890 Y49.830 E2.96085
G1 X83.351 Y50.763 E2.98100
G1 X83.739 Y51.727 E3.00110
G1 X84.274 Y53.420 E3.03547
G1 X84.213 Y53.437 E3.03671
G1 X84.620 Y54.702 E3.06243
G1 X84.814 Y55.733 E3.08274
G1 X85.137 Y58.603 E3.13864
G1 X85.051 Y58.596 E3.14031
G1 X85.065 Y59.792 E3.16345
G1 X84.984 Y60.834 E3.18368
G1 X84.573 Y63.573 E3.23730
G1 X84.507 Y63.561 E3.23860
G1 X84.125 Y64.978 E3.26700
G1 X83.815 Y65.943 E3.28662
G1 X83.441 Y66.898 E3.30648
G1 X82.928 Y67.953 E3.32918
G1 X82.942 Y67.957 E3.32945
G1 X82.641 Y68.545 E3.34225
G1 X82.626 Y68.536 E3.34257
G1 X82.025 Y69.640 E3.36689
G1 X81.474 Y70.510 E3.38682
G1 X80.856 Y71.339 E3.40684
G1 X79.870 Y72.450 E3.43560
G1 X79.972 Y72.526 E3.43807
G1 X77.860 Y74.452 E3.49339
G1 X75.613 Y76.193 E3.54840
G1 X75.567 Y76.107 E3.55028
G1 X74.328 Y76.825 E3.57801
G1 X73.402 Y77.276 E3.59794
G1 X72.450 Y77.667 E3.61786
G1 X70.594 Y78.296 E3.65579
G1 X70.578 Y78.081 E3.65997
G1 X69.791 Y78.445 E3.67674
G1 X69.263 Y78.634 E3.68760
G1 X68.215 Y78.890 E3.70847
G1 X67.147 Y79.038 E3.72934
G1 X65.122 Y79.186 E3.76866
G1 X65.142 Y79.096 E3.77046
G1 X64.002 Y79.108 E3.79253
G1 X62.964 Y79.053 E3.81264
G1 X61.928 Y78.927 E3.83284
G1 X60.706 Y78.679 E3.85698
G1 X60.707 Y78.738 E3.85813
G1 X58.800 Y78.193 E3.89651
G1 X57.826 Y77.854 E3.91648
G1 X56.859 Y77.455 E3.93672
G1 X55.832 Y76.950 E3.95888
G1 X55.823 Y77.000 E3.95986
G1 X55.273 Y76.675 E3.97223
G1 X55.052 Y76.567 E3.97699
G1 X55.065 Y76.553 E3.97736
G1 X54.047 Y75.952 E4.00024
G1 X53.181 Y75.389 E4.02023
G1 X52.339 Y74.742 E4.04079
G1 X51.167 Y73.595 E4.07252
G1 X51.193 Y73.555 E4.07344
G1 X49.989 Y72.479 E4.10471
G1 X49.336 Y71.733 E4.12389
G1 X47.991 Y69.901 E4.16788
G1 X47.986 Y69.776 E4.17030
G1 X47.097 Y68.388 E4.20221
G1 X46.773 Y67.710 E4.21675
G1 X46.232 Y66.406 E4.24409
G1 X45.929 Y65.612 E4.26053
G1 X45.843 Y65.252 E4.26769
G1 X45.851 Y65.168 E4.26933
G1 X45.332 Y63.410 E4.30481
G1 X45.167 Y62.622 E4.32039
G1 X44.907 Y61.071 E4.35084
G1 X44.890 Y60.833 E4.35544
G1 X44.815 Y60.497 E4.36211
G1 X44.806 Y59.909 E4.37351
G1 X45.177 Y59.383 E4.38597
G1 X44.887 Y59.083 E4.39404
G1 X44.856 Y57.799 E4.41890
G1 X44.920 Y56.771 E4.43883
G1 X45.056 Y55.763 E4.45853
G1 X45.416 Y53.982 E4.49369
G1 X45.537 Y54.023 E4.49618
G1 X45.771 Y52.785 E4.52056
G1 X46.104 Y51.750 E4.54161
G1 X46.526 Y50.759 E4.56245
G1 X47.137 Y49.546 E4.58874
G1 X47.120 Y49.539 E4.58909
G1 X48.064 Y47.909 E4.62555
G1 X48.656 Y47.036 E4.64597
G1 X49.314 Y46.201 E4.66655
G1 X50.128 Y45.321 E4.68976
G1 X50.047 Y45.275 E4.69156
G1 X52.263 Y43.250 E4.74967
G1 X53.073 Y42.609 E4.76965
G1 X54.174 Y41.918 E4.79481
G1 X54.163 Y41.907 E4.79512
G1 X55.841 Y40.921 E4.83278
G1 X56.777 Y40.460 E4.85298
G1 X57.760 Y40.082 E4.87338
G1 X58.870 Y39.796 E4.89555
G1 X58.846 Y39.758 E4.89641
G1 X60.701 Y39.207 E4.93385
G1 X61.706 Y39.023 E4.95362
G1 X63.699 Y38.820 E4.99240
G1 X64.287 Y38.856 E5.00381
G1 X64.287 Y38.717 E5.00650
G1 F1680.000 E3.00650
G92 E0
G1 X63.798 Y69.619 F12000.000
G1 E2.00000 F1680.000
G1 X64.213 Y69.931 E2.01004 F900.000
G1 X64.476 Y70.200 E2.01734
G1 X64.995 Y70.810 E2.03284
G1 X65.011 Y72.051 E2.05686
G1 X65.420 Y72.072 E2.06478
G1 X65.519 Y71.212 E2.08155
G1 X65.607 Y70.835 E2.08902
G1 X65.745 Y70.474 E2.09651
G1 X65.941 Y70.139 E2.10403
G1 X66.201 Y69.843 E2.11166
G1 X66.608 Y69.543 E2.12143
G1 X67.070 Y69.682 E2.13077
G1 X67.419 Y69.858 E2.13834
G1 X67.736 Y70.093 E2.14596
G1 X68.010 Y70.395 E2.15387
G1 X68.489 Y71.646 E2.17978
G1 X68.871 Y72.889 E2.20495
G1 X69.677 Y75.773 E2.26293
G1 X68.844 Y75.584 E2.27946
G1 X68.423 Y75.533 E2.28767
G1 X67.999 Y75.527 E2.29587
G1 X67.581 Y75.568 E2.30400
G1 X67.177 Y75.659 E2.31203
G1 X66.792 Y75.802 E2.31998
G1 X66.433 Y75.998 E2.32789
G1 X65.718 Y76.554 E2.34542
G1 X65.565 Y74.203 E2.39102
G1 X65.499 Y72.424 E2.42548
G1 X65.017 Y72.436 E2.43481
G1 X65.068 Y76.378 E2.51113
G1 X64.336 Y75.926 E2.52778
G1 X63.988 Y75.787 E2.53505
G1 X63.618 Y75.703 E2.54239
G1 X63.237 Y75.668 E2.54978
G1 X62.431 Y75.721 E2.56543
G1 X61.270 Y75.976 E2.58843
G1 X61.463 Y74.785 E2.61178
G1 X62.105 Y72.067 E2.66583
G1 X62.254 Y71.363 E2.67977
G1 X62.543 Y70.684 E2.69405
G1 X62.757 Y70.367 E2.70145
G1 X63.014 Y70.090 E2.70877
G1 X63.322 Y69.856 E2.71625
G1 X63.731 Y69.652 E2.72510
G1 X64.157 Y69.270 F12000.000
G1 X61.787 Y69.959 F12000.000
G1 X61.817 Y70.497 E2.73553 F900.000
G1 X61.778 Y71.002 E2.74533
G1 X61.575 Y71.965 E2.76439
G1 X61.312 Y72.902 E2.78322
G1 X61.110 Y73.846 E2.80192
G1 X61.032 Y74.061 E2.80634
G1 X60.879 Y74.972 E2.82421
G1 X60.795 Y75.275 E2.83030
G1 X60.621 Y75.527 E2.83623
G1 X60.399 Y75.593 E2.84071
G1 X60.190 Y75.530 E2.84494
G1 X59.689 Y75.040 E2.85851
G1 X59.422 Y74.859 E2.86476
G1 X59.129 Y74.724 E2.87100
G1 X58.818 Y74.629 E2.87729
G1 X58.125 Y74.530 E2.89084
G1 X57.006 Y74.511 E2.91250
G1 X58.086 Y72.314 E2.95990
G1 X59.073 Y70.379 E3.00194
G1 X59.394 Y69.910 E3.01293
G1 X59.784 Y69.501 E3.02388
G1 X60.268 Y69.183 E3.03508
G1 X60.961 Y68.959 E3.04918
G1 X61.468 Y69.414 E3.06237
G1 X61.648 Y69.663 E3.06832
G1 X61.755 Y69.891 E3.07320
G1 X62.259 Y70.126 F12000.000
G1 F1680.000 E1.07320
G92 E0
G1 X59.125 Y68.878 F12000.000
G1 E2.00000 F1680.000
G1 X56.377 Y74.330 E2.11817 F900.000
G1 X55.959 Y73.500 E2.13615
G1 X55.722 Y73.162 E2.14414
G1 X55.439 Y72.860 E2.15215
G1 X55.117 Y72.596 E2.16021
G1 X54.762 Y72.376 E2.16829
G1 X54.382 Y72.203 E2.17638
G1 X53.982 Y72.081 E2.18447
G1 X53.123 Y71.939 E2.20132
G1 X53.852 Y71.062 E2.22340
G1 X55.557 Y69.346 E2.27022
G1 X55.815 Y69.126 E2.27678
G1 X56.534 Y68.323 E2.29765
G1 X56.818 Y68.064 E2.30508
G1 X57.150 Y67.859 E2.31262
G1 X57.541 Y67.749 E2.32050
G1 X57.918 Y67.768 E2.32780
G1 X58.169 Y67.724 E2.33275
G1 X58.432 Y67.742 E2.33785
G1 X58.654 Y67.846 E2.34259
G1 X58.814 Y68.020 E2.34717
G1 X58.963 Y68.380 E2.35470
G1 X59.101 Y68.807 E2.36339
G1 X59.497 Y69.212 F12000.000
G1 F1680.000 E0.36339
G92 E0
G1 X56.643 Y67.146 F12000.000
G1 E2.00000 F1680.000
G1 X56.234 Y67.742 E2.01400 F900.000
G1 X55.800 Y68.277 E2.02733
G1 X54.861 Y69.262 E2.05367
G1 X53.885 Y70.200 E2.07987
G1 X52.616 Y71.498 E2.11501
G1 X52.448 Y70.640 E2.13192
G1 X52.326 Y70.280 E2.13929
G1 X52.159 Y69.935 E2.14671
G1 X51.950 Y69.612 E2.15415
G1 X51.704 Y69.315 E2.16162
G1 X51.424 Y69.048 E2.16910
G1 X51.116 Y68.816 E2.17657
G1 X50.756 Y68.607 E2.18462
G1 X50.487 Y68.402 E2.19116
G1 X50.551 Y68.054 E2.19802
G1 X50.824 Y67.818 E2.20501
G1 X51.705 Y67.377 E2.22407
G1 X52.339 Y66.842 E2.24013
G1 X52.129 Y66.538 E2.24728
G1 X51.368 Y66.966 E2.26418
G1 X49.896 Y67.855 E2.29746
G1 X49.787 Y66.587 E2.32209
G1 X49.700 Y66.182 E2.33012
G1 X49.574 Y65.789 E2.33811
G1 X49.407 Y65.419 E2.34596
G1 X49.196 Y65.077 E2.35372
G1 X48.938 Y64.769 E2.36150
G1 X48.268 Y64.183 E2.37874
G1 X51.284 Y63.324 E2.43944
G1 X52.592 Y63.004 E2.46550
G1 X53.035 Y62.926 E2.47421
G1 X53.035 Y62.911 E2.47450
G1 X53.962 Y62.811 E2.49255
G1 X54.400 Y62.881 E2.50114
G1 X54.710 Y62.988 E2.50748
G1 X54.946 Y63.193 E2.51353
G1 X55.076 Y63.457 E2.51923
G1 X55.114 Y63.748 E2.52492
G1 X55.016 Y64.278 E2.53534
G1 X54.773 Y64.765 E2.54588
G1 X54.219 Y65.224 E2.55981
G1 X53.669 Y65.617 E2.57290
G1 X53.040 Y66.001 E2.58716
G1 X53.263 Y66.395 E2.59592
G1 X54.508 Y65.741 E2.62313
G1 X55.001 Y65.555 E2.63334
G1 X55.540 Y65.421 E2.64409
G1 X56.159 Y65.476 E2.65610
G1 X56.432 Y65.614 E2.66203
G1 X56.623 Y65.832 E2.66763
G1 X56.733 Y66.088 E2.67303
G1 X56.778 Y66.359 E2.67834
G1 X56.773 Y66.641 E2.68380
G1 X56.662 Y67.073 E2.69244
G1 X56.910 Y67.569 F12000.000
G1 F1680.000 E0.69244
G92 E0
G1 X53.843 Y61.787 F12000.000
G1 E2.00000 F1680.000
G1 X53.184 Y62.122 E2.01430 F900.000
G1 X52.534 Y62.387 E2.02789
G1 X51.209 Y62.799 E2.05475
G1 X49.868 Y63.138 E2.08151
G1 X48.134 Y63.612 E2.11631
G1 X48.346 Y62.787 E2.13279
G1 X48.404 Y62.377 E2.14079
G1 X48.416 Y61.962 E2.14884
G1 X48.381 Y61.549 E2.15685
G1 X48.296 Y61.149 E2.16478
G1 X48.162 Y60.768 E2.17258
G1 X47.977 Y60.416 E2.18029
G1 X47.441 Y59.698 E2.19763
G1 X49.126 Y59.642 E2.23028
G1 X51.901 Y59.640 E2.28399
G1 X52.626 Y59.616 E2.29802
G1 X53.004 Y59.653 E2.30538
G1 X53.374 Y59.760 E2.31283
G1 X53.718 Y59.969 E2.32062
G1 X53.961 Y60.243 E2.32771
G1 X54.152 Y60.360 E2.33205
G1 X54.314 Y60.578 E2.33730
G1 X54.367 Y60.827 E2.34223
G1 X54.331 Y61.073 E2.34706
G1 X54.133 Y61.459 E2.35544
G1 X53.892 Y61.731 E2.36247
G1 X53.879 Y62.286 F12000.000
G1 X61.832 Y60.157 F12000.000
G1 X61.662 Y59.374 E2.37797 F900.000
G1 X61.637 Y58.996 E2.38529
