; generated by Slic3r 1.2.6 on 2015-03-05 at 18:39:36

; external perimeters extrusion width = 0.50mm
; perimeters extrusion width = 0.50mm
; infill extrusion width = 0.50mm
; solid infill extrusion width = 0.50mm
; top infill extrusion width = 0.50mm

M104 S190 ; set temperature
G28 ; home all axes
G1 Z15 F120 ; lift nozzle
M109 S190 ; wait for temperature to be reached
G21 ; set units to millimeters
G90 ; use absolute coordinates
M82 ; use absolute distances for extrusion
G92 E0
M106 S102
G1 E-2.00000 F1680.00000
G92 E0
G1 Z0.400 F12000.000
G1 X57.961 Y65.250 F12000.000
G1 E2.00000 F1680.00000
G1 X58.407 Y64.874 E2.01747 F1200.000
G1 X58.876 Y64.521 E2.03506
G1 X59.949 Y63.793 E2.07387
G1 X61.078 Y63.085 E2.11378
G1 X61.626 Y62.778 E2.13259
G1 X63.034 Y62.077 E2.17967
G1 X63.761 Y61.774 E2.20326
G1 X64.606 Y61.487 E2.22999
G1 X65.495 Y61.272 E2.25738
G1 X66.749 Y61.065 E2.29544
G1 X67.210 Y61.011 E2.30934
G1 X68.833 Y60.880 E2.35808
G1 X69.340 Y60.859 E2.37328
G1 X99.668 Y60.837 E3.28144
G1 X101.301 Y60.876 E3.33033 F1200.000
G1 X102.536 Y60.953 E3.36738
G1 X103.256 Y61.053 E3.38916
G1 X104.424 Y61.260 E3.42468
G1 X105.242 Y61.462 E3.44990
G1 X105.916 Y61.676 E3.47109
G1 X106.797 Y62.029 E3.49949
G1 X108.273 Y62.759 E3.54883
G1 X108.761 Y63.029 E3.56551
G1 X110.166 Y63.904 E3.61506
G1 X112.090 Y65.331 E3.68679
G1 X112.579 Y65.734 E3.70577
G1 X113.246 Y66.346 E3.73289
G1 X114.249 Y67.313 E3.77460
G1 X114.658 Y67.746 E3.79244
G1 X115.083 Y68.240 E3.81195
G1 X115.531 Y68.826 E3.83405
G1 X116.142 Y69.757 E3.86737
G1 X116.658 Y70.698 E3.89952
G1 X117.297 Y72.084 E3.94522
G1 X117.772 Y73.279 E3.98373
G1 X117.985 Y73.946 E4.00469
G1 X118.370 Y75.446 E4.05107
G1 X118.673 Y76.982 E4.09796
G1 X118.762 Y77.582 E4.11612
G1 X118.887 Y78.846 E4.15414
G1 X118.911 Y79.792 E4.18249
G1 X118.825 Y81.574 E4.23591
G1 X118.730 Y82.405 E4.26096
G1 X118.475 Y83.815 E4.30385
G1 X118.256 Y84.676 E4.33046
G1 X117.671 Y86.456 E4.38655
G1 X117.163 Y87.725 E4.42749
G1 X116.913 Y88.254 E4.44501
G1 X116.226 Y89.534 E4.48850
G1 X116.038 Y89.846 E4.49943
G1 X115.589 Y90.497 E4.52311
G1 X114.508 Y91.874 E4.57551
G1 X113.879 Y92.564 E4.60348
G1 X113.214 Y93.193 E4.63088
G1 X112.437 Y93.875 E4.66185
G1 X111.128 Y94.924 E4.71208
G1 X109.628 Y95.949 E4.76649
G1 X108.750 Y96.477 E4.79715
G1 X86.277 Y108.229 E5.55653
G1 X84.559 Y108.835 E5.61111
G1 X83.506 Y109.045 E5.64326
G1 X82.251 Y109.169 E5.68103
G1 X60.251 Y109.169 E6.33980
G1 X58.995 Y109.045 E6.37757
G1 X57.942 Y108.835 E6.40972
G1 X55.632 Y107.878 E6.48460
G1 X54.740 Y107.282 E6.51673
G1 X52.969 Y105.511 E6.59171
G1 X52.373 Y104.619 E6.62385
G1 X51.417 Y102.314 E6.69855
G1 X51.206 Y101.261 E6.73073
G1 X51.081 Y99.997 E6.76877
G1 X51.093 Y80.053 E7.36595
G1 X51.124 Y78.673 E7.40729
G1 X51.188 Y77.762 E7.43463
G1 X51.270 Y77.100 E7.45462
G1 X51.621 Y75.264 E7.51060
G1 X51.878 Y74.337 E7.53938
G1 X52.510 Y72.583 E7.59523
G1 X52.806 Y71.829 E7.61947
G1 X53.054 Y71.282 E7.63745
G1 X53.714 Y70.012 E7.68030
G1 X53.977 Y69.558 E7.69602
G1 X54.476 Y68.823 E7.72262
G1 X55.300 Y67.771 E7.76263
G1 X56.061 Y66.958 E7.79599
G1 X57.906 Y65.300 E7.87025
G1 E5.87025 F1680.00000
G92 E0
G1 X72.267 Y102.265 F12000.000
G1 E2.00000 F1680.00000
G1 X72.206 Y102.306 E2.00207 F1500.000
G1 X71.251 Y102.497 E2.02950
G1 X70.295 Y102.306 E2.05693
G1 X69.486 Y101.765 E2.08433
G1 X68.945 Y100.956 E2.11173
G1 X68.753 Y100.001 E2.13916
G1 X68.945 Y99.045 E2.16659
G1 X69.486 Y98.236 E2.19400
G1 X70.295 Y97.695 E2.22140
G1 X71.251 Y97.503 E2.24883
G1 X72.193 Y97.692 E2.27590
G1 X73.016 Y98.236 E2.30366 F1500.000
G1 X73.556 Y99.045 E2.33104
G1 X73.747 Y100.001 E2.35847
G1 X73.556 Y100.956 E2.38589
G1 X73.015 Y101.765 E2.41330
G1 X72.330 Y102.223 E2.43651
G1 X69.871 Y101.692 F12000.000
G1 X69.559 Y101.380 E2.44899 F2400.000
G1 X69.054 Y100.317 F12000.000
G1 X70.933 Y102.197 E2.52423 F2400.000
G1 X71.532 Y102.237 E2.54122
G1 X69.014 Y99.718 E2.64204
G1 X69.107 Y99.253 E2.65547
G1 X71.998 Y102.144 E2.77119
G1 X72.382 Y101.970 E2.78313
G1 X69.281 Y98.869 E2.90724
G1 X69.505 Y98.535 E2.91863
G1 X72.716 Y101.746 E3.04719
G1 X72.996 Y101.467 E3.05836
G1 X69.784 Y98.255 E3.18692
G1 X70.119 Y98.032 E3.19832
G1 X73.219 Y101.132 E3.32243
G1 X73.394 Y100.748 E3.33436
G1 X70.503 Y97.857 E3.45010
G1 X70.968 Y97.764 E3.46353
G1 X73.487 Y100.282 E3.56436
G1 X73.447 Y99.684 E3.58134
G1 X71.566 Y97.804 E3.65661
G1 X72.633 Y98.312 F12000.000
G1 X72.943 Y98.622 E3.66901 F2400.000
G1 E1.66901 F1680.00000
G92 E0
G1 X81.176 Y102.227 F12000.000
G1 E2.00000 F1680.00000
G1 X80.486 Y101.765 E2.02338 F1500.000
G1 X79.945 Y100.956 E2.05079
G1 X79.753 Y100.001 E2.07822
G1 X79.945 Y99.045 E2.10565
G1 X80.486 Y98.236 E2.13305
G1 X81.295 Y97.695 E2.16046
G1 X82.251 Y97.503 E2.18789
G1 X83.206 Y97.695 E2.21531
G1 X84.015 Y98.236 E2.24272 F1500.000
G1 X84.556 Y99.045 E2.27012
G1 X84.747 Y100.001 E2.29755
G1 X84.556 Y100.956 E2.32498
G1 X84.015 Y101.765 E2.35238
G1 X83.206 Y102.306 E2.37978
G1 X82.251 Y102.497 E2.40721
G1 X81.295 Y102.306 E2.43463
G1 X81.239 Y102.268 E2.43654
G1 X80.871 Y101.692 F12000.000
G1 X80.559 Y101.380 E2.44902 F2400.000
G1 X80.054 Y100.317 F12000.000
G1 X81.934 Y102.197 E2.52427 F2400.000
G1 X82.532 Y102.237 E2.54125
G1 X80.014 Y99.718 E2.64208
G1 X80.107 Y99.253 E2.65551
G1 X82.998 Y102.144 E2.77125
G1 X83.382 Y101.969 E2.78319
G1 X80.282 Y98.869 E2.90730
G1 X80.505 Y98.534 E2.91870
G1 X83.717 Y101.746 E3.04726
G1 X83.996 Y101.467 E3.05844
G1 X80.784 Y98.255 E3.18701
G1 X81.119 Y98.032 E3.19840
G1 X84.219 Y101.132 E3.32252
G1 X84.394 Y100.748 E3.33446
G1 X81.503 Y97.857 E3.45019
G1 X81.968 Y97.764 E3.46363
G1 X84.487 Y100.282 E3.56445
G1 X84.447 Y99.684 E3.58144
G1 X82.567 Y97.804 E3.65669
G1 X83.630 Y98.309 F12000.000
G1 X83.942 Y98.621 E3.66917 F2400.000
G1 E1.66917 F1680.00000
G92 E0
G1 X62.689 Y100.289 F12000.000
G1 E2.00000 F1680.00000
G1 X62.556 Y100.956 E2.01915 F1500.000
G1 X62.015 Y101.765 E2.04655
G1 X61.206 Y102.306 E2.07396
G1 X60.251 Y102.497 E2.10138
G1 X59.295 Y102.306 E2.12881
G1 X58.486 Y101.765 E2.15621
G1 X57.945 Y100.956 E2.18362
G1 X57.753 Y100.001 E2.21105
G1 X57.945 Y99.045 E2.23847
G1 X58.486 Y98.236 E2.26588
G1 X59.295 Y97.695 E2.29329
G1 X60.251 Y97.503 E2.32072
G1 X61.193 Y97.692 E2.34778
G1 X62.016 Y98.236 E2.37554 F1500.000
G1 X62.556 Y99.045 E2.40292
G1 X62.747 Y100.001 E2.43035
G1 X62.704 Y100.215 E2.43651
G1 X61.943 Y98.622 F12000.000
G1 X61.633 Y98.312 E2.44892 F2400.000
G1 X60.566 Y97.804 F12000.000
G1 X62.447 Y99.684 E2.52419 F2400.000
G1 X62.487 Y100.282 E2.54117
G1 X59.968 Y97.764 E2.64200
G1 X59.503 Y97.857 E2.65543
G1 X62.394 Y100.748 E2.77116
G1 X62.219 Y101.132 E2.78310
G1 X59.119 Y98.032 E2.90721
G1 X58.784 Y98.255 E2.91861
G1 X61.996 Y101.467 E3.04716
G1 X61.716 Y101.746 E3.05834
G1 X58.505 Y98.535 E3.18689
G1 X58.281 Y98.869 E3.19829
G1 X61.382 Y101.970 E3.32240
G1 X60.998 Y102.144 E3.33434
G1 X58.107 Y99.253 E3.45006
G1 X58.014 Y99.718 E3.46349
G1 X60.532 Y102.237 E3.56431
G1 X59.933 Y102.196 E3.58130
G1 X58.054 Y100.317 E3.65654
G1 X58.559 Y101.380 F12000.000
G1 X58.871 Y101.692 E3.66901 F2400.000
G1 E1.66901 F1680.00000
G92 E0
G1 X68.746 Y82.736 F12000.000
G1 E2.00000 F1680.00000
G1 X67.689 Y82.030 E2.03578 F1500.000
G1 X66.983 Y80.973 E2.07156
G1 X66.735 Y79.725 E2.10737
G1 X66.983 Y78.479 E2.14316
G1 X67.689 Y77.422 E2.17894
G1 X68.746 Y76.716 E2.21472
G1 X68.890 Y76.687 E2.21886
G1 X69.992 Y76.469 E2.25049 F1500.000
G1 X71.239 Y76.716 E2.28627
G1 X72.296 Y77.422 E2.32205
G1 X73.002 Y78.479 E2.35783
G1 X73.250 Y79.725 E2.39361
G1 X73.002 Y80.973 E2.42943
G1 X72.296 Y82.030 E2.46520
G1 X71.239 Y82.736 E2.50099
G1 X69.992 Y82.983 E2.53676
G1 X68.820 Y82.751 E2.57043
G1 X71.666 Y91.852 F12000.000
G1 X70.002 Y91.974 E2.61740 F1200.000
G1 X68.840 Y91.836 E2.65035
G1 X67.956 Y91.811 E2.67524
G1 X66.557 Y91.563 E2.71522
G1 X66.493 Y91.057 E2.72958
G1 X66.114 Y91.365 E2.74331
G1 X65.547 Y91.188 E2.76004
G1 X64.072 Y90.380 E2.80739
G1 X62.500 Y89.274 E2.86149
G1 X61.665 Y88.574 E2.89217
G1 X60.493 Y87.471 E2.93748
G1 X60.206 Y87.067 E2.95142
G1 X60.108 Y86.977 E2.95516
G1 X60.199 Y86.540 E2.96773
G1 X59.798 Y86.572 E2.97906
G1 X59.665 Y86.434 E2.98446
G1 X58.915 Y84.950 E3.03126
G1 X58.899 Y84.886 E3.03313
G1 X59.031 Y84.537 E3.04362
G1 X58.758 Y84.368 E3.05265
G1 X58.676 Y84.278 E3.05609
G1 X58.430 Y83.722 E3.07320
G1 X58.029 Y82.104 E3.12013
G1 X57.849 Y80.624 E3.16209
G1 X57.762 Y80.137 E3.17602
G1 X57.783 Y79.877 E3.18337
G1 X57.822 Y79.810 E3.18555
G1 X58.113 Y79.508 E3.19736
G1 X57.814 Y79.321 E3.20727
G1 X57.778 Y79.117 E3.21311
G1 X57.842 Y78.465 E3.23154
G1 X57.840 Y78.238 E3.23792
G1 X58.158 Y76.579 E3.28547
G1 X58.516 Y75.617 E3.31438
G1 X58.637 Y75.505 E3.31903
G1 X58.942 Y75.331 E3.32892
G1 X58.738 Y75.103 E3.33754
G1 X58.790 Y74.827 E3.34545
G1 X58.997 Y74.305 E3.36126
G1 X59.482 Y73.357 E3.39124
G1 X59.729 Y72.932 E3.40508
G1 X59.930 Y72.712 E3.41346
G1 X60.391 Y72.772 E3.42658
G1 X60.257 Y72.317 E3.43995
G1 X60.540 Y71.897 E3.45419
G1 X62.652 Y70.017 E3.53380
G1 X63.111 Y69.726 E3.54908
G1 X63.496 Y69.439 E3.56260
G1 X64.458 Y68.881 E3.59391
G1 X64.572 Y68.803 E3.59781
G1 X64.642 Y68.725 E3.60076
G1 X65.931 Y68.083 E3.64130
G1 X66.023 Y68.072 E3.64390
G1 X66.414 Y68.390 E3.65809
G1 X66.488 Y67.886 E3.67243
G1 X66.619 Y67.844 E3.67630
G1 X67.755 Y67.656 E3.70873
G1 X69.357 Y67.527 E3.75398
G1 X71.122 Y67.525 E3.80364
G1 X71.273 Y67.541 E3.80793
G1 X73.346 Y67.849 E3.86694 F1200.000
G1 X73.480 Y67.905 E3.87103
G1 X73.512 Y68.506 E3.88799
G1 X73.972 Y68.071 E3.90581
G1 X74.254 Y68.157 E3.91411
G1 X74.798 Y68.426 E3.93119
G1 X77.377 Y70.043 E4.01690
G1 X79.036 Y71.483 E4.07875
G1 X79.662 Y72.194 E4.10540
G1 X79.722 Y72.303 E4.10892
G1 X79.631 Y72.740 E4.12150
G1 X80.045 Y72.706 E4.13319
G1 X80.262 Y72.960 E4.14261
G1 X80.504 Y73.359 E4.15576
G1 X80.873 Y74.071 E4.17832
G1 X80.953 Y74.190 E4.18237
G1 X81.213 Y74.877 E4.20305
G1 X81.248 Y74.922 E4.20464
G1 X81.257 Y74.998 E4.20678
G1 X81.225 Y75.122 E4.21039
G1 X81.078 Y75.335 E4.21769
G1 X81.438 Y75.575 E4.22987
G1 X81.557 Y75.805 E4.23716
G1 X81.784 Y76.512 E4.25807
G1 X81.854 Y76.671 E4.26295
G1 X82.082 Y77.873 E4.29740
G1 X82.135 Y78.385 E4.31188
G1 X82.133 Y78.608 E4.31815
G1 X82.201 Y79.128 E4.33294
G1 X82.182 Y79.254 E4.33650
G1 X81.743 Y79.530 E4.35112
G1 X82.190 Y79.905 E4.36754
G1 X82.205 Y79.958 E4.36909
G1 X82.210 Y80.413 E4.38191
G1 X81.852 Y82.636 E4.44530
G1 X81.548 Y83.760 E4.47808
G1 X81.366 Y84.197 E4.49141
G1 X81.268 Y84.349 E4.49649
G1 X80.938 Y84.530 E4.50709
G1 X81.085 Y84.890 E4.51804
G1 X81.072 Y84.950 E4.51975
G1 X80.301 Y86.461 E4.56751
G1 X80.217 Y86.567 E4.57132
G1 X79.712 Y86.470 E4.58581
G1 X79.858 Y86.975 E4.60060
G1 X79.630 Y87.328 E4.61245
G1 X77.877 Y88.967 E4.67999
G1 X77.008 Y89.636 E4.71088
G1 X75.743 Y90.449 E4.75321
G1 X74.108 Y91.315 E4.80529
G1 X73.883 Y91.384 E4.81192
G1 X73.502 Y91.105 E4.82522
G1 X73.425 Y91.535 E4.83752
G1 X73.155 Y91.617 E4.84547
G1 X71.740 Y91.842 E4.88579
G1 X67.148 Y91.434 F12000.000
G1 X66.713 Y90.999 E4.90330 F2400.000
G1 X66.518 Y90.804 F12000.000
G1 X58.414 Y82.700 E5.22894 F2400.000
G1 X58.238 Y81.964 E5.25044
G1 X67.830 Y91.555 E5.63585
G1 X68.443 Y91.608 E5.65334
G1 X58.161 Y81.326 E6.06651
G1 X58.084 Y80.688 E6.08476
G1 X69.028 Y91.632 E6.52452
G1 X69.663 Y91.707 E6.54271
G1 X57.980 Y80.024 E7.01217
G1 X58.197 Y79.680 E7.02372
G1 X70.263 Y91.746 E7.50858
G1 X70.788 Y91.711 E7.52352
G1 X58.004 Y78.927 E8.03719
G1 X58.054 Y78.417 E8.05175
G1 X71.312 Y91.675 E8.58448
G1 X71.823 Y91.625 E8.59906
G1 X58.107 Y77.909 E9.15019
G1 X58.197 Y77.439 E9.16379
G1 X72.314 Y91.555 E9.73103
G1 X72.795 Y91.476 E9.74489
G1 X58.287 Y76.968 E10.32783
G1 X58.388 Y76.508 E10.34121
G1 X73.250 Y91.371 E10.93842
G1 X73.336 Y90.895 E10.95214
G1 X58.540 Y76.100 E11.54667
G1 X58.696 Y75.695 E11.55899
G1 X74.107 Y91.106 E12.17824
G1 X74.473 Y90.912 E12.19002
G1 X59.046 Y75.485 E12.80993
G1 X58.987 Y74.865 F12000.000
G1 X74.840 Y90.718 E13.44694 F2400.000
G1 X75.206 Y90.524 E13.45872
G1 X59.140 Y74.458 E14.10427
G1 X59.321 Y74.079 E14.11622
G1 X67.533 Y82.290 E14.44618
G1 X67.429 Y82.186 F12000.000
G1 X75.572 Y90.330 E14.77340 F2400.000
G1 X75.921 Y90.117 E14.78499
G1 X68.783 Y82.980 E15.07178
G1 X69.483 Y83.119 E15.09204
G1 X76.262 Y89.898 E15.36445
G1 X76.603 Y89.679 E15.37598
G1 X70.092 Y83.167 E15.63763
G1 X70.559 Y83.075 E15.65118
G1 X76.943 Y89.458 E15.90769
G1 X77.260 Y89.214 E15.91905
G1 X71.027 Y82.982 E16.16948
G1 X71.432 Y82.826 E16.18181
G1 X77.576 Y88.970 E16.42869
G1 X77.882 Y88.716 E16.44000
G1 X71.768 Y82.602 E16.68568
G1 X72.104 Y82.377 E16.69716
G1 X78.172 Y88.445 E16.94098
G1 X78.461 Y88.174 E16.95225
G1 X72.436 Y82.148 E17.19438
G1 X72.660 Y81.812 E17.20586
G1 X78.751 Y87.903 E17.45061
G1 X79.041 Y87.632 E17.46188
G1 X72.885 Y81.476 E17.70925
G1 X73.109 Y81.140 E17.72073
G1 X79.321 Y87.352 E17.97034
G1 X79.587 Y87.058 E17.98162
G1 X73.255 Y80.725 E18.23605
G1 X73.348 Y80.258 E18.24959
G1 X79.421 Y86.331 E18.49361
G1 X79.926 Y86.275 F12000.000
G1 X73.441 Y79.791 E18.75418 F2400.000
G1 X73.375 Y79.164 E18.77207
G1 X80.293 Y86.082 E19.05005
G1 X80.486 Y85.714 E19.06185
G1 X73.236 Y78.464 E19.35316
G1 E17.35316 F1680.00000
G92 E0
G1 X66.739 Y80.935 F12000.000
G1 E2.00000 F1680.00000
G1 X59.511 Y73.708 E2.29043 F2400.000
G1 X59.704 Y73.340 E2.30222
G1 X66.599 Y80.236 E2.57929
G1 X66.551 Y79.626 E2.59666
G1 X59.917 Y72.993 E2.86322
G1 X60.499 Y73.014 E2.87977
G1 X66.644 Y79.159 E3.12668
G1 X66.737 Y78.692 E3.14022
G1 X60.570 Y72.525 E3.38803
G1 X60.664 Y72.058 E3.40154
G1 X66.892 Y78.287 E3.65181
G1 X67.117 Y77.951 E3.66329
G1 X60.945 Y71.778 E3.91131
G1 X61.241 Y71.514 E3.92259
G1 X67.342 Y77.615 E4.16772
G1 X67.570 Y77.283 E4.17917
G1 X61.538 Y71.250 E4.42157
G1 X61.834 Y70.986 E4.43285
G1 X67.906 Y77.058 E4.67684
G1 X68.242 Y76.834 E4.68832
G1 X62.131 Y70.722 E4.93389
G1 X62.427 Y70.458 E4.94517
G1 X68.578 Y76.609 E5.19233
G1 X68.993 Y76.463 E5.20482
G1 X62.724 Y70.194 E5.45672
G1 X63.063 Y69.973 E5.46823
G1 X69.461 Y76.371 E5.72531
G1 X69.928 Y76.278 E5.73885
G1 X63.393 Y69.742 E6.00147
G1 X63.728 Y69.517 E6.01295
G1 X70.554 Y76.343 E6.28725
G1 X71.254 Y76.482 E6.30751
G1 X64.083 Y69.311 E6.59566
G1 X64.437 Y69.105 E6.60731
G1 X80.671 Y85.339 E7.25963
G1 X80.833 Y84.941 E7.27186
G1 X64.764 Y68.871 E7.91756
G1 X65.138 Y68.685 E7.92944
G1 X80.831 Y84.378 E8.56002
G1 X81.173 Y84.159 E8.57155
G1 X65.512 Y68.499 E9.20083
G1 X65.976 Y68.402 E9.21428
G1 X81.341 Y83.767 E9.83168
G1 X81.463 Y83.328 E9.84463
G1 X66.607 Y68.473 E10.44155
G1 X66.726 Y68.031 E10.45455
G1 X81.582 Y82.887 E11.05149
G1 X81.682 Y82.426 E11.06487
G1 X67.207 Y67.951 E11.64652
G1 X67.688 Y67.872 E11.66037
G1 X81.762 Y81.945 E12.22588
G1 X81.841 Y81.465 E12.23973
G1 X68.205 Y67.828 E12.78766
G1 X68.724 Y67.787 E12.80245
G1 X81.921 Y80.984 E13.33273
G1 X81.993 Y80.496 E13.34675
G1 X69.243 Y67.745 E13.85910
G1 X69.799 Y67.741 E13.87491
G1 X81.516 Y79.457 E14.34570
G1 X81.860 Y79.241 E14.35725
G1 X70.359 Y67.740 E14.81937
G1 X70.919 Y67.740 E14.83528
G1 X81.923 Y78.744 E15.27744
G1 X81.886 Y78.146 E15.29444
G1 X71.552 Y67.813 E15.70968
G1 X73.289 Y68.428 F12000.000
G1 X72.869 Y68.008 E15.72657 F2400.000
G1 X72.210 Y67.910 E15.74547
G1 X81.770 Y77.470 E16.12959
G1 X81.610 Y76.749 E16.15057
G1 X73.565 Y68.704 E16.47384
G1 X73.853 Y68.431 E16.48510
G1 X80.816 Y75.395 E16.76492
G1 X81.000 Y75.019 E16.77682
G1 X74.610 Y68.628 E17.03362
G1 X76.113 Y69.570 F12000.000
G1 X79.402 Y72.860 E17.16580 F2400.000
G1 X79.502 Y72.960 F12000.000
G1 X80.540 Y73.998 E17.20751 F2400.000
