; generated by Slic3r 1.2.6 on 2015-03-05 at 18:37:34

; external perimeters extrusion width = 0.50mm
; perimeters extrusion width = 0.50mm
; infill extrusion width = 0.50mm
; solid infill extrusion width = 0.50mm
; top infill extrusion width = 0.50mm

M104 S190 ; set temperature
G28 ; home all axes
G1 Z15 F120 ; lift nozzle
M109 S190 ; wait for temperature to be reached
G21 ; set units to millimeters
G90 ; use absolute coordinates
M82 ; use absolute distances for extrusion
G92 E0
M106 S102
G1 E-2.00000 F1680.00000
G92 E0
G1 Z0.400 F12000.000
G1 X44.115 Y62.876 F12000.000
G1 E2.00000 F1680.00000
G1 X61.513 Y50.670 E2.63637 F1200.000
G1 X63.860 Y49.187 E2.71952
G1 X64.256 Y48.958 E2.73322
G1 X66.800 Y47.624 E2.81923
G1 X68.051 Y47.066 E2.86025
G1 X70.516 Y46.071 E2.93985
G1 X71.814 Y45.602 E2.98120
G1 X74.215 Y44.896 E3.05611
G1 X75.927 Y44.489 E3.10883
G1 X78.073 Y44.067 E3.17430
G1 X80.243 Y43.760 E3.23992
G1 X80.695 Y43.713 E3.25353
G1 X83.139 Y43.542 E3.32690
G1 X83.584 Y43.527 E3.34024
G1 X86.033 Y43.527 E3.41356
G1 X86.480 Y43.543 E3.42697
G1 X88.874 Y43.721 E3.49884 F1200.000
G1 X91.728 Y44.094 E3.58502
G1 X92.226 Y44.179 E3.60017
G1 X93.527 Y44.454 E3.63999
G1 X95.402 Y44.899 E3.69767
G1 X97.412 Y45.469 E3.76024
G1 X97.844 Y45.609 E3.77383
G1 X100.145 Y46.447 E3.84719
G1 X100.558 Y46.614 E3.86050
G1 X102.795 Y47.610 E3.93383
G1 X103.209 Y47.812 E3.94762
G1 X105.570 Y49.084 E4.02795
G1 X140.139 Y69.207 E5.22568
G1 X140.523 Y69.448 E5.23926
G1 X142.284 Y70.650 E5.30310
G1 X143.016 Y71.250 E5.33144
G1 X144.511 Y72.691 E5.39363
G1 X145.226 Y73.509 E5.42616
G1 X146.425 Y75.142 E5.48683
G1 X147.029 Y76.146 E5.52189
G1 X147.903 Y77.954 E5.58202
G1 X148.329 Y79.105 E5.61878
G1 X148.860 Y81.111 E5.68091
G1 X149.050 Y82.205 E5.71419
G1 X149.214 Y84.112 E5.77150
G1 X149.214 Y85.204 E5.80418
G1 X149.043 Y87.198 E5.86411
G1 X148.842 Y88.332 E5.89860
G1 X148.317 Y90.258 E5.95838
G1 X147.867 Y91.438 E5.99620
G1 X146.963 Y93.248 E6.05677
G1 X146.404 Y94.167 E6.08900
G1 X145.136 Y95.903 E6.15334
G1 X144.402 Y96.743 E6.18675
G1 X143.025 Y98.060 E6.24383
G1 X142.199 Y98.728 E6.27562
G1 X140.216 Y100.065 E6.34724
G1 X105.651 Y120.866 E7.55523
G1 X103.217 Y122.167 E7.63787
G1 X101.498 Y122.970 E7.69469
G1 X99.658 Y123.736 E7.75437
G1 X97.875 Y124.373 E7.81106
G1 X95.035 Y125.210 E7.89971
G1 X92.230 Y125.821 E7.98567
G1 X91.791 Y125.898 E7.99903
G1 X89.366 Y126.239 E8.07234
G1 X88.924 Y126.285 E8.08567
G1 X86.095 Y126.464 E8.17055
G1 X84.481 Y126.480 E8.21886
G1 X83.051 Y126.449 E8.26171
G1 X80.675 Y126.284 E8.33302
G1 X80.181 Y126.229 E8.34790
G1 X77.336 Y125.798 E8.43407
G1 X74.986 Y125.310 E8.50593
G1 X74.552 Y125.202 E8.51932
G1 X72.200 Y124.527 E8.59261
G1 X71.777 Y124.389 E8.60593
G1 X70.230 Y123.821 E8.65528
G1 X68.419 Y123.090 E8.71374
G1 X66.583 Y122.274 E8.77391
G1 X29.869 Y104.080 E10.00088
G1 X29.072 Y103.611 E10.02857
G1 X27.412 Y102.464 E10.08898
G1 X26.560 Y101.760 E10.12209
G1 X25.111 Y100.335 E10.18293
G1 X24.367 Y99.455 E10.21746
G1 X23.214 Y97.810 E10.27759
G1 X22.629 Y96.788 E10.31285
G1 X21.788 Y94.941 E10.37362
G1 X21.402 Y93.834 E10.40871
G1 X20.928 Y91.937 E10.46728
G1 X20.750 Y90.787 E10.50214
G1 X20.625 Y88.792 E10.56198
G1 X20.648 Y87.708 E10.59445
G1 X20.853 Y85.793 E10.65213
G1 X21.067 Y84.705 E10.68533
G1 X21.645 Y82.693 E10.74799
G1 X22.078 Y81.585 E10.78362
G1 X23.015 Y79.733 E10.84579
G1 X23.481 Y78.967 E10.87261
G1 X24.876 Y77.125 E10.94183
G1 X25.506 Y76.414 E10.97023
G1 X26.905 Y75.052 E11.02873
G1 X27.696 Y74.397 E11.05947
G1 X44.054 Y62.920 E11.65784
G1 E9.65784 F1680.00000
G92 E0
G1 X65.045 Y88.408 F12000.000
G1 E2.00000 F1680.00000
G1 X63.798 Y88.159 E2.03578 F900.000
G1 X62.742 Y87.453 E2.07156
G1 X62.036 Y86.397 E2.10734
G1 X61.787 Y85.149 E2.14315
G1 X62.036 Y83.902 E2.17894
G1 X62.742 Y82.845 E2.21475
G1 X63.828 Y82.134 E2.25129
G1 X65.045 Y81.891 E2.28622 F900.000
G1 X66.292 Y82.140 E2.32200
G1 X67.348 Y82.846 E2.35778
G1 X68.054 Y83.902 E2.39356
G1 X68.303 Y85.149 E2.42934
G1 X68.054 Y86.397 E2.46516
G1 X67.348 Y87.453 E2.50094
G1 X66.292 Y88.159 E2.53671
G1 X65.119 Y88.393 E2.57039
G1 X101.787 Y82.049 F12000.000
G1 X102.036 Y80.803 E2.60614 F900.000
G1 X102.742 Y79.746 E2.64195
G1 X103.828 Y79.034 E2.67851
G1 X105.045 Y78.791 E2.71344 F900.000
G1 X106.292 Y79.040 E2.74923
G1 X107.348 Y79.747 E2.78502
G1 X108.054 Y80.803 E2.82080
G1 X108.303 Y82.049 E2.85655
G1 X108.054 Y83.296 E2.89234
G1 X107.348 Y84.352 E2.92812
G1 X106.292 Y85.058 E2.96390
G1 X105.045 Y85.307 E2.99968
G1 X103.798 Y85.058 E3.03547
G1 X102.742 Y84.352 E3.07124
G1 X102.036 Y83.296 E3.10702
G1 X101.802 Y82.123 E3.14070
G1 E1.14070 F1680.00000
G92 E0
G1 X120.032 Y80.048 F12000.000
G1 E2.00000 F1680.00000
G1 X120.459 Y80.104 E2.01213 F720.000
G1 X120.945 Y79.070 E2.04428
G1 X122.093 Y77.475 E2.09961
G1 X123.525 Y76.130 E2.15493
G1 X125.249 Y74.947 E2.21378
G1 X127.019 Y74.152 E2.26839
G1 X128.972 Y73.650 E2.32518
G1 X131.040 Y73.478 E2.38359
G1 X132.933 Y73.651 E2.43709
G1 X134.955 Y74.150 E2.49572
G1 X136.788 Y74.972 E2.55229
G1 X138.434 Y76.093 E2.60835
G1 X139.866 Y77.474 E2.66434
G1 X141.036 Y79.068 E2.72002
G1 X141.889 Y80.834 E2.77523
G1 X142.409 Y82.796 E2.83236
G1 X142.568 Y84.660 E2.88503
G1 X142.402 Y86.604 E2.93996
G1 X141.890 Y88.482 E2.99476
G1 X141.007 Y90.252 E3.05043
G1 X139.765 Y91.952 E3.10971
G1 X138.433 Y93.226 E3.16161
G1 X136.784 Y94.347 E3.21773
G1 X134.949 Y95.170 E3.27434
G1 X132.990 Y95.677 E3.33131
G1 X130.910 Y95.849 E3.39006
G1 X130.505 Y95.811 E3.40152
G1 X130.350 Y95.778 E3.40598
G1 X128.854 Y95.647 E3.44825
G1 X126.998 Y95.170 E3.50219
G1 X125.196 Y94.347 E3.55798
G1 X123.507 Y93.226 E3.61504
G1 X122.390 Y92.126 E3.65917
G1 X122.004 Y91.696 E3.67546
G1 X120.960 Y90.261 E3.72540
G1 X120.373 Y89.035 E3.76366
G1 X119.647 Y91.838 E3.84516
G1 X119.139 Y93.048 E3.88210
G1 X118.848 Y93.886 E3.90707
G1 X118.318 Y95.092 E3.94417
G1 X118.215 Y95.419 E3.95383
G1 X117.486 Y97.195 E4.00788
G1 X117.016 Y98.787 E4.05461
G1 X116.803 Y99.408 E4.07309
G1 X116.504 Y99.417 E4.08150
G1 X115.564 Y101.352 E4.14208
G1 X114.554 Y103.101 E4.19891
G1 X113.885 Y104.145 E4.23384
G1 X112.976 Y105.463 E4.27891
G1 X111.486 Y107.384 E4.34734
G1 X110.025 Y109.009 E4.40886
G1 X109.859 Y109.193 E4.41582
G1 X108.107 Y110.875 E4.48421
G1 X107.131 Y111.707 E4.52032
G1 X106.046 Y112.596 E4.55980
G1 X104.282 Y113.871 E4.62106
G1 X102.436 Y115.019 E4.68229
G1 X100.374 Y116.136 E4.74830
G1 X98.907 Y116.826 E4.79393
G1 X98.130 Y117.135 E4.81748
G1 X97.371 Y117.473 E4.84088
G1 X95.964 Y117.984 E4.88300
G1 X93.232 Y118.790 E4.96320
G1 X90.854 Y119.296 E5.03163
G1 X88.448 Y119.634 E5.10005
G1 X86.022 Y119.797 E5.16849
G1 X84.420 Y119.813 E5.21358
G1 X83.217 Y119.784 E5.24746
G1 X81.169 Y119.635 E5.30529
G1 X78.340 Y119.207 E5.38581
G1 X76.383 Y118.790 E5.44214
G1 X74.048 Y118.120 E5.51055
G1 X72.632 Y117.601 E5.55300
G1 X70.921 Y116.910 E5.60495
G1 X69.542 Y116.299 E5.64740
G1 X67.397 Y115.154 E5.71585
G1 X65.335 Y113.871 E5.78424
G1 X63.670 Y112.668 E5.84204
G1 X61.505 Y110.878 E5.92114
G1 X60.066 Y109.491 E5.97741
G1 X58.295 Y107.567 E6.05103
G1 X58.130 Y107.383 E6.05796
G1 X56.634 Y105.468 E6.12638
G1 X55.274 Y103.453 E6.19481
G1 X53.943 Y101.118 E6.27048
G1 X52.927 Y99.003 E6.33654
G1 X52.142 Y97.083 E6.39493
G1 X51.417 Y96.995 E6.41550
G1 X50.730 Y94.543 E6.48719
G1 X50.412 Y93.213 E6.52568
G1 X49.956 Y91.634 E6.57195
G1 X48.765 Y94.000 E6.64652
G1 X47.612 Y95.611 E6.70230
G1 X46.029 Y97.043 E6.76238
G1 X44.416 Y98.111 E6.81684
G1 X42.584 Y98.937 E6.87341
G1 X40.680 Y99.447 E6.92891
G1 X39.129 Y99.576 E6.97273
G1 X38.462 Y99.604 E6.99150
G1 X36.614 Y99.447 E7.04373
G1 X34.656 Y98.941 E7.10064
G1 X32.842 Y98.112 E7.15680
G1 X31.219 Y96.991 E7.21233
G1 X29.811 Y95.606 E7.26792
G1 X28.688 Y94.003 E7.32302
G1 X27.866 Y92.198 E7.37886
G1 X27.403 Y90.345 E7.43263
G1 X27.280 Y88.394 E7.48766
G1 X27.481 Y86.526 E7.54054
G1 X28.047 Y84.559 E7.59818
G1 X28.929 Y82.813 E7.65324
G1 X30.170 Y81.179 E7.71101
G1 X31.540 Y79.845 E7.76484
G1 X33.279 Y78.668 E7.82394
G1 X35.138 Y77.844 E7.88120
G1 X37.110 Y77.335 E7.93853
G1 X39.171 Y77.164 E7.99677
G1 X41.145 Y77.335 E8.05254
G1 X42.973 Y77.813 E8.10573
G1 X44.901 Y78.669 E8.16512
G1 X46.517 Y79.791 E8.22051
G1 X47.895 Y81.175 E8.27548
G1 X48.998 Y82.745 E8.32950
G1 X49.322 Y80.673 E8.38855
G1 X50.000 Y78.080 E8.46399
G1 X50.371 Y77.234 E8.49001
G1 X50.820 Y75.976 E8.52761
G1 X51.301 Y74.888 E8.56110
G1 X51.447 Y74.420 E8.57490
G1 X52.121 Y72.779 E8.62484
G1 X52.634 Y71.043 E8.67581
G1 X52.774 Y70.635 E8.68795
G1 X53.091 Y70.626 E8.69687
G1 X54.063 Y68.650 E8.75884
G1 X55.274 Y66.543 E8.82726
G1 X56.634 Y64.531 E8.89565
G1 X57.867 Y62.939 E8.95234
G1 X60.026 Y60.541 E9.04317
G1 X61.505 Y59.119 E9.10092
G1 X63.600 Y57.382 E9.17754
G1 X65.338 Y56.131 E9.23782
G1 X67.396 Y54.840 E9.30621
G1 X69.544 Y53.701 E9.37467
G1 X70.552 Y53.247 E9.40578
G1 X73.008 Y52.255 E9.48034
G1 X74.049 Y51.884 E9.51147
G1 X76.056 Y51.305 E9.57028
G1 X77.252 Y51.024 E9.60485
G1 X79.013 Y50.668 E9.65544
G1 X81.167 Y50.364 E9.71668
G1 X83.593 Y50.195 E9.78514
G1 X86.024 Y50.195 E9.85358
G1 X88.019 Y50.334 E9.90988
G1 X90.855 Y50.704 E9.99041
G1 X92.330 Y51.020 E10.03286
G1 X93.675 Y51.339 E10.07178
G1 X95.571 Y51.877 E10.12726
G1 X97.854 Y52.709 E10.19568
G1 X100.075 Y53.698 E10.26411
G1 X102.217 Y54.848 E10.33256
G1 X103.585 Y55.684 E10.37767
G1 X104.622 Y56.365 E10.41262
G1 X106.253 Y57.548 E10.46934
G1 X108.111 Y59.118 E10.53781
G1 X109.859 Y60.808 E10.60626
G1 X111.486 Y62.614 E10.67469
G1 X112.982 Y64.531 E10.74316
G1 X114.133 Y66.227 E10.80085
G1 X115.553 Y68.651 E10.87993
G1 X116.733 Y71.106 E10.95662
G1 X117.417 Y72.803 E11.00814
G1 X118.137 Y72.891 E11.02854
G1 X118.958 Y75.817 E11.11410
G1 X119.142 Y76.583 E11.13627
G1 X119.698 Y78.505 E11.19260
G1 X120.016 Y79.974 E11.23493
G1 X117.999 Y73.288 F12000.000
G1 X117.785 Y73.075 E11.24344 F1200.000
G1 X116.898 Y72.187 F12000.000
G1 X97.586 Y52.875 E12.01296 F1200.000
G1 X96.711 Y52.557 F12000.000
G1 X118.216 Y74.061 E12.86984 F1200.000
G1 X118.433 Y74.834 E12.89245
G1 X95.837 Y52.238 E13.79281
G1 X95.011 Y51.968 E13.81729
G1 X118.649 Y75.606 E14.75920
G1 X118.845 Y76.357 E14.78107
G1 X94.235 Y51.748 E15.76168
G1 X93.462 Y51.531 E15.78430
G1 X119.044 Y77.113 E16.80366
G1 X119.271 Y77.895 E16.82660
G1 X92.734 Y51.358 E17.88403
G1 X92.010 Y51.190 E17.90495
G1 X119.496 Y78.676 E19.00017
G1 X119.649 Y79.385 E19.02062
G1 X91.303 Y51.039 E20.15013
G1 X98.577 Y53.310 F12000.000
G1 X116.515 Y71.248 E20.86491 F1200.000
G1 X116.000 Y70.178 F12000.000
G1 X99.578 Y53.756 E21.51926 F1200.000
G1 X100.723 Y54.344 F12000.000
G1 X115.486 Y69.107 E22.10752 F1200.000
G1 X114.759 Y67.825 F12000.000
G1 X101.923 Y54.989 E22.61901 F1200.000
G1 X103.342 Y55.852 F12000.000
G1 X113.973 Y66.483 E23.04263 F1200.000
G1 X112.788 Y64.742 F12000.000
G1 X105.108 Y57.063 E23.34862 F1200.000
G1 X108.721 Y60.119 F12000.000
G1 X109.985 Y61.384 E23.39901 F1200.000
G1 E21.39901 F1680.00000
G92 E0
G1 X101.778 Y83.192 F12000.000
G1 E2.00000 F1680.00000
G1 X71.610 Y53.024 E3.20209 F1200.000
G1 X72.006 Y52.864 E3.21412
G1 X101.640 Y82.497 E4.39492
G1 X101.611 Y81.913 E4.41142
G1 X72.402 Y52.704 E5.57529
G1 X72.798 Y52.544 E5.58732
G1 X101.703 Y81.449 E6.73910
G1 X101.796 Y80.986 E6.75241
G1 X73.200 Y52.390 E7.89187
G1 X73.609 Y52.244 E7.90412
G1 X101.958 Y80.592 E9.03372
G1 X102.180 Y80.259 E9.04501
G1 X74.019 Y52.097 E10.16716
G1 X74.448 Y51.971 E10.17977
G1 X102.403 Y79.926 E11.29368
G1 X102.633 Y79.600 E11.30492
G1 X74.880 Y51.847 E12.41079
G1 X75.311 Y51.722 E12.42344
G1 X102.968 Y79.379 E13.52550
G1 X103.304 Y79.159 E13.53681
G1 X75.743 Y51.598 E14.63506
G1 X76.179 Y51.479 E14.64781
G1 X103.640 Y78.939 E15.74202
G1 X104.044 Y78.787 E15.75418
G1 X76.629 Y51.373 E16.84654
G1 X77.080 Y51.267 E16.85957
G1 X104.507 Y78.695 E17.95247
G1 X104.970 Y78.602 E17.96578
G1 X77.538 Y51.170 E19.05889
G1 X78.000 Y51.076 E19.07218
G1 X105.586 Y78.662 E20.17139
G1 X106.280 Y78.800 E20.19134
G1 X78.463 Y50.983 E21.29978
G1 X71.214 Y53.184 F12000.000
G1 X102.469 Y84.438 E22.54518 F1200.000
G1 X102.656 Y84.625 F12000.000
G1 X116.814 Y98.784 E23.10935 F1200.000
G1 X116.672 Y99.198 E23.12168
G1 X70.818 Y53.344 E24.94882
G1 X70.428 Y53.509 E24.96077
G1 X116.310 Y99.391 E26.78904
G1 X116.128 Y99.765 E26.80076
G1 X70.044 Y53.681 E28.63705
G1 X69.661 Y53.854 E28.64890
G1 X115.946 Y100.139 E30.49322
G1 X115.764 Y100.513 E30.50494
G1 X69.294 Y54.043 E32.35664
G1 X68.931 Y54.235 E32.36822
G1 X115.583 Y100.887 E34.22715
G1 X115.401 Y101.261 E34.23886
G1 X68.568 Y54.428 E36.10502
G1 X68.204 Y54.621 E36.11660
G1 X115.199 Y101.615 E37.98920
G1 X114.996 Y101.968 E38.00067
G1 X67.841 Y54.813 E39.87964
G1 X67.478 Y55.006 E39.89122
G1 X114.793 Y102.320 E41.77656
G1 X114.589 Y102.673 E41.78802
G1 X67.136 Y55.219 E43.67890
G1 X66.794 Y55.433 E43.69026
G1 X114.386 Y103.025 E45.58664
G1 X114.169 Y103.364 E45.59798
G1 X66.453 Y55.648 E47.49932
G1 X66.111 Y55.862 E47.51068
G1 X113.952 Y103.703 E49.41698
G1 X113.735 Y104.042 E49.42832
G1 X65.770 Y56.077 E51.33957
G1 X65.428 Y56.291 E51.35093
G1 X113.508 Y104.371 E53.26678
G1 X113.281 Y104.700 E53.27804
G1 X65.104 Y56.523 E55.19775
G1 X64.781 Y56.756 E55.20897
G1 X113.055 Y105.029 E57.13251
G1 X112.828 Y105.358 E57.14377
G1 X64.458 Y56.988 E59.07116
G1 X64.135 Y57.221 E59.08238
G1 X112.585 Y105.672 E61.01300
G1 X112.343 Y105.985 E61.02416
G1 X63.811 Y57.453 E62.95798
G1 X63.501 Y57.699 E62.96913
G1 X112.100 Y106.298 E64.90565
G1 X111.857 Y106.610 E64.91682
G1 X63.197 Y57.951 E66.85577
G1 X62.893 Y58.203 E66.86689
G1 X111.614 Y106.923 E68.80826
G1 X111.371 Y107.236 E68.81943
G1 X62.589 Y58.455 E70.76323
G1 X62.285 Y58.707 E70.77435
G1 X111.111 Y107.532 E72.71988
G1 X110.847 Y107.824 E72.73097
G1 X61.982 Y58.959 E74.67813
G1 X61.678 Y59.211 E74.68925
G1 X110.584 Y108.117 E76.63802
G1 X110.321 Y108.410 E76.64911
G1 X61.390 Y59.479 E78.59885
G1 X61.107 Y59.751 E78.60993
G1 X110.058 Y108.703 E80.56048
G1 X109.795 Y108.995 E80.57157
G1 X60.823 Y60.024 E82.52293
G1 X60.540 Y60.296 E82.53401
G1 X109.516 Y109.273 E84.48557
G1 X109.233 Y109.545 E84.49665
G1 X60.256 Y60.568 E86.44821
G1 X59.986 Y60.854 E86.45929
G1 X108.949 Y109.817 E88.41032
G1 X108.666 Y110.089 E88.42140
G1 X59.723 Y61.146 E90.37163
G1 X59.459 Y61.439 E90.38272
G1 X108.382 Y110.362 E92.33214
G1 X108.099 Y110.634 E92.34322
G1 X59.196 Y61.731 E94.29183
G1 X58.933 Y62.024 E94.30292
G1 X107.805 Y110.896 E96.25032
G1 X107.505 Y111.152 E96.26143
G1 X58.670 Y62.317 E98.20736
G1 X58.406 Y62.609 E98.21845
G1 X107.205 Y111.408 E100.16292
G1 X106.902 Y111.661 E100.17403
G1 X58.143 Y62.902 E102.11695
G1 X57.890 Y63.205 E102.12807
G1 X106.597 Y111.912 E104.06889
G1 X106.292 Y112.162 E104.08002
G1 X57.647 Y63.518 E106.01834
G1 X57.405 Y63.831 E106.02950
G1 X105.986 Y112.412 E107.96532
G1 X105.666 Y112.648 E107.97652
G1 X57.162 Y64.144 E109.90924
G1 X56.919 Y64.457 E109.92040
G1 X105.343 Y112.881 E111.84993
G1 X105.020 Y113.114 E111.86115
G1 X56.686 Y64.779 E113.78714
G1 X56.461 Y65.111 E113.79842
G1 X104.698 Y113.347 E115.72048
G1 X104.375 Y113.580 E115.73170
G1 X56.237 Y65.443 E117.64983
G1 X56.013 Y65.774 E117.66111
G1 X104.043 Y113.804 E119.57496
G1 X103.700 Y114.017 E119.58633
G1 X55.789 Y66.106 E121.49545
G1 X55.565 Y66.438 E121.50673
G1 X103.358 Y114.230 E123.41113
G1 X103.015 Y114.444 E123.42250
G1 X55.350 Y66.779 E125.32178
G1 X55.147 Y67.132 E125.33325
G1 X102.672 Y114.657 E127.22696
G1 X102.327 Y114.868 E127.23835
G1 X54.945 Y67.485 E129.12640
G1 X54.742 Y67.838 E129.13788
G1 X101.967 Y115.063 E131.01965
G1 X101.606 Y115.258 E131.03120
G1 X54.539 Y68.191 E132.90669
G1 X54.336 Y68.544 E132.91816
G1 X101.246 Y115.454 E134.78738
G1 X100.885 Y115.649 E134.79893
G1 X54.144 Y68.907 E136.66144
G1 X53.960 Y69.280 E136.67314
G1 X66.888 Y82.208 E137.18829
G1 X65.961 Y81.837 F12000.000
G1 X53.777 Y69.652 E137.67380 F1200.000
G1 X53.594 Y70.025 E137.68550
G1 X65.267 Y81.699 E138.15066
G1 X64.758 Y81.745 E138.16508
G1 X53.410 Y70.397 E138.61723
G1 X53.227 Y70.770 E138.62893
G1 X64.294 Y81.837 E139.06993
G1 X63.831 Y81.929 E139.08324
