; generated by Slic3r 1.2.6 on 2015-03-05 at 18:27:47

; external perimeters extrusion width = 0.50mm
; perimeters extrusion width = 0.50mm
; infill extrusion width = 0.50mm
; solid infill extrusion width = 0.50mm
; top infill extrusion width = 0.50mm

M104 S190 ; set temperature
G28 ; home all axes
G1 Z15 F120 ; lift nozzle
M109 S190 ; wait for temperature to be reached
G21 ; set units to millimeters
G90 ; use absolute coordinates
M82 ; use absolute distances for extrusion
G92 E0
M106 S102
G1 E-2.00000 F1680.00000
G92 E0
G1 Z0.400 F12000.000
G1 X32.167 Y64.931 F12000.000
G1 E2.00000 F1680.00000
G1 X66.704 Y47.821 E3.15412 F1200.000
G1 X68.441 Y47.042 E3.21113
G1 X69.477 Y46.606 E3.24478
G1 X70.343 Y46.273 E3.27255
G1 X72.307 Y45.575 E3.33498
G1 X74.653 Y44.902 E3.40806
G1 X75.088 Y44.793 E3.42149
G1 X77.477 Y44.286 E3.49462
G1 X78.709 Y44.096 E3.53194
G1 X80.763 Y43.823 E3.59398
G1 X83.198 Y43.646 E3.66711
G1 X83.663 Y43.629 E3.68103
G1 X84.998 Y43.629 E3.72101
G1 X86.527 Y43.652 E3.76680 F1200.000
G1 X88.989 Y43.822 E3.84069
G1 X89.430 Y43.868 E3.85398
G1 X91.848 Y44.208 E3.92707
G1 X92.288 Y44.285 E3.94046
G1 X94.679 Y44.793 E4.01366
G1 X96.226 Y45.216 E4.06167
G1 X97.887 Y45.708 E4.11356
G1 X100.181 Y46.543 E4.18666
G1 X100.598 Y46.711 E4.20011
G1 X102.867 Y47.731 E4.27462
G1 X105.672 Y49.221 E4.36972
G1 X140.153 Y69.936 E5.57422
G1 X142.155 Y71.284 E5.64650
G1 X142.967 Y71.943 E5.67780
G1 X144.442 Y73.353 E5.73890
G1 X145.229 Y74.262 E5.77490
G1 X146.393 Y75.892 E5.83488
G1 X146.895 Y76.720 E5.86388
G1 X147.845 Y78.645 E5.92816
G1 X148.247 Y79.711 E5.96227
G1 X148.782 Y81.671 E6.02313
G1 X148.981 Y82.774 E6.05668
G1 X149.155 Y84.799 E6.11755
G1 X149.155 Y85.888 E6.15015
G1 X149.007 Y87.627 E6.20241
G1 X148.981 Y87.911 E6.21095
G1 X148.781 Y89.018 E6.24462
G1 X148.256 Y90.944 E6.30440
G1 X147.847 Y92.040 E6.33943
G1 X146.968 Y93.858 E6.39989
G1 X146.366 Y94.858 E6.43485
G1 X145.171 Y96.488 E6.49537
G1 X144.458 Y97.306 E6.52787
G1 X142.988 Y98.725 E6.58904
G1 X142.146 Y99.409 E6.62153
G1 X140.462 Y100.555 E6.68252
G1 X140.075 Y100.799 E6.69621
G1 X105.591 Y120.835 E7.89046
G1 X103.237 Y122.099 E7.97047
G1 X102.823 Y122.301 E7.98425
G1 X100.593 Y123.293 E8.05735
G1 X100.183 Y123.458 E8.07057
G1 X97.887 Y124.295 E8.14375
G1 X97.460 Y124.434 E8.15720
G1 X95.091 Y125.111 E8.23099
G1 X93.890 Y125.382 E8.26785
G1 X91.852 Y125.798 E8.33014
G1 X89.434 Y126.139 E8.40324
G1 X88.986 Y126.187 E8.41674
G1 X86.549 Y126.356 E8.48988
G1 X86.104 Y126.372 E8.50322
G1 X83.663 Y126.372 E8.57631
G1 X83.219 Y126.356 E8.58964
G1 X80.780 Y126.187 E8.66285
G1 X80.332 Y126.139 E8.67634
G1 X77.913 Y125.798 E8.74948
G1 X75.876 Y125.382 E8.81172
G1 X74.655 Y125.104 E8.84922
G1 X72.308 Y124.431 E8.92234
G1 X71.905 Y124.301 E8.93502
G1 X69.585 Y123.458 E9.00894
G1 X69.177 Y123.294 E9.02210
G1 X66.942 Y122.299 E9.09537
G1 X66.537 Y122.102 E9.10885
G1 X64.380 Y120.953 E9.18202
G1 X63.997 Y120.732 E9.19527
G1 X61.654 Y119.254 E9.27821
G1 X27.970 Y95.708 E10.50885
G1 X27.225 Y95.099 E10.53767
G1 X25.711 Y93.628 E10.60088
G1 X25.099 Y92.939 E10.62846
G1 X23.794 Y91.233 E10.69278
G1 X23.205 Y90.280 E10.72633
G1 X22.290 Y88.460 E10.78733
G1 X21.868 Y87.394 E10.82166
G1 X21.298 Y85.462 E10.88199
G1 X21.076 Y84.364 E10.91552
G1 X20.858 Y82.338 E10.97655
G1 X20.835 Y81.255 E11.00897
G1 X20.949 Y79.438 E11.06351
G1 X20.963 Y79.227 E11.06981
G1 X21.139 Y78.109 E11.10371
G1 X21.629 Y76.149 E11.16421
G1 X22.017 Y75.051 E11.19908
G1 X22.849 Y73.239 E11.25880
G1 X23.422 Y72.239 E11.29330
G1 X24.577 Y70.590 E11.35359
G1 X25.319 Y69.712 E11.38801
G1 X26.772 Y68.284 E11.44901
G1 X27.621 Y67.582 E11.48201
G1 X29.284 Y66.434 E11.54252
G1 X30.080 Y65.965 E11.57018
G1 X32.100 Y64.964 E11.63768
G1 E9.63768 F1680.00000
G92 E0
G1 X102.111 Y89.200 F12000.000
G1 E2.00000 F1680.00000
G1 X101.863 Y87.954 E2.03578 F900.000
G1 X102.111 Y86.707 E2.07157
G1 X102.818 Y85.649 E2.10738
G1 X103.904 Y84.938 E2.14392
G1 X105.120 Y84.696 E2.17885 F900.000
G1 X106.367 Y84.944 E2.21463
G1 X107.424 Y85.650 E2.25041
G1 X108.130 Y86.707 E2.28619
G1 X108.378 Y87.954 E2.32198
G1 X108.130 Y89.200 E2.35776
G1 X107.424 Y90.257 E2.39354
G1 X106.367 Y90.963 E2.42932
G1 X105.120 Y91.211 E2.46510
G1 X103.874 Y90.963 E2.50089
G1 X102.817 Y90.257 E2.53667
G1 X102.153 Y89.262 E2.57033
G1 X68.378 Y84.854 F12000.000
G1 X68.130 Y86.100 E2.60612 F900.000
G1 X67.424 Y87.157 E2.64190
G1 X66.367 Y87.863 E2.67767
G1 X65.120 Y88.111 E2.71346
G1 X63.874 Y87.863 E2.74924
G1 X62.817 Y87.157 E2.78502
G1 X62.111 Y86.100 E2.82080
G1 X61.863 Y84.854 E2.85659
G1 X62.111 Y83.607 E2.89237
G1 X62.818 Y82.549 E2.92818
G1 X63.904 Y81.838 E2.96472
G1 X65.120 Y81.596 E2.99965 F900.000
G1 X66.367 Y81.844 E3.03544
G1 X67.424 Y82.550 E3.07121
G1 X68.130 Y83.607 E3.10699
G1 X68.364 Y84.780 E3.14067
G1 E1.14067 F1680.00000
G92 E0
G1 X50.125 Y78.324 F12000.000
G1 E2.00000 F1680.00000
G1 X50.733 Y76.253 E2.06078 F720.000
G1 X51.724 Y72.711 E2.16431
G1 X52.451 Y72.624 E2.18493
G1 X53.176 Y70.885 E2.23797
G1 X54.221 Y68.700 E2.30616
G1 X55.437 Y66.606 E2.37433
G1 X56.794 Y64.596 E2.44260
G1 X58.285 Y62.687 E2.51080
G1 X59.377 Y61.472 E2.55678
G1 X59.907 Y60.883 E2.57909
G1 X61.652 Y59.202 E2.64728
G1 X63.503 Y57.638 E2.71551
G1 X65.469 Y56.218 E2.78378
G1 X67.523 Y54.936 E2.85193
G1 X69.662 Y53.797 E2.92017
G1 X71.884 Y52.825 E2.98844
G1 X74.155 Y51.982 E3.05666
G1 X76.484 Y51.313 E3.12485
G1 X78.854 Y50.809 E3.19307
G1 X81.254 Y50.473 E3.26129
G1 X83.672 Y50.297 E3.32954
G1 X86.095 Y50.306 E3.39775
G1 X88.512 Y50.473 E3.46597
G1 X90.912 Y50.809 E3.53420
G1 X93.284 Y51.313 E3.60246
G1 X95.616 Y51.977 E3.67071
G1 X97.893 Y52.805 E3.73892
G1 X100.104 Y53.799 E3.80716
G1 X100.639 Y54.084 E3.82424
G1 X102.242 Y54.939 E3.87538
G1 X104.300 Y56.218 E3.94359
G1 X106.263 Y57.638 E4.01181
G1 X108.114 Y59.205 E4.08007
G1 X109.860 Y60.883 E4.14824
G1 X111.481 Y62.687 E4.21651
G1 X112.971 Y64.598 E4.28472
G1 X114.333 Y66.602 E4.35294
G1 X115.545 Y68.700 E4.42115
G1 X116.397 Y70.464 E4.47631
G1 X116.697 Y70.472 E4.48476
G1 X116.766 Y70.720 E4.49199
G1 X117.112 Y71.655 E4.52006
G1 X117.472 Y72.873 E4.55582
G1 X117.703 Y73.363 E4.57107
G1 X118.329 Y74.969 E4.61960
G1 X118.995 Y76.484 E4.66619
G1 X119.558 Y77.993 E4.71151
G1 X119.739 Y78.383 E4.72363
G1 X120.381 Y80.824 E4.79468
G1 X120.903 Y79.737 E4.82863
G1 X122.041 Y78.158 E4.88342
G1 X122.850 Y77.342 E4.91577
G1 X123.445 Y76.778 E4.93884
G1 X125.136 Y75.657 E4.99596
G1 X126.935 Y74.832 E5.05167
G1 X128.877 Y74.331 E5.10815
G1 X130.864 Y74.154 E5.16429
G1 X132.932 Y74.327 E5.22272
G1 X134.890 Y74.832 E5.27965
G1 X136.725 Y75.657 E5.33628
G1 X138.374 Y76.777 E5.39239
G1 X139.817 Y78.156 E5.44858
G1 X140.955 Y79.750 E5.50374
G1 X141.830 Y81.521 E5.55932
G1 X142.342 Y83.400 E5.61415
G1 X142.509 Y85.344 E5.66908
G1 X142.342 Y87.286 E5.72395
G1 X141.829 Y89.168 E5.77887
G1 X140.975 Y90.934 E5.83410
G1 X139.807 Y92.528 E5.88976
G1 X138.377 Y93.909 E5.94571
G1 X136.729 Y95.030 E6.00183
G1 X134.896 Y95.852 E6.05838
G1 X132.872 Y96.352 E6.11705
G1 X130.935 Y96.528 E6.17182
G1 X128.914 Y96.352 E6.22894
G1 X126.965 Y95.851 E6.28558
G1 X125.138 Y95.031 E6.34196
G1 X123.468 Y93.869 E6.39924
G1 X122.046 Y92.528 E6.45424
G1 X120.899 Y90.931 E6.50961
G1 X120.439 Y89.989 E6.53912
G1 X120.016 Y90.037 E6.55111
G1 X119.690 Y91.499 E6.59328
G1 X119.393 Y92.527 E6.62341
G1 X118.938 Y93.983 E6.66636
G1 X117.981 Y97.409 E6.76650
G1 X117.266 Y97.495 E6.78676
G1 X116.604 Y99.127 E6.83635
G1 X115.537 Y101.304 E6.90460
G1 X114.332 Y103.408 E6.97284
G1 X112.973 Y105.411 E7.04098
G1 X111.481 Y107.323 E7.10926
G1 X109.860 Y109.123 E7.17747
G1 X108.116 Y110.807 E7.24571
G1 X106.263 Y112.371 E7.31396
G1 X104.303 Y113.793 E7.38214
G1 X102.242 Y115.069 E7.45039
G1 X100.105 Y116.212 E7.51861
G1 X97.891 Y117.197 E7.58683
G1 X95.614 Y118.027 E7.65505
G1 X93.283 Y118.693 E7.72331
G1 X92.508 Y118.859 E7.74563
G1 X90.912 Y119.197 E7.79154
G1 X88.512 Y119.536 E7.85978
G1 X86.095 Y119.704 E7.92798
G1 X83.672 Y119.704 E7.99620
G1 X81.253 Y119.536 E8.06445
G1 X78.854 Y119.197 E8.13267
G1 X76.485 Y118.693 E8.20087
G1 X74.155 Y118.024 E8.26909
G1 X71.877 Y117.197 E8.33732
G1 X69.663 Y116.212 E8.40555
G1 X67.523 Y115.072 E8.47381
G1 X65.471 Y113.787 E8.54197
G1 X63.503 Y112.370 E8.61023
G1 X61.652 Y110.807 E8.67845
G1 X59.903 Y109.126 E8.74673
G1 X58.281 Y107.326 E8.81495
G1 X56.794 Y105.411 E8.88319
G1 X55.438 Y103.404 E8.95138
G1 X54.227 Y101.306 E9.01959
G1 X53.350 Y99.499 E9.07612
G1 X53.031 Y99.490 E9.08509
G1 X52.689 Y98.520 E9.11405
G1 X52.286 Y97.157 E9.15405
G1 X52.113 Y96.792 E9.16544
G1 X51.440 Y95.057 E9.21783
G1 X50.826 Y93.662 E9.26072
G1 X50.606 Y93.029 E9.27961
G1 X50.261 Y92.140 E9.30645
G1 X50.058 Y91.704 E9.31999
G1 X49.770 Y90.733 E9.34851
G1 X49.360 Y89.048 E9.39732
G1 X49.133 Y87.419 E9.44363
G1 X48.107 Y88.870 E9.49365
G1 X46.729 Y90.254 E9.54864
G1 X45.114 Y91.377 E9.60401
G1 X43.296 Y92.203 E9.66024
G1 X41.345 Y92.710 E9.71697
G1 X39.369 Y92.882 E9.77282
G1 X37.319 Y92.710 E9.83073
G1 X35.348 Y92.201 E9.88803
G1 X33.489 Y91.377 E9.94528
G1 X31.805 Y90.253 E10.00229
G1 X30.379 Y88.866 E10.05829
G1 X29.149 Y87.260 E10.11522
G1 X28.257 Y85.486 E10.17113
G1 X27.700 Y83.597 E10.22658
G1 X27.491 Y81.651 E10.28167
G1 X27.614 Y79.701 E10.33669
G1 X28.086 Y77.813 E10.39146
G1 X28.899 Y76.042 E10.44632
G1 X30.021 Y74.439 E10.50140
G1 X31.429 Y73.055 E10.55699
G1 X33.053 Y71.934 E10.61254
G1 X34.866 Y71.104 E10.66867
G1 X36.828 Y70.599 E10.72571
G1 X38.826 Y70.426 E10.78216
G1 X40.887 Y70.599 E10.84040
G1 X42.797 Y71.109 E10.89603
G1 X44.629 Y71.935 E10.95263
G1 X46.326 Y73.057 E11.00990
G1 X47.075 Y73.729 E11.03821
G1 X47.815 Y74.434 E11.06699
G1 X48.536 Y75.409 E11.10113
G1 X48.976 Y76.044 E11.12287
G1 X50.091 Y78.257 E11.19264
G1 X49.280 Y77.227 F12000.000
G1 X43.973 Y71.920 E11.40462 F1200.000
G1 X42.958 Y71.462 F12000.000
G1 X90.540 Y119.044 E13.30538 F1200.000
G1 X91.023 Y118.970 E13.31920
G1 X50.338 Y78.286 E14.94444
G1 X50.465 Y77.855 E14.95712
G1 X91.483 Y118.873 E16.59569
G1 X91.943 Y118.776 E16.60896
G1 X50.591 Y77.424 E18.26084
G1 X50.718 Y76.993 E18.27352
G1 X92.403 Y118.678 E19.93872
G1 X92.862 Y118.580 E19.95197
G1 X50.844 Y76.563 E21.63044
G1 X50.970 Y76.131 E21.64315
G1 X93.319 Y118.480 E23.33488
G1 X93.752 Y118.356 E23.34761
G1 X63.017 Y87.621 E24.57541
G1 X62.353 Y86.957 F12000.000
G1 X51.091 Y75.695 E25.02528 F1200.000
G1 X51.213 Y75.260 E25.03806
G1 X61.829 Y85.876 E25.46214
G1 X61.691 Y85.180 E25.48219
G1 X51.335 Y74.824 E25.89587
G1 X51.457 Y74.389 E25.90864
G1 X61.703 Y84.635 E26.31792
G1 X61.795 Y84.170 E26.33131
G1 X51.579 Y73.954 E26.73942
G1 X51.701 Y73.518 E26.75220
G1 X61.888 Y83.705 E27.15915
G1 X62.074 Y83.334 E27.17087
G1 X51.822 Y73.083 E27.58040
G1 X52.162 Y72.865 E27.59179
G1 X62.297 Y83.000 E27.99667
G1 X62.521 Y82.666 E28.00802
G1 X52.603 Y72.749 E28.40418
G1 X52.767 Y72.356 E28.41622
G1 X62.772 Y82.361 E28.81590
G1 X63.109 Y82.141 E28.82727
G1 X52.931 Y71.963 E29.23385
G1 X53.095 Y71.569 E29.24588
G1 X63.446 Y81.920 E29.65937
G1 X63.783 Y81.699 E29.67074
G1 X53.259 Y71.176 E30.09112
G1 X53.429 Y70.789 E30.10307
G1 X64.213 Y81.573 E30.53387
G1 X64.678 Y81.480 E30.54725
G1 X53.609 Y70.412 E30.98941
G1 X53.789 Y70.035 E31.00121
G1 X65.142 Y81.388 E31.45473
G1 X65.808 Y81.496 E31.47377
G1 X53.970 Y69.658 E31.94667
G1 X54.150 Y69.281 E31.95847
G1 X66.504 Y81.634 E32.45197
G1 E30.45197 F1680.00000
G92 E0
G1 X64.098 Y88.145 F12000.000
G1 E2.00000 F1680.00000
G1 X94.186 Y118.232 E3.20192 F1200.000
G1 X94.619 Y118.109 E3.21466
G1 X64.794 Y88.283 E4.40610
G1 X65.339 Y88.271 E4.42151
G1 X95.053 Y117.985 E5.60847
G1 X95.486 Y117.861 E5.62121
G1 X65.804 Y88.179 E6.80693
G1 X66.269 Y88.086 E6.82031
G1 X95.902 Y117.719 E8.00406
G1 X96.310 Y117.570 E8.01634
G1 X66.640 Y87.900 E9.20159
G1 X66.974 Y87.677 E9.21294
G1 X96.718 Y117.421 E10.40116
G1 X97.127 Y117.273 E10.41343
G1 X67.308 Y87.453 E11.60463
G1 X67.613 Y87.201 E11.61581
G1 X97.535 Y117.124 E12.81112
G1 X97.939 Y116.970 E12.82332
G1 X67.836 Y86.867 E14.02585
G1 X68.059 Y86.533 E14.03719
G1 X98.325 Y116.799 E15.24621
G1 X98.710 Y116.627 E15.25813
G1 X68.283 Y86.199 E16.47364
G1 X68.401 Y85.761 E16.48647
G1 X99.096 Y116.456 E17.71265
G1 X99.482 Y116.284 E17.72457
G1 X68.494 Y85.296 E18.96246
G1 X68.586 Y84.832 E18.97584
G1 X99.867 Y116.113 E20.22543
G1 X100.242 Y115.930 E20.23720
G1 X68.478 Y84.166 E21.50606
G1 X68.340 Y83.470 E21.52610
G1 X100.605 Y115.735 E22.81501
G1 X100.968 Y115.541 E22.82664
G1 X54.330 Y68.904 E24.68967
G1 X54.525 Y68.542 E24.70129
G1 X101.331 Y115.347 E26.57104
G1 X101.694 Y115.153 E26.58267
G1 X54.730 Y68.189 E28.45873
G1 X54.935 Y67.837 E28.47025
G1 X102.057 Y114.959 E30.35264
G1 X102.407 Y114.752 E30.36413
G1 X55.140 Y67.484 E32.25234
G1 X55.345 Y67.132 E32.26385
G1 X102.751 Y114.539 E34.15763
G1 X103.096 Y114.326 E34.16906
G1 X55.549 Y66.779 E36.06841
G1 X55.768 Y66.441 E36.07979
G1 X103.440 Y114.113 E37.98414
G1 X103.784 Y113.900 E37.99557
G1 X55.993 Y66.108 E39.90470
G1 X56.217 Y65.776 E39.91604
G1 X104.128 Y113.687 E41.82994
G1 X104.457 Y113.458 E41.84125
G1 X56.442 Y65.443 E43.75931
G1 X56.666 Y65.110 E43.77065
G1 X104.780 Y113.224 E45.69264
G1 X105.103 Y112.989 E45.70391
G1 X56.891 Y64.778 E47.62984
G1 X57.130 Y64.459 E47.64108
G1 X105.425 Y112.755 E49.57035
G1 X105.748 Y112.521 E49.58162
G1 X57.374 Y64.146 E51.51403
G1 X57.619 Y63.834 E51.52524
G1 X106.071 Y112.286 E53.46079
G1 X106.379 Y112.037 E53.47198
G1 X57.863 Y63.521 E55.41007
G1 X58.107 Y63.208 E55.42129
G1 X106.682 Y111.782 E57.36169
G1 X106.984 Y111.527 E57.37286
G1 X58.352 Y62.895 E59.31557
G1 X58.609 Y62.595 E59.32673
G1 X107.286 Y111.272 E61.27122
G1 X107.588 Y111.017 E61.28239
G1 X58.873 Y62.302 E63.22841
G1 X59.137 Y62.009 E63.23956
G1 X107.890 Y110.762 E65.18712
G1 X108.181 Y110.495 E65.19826
G1 X59.401 Y61.715 E67.14687
G1 X59.665 Y61.422 E67.15801
G1 X108.464 Y110.221 E69.10741
G1 X108.748 Y109.947 E69.11854
G1 X59.929 Y61.128 E71.06872
G1 X60.204 Y60.847 E71.07985
G1 X109.031 Y109.674 E73.03035
G1 X109.314 Y109.400 E73.04148
G1 X60.488 Y60.573 E74.99197
G1 X60.772 Y60.300 E75.00310
G1 X109.598 Y109.126 E76.95357
G1 X109.871 Y108.842 E76.96471
G1 X61.055 Y60.026 E78.91475
G1 X61.339 Y59.753 E78.92588
G1 X110.135 Y108.549 E80.87513
G1 X110.399 Y108.255 E80.88628
G1 X61.623 Y59.479 E82.83474
G1 X61.916 Y59.215 E82.84589
G1 X110.663 Y107.962 E84.79320
G1 X110.927 Y107.669 E84.80435
G1 X62.218 Y58.960 E86.75014
G1 X62.520 Y58.705 E86.76131
G1 X111.191 Y107.376 E88.70558
G1 X111.446 Y107.074 E88.71675
G1 X62.822 Y58.450 E90.65915
G1 X63.124 Y58.194 E90.67032
G1 X111.690 Y106.761 E92.61040
G1 X111.935 Y106.448 E92.62162
G1 X63.426 Y57.939 E94.55939
G1 X63.737 Y57.693 E94.57059
G1 X112.179 Y106.135 E96.50570
G1 X112.423 Y105.822 E96.51692
G1 X64.061 Y57.459 E98.44886
G1 X64.384 Y57.225 E98.46014
G1 X112.667 Y105.509 E100.38892
G1 X112.904 Y105.188 E100.40017
G1 X64.708 Y56.992 E102.32549
G1 X65.031 Y56.758 E102.33677
G1 X113.129 Y104.856 E104.25816
G1 X113.355 Y104.524 E104.26950
G1 X65.354 Y56.524 E106.18697
G1 X65.686 Y56.298 E106.19830
G1 X113.580 Y104.192 E108.11155
G1 X113.805 Y103.860 E108.12288
G1 X66.029 Y56.084 E110.03142
G1 X66.372 Y55.870 E110.04284
G1 X114.031 Y103.528 E111.94667
G1 X114.247 Y103.187 E111.95808
G1 X66.715 Y55.656 E113.85683
G1 X67.058 Y55.442 E113.86825
G1 X114.450 Y102.833 E115.76140
G1 E113.76140 F1680.00000
G92 E0
G1 X123.506 Y93.501 F12000.000
G1 E2.00000 F1680.00000
G1 X122.022 Y92.016 E2.05932 F1200.000
G1 X120.895 Y90.332 F12000.000
G1 X125.455 Y94.893 E2.24148 F1200.000
G1 X126.467 Y95.347 F12000.000
G1 X81.764 Y50.645 E4.02723 F1200.000
G1 X82.284 Y50.607 E4.04195
G1 X127.393 Y95.716 E5.84393
G1 X128.143 Y95.908 E5.86579
G1 X82.803 Y50.569 E7.67697
G1 X83.323 Y50.531 E7.69168
G1 X128.893 Y96.101 E9.51206
G1 X129.532 Y96.183 E9.53026
G1 X83.861 Y50.512 E11.35468
G1 X84.420 Y50.514 E11.37047
G1 X130.142 Y96.236 E13.19693
G1 X130.753 Y96.289 E13.21424
G1 X84.980 Y50.517 E15.04274
G1 X85.539 Y50.519 E15.05854
G1 X131.307 Y96.286 E16.88683
G1 X131.817 Y96.240 E16.90132
G1 X86.105 Y50.528 E18.72739
