; generated by Slic3r 0.9.8 on 2013-09-29 at 00:05:21

; layer_height = 0.3
; perimeters = 2
; top_solid_layers = 3
; bottom_solid_layers = 3
; fill_density = 0.5
; perimeter_speed = 40
; infill_speed = 50
; travel_speed = 200
; scale = 1
; nozzle_diameter = 0.5
; filament_diameter = 2.9
; extrusion_multiplier = 0.95
; perimeters extrusion width = 0.70mm
; infill extrusion width = 0.70mm
; first layer extrusion width = 0.79mm

M107
M190 S100 ; wait for bed temperature to be reached
M104 S230 ; set temperature
G28 ; home all axes
G1 Z15 F120 ; lift nozzle
M109 S230 ; wait for temperature to be reached
G90 ; use absolute coordinates
G21 ; set units to millimeters
G92 E0
M82 ; use absolute distances for extrusion
G1 F1680.000 E-2.00000
G92 E0
G1 Z0.450 F12000.000
G1 X103.330 Y114.850
G1 F1680.000 E2.00000
G1 X103.200 Y116.160 F1200.000 E2.06184
G1 X102.810 Y117.420 E2.12380
G1 X102.190 Y118.590 E2.18600
G1 X101.360 Y119.610 E2.24777
G1 X100.340 Y120.440 E2.30955
G1 X99.170 Y121.060 E2.37175
G1 X97.910 Y121.450 E2.43371
G1 X96.600 Y121.580 E2.49555
G1 X73.390 Y121.580 E3.58584
G1 X72.120 Y121.450 E3.64581
G1 X70.900 Y121.100 E3.70543
G1 X69.760 Y120.510 E3.76573
G1 X68.760 Y119.730 E3.82531
G1 X67.920 Y118.760 E3.88558
G1 X67.280 Y117.660 E3.94537
G1 X66.860 Y116.450 E4.00553
G1 X66.670 Y115.190 E4.06539
G1 X66.540 Y112.480 E4.19284
G1 X66.660 Y55.130 E6.88687
G1 X66.800 Y53.820 E6.94876
G1 X67.180 Y52.560 E7.01058
G1 X67.800 Y51.400 E7.07237
G1 X68.640 Y50.380 E7.13444
G1 X69.660 Y49.540 E7.19651
G1 X70.820 Y48.920 E7.25830
G1 X72.080 Y48.540 E7.32012
G1 X73.390 Y48.410 E7.38196
G1 X96.600 Y48.410 E8.47225
G1 X97.910 Y48.540 E8.53409
G1 X99.170 Y48.930 E8.59605
G1 X100.340 Y49.550 E8.65825
G1 X101.360 Y50.380 E8.72002
G1 X102.190 Y51.400 E8.78180
G1 X102.810 Y52.570 E8.84400
G1 X103.200 Y53.830 E8.90596
G1 X103.330 Y55.140 E8.96780
G1 X103.330 Y114.741 E11.76757
G1 X103.330 Y114.850 E11.77269
G1 F1680.000 E9.77269
G92 E0
G1 X95.880 Y55.870 F12000.000
G1 F1680.000 E2.00000
G1 X95.880 Y58.630 F1200.000 E2.12969
G1 X95.120 Y58.630 E2.16544
G1 X95.120 Y57.130 E2.23590
G1 X89.880 Y57.130 E2.48201
G1 X89.880 Y58.630 E2.55247
G1 X86.880 Y58.630 E2.69340
G1 X86.880 Y111.870 E5.19431
G1 X89.880 Y111.870 E5.33524
G1 X89.880 Y113.370 E5.40570
G1 X95.120 Y113.370 E5.65181
G1 X95.120 Y111.870 E5.72227
G1 X95.880 Y111.870 E5.75801
G1 X95.880 Y114.130 E5.86422
G1 X82.120 Y114.130 E6.51064
G1 X82.120 Y55.870 E9.24746
G1 X95.772 Y55.870 E9.88876
G1 X95.880 Y55.870 E9.89388
G1 X96.606 Y55.144 F12000.000
G1 X96.606 Y59.356 F960.000 E10.09176
G1 X94.394 Y59.356 E10.19569
G1 X94.394 Y57.856 E10.26615
G1 X90.606 Y57.856 E10.44407
G1 X90.606 Y59.356 E10.51454
G1 X87.606 Y59.356 E10.65546
G1 X87.606 Y111.144 E13.08819
G1 X90.606 Y111.144 E13.22911
G1 X90.606 Y112.644 E13.29958
G1 X94.394 Y112.644 E13.47749
G1 X94.394 Y111.144 E13.54796
G1 X96.606 Y111.144 E13.65189
G1 X96.606 Y114.856 E13.82629
G1 X73.394 Y114.856 E14.91670
G1 X73.394 Y113.144 E14.99714
G1 X81.394 Y113.144 E15.37294
G1 X81.394 Y56.856 E18.01706
G1 X73.394 Y56.856 E18.39286
G1 X73.394 Y55.144 E18.47330
G1 X96.497 Y55.144 E19.55860
G1 X96.606 Y55.144 E19.56372
G1 X96.243 Y55.772 F12000.000
G1 F1680.000 E17.56372
G92 E0
G1 X73.938 Y112.500 F12000.000
G1 F1680.000 E2.00000
G1 X74.229 Y112.500 F900.000 E2.01370
G1 X73.938 Y112.500 F12000.000
G1 X73.562 Y112.500 F900.000 E2.03132
G1 X73.271 Y112.500 E2.04502
G1 F1680.000 E0.04502
G92 E0
G1 X73.484 Y57.750 F12000.000
G1 F1680.000 E2.00000
G1 X73.562 Y57.750 F900.000 E2.00370
G1 X73.938 Y57.750 E2.02131
G1 X74.016 Y57.750 E2.02501
G1 F1680.000 E0.02501
G92 E0
G1 X89.386 Y56.826 F12000.000
G1 F1680.000 E2.00000
G1 X88.924 Y56.364 F1800.000 E2.03094
G1 X87.889 Y56.364 E2.07994
G1 X89.386 Y57.861 E2.18018
G1 X88.626 Y58.136 E2.21845
G1 X86.854 Y56.364 E2.33708
G1 X85.819 Y56.364 E2.38608
G1 X87.591 Y58.136 E2.50471
G1 X86.556 Y58.136 E2.55371
G1 X84.785 Y56.364 E2.67234
G1 X83.750 Y56.364 E2.72134
G1 X86.386 Y59.000 E2.89785
G1 X86.386 Y60.035 E2.94685
G1 X82.715 Y56.364 E3.19266
G1 X82.614 Y57.298 E3.23713
G1 X86.386 Y61.069 E3.48970
G1 X86.386 Y62.104 E3.53870
G1 X82.614 Y58.333 E3.79127
G1 X82.614 Y59.367 E3.84027
G1 X86.386 Y63.139 E4.09284
G1 X86.386 Y64.174 E4.14184
G1 X82.614 Y60.402 E4.39441
G1 X82.614 Y61.437 E4.44341
G1 X86.386 Y65.208 E4.69598
G1 X86.386 Y66.243 E4.74498
G1 X82.614 Y62.472 E4.99755
G1 X82.614 Y63.506 E5.04655
G1 X86.386 Y67.278 E5.29912
G1 X86.386 Y68.313 E5.34812
G1 X82.614 Y64.541 E5.60069
G1 X82.614 Y65.576 E5.64969
G1 X86.386 Y69.347 E5.90226
G1 X86.386 Y70.382 E5.95126
G1 X82.614 Y66.611 E6.20383
G1 X82.614 Y67.645 E6.25283
G1 X86.386 Y71.417 E6.50540
G1 X86.386 Y72.451 E6.55440
G1 X82.614 Y68.680 E6.80697
G1 X82.614 Y69.715 E6.85597
G1 X86.386 Y73.486 E7.10854
G1 X86.386 Y74.521 E7.15754
G1 X82.614 Y70.750 E7.41011
G1 X82.614 Y71.784 E7.45911
G1 X86.386 Y75.556 E7.71168
G1 X86.386 Y76.590 E7.76068
G1 X82.614 Y72.819 E8.01325
G1 X82.614 Y73.854 E8.06225
G1 X86.386 Y77.625 E8.31482
G1 X86.386 Y78.660 E8.36382
G1 X82.614 Y74.888 E8.61639
G1 X82.614 Y75.923 E8.66539
G1 X86.386 Y79.695 E8.91796
G1 X86.386 Y80.729 E8.96696
G1 X82.614 Y76.958 E9.21953
G1 X82.614 Y77.993 E9.26853
G1 X86.386 Y81.764 E9.52110
G1 X86.386 Y82.799 E9.57010
G1 X82.614 Y79.027 E9.82267
G1 X82.614 Y80.062 E9.87167
G1 X86.386 Y83.834 E10.12424
G1 X86.386 Y84.868 E10.17324
G1 X82.614 Y81.097 E10.42581
G1 X82.614 Y82.132 E10.47481
G1 X86.386 Y85.903 E10.72738
G1 X86.386 Y86.938 E10.77638
G1 X82.614 Y83.166 E11.02895
G1 X82.614 Y84.201 E11.07795
G1 X86.386 Y87.972 E11.33052
G1 X86.386 Y89.007 E11.37952
G1 X82.614 Y85.236 E11.63209
G1 X82.614 Y86.271 E11.68109
G1 X86.386 Y90.042 E11.93366
G1 X86.386 Y91.077 E11.98266
G1 X82.614 Y87.305 E12.23523
G1 X82.614 Y88.340 E12.28423
G1 X86.386 Y92.111 E12.53680
G1 X86.386 Y93.146 E12.58580
G1 X82.614 Y89.375 E12.83837
G1 X82.614 Y90.409 E12.88737
G1 X86.386 Y94.181 E13.13994
G1 X86.386 Y95.216 E13.18894
G1 X82.614 Y91.444 E13.44151
G1 X82.614 Y92.479 E13.49051
G1 X86.386 Y96.250 E13.74308
G1 X86.386 Y97.285 E13.79208
G1 X82.614 Y93.514 E14.04465
G1 X82.614 Y94.548 E14.09365
G1 X86.386 Y98.320 E14.34622
G1 X86.386 Y99.355 E14.39522
G1 X82.614 Y95.583 E14.64779
G1 X82.614 Y96.618 E14.69679
G1 X86.386 Y100.389 E14.94936
G1 X86.386 Y101.424 E14.99836
G1 X82.614 Y97.653 E15.25093
G1 X82.614 Y98.687 E15.29993
G1 X86.386 Y102.459 E15.55250
G1 X86.386 Y103.493 E15.60150
G1 X82.614 Y99.722 E15.85407
G1 X82.614 Y100.757 E15.90307
G1 X86.386 Y104.528 E16.15564
G1 X86.386 Y105.563 E16.20464
G1 X82.614 Y101.792 E16.45721
G1 X82.614 Y102.826 E16.50621
G1 X86.386 Y106.598 E16.75878
G1 X86.386 Y107.632 E16.80778
G1 X82.614 Y103.861 E17.06035
G1 X82.614 Y104.896 E17.10935
G1 X86.386 Y108.667 E17.36192
G1 X86.386 Y109.702 E17.41092
G1 X82.614 Y105.930 E17.66349
G1 X82.614 Y106.965 E17.71249
G1 X86.386 Y110.737 E17.96506
G1 F1680.000 E15.96506
G92 E0
G1 X89.285 Y113.636 F12000.000
G1 F1680.000 E2.00000
G1 X88.013 Y112.364 F1800.000 E2.08515
G1 X86.979 Y112.364 E2.13415
G1 X88.250 Y113.636 E2.21929
G1 X87.215 Y113.636 E2.26829
G1 X85.944 Y112.364 E2.35344
G1 X86.386 Y111.771 E2.38845
G1 X82.614 Y108.000 E2.64102
G1 X82.614 Y109.035 E2.69002
G1 X86.386 Y112.806 E2.94259
G1 X86.181 Y113.636 E2.98306
G1 X82.614 Y110.069 E3.22190
G1 X82.614 Y111.104 E3.27090
G1 X85.146 Y113.636 E3.44043
G1 X84.111 Y113.636 E3.48943
G1 X82.614 Y112.139 E3.58968
G1 X82.614 Y113.174 E3.63868
G1 X83.076 Y113.636 E3.66962
G1 F1680.000 E1.66962
G92 E0
G1 X74.381 Y114.331 F12000.000
G1 F1680.000 E2.00000
G1 X73.919 Y113.869 F600.000 E2.03167
G1 X74.779 Y113.669 E2.07442
G1 X75.440 Y114.331 E2.11974
G1 X75.838 Y113.669 E2.15713
G1 X76.499 Y114.331 E2.20245
G1 X76.897 Y113.669 E2.23984
G1 X77.558 Y114.331 E2.28515
G1 X77.955 Y113.669 E2.32254
G1 X78.617 Y114.331 E2.36786
G1 X79.014 Y113.669 E2.40525
G1 X79.676 Y114.331 E2.45057
G1 X80.073 Y113.669 E2.48796
G1 X80.734 Y114.331 E2.53327
G1 X81.132 Y113.669 E2.57066
G1 X81.594 Y114.131 E2.60233
G1 F1680.000 E0.60233
G92 E0
G1 X74.381 Y56.331 F12000.000
G1 F1680.000 E2.00000
G1 X73.919 Y55.869 F600.000 E2.03167
G1 X74.779 Y55.669 E2.07442
G1 X75.440 Y56.331 E2.11974
G1 X75.838 Y55.669 E2.15713
G1 X76.499 Y56.331 E2.20245
G1 X76.897 Y55.669 E2.23984
G1 X77.558 Y56.331 E2.28515
G1 X77.955 Y55.669 E2.32254
G1 X78.617 Y56.331 E2.36786
G1 X79.014 Y55.669 E2.40525
G1 X79.676 Y56.331 E2.45057
G1 X80.073 Y55.669 E2.48796
G1 X80.734 Y56.331 E2.53327
G1 X81.132 Y55.669 E2.57066
G1 X81.594 Y56.131 E2.60233
G1 F1680.000 E0.60233
G92 E0
G1 X89.847 Y56.703 F12000.000
G1 F1680.000 E2.00000
G1 X89.582 Y56.438 F600.000 E2.01097
G1 X90.079 Y56.297 E2.02607
G1 X90.486 Y56.703 E2.04288
G1 X90.718 Y56.297 E2.05657
G1 X91.124 Y56.703 E2.07337
G1 X91.356 Y56.297 E2.08706
G1 X91.763 Y56.703 E2.10386
G1 X91.995 Y56.297 E2.11755
G1 X92.402 Y56.703 E2.13435
G1 X92.634 Y56.297 E2.14804
G1 X93.040 Y56.703 E2.16484
G1 X93.272 Y56.297 E2.17853
G1 X93.679 Y56.703 E2.19533
G1 X93.911 Y56.297 E2.20902
G1 X94.317 Y56.703 E2.22582
G1 X94.549 Y56.297 E2.23951
G1 X94.956 Y56.703 E2.25631
G1 X95.188 Y56.297 E2.27000
G1 X95.453 Y56.562 E2.28096
M106 S255
M104 S225 ; set temperature
M140 S105 ; set bed temperature
G1 F1680.000 E0.28096
G92 E0
G1 Z0.750 F12000.000
G1 X95.997 Y55.753
G1 F1680.000 E2.00000
G1 X95.997 Y58.747 F1572.779 E2.08456
G1 X95.003 Y58.747 E2.11264
G1 X95.003 Y57.247 E2.15500
G1 X89.997 Y57.247 E2.29636
G1 X89.997 Y58.747 E2.33872
G1 X86.997 Y58.747 E2.42344
G1 X86.997 Y111.753 E3.92033
G1 X89.997 Y111.753 E4.00505
G1 X89.997 Y113.253 E4.04741
G1 X95.003 Y113.253 E4.18878
G1 X95.003 Y111.753 E4.23114
G1 X95.997 Y111.753 E4.25922
G1 X95.997 Y114.247 E4.32965
G1 X82.003 Y114.247 E4.72486
G1 X82.003 Y55.753 E6.37675
G1 X95.899 Y55.753 E6.76917
G1 X95.997 Y55.753 E6.77195
G1 X96.652 Y55.098 F12000.000
G1 X96.652 Y59.402 F1258.223 E6.89347
G1 X94.348 Y59.402 E6.95852
G1 X94.348 Y57.902 E7.00088
G1 X90.652 Y57.902 E7.10527
G1 X90.652 Y59.402 E7.14763
G1 X87.652 Y59.402 E7.23235
G1 X87.652 Y111.098 E8.69228
G1 X90.652 Y111.098 E8.77700
G1 X90.652 Y112.598 E8.81936
G1 X94.348 Y112.598 E8.92376
G1 X94.348 Y111.098 E8.96612
G1 X96.652 Y111.098 E9.03116
G1 X96.652 Y114.902 E9.13857
G1 X73.348 Y114.902 E9.79666
G1 X73.348 Y112.598 E9.86170
G1 X74.152 Y112.598 E9.88439
G1 X74.152 Y113.098 E9.89851
G1 X81.348 Y113.098 E10.10174
G1 X81.348 Y56.902 E11.68875
G1 X74.152 Y56.902 E11.89199
G1 X74.152 Y57.902 E11.92023
G1 X73.348 Y57.902 E11.94291
G1 X73.348 Y55.098 E12.02208
G1 X96.553 Y55.098 E12.67739
G1 X96.652 Y55.098 E12.68017
G1 X96.324 Y55.665 F12000.000
G1 F1680.000 E10.68017
G92 E0
G1 X89.095 Y58.301 F12000.000
G1 F1680.000 E2.00000
G1 X89.551 Y57.845 F2359.169 E2.01823
G1 X89.551 Y56.919 E2.04437
G1 X88.169 Y58.301 E2.09958
G1 X87.243 Y58.301 E2.12572
G1 X89.345 Y56.199 E2.20968
G1 X88.420 Y56.199 E2.23582
G1 X86.318 Y58.301 E2.31978
G1 X86.551 Y58.068 F12000.000
G1 X82.449 Y62.170 F2359.169 E2.48361
G1 X82.449 Y63.095 E2.50976
G1 X86.551 Y58.993 E2.67359
G1 X86.551 Y59.919 E2.69974
G1 X82.449 Y64.021 E2.86357
G1 X82.449 Y64.947 E2.88972
G1 X86.551 Y60.845 E3.05355
G1 X86.551 Y61.770 E3.07970
G1 X82.449 Y65.872 E3.24353
G1 X82.449 Y66.798 E3.26968
G1 X86.551 Y62.696 E3.43351
G1 X86.551 Y63.622 E3.45966
G1 X82.449 Y67.724 E3.62349
G1 X82.449 Y68.649 E3.64964
G1 X86.551 Y64.547 E3.81347
G1 X86.551 Y65.473 E3.83962
G1 X82.449 Y69.575 E4.00345
G1 X82.449 Y70.501 E4.02960
G1 X86.551 Y66.399 E4.19343
G1 X86.551 Y67.324 E4.21958
G1 X82.449 Y71.426 E4.38341
G1 X82.449 Y72.352 E4.40956
G1 X86.551 Y68.250 E4.57339
G1 X86.551 Y69.176 E4.59954
G1 X82.449 Y73.278 E4.76337
G1 X82.449 Y74.203 E4.78952
G1 X86.551 Y70.101 E4.95335
G1 X86.551 Y71.027 E4.97950
G1 X82.449 Y75.129 E5.14333
G1 X82.449 Y76.055 E5.16948
G1 X86.551 Y71.953 E5.33331
G1 X86.551 Y72.878 E5.35946
G1 X82.449 Y76.980 E5.52329
G1 X82.449 Y77.906 E5.54944
G1 X86.551 Y73.804 E5.71327
G1 X86.551 Y74.729 E5.73942
G1 X82.449 Y78.832 E5.90325
G1 X82.449 Y79.757 E5.92940
G1 X86.551 Y75.655 E6.09323
G1 X86.551 Y76.581 E6.11938
G1 X82.449 Y80.683 E6.28321
G1 X82.449 Y81.609 E6.30936
G1 X86.551 Y77.506 E6.47319
G1 X86.551 Y78.432 E6.49934
G1 X82.449 Y82.534 E6.66317
G1 X82.449 Y83.460 E6.68932
G1 X86.551 Y79.358 E6.85315
G1 X86.551 Y80.283 E6.87930
G1 X82.449 Y84.386 E7.04313
G1 X82.449 Y85.311 E7.06928
G1 X86.551 Y81.209 E7.23311
G1 X86.551 Y82.135 E7.25926
G1 X82.449 Y86.237 E7.42309
G1 X82.449 Y87.163 E7.44924
G1 X86.551 Y83.060 E7.61307
G1 X86.551 Y83.986 E7.63922
G1 X82.449 Y88.088 E7.80305
G1 X82.449 Y89.014 E7.82920
G1 X86.551 Y84.912 E7.99303
G1 X86.551 Y85.837 E8.01918
G1 X82.449 Y89.939 E8.18301
G1 X82.449 Y90.865 E8.20916
G1 X86.551 Y86.763 E8.37299
G1 X86.551 Y87.689 E8.39914
G1 X82.449 Y91.791 E8.56297
G1 X82.449 Y92.716 E8.58912
G1 X86.551 Y88.614 E8.75295
G1 X86.551 Y89.540 E8.77910
G1 X82.449 Y93.642 E8.94293
G1 X82.449 Y94.568 E8.96908
G1 X86.551 Y90.466 E9.13291
G1 X86.551 Y91.391 E9.15905
G1 X82.449 Y95.493 E9.32289
G1 X82.449 Y96.419 E9.34903
G1 X86.551 Y92.317 E9.51287
G1 X86.551 Y93.243 E9.53901
G1 X82.449 Y97.345 E9.70285
G1 X82.449 Y98.270 E9.72899
G1 X86.551 Y94.168 E9.89283
G1 X86.551 Y95.094 E9.91897
G1 X82.449 Y99.196 E10.08281
G1 X82.449 Y100.122 E10.10895
G1 X86.551 Y96.020 E10.27279
G1 X86.551 Y96.945 E10.29893
G1 X82.449 Y101.047 E10.46277
G1 X82.449 Y101.973 E10.48891
G1 X86.551 Y97.871 E10.65275
G1 X86.551 Y98.797 E10.67889
G1 X82.449 Y102.899 E10.84273
G1 X82.449 Y103.824 E10.86887
G1 X86.551 Y99.722 E11.03271
G1 X86.551 Y100.648 E11.05885
G1 X82.449 Y104.750 E11.22269
G1 X82.449 Y105.676 E11.24883
G1 X86.551 Y101.574 E11.41267
G1 X86.551 Y102.499 E11.43881
G1 X82.449 Y106.601 E11.60265
G1 X82.449 Y107.527 E11.62879
G1 X86.551 Y103.425 E11.79263
G1 X86.551 Y104.351 E11.81877
G1 X82.449 Y108.453 E11.98261
G1 X82.449 Y109.378 E12.00875
G1 X86.551 Y105.276 E12.17259
G1 X86.551 Y106.202 E12.19873
G1 X82.449 Y110.304 E12.36257
G1 X82.449 Y111.230 E12.38871
G1 X86.551 Y107.128 E12.55255
G1 X86.551 Y108.053 E12.57869
G1 X82.449 Y112.155 E12.74253
G1 X82.449 Y113.081 E12.76867
G1 X86.551 Y108.979 E12.93251
G1 X86.551 Y109.905 E12.95865
G1 X82.655 Y113.801 E13.11428
G1 X83.580 Y113.801 E13.14042
G1 X86.551 Y110.830 E13.25907
G1 X86.551 Y111.756 E13.28521
G1 X84.506 Y113.801 E13.36689
G1 X85.432 Y113.801 E13.39303
G1 X87.034 Y112.199 E13.45702
G1 X87.959 Y112.199 E13.48316
G1 X86.357 Y113.801 E13.54715
G1 X87.283 Y113.801 E13.57329
G1 X88.885 Y112.199 E13.63728
G1 X89.551 Y112.459 E13.65747
G1 X88.209 Y113.801 E13.71108
G1 X89.134 Y113.801 E13.73722
G1 X89.551 Y113.384 E13.75387
G1 F1680.000 E11.75387
G92 E0
G1 X87.494 Y56.199 F12000.000
G1 F1680.000 E2.00000
G1 X82.449 Y61.244 F2359.169 E2.20150
G1 X82.449 Y60.318 E2.22764
G1 X86.568 Y56.199 E2.39217
G1 X85.643 Y56.199 E2.41831
G1 X82.449 Y59.393 E2.54587
G1 X82.449 Y58.467 E2.57201
G1 X84.717 Y56.199 E2.66259
G1 X83.791 Y56.199 E2.68874
G1 X82.449 Y57.541 E2.74235
G1 X82.449 Y56.616 E2.76849
G1 X82.866 Y56.199 E2.78513
G1 F1680.000 E0.78513
G92 E0
G1 X81.465 Y113.740 F12000.000
G1 F1680.000 E2.00000
G1 X80.841 Y114.364 F786.390 E2.03803
G1 X80.157 Y113.636 E2.08105
G1 X79.429 Y114.364 E2.12539
G1 X78.745 Y113.636 E2.16841
G1 X78.017 Y114.364 E2.21276
G1 X77.334 Y113.636 E2.25577
G1 X76.606 Y114.364 E2.30012
G1 X75.922 Y113.636 E2.34314
G1 X75.194 Y114.364 E2.38748
G1 X74.510 Y113.636 E2.43050
G1 X73.886 Y114.260 E2.46853
G1 F1680.000 E0.46853
G92 E0
G1 X81.465 Y55.740 F12000.000
G1 F1680.000 E2.00000
G1 X80.841 Y56.364 F786.390 E2.03803
