; generated by Slic3r 1.1.7 on 2014-12-03 at 19:27:49

; perimeters extrusion width = 0.50mm
; infill extrusion width = 0.50mm
; solid infill extrusion width = 0.50mm
; top infill extrusion width = 0.50mm

G21 ; set units to millimeters
M104 S190 ; set temperature
G28 ; home all axes
G1 Z15 F120 ; lift nozzle
M109 S190 ; wait for temperature to be reached
G90 ; use absolute coordinates
G92 E0
M82 ; use absolute distances for extrusion
M106 S102
G1 F1680.000 E-2.00000
G92 E0
G1 Z0.200 F12000.000
G1 X67.464 Y67.464 F12000.000
G1 E2.00000 F1680.000
G1 X68.525 Y66.404 E2.03226 F1200.000
G1 X70.387 Y65.103 E2.08111
G1 X73.121 Y64.500 E2.14132
G1 X96.879 Y64.500 E2.65226
G1 X99.115 Y64.897 E2.70111
G1 X101.475 Y66.404 E2.76133 F1200.000
G1 X103.596 Y68.525 E2.82585
G1 X104.897 Y70.387 E2.87470
G1 X105.500 Y73.121 E2.93491
G1 X105.491 Y85.340 E3.19770
G1 X105.281 Y87.815 E3.25111
G1 X104.673 Y90.678 E3.31405
G1 X104.253 Y91.970 E3.34327
G1 X103.062 Y94.644 E3.40622
G1 X102.383 Y95.821 E3.43545
G1 X100.663 Y98.189 E3.49839
G1 X99.754 Y99.197 E3.52759
G1 X97.578 Y101.157 E3.59056
G1 X96.479 Y101.955 E3.61978
G1 X93.944 Y103.419 E3.68273
G1 X92.703 Y103.971 E3.71195
G1 X89.920 Y104.876 E3.77489
G1 X88.591 Y105.158 E3.80411
G1 X85.679 Y105.464 E3.86707
G1 X84.321 Y105.464 E3.89629
G1 X81.427 Y105.160 E3.95886
G1 X80.080 Y104.876 E3.98846
G1 X77.297 Y103.971 E4.05141
G1 X76.056 Y103.419 E4.08063
G1 X73.521 Y101.955 E4.14358
G1 X72.422 Y101.157 E4.17280
G1 X70.246 Y99.198 E4.23577
G1 X69.337 Y98.188 E4.26497
G1 X67.627 Y95.834 E4.32756
G1 X66.938 Y94.644 E4.35714
G1 X65.747 Y91.970 E4.42008
G1 X65.327 Y90.678 E4.44931
G1 X64.722 Y87.831 E4.51189
G1 X64.586 Y86.804 E4.53419
G1 X64.500 Y85.000 E4.57302
G1 X64.500 Y73.121 E4.82849
G1 X64.897 Y70.885 E4.87734
G1 X66.404 Y68.525 E4.93755
G1 X67.411 Y67.517 E4.96820
G1 F1680.000 E2.96820
G92 E0
G1 X92.434 Y91.315 F12000.000
G1 E2.00000 F1680.000
G1 X90.903 Y92.765 E2.04536 F900.000
G1 X89.096 Y93.853 E2.09073
G1 X89.007 Y93.883 E2.09273
G1 X87.097 Y94.526 E2.13609
G1 X85.000 Y94.754 E2.18145
G1 X82.903 Y94.526 E2.22682
G1 X80.904 Y93.853 E2.27218
G1 X79.097 Y92.765 E2.31754
G1 X77.566 Y91.315 E2.36290
G1 X76.382 Y89.569 E2.40827
G1 X75.601 Y87.610 E2.45363
G1 X75.260 Y85.528 E2.49899
G1 X75.374 Y83.422 E2.54436
G1 X75.938 Y81.390 E2.58972
G1 X76.926 Y79.526 E2.63508
G1 X78.292 Y77.918 E2.68045
G1 X79.971 Y76.642 E2.72581
G1 X81.885 Y75.756 E2.77117
G1 X83.945 Y75.303 E2.81653
G1 X86.055 Y75.303 E2.86190
G1 X86.146 Y75.323 E2.86391
G1 X88.115 Y75.756 E2.90726 F900.000
G1 X90.029 Y76.642 E2.95262
G1 X91.708 Y77.918 E2.99799
G1 X93.074 Y79.526 E3.04335
G1 X94.062 Y81.390 E3.08871
G1 X94.626 Y83.422 E3.13408
G1 X94.740 Y85.528 E3.17944
G1 X94.399 Y87.610 E3.22480
G1 X93.618 Y89.569 E3.27017
G1 X92.477 Y91.253 E3.31392
G1 X92.051 Y90.989 F12000.000
G1 X90.599 Y92.365 E3.35694 F720.000
G1 X88.885 Y93.396 E3.39997
G1 X86.989 Y94.035 E3.44299
G1 X85.000 Y94.251 E3.48601
G1 X83.050 Y94.039 E3.52820
G1 X81.115 Y93.396 E3.57204
G1 X79.401 Y92.365 E3.61507
G1 X77.949 Y90.989 E3.65809
G1 X76.826 Y89.333 E3.70111
G1 X76.086 Y87.475 E3.74414
G1 X75.762 Y85.501 E3.78716
G1 X75.870 Y83.503 E3.83019
G1 X76.406 Y81.576 E3.87321
G1 X77.324 Y79.843 E3.91540
G1 X78.638 Y78.283 E3.95924
G1 X80.230 Y77.073 E4.00226
G1 X82.046 Y76.233 E4.04529
G1 X84.000 Y75.803 E4.08831
G1 X86.000 Y75.803 E4.13134 F720.000
G1 X87.954 Y76.233 E4.17436
G1 X89.770 Y77.073 E4.21738
G1 X91.362 Y78.283 E4.26041
G1 X92.657 Y79.808 E4.30343
G1 X93.605 Y81.613 E4.34727
G1 X94.130 Y83.503 E4.38946
G1 X94.238 Y85.501 E4.43248
G1 X93.914 Y87.475 E4.47551
G1 X93.174 Y89.333 E4.51854
G1 X92.093 Y90.927 E4.55995
G1 F1680.000 E2.55995
G92 E0
G1 X83.901 Y75.313 F12000.000
G1 X95.245 Y93.310 F12000.000
G1 E2.00000 F1680.000
G1 X94.844 Y93.863 E2.01470 F900.000
G1 X92.786 Y95.716 E2.07426
G1 X90.388 Y97.101 E2.13381
G1 X87.754 Y97.956 E2.19336
G1 X85.000 Y98.246 E2.25292
G1 X82.246 Y97.956 E2.31247
G1 X79.612 Y97.101 E2.37203
G1 X77.214 Y95.716 E2.43158
G1 X75.156 Y93.863 E2.49114
G1 X73.529 Y91.623 E2.55069
G1 X72.402 Y89.093 E2.61025
G1 X71.827 Y86.385 E2.66980
G1 X71.827 Y84.250 E2.71571
G1 X71.750 Y84.250 E2.71736
G1 X71.750 Y73.432 E2.95001
G1 X73.432 Y71.750 E3.00117
G1 X96.568 Y71.750 E3.49874 F900.000
G1 X98.250 Y73.432 E3.54990
G1 X98.250 Y84.250 E3.78256
G1 X98.173 Y84.250 E3.78421
G1 X98.173 Y86.385 E3.83012
G1 X97.598 Y89.093 E3.88967
G1 X96.471 Y91.623 E3.94922
G1 X95.289 Y93.249 E3.99246
G1 X95.650 Y93.604 F12000.000
G1 X95.217 Y94.200 E4.00830 F720.000
G1 X93.081 Y96.123 E4.07011
G1 X90.592 Y97.560 E4.13193
G1 X87.859 Y98.448 E4.19374
G1 X85.000 Y98.749 E4.25555
G1 X82.142 Y98.448 E4.31737
G1 X79.408 Y97.560 E4.37918
G1 X76.919 Y96.123 E4.44100
G1 X74.783 Y94.200 E4.50281
G1 X73.093 Y91.874 E4.56463
G1 X71.924 Y89.249 E4.62644
G1 X71.327 Y86.437 E4.68826
G1 X71.327 Y84.750 E4.72454
G1 X71.250 Y84.750 E4.72619
G1 X71.250 Y73.225 E4.97406
G1 X73.225 Y71.250 E5.03412
G1 X96.775 Y71.250 E5.54060
G1 X98.750 Y73.225 E5.60067
G1 X98.750 Y84.750 E5.84853 F720.000
G1 X98.673 Y84.750 E5.85018
G1 X98.673 Y86.437 E5.88647
G1 X98.076 Y89.249 E5.94828
G1 X96.907 Y91.874 E6.01010
G1 X95.694 Y93.543 E6.05447
G1 X98.734 Y73.725 F12000.000
G1 X96.398 Y72.092 F12000.000
G1 X97.908 Y73.602 E6.10038 F1200.000
G1 X97.908 Y74.310 E6.11562
G1 X95.690 Y72.092 E6.18307
G1 X94.981 Y72.092 E6.19831
G1 X97.908 Y75.019 E6.28731
G1 X97.908 Y75.727 E6.30254
G1 X94.273 Y72.092 E6.41308
G1 X93.565 Y72.092 E6.42831
G1 X97.908 Y76.435 E6.56040
G1 X97.908 Y77.144 E6.57563
G1 X92.856 Y72.092 E6.72926
G1 X92.148 Y72.092 E6.74449
G1 X97.908 Y77.852 E6.91966
G1 X97.908 Y78.560 E6.93489
G1 X91.440 Y72.092 E7.13161
G1 X90.732 Y72.092 E7.14684
G1 X97.908 Y79.268 E7.36509
G1 X97.908 Y79.977 E7.38033
G1 X90.023 Y72.092 E7.62012
G1 X89.315 Y72.092 E7.63536
G1 X97.908 Y80.685 E7.89670
G1 X97.908 Y81.393 E7.91193
G1 X88.607 Y72.092 E8.19481
G1 X87.898 Y72.092 E8.21004
G1 X97.908 Y82.102 E8.51447
G1 X97.908 Y82.810 E8.52970
G1 X87.190 Y72.092 E8.85567
G1 X86.482 Y72.092 E8.87090
G1 X97.908 Y83.518 E9.21841
G1 X97.831 Y84.150 E9.23209
G1 X93.748 Y80.067 E9.35626
G1 X94.438 Y81.465 F12000.000
G1 X97.831 Y84.858 E9.45945 F1200.000
G1 X97.831 Y85.566 E9.47469
G1 X94.710 Y82.446 E9.56959
G1 X94.968 Y83.412 E9.59110
G1 X97.831 Y86.275 E9.67817
G1 X97.720 Y86.872 E9.69123
G1 X95.009 Y84.161 E9.77367
G1 X95.050 Y84.910 E9.78980
G1 X97.595 Y87.456 E9.86724
G1 X97.471 Y88.040 E9.88008
G1 X95.069 Y85.638 E9.95314
G1 X94.969 Y86.246 E9.96640
G1 X97.347 Y88.624 E10.03872
G1 X97.187 Y89.173 E10.05101
G1 X94.870 Y86.855 E10.12150
G1 X94.770 Y87.464 E10.13476
G1 X96.969 Y89.663 E10.20165
G1 X96.751 Y90.153 E10.21318
G1 X94.608 Y88.010 E10.27836
G1 X94.406 Y88.516 E10.29008
G1 X96.533 Y90.643 E10.35476
G1 X96.315 Y91.133 E10.36630
G1 X94.204 Y89.023 E10.43047
G1 X94.003 Y89.529 E10.44220
G1 X96.068 Y91.595 E10.50503
G1 X95.770 Y92.005 E10.51593
G1 X93.750 Y89.985 E10.57738
G1 X93.464 Y90.407 E10.58834
G1 X95.472 Y92.415 E10.64943
G1 X95.174 Y92.826 E10.66033
G1 X93.178 Y90.829 E10.72106
G1 X92.891 Y91.251 E10.73202
G1 X94.876 Y93.236 E10.79239
G1 X94.562 Y93.630 E10.80323
G1 X92.580 Y91.649 E10.86350
G1 X92.217 Y91.993 E10.87427
G1 X94.203 Y93.979 E10.93468
G1 X93.830 Y94.315 E10.94547
G1 X91.853 Y92.338 E11.00561
G1 X91.489 Y92.682 E11.01638
G1 X93.457 Y94.650 E11.07625
G1 X93.085 Y94.986 E11.08703
G1 X91.125 Y93.027 E11.14663
G1 X90.686 Y93.296 E11.15771
G1 X92.712 Y95.322 E11.21932
G1 X92.289 Y95.607 E11.23029
G1 X90.244 Y93.562 E11.29251
G1 X89.802 Y93.828 E11.30361
G1 X91.840 Y95.867 E11.36561
G1 X91.391 Y96.126 E11.37676
G1 X89.359 Y94.094 E11.43856
G1 X88.853 Y94.296 E11.45028
G1 X90.942 Y96.385 E11.51382
G1 X90.493 Y96.644 E11.52497
G1 X88.323 Y94.475 E11.59096
G1 X87.794 Y94.653 E11.60298
G1 X90.005 Y96.865 E11.67025
G1 X89.471 Y97.038 E11.68234
G1 X87.264 Y94.832 E11.74946
G1 X86.644 Y94.920 E11.76293
G1 X88.936 Y97.212 E11.83264
G1 X88.402 Y97.386 E11.84473
G1 X86.005 Y94.990 E11.91761
G1 X85.367 Y95.059 E11.93143
G1 X87.867 Y97.560 E12.00748
G1 X87.263 Y97.664 E12.02067
G1 X84.661 Y95.062 E12.09980
G1 X83.867 Y94.976 E12.11699
G1 X86.622 Y97.731 E12.20079
G1 X85.981 Y97.798 E12.21465
G1 X83.072 Y94.889 E12.30314
G1 X82.087 Y94.613 E12.32513
G1 X85.340 Y97.866 E12.42407
G1 X84.628 Y97.862 E12.43937
G1 X81.019 Y94.253 E12.54916
G1 X79.413 Y93.355 F12000.000
G1 X83.837 Y97.779 E12.68371 F1200.000
G1 X83.046 Y97.696 E12.70082
G1 X72.296 Y86.947 E13.02776
G1 X72.169 Y86.111 E13.04593
G1 X76.687 Y90.629 E13.18333
G1 X75.800 Y89.034 F12000.000
G1 X72.169 Y85.403 E13.29376 F1200.000
G1 X72.169 Y84.695 E13.30900
G1 X75.331 Y87.857 E13.40516
G1 X75.149 Y86.966 E13.42471
G1 X72.169 Y83.987 E13.51533
G1 X72.092 Y83.202 E13.53229
G1 X75.010 Y86.119 E13.62101
G1 X74.928 Y85.329 E13.63810
G1 X72.092 Y82.493 E13.72433
G1 X72.092 Y81.785 E13.73957
G1 X74.964 Y84.657 E13.82691
G1 X75.001 Y83.985 E13.84138
G1 X72.092 Y81.077 E13.92983
G1 X72.092 Y80.368 E13.94506
G1 X75.046 Y83.322 E14.03490
G1 X75.200 Y82.768 E14.04727
G1 X72.092 Y79.660 E14.14180
G1 X72.092 Y78.952 E14.15703
G1 X75.354 Y82.214 E14.25623
G1 X75.508 Y81.659 E14.26860
G1 X72.092 Y78.244 E14.37249
G1 X72.092 Y77.535 E14.38772
G1 X75.688 Y81.131 E14.49708
G1 X75.933 Y80.668 E14.50834
G1 X72.092 Y76.827 E14.62516
G1 X72.092 Y76.119 E14.64040
G1 X76.179 Y80.205 E14.76468
G1 X76.424 Y79.742 E14.77595
G1 X72.092 Y75.410 E14.90769
G1 X72.092 Y74.702 E14.92293
G1 X76.679 Y79.288 E15.06242
G1 X77.004 Y78.905 E15.07322
G1 X72.092 Y73.994 E15.22261
G1 X72.251 Y73.444 E15.23492
G1 X77.329 Y78.522 E15.38938
G1 X77.655 Y78.139 E15.40019
G1 X72.605 Y73.090 E15.55378
G1 X72.959 Y72.736 E15.56455
G1 X77.980 Y77.757 E15.71726
G1 X78.365 Y77.433 E15.72807
G1 X73.313 Y72.381 E15.88171
G1 X73.733 Y72.092 E15.89266
G1 X78.767 Y77.127 E16.04578
G1 X79.169 Y76.821 E16.05665
G1 X74.441 Y72.092 E16.20047
G1 X75.149 Y72.092 E16.21571
G1 X79.572 Y76.515 E16.35022
G1 X80.011 Y76.246 E16.36130
G1 X75.857 Y72.092 E16.48763
G1 X76.566 Y72.092 E16.50286
G1 X80.495 Y76.022 E16.62237
G1 X80.980 Y75.798 E16.63385
G1 X77.274 Y72.092 E16.74655
G1 X77.982 Y72.092 E16.76178
G1 X81.464 Y75.574 E16.86767
G1 X81.982 Y75.384 E16.87954
G1 X78.691 Y72.092 E16.97966
G1 X79.399 Y72.092 E16.99489
G1 X82.563 Y75.256 E17.09112
G1 X83.143 Y75.129 E17.10391
G1 X80.107 Y72.092 E17.19625
G1 X80.815 Y72.092 E17.21148
G1 X83.724 Y75.001 E17.29994
G1 X84.392 Y74.960 E17.31433
G1 X81.524 Y72.092 E17.40155
G1 X82.232 Y72.092 E17.41678
G1 X85.100 Y74.960 E17.50401
G1 X85.808 Y74.960 E17.51924
G1 X82.940 Y72.092 E17.60646
G1 X83.649 Y72.092 E17.62169
G1 X86.636 Y75.080 E17.71256
G1 X87.544 Y75.280 E17.73256
G1 X84.357 Y72.092 E17.82951
G1 X85.065 Y72.092 E17.84474
G1 X88.556 Y75.583 E17.95090
G1 X89.874 Y76.193 F12000.000
G1 X85.774 Y72.092 E18.07561 F1200.000
G1 F1680.000 E16.07561
G92 E0
G1 X72.488 Y87.846 F12000.000
G1 E2.00000 F1680.000
G1 X82.233 Y97.592 E2.29641 F1200.000
G1 X81.184 Y97.251 E2.32014
G1 X72.679 Y88.746 E2.57883
G1 X73.146 Y89.922 F12000.000
G1 X80.135 Y96.910 E2.79139 F1200.000
G1 X78.687 Y96.171 F12000.000
G1 X73.715 Y91.198 E2.94263 F1200.000
G1 X75.337 Y93.529 F12000.000
G1 X75.697 Y93.890 E2.95360 F1200.000
M106 S255
M104 S188 ; set temperature
G1 F1680.000 E0.95360
G92 E0
G1 Z0.400 F12000.000
G1 X92.434 Y91.315 F12000.000
G1 E2.00000 F1680.000
G1 X90.903 Y92.765 E2.03024 F1598.442
G1 X89.096 Y93.853 E2.06048
G1 X88.989 Y93.889 E2.06210
G1 X87.097 Y94.526 E2.09073
G1 X85.000 Y94.754 E2.12097
G1 X82.903 Y94.526 E2.15121
G1 X80.904 Y93.853 E2.18145
G1 X79.097 Y92.765 E2.21170
G1 X77.566 Y91.315 E2.24194
G1 X76.382 Y89.569 E2.27218
G1 X75.601 Y87.610 E2.30242
G1 X75.260 Y85.528 E2.33266
G1 X75.374 Y83.422 E2.36290
G1 X75.938 Y81.390 E2.39315
G1 X76.926 Y79.526 E2.42339
G1 X78.292 Y77.918 E2.45363
G1 X79.971 Y76.642 E2.48387
G1 X81.885 Y75.756 E2.51412
G1 X83.945 Y75.303 E2.54436
G1 X86.055 Y75.303 E2.57460
G1 X86.165 Y75.327 E2.57622
G1 X88.115 Y75.756 E2.60484 F1598.442
G1 X90.029 Y76.642 E2.63508
G1 X91.708 Y77.918 E2.66533
G1 X93.074 Y79.526 E2.69557
G1 X94.062 Y81.390 E2.72581
G1 X94.626 Y83.422 E2.75605
G1 X94.740 Y85.528 E2.78629
G1 X94.399 Y87.610 E2.81654
G1 X93.618 Y89.569 E2.84678
G1 X92.477 Y91.253 E2.87594
G1 X92.051 Y90.989 F12000.000
G1 X90.599 Y92.365 E2.90463 F1278.754
G1 X88.885 Y93.396 E2.93331
G1 X86.989 Y94.035 E2.96199
G1 X85.000 Y94.251 E2.99068
G1 X83.069 Y94.042 E3.01852
G1 X81.115 Y93.396 E3.04802
G1 X79.401 Y92.365 E3.07671
G1 X77.949 Y90.989 E3.10539
G1 X76.826 Y89.333 E3.13407
G1 X76.086 Y87.475 E3.16275
G1 X75.762 Y85.501 E3.19144
G1 X75.870 Y83.503 E3.22012
G1 X76.406 Y81.576 E3.24880
G1 X77.343 Y79.808 E3.27748
G1 X78.638 Y78.283 E3.30617
G1 X80.230 Y77.073 E3.33485
G1 X82.046 Y76.233 E3.36353
G1 X84.000 Y75.803 E3.39221
G1 X86.000 Y75.803 E3.42090 F1278.754
G1 X87.954 Y76.233 E3.44958
G1 X89.770 Y77.073 E3.47826
G1 X91.362 Y78.283 E3.50695
G1 X92.657 Y79.808 E3.53563
G1 X93.594 Y81.576 E3.56431
G1 X94.130 Y83.503 E3.59299
G1 X94.238 Y85.501 E3.62168
G1 X93.914 Y87.475 E3.65036
G1 X93.174 Y89.333 E3.67904
G1 X92.093 Y90.927 E3.70665
G1 F1680.000 E1.70665
G92 E0
G1 X83.901 Y75.313 F12000.000
G1 X95.245 Y93.310 F12000.000
G1 E2.00000 F1680.000
G1 X94.844 Y93.863 E2.00980 F1598.442
G1 X92.786 Y95.716 E2.04950
G1 X90.388 Y97.101 E2.08921
G1 X87.754 Y97.956 E2.12891
G1 X85.000 Y98.246 E2.16861
G1 X82.246 Y97.956 E2.20832
G1 X79.612 Y97.101 E2.24802
G1 X77.214 Y95.716 E2.28772
G1 X75.156 Y93.863 E2.32742
G1 X73.529 Y91.623 E2.36713
G1 X72.402 Y89.093 E2.40683
G1 X71.827 Y86.385 E2.44653
G1 X71.827 Y84.250 E2.47714
G1 X71.750 Y84.250 E2.47824
G1 X71.750 Y73.432 E2.63334
G1 X73.432 Y71.750 E2.66745
G1 X96.568 Y71.750 E2.99916 F1598.442
G1 X98.250 Y73.432 E3.03327
G1 X98.250 Y84.250 E3.18837
G1 X98.173 Y84.250 E3.18947
G1 X98.173 Y86.385 E3.22008
G1 X97.598 Y89.093 E3.25978
G1 X96.471 Y91.623 E3.29948
G1 X95.289 Y93.249 E3.32831
G1 X95.650 Y93.604 F12000.000
G1 X95.217 Y94.200 E3.33886 F1278.754
G1 X93.081 Y96.123 E3.38007
G1 X90.592 Y97.560 E3.42128
G1 X87.859 Y98.448 E3.46249
G1 X85.000 Y98.749 E3.50370
G1 X82.142 Y98.448 E3.54491
G1 X79.408 Y97.560 E3.58612
G1 X76.919 Y96.123 E3.62733
G1 X74.783 Y94.200 E3.66854
G1 X73.093 Y91.874 E3.70975
G1 X71.924 Y89.249 E3.75096
G1 X71.327 Y86.437 E3.79217
G1 X71.327 Y84.750 E3.81636
G1 X71.250 Y84.750 E3.81746
G1 X71.250 Y73.225 E3.98270
G1 X73.225 Y71.250 E4.02275
G1 X96.775 Y71.250 E4.36040
G1 X98.750 Y73.225 E4.40045
G1 X98.750 Y84.750 E4.56569 F1278.754
G1 X98.673 Y84.750 E4.56679
G1 X98.673 Y86.437 E4.59098
G1 X98.076 Y89.249 E4.63219
G1 X96.907 Y91.874 E4.67340
G1 X95.694 Y93.543 E4.70298
G1 X98.734 Y73.725 F12000.000
G1 X94.669 Y87.856 F12000.000
G1 X97.831 Y84.695 E4.76708 F2131.256
G1 X97.831 Y83.987 E4.77724
G1 X94.851 Y86.966 E4.83765
G1 X94.990 Y86.119 E4.84996
G1 X97.908 Y83.202 E4.90911
G1 X97.908 Y82.493 E4.91926
G1 X95.072 Y85.329 E4.97675
G1 X95.036 Y84.657 E4.98640
G1 X97.908 Y81.785 E5.04463
G1 X97.908 Y81.077 E5.05478
G1 X94.999 Y83.985 E5.11375
G1 X94.954 Y83.322 E5.12327
G1 X97.908 Y80.368 E5.18316
G1 X97.908 Y79.660 E5.19332
G1 X94.800 Y82.768 E5.25633
G1 X94.646 Y82.214 E5.26458
G1 X97.908 Y78.952 E5.33072
G1 X97.908 Y78.244 E5.34087
G1 X94.492 Y81.659 E5.41013
G1 X94.312 Y81.131 E5.41813
G1 X97.908 Y77.535 E5.49104
G1 X97.908 Y76.827 E5.50119
G1 X94.067 Y80.668 E5.57907
G1 X93.821 Y80.205 E5.58658
G1 X97.908 Y76.119 E5.66944
G1 X97.908 Y75.410 E5.67959
G1 X93.576 Y79.742 E5.76742
G1 X93.321 Y79.288 E5.77488
G1 X97.908 Y74.702 E5.86788
G1 X97.908 Y73.994 E5.87803
G1 X92.996 Y78.905 E5.97762
G1 X92.671 Y78.522 E5.98483
G1 X97.749 Y73.444 E6.08780
G1 X97.395 Y73.090 E6.09498
G1 X92.345 Y78.139 E6.19738
G1 X92.020 Y77.756 E6.20458
G1 X97.041 Y72.736 E6.30639
G1 X96.687 Y72.381 E6.31357
G1 X91.635 Y77.433 E6.41599
G1 X91.233 Y77.127 E6.42324
G1 X96.267 Y72.092 E6.52532
G1 X95.559 Y72.092 E6.53548
G1 X90.831 Y76.821 E6.63136
G1 X90.428 Y76.515 E6.63860
G1 X94.851 Y72.092 E6.72828
G1 X94.143 Y72.092 E6.73843
G1 X89.989 Y76.246 E6.82265
G1 X89.505 Y76.022 E6.83030
