; generated by Slic3r 1.2.1 on 2014-12-20 at 12:42:09

; external perimeters extrusion width = 0.50mm
; perimeters extrusion width = 0.50mm
; infill extrusion width = 0.50mm
; solid infill extrusion width = 0.50mm
; top infill extrusion width = 0.50mm

M104 S190 ; set temperature
G28 ; home all axes
G1 Z15 F120 ; lift nozzle
M109 S190 ; wait for temperature to be reached
G21 ; set units to millimeters
G90 ; use absolute coordinates
M82 ; use absolute distances for extrusion
G92 E0
M106 S151
G1 E-2.00000 F1680.000
G92 E0
G1 Z0.200 F12000.000
G1 X68.291 Y67.420 F12000.000
G1 E2.00000 F1680.000
G1 X68.416 Y67.295 E2.00497 F1200.000
G1 X70.297 Y65.975 E2.06968
G1 X73.121 Y65.346 E2.15114
G1 X96.879 Y65.346 E2.81995
G1 X99.143 Y65.742 E2.88466
G1 X101.584 Y67.295 E2.96610 F1200.000
G1 X101.705 Y67.416 E2.97093
G1 X103.026 Y69.298 E3.03564
G1 X103.654 Y72.121 E3.11709
G1 X103.654 Y86.000 E3.50780
G1 X103.580 Y87.603 E3.55296
G1 X103.443 Y88.638 E3.58236
G1 X102.922 Y91.092 E3.65298
G1 X102.492 Y92.415 E3.69215
G1 X101.471 Y94.707 E3.76277
G1 X100.776 Y95.911 E3.80193
G1 X99.316 Y97.921 E3.87185
G1 X98.370 Y98.975 E3.91172
G1 X96.506 Y100.654 E3.98235
G1 X95.381 Y101.471 E4.02151
G1 X93.208 Y102.726 E4.09214
G1 X91.937 Y103.291 E4.13129
G1 X89.551 Y104.067 E4.20192
G1 X88.190 Y104.356 E4.24109
G1 X85.696 Y104.618 E4.31171
G1 X84.304 Y104.618 E4.35087
G1 X81.810 Y104.356 E4.42149
G1 X80.449 Y104.067 E4.46066
G1 X78.063 Y103.291 E4.53129
G1 X76.792 Y102.726 E4.57044
G1 X74.619 Y101.471 E4.64107
G1 X73.494 Y100.653 E4.68024
G1 X71.630 Y98.975 E4.75086
G1 X70.699 Y97.941 E4.79002
G1 X69.224 Y95.911 E4.86065
G1 X68.529 Y94.707 E4.89981
G1 X67.508 Y92.415 E4.97044
G1 X67.078 Y91.092 E5.00960
G1 X66.557 Y88.638 E5.08023
G1 X66.420 Y87.602 E5.10963
G1 X66.346 Y86.000 E5.15479
G1 X66.346 Y72.121 E5.54550
G1 X66.742 Y69.857 E5.61021
G1 X68.250 Y67.483 E5.68939
G1 E3.68939 F1680.000
G92 E0
G1 X78.336 Y78.965 F12000.000
G1 E2.00000 F1680.000
G1 X80.004 Y77.697 E2.03926 F900.000
G1 X81.906 Y76.818 E2.07852
G1 X83.952 Y76.367 E2.11778
G1 X86.048 Y76.367 E2.15704
G1 X88.002 Y76.797 E2.19454
G1 X88.094 Y76.818 E2.19630 F900.000
G1 X89.996 Y77.697 E2.23556
G1 X91.664 Y78.965 E2.27482
G1 X93.020 Y80.562 E2.31408
G1 X94.001 Y82.414 E2.35334
G1 X94.562 Y84.432 E2.39260
G1 X94.675 Y86.525 E2.43186
G1 X94.336 Y88.592 E2.47112
G1 X93.561 Y90.539 E2.51038
G1 X92.385 Y92.273 E2.54964
G1 X90.864 Y93.714 E2.58889
G1 X89.069 Y94.794 E2.62816
G1 X87.083 Y95.463 E2.66742
G1 X85.000 Y95.690 E2.70668
G1 X82.917 Y95.463 E2.74593
G1 X80.931 Y94.794 E2.78519
G1 X79.136 Y93.714 E2.82446
G1 X77.615 Y92.273 E2.86371
G1 X76.439 Y90.539 E2.90297
G1 X75.664 Y88.592 E2.94223
G1 X75.325 Y86.525 E2.98149
G1 X75.438 Y84.432 E3.02075
G1 X75.999 Y82.414 E3.06001
G1 X76.980 Y80.562 E3.09927
G1 X78.288 Y79.023 E3.13713
G1 X78.620 Y79.305 F12000.000
G1 X80.230 Y78.073 E3.17512 F720.000
G1 X82.046 Y77.233 E3.21260
G1 X84.000 Y76.803 E3.25008
G1 X86.000 Y76.803 E3.28757 F720.000
G1 X87.954 Y77.233 E3.32505
G1 X89.770 Y78.073 E3.36254
G1 X91.362 Y79.283 E3.40002
G1 X92.657 Y80.808 E3.43751
G1 X93.594 Y82.576 E3.47499
G1 X94.117 Y84.458 E3.51160
G1 X94.238 Y86.501 E3.54994
G1 X93.914 Y88.475 E3.58742
G1 X93.174 Y90.333 E3.62491
G1 X92.051 Y91.989 E3.66239
G1 X90.599 Y93.365 E3.69988
G1 X88.885 Y94.396 E3.73736
G1 X86.989 Y95.035 E3.77484
G1 X85.000 Y95.251 E3.81233
G1 X83.011 Y95.035 E3.84981
G1 X81.115 Y94.396 E3.88730
G1 X79.401 Y93.365 E3.92478
G1 X77.949 Y91.989 E3.96227
G1 X76.826 Y90.333 E3.99975
G1 X76.086 Y88.475 E4.03723
G1 X75.762 Y86.501 E4.07472
G1 X75.870 Y84.503 E4.11220
G1 X76.406 Y82.576 E4.14969
G1 X77.343 Y80.808 E4.18717
G1 X78.571 Y79.362 E4.22273
G1 E2.22273 F1680.000
G92 E0
G1 X84.168 Y76.332 F12000.000
G1 X87.930 Y96.876 F12000.000
G1 E2.00000 F1680.000
G1 X87.352 Y97.063 E2.01140 F900.000
G1 X85.000 Y97.311 E2.05570
G1 X82.648 Y97.063 E2.10000
G1 X80.400 Y96.333 E2.14431
G1 X78.352 Y95.150 E2.18862
G1 X76.595 Y93.568 E2.23292
G1 X75.205 Y91.655 E2.27723
G1 X74.243 Y89.495 E2.32153
G1 X73.751 Y87.182 E2.36584
G1 X73.751 Y85.314 E2.40084
G1 X73.686 Y85.314 E2.40207
G1 X73.686 Y72.686 E2.63870
G1 X96.314 Y72.686 E3.06270 F900.000
G1 X96.314 Y85.314 E3.29933
G1 X96.249 Y85.314 E3.30056
G1 X96.249 Y87.182 E3.33556
G1 X95.757 Y89.495 E3.37986
G1 X94.795 Y91.655 E3.42417
G1 X93.405 Y93.568 E3.46847
G1 X91.648 Y95.150 E3.51278
G1 X89.600 Y96.333 E3.55708
G1 X88.001 Y96.852 E3.58859
G1 X88.136 Y97.267 F12000.000
G1 X87.443 Y97.492 E3.60225 F720.000
G1 X85.000 Y97.749 E3.64827
G1 X82.557 Y97.492 E3.69429
G1 X80.221 Y96.733 E3.74031
G1 X78.094 Y95.505 E3.78633
G1 X76.269 Y93.861 E3.83235
G1 X74.825 Y91.874 E3.87837
G1 X73.826 Y89.631 E3.92440
G1 X73.316 Y87.228 E3.97042
G1 X73.316 Y85.750 E3.99811
G1 X73.250 Y85.750 E3.99934
G1 X73.250 Y72.250 E4.25230
G1 X96.750 Y72.250 E4.69262
G1 X96.750 Y85.750 E4.94557
G1 X96.684 Y85.750 E4.94681 F720.000
G1 X96.684 Y87.228 E4.97450
G1 X96.174 Y89.631 E5.02052
G1 X95.175 Y91.874 E5.06654
G1 X93.731 Y93.861 E5.11257
G1 X91.906 Y95.505 E5.15859
G1 X89.779 Y96.733 E5.20461
G1 X88.207 Y97.243 E5.23556
G1 X96.762 Y85.685 F12000.000
G1 X82.043 Y95.481 F12000.000
G1 X83.408 Y96.846 E5.27173 F1200.000
G1 X84.098 Y96.918 E5.28474
G1 X82.944 Y95.764 E5.31534
G1 X83.636 Y95.839 E5.32840
G1 X84.788 Y96.991 E5.35892
G1 X85.388 Y96.972 E5.37015
G1 X84.329 Y95.914 E5.39819
G1 X85.018 Y95.985 E5.41116
G1 X85.946 Y96.914 E5.43577
G1 X86.505 Y96.855 E5.44629
G1 X85.575 Y95.925 E5.47095
G1 X86.132 Y95.864 E5.48144
G1 X87.064 Y96.796 E5.50614
G1 X87.567 Y96.682 E5.51582
G1 X86.689 Y95.804 E5.53910
G1 X87.229 Y95.726 E5.54933
G1 X88.034 Y96.531 E5.57065
G1 X88.500 Y96.379 E5.57983
G1 X87.691 Y95.570 E5.60127
G1 X88.153 Y95.415 E5.61040
G1 X88.966 Y96.228 E5.63194
G1 X89.432 Y96.076 E5.64113
G1 X88.615 Y95.259 E5.66278
G1 X89.076 Y95.104 E5.67191
G1 X89.831 Y95.858 E5.69191
G1 X90.222 Y95.632 E5.70038
G1 X89.481 Y94.891 E5.72001
G1 X89.867 Y94.659 E5.72845
G1 X90.614 Y95.406 E5.74824
G1 X91.005 Y95.180 E5.75671
G1 X90.252 Y94.427 E5.77666
G1 X90.638 Y94.195 E5.78510
G1 X91.397 Y94.954 E5.80521
G1 X91.735 Y94.674 E5.81343
G1 X91.024 Y93.963 E5.83227
G1 X91.344 Y93.666 E5.84046
G1 X92.060 Y94.382 E5.85942
G1 X92.385 Y94.089 E5.86762
G1 X91.661 Y93.366 E5.88678
G1 X91.979 Y93.065 E5.89497
G1 X92.710 Y93.797 E5.91434
G1 X93.028 Y93.497 E5.92253
G1 X92.296 Y92.765 E5.94193
G1 X92.613 Y92.464 E5.95012
G1 X93.325 Y93.176 E5.96898
G1 X93.584 Y92.819 E5.97727
G1 X92.862 Y92.096 E5.99640
G1 X93.112 Y91.728 E6.00473
G1 X93.844 Y92.461 E6.02415
G1 X94.104 Y92.103 E6.03243
G1 X93.361 Y91.360 E6.05212
G1 X93.611 Y90.992 E6.06045
G1 X94.364 Y91.746 E6.08041
G1 X94.601 Y91.365 E6.08881
G1 X93.850 Y90.614 E6.10872
G1 X94.025 Y90.172 E6.11762
G1 X94.791 Y90.938 E6.13791
G1 X94.981 Y90.510 E6.14667
G1 X94.201 Y89.730 E6.16734
G1 X94.377 Y89.289 E6.17625
G1 X95.172 Y90.083 E6.19729
G1 X95.362 Y89.656 E6.20605
G1 X94.553 Y88.847 E6.22748
G1 X94.676 Y88.352 E6.23703
G1 X95.518 Y89.195 E6.25937
G1 X95.627 Y88.686 E6.26912
G1 X94.763 Y87.821 E6.29202
G1 X94.850 Y87.291 E6.30210
G1 X95.735 Y88.176 E6.32556
G1 X95.843 Y87.667 E6.33531
G1 X94.937 Y86.760 E6.35934
G1 X94.952 Y86.158 E6.37063
G1 X95.951 Y87.158 E6.39711
G1 X95.953 Y86.542 E6.40866
G1 X94.916 Y85.505 E6.43612
G1 X94.881 Y84.852 E6.44838
G1 X95.953 Y85.924 E6.47678
G1 X95.953 Y85.306 E6.48835
G1 X94.788 Y84.142 E6.51921
G1 X94.551 Y83.287 E6.53583
G1 X96.019 Y84.755 E6.57472
G1 X96.019 Y84.137 E6.58629
G1 X94.314 Y82.432 E6.63147
G1 X93.686 Y81.187 F12000.000
G1 X96.019 Y83.520 E6.69328 F1200.000
G1 X96.019 Y82.902 E6.70485
G1 X86.098 Y72.981 E6.96773
G1 X86.716 Y72.981 E6.97930
G1 X96.019 Y82.284 E7.22582
G1 X96.019 Y81.667 E7.23739
G1 X87.333 Y72.981 E7.46754
G1 X87.951 Y72.981 E7.47911
G1 X96.019 Y81.049 E7.69290
G1 X96.019 Y80.432 E7.70447
G1 X88.568 Y72.981 E7.90190
G1 X89.186 Y72.981 E7.91347
G1 X96.019 Y79.814 E8.09453
G1 X96.019 Y79.197 E8.10610
G1 X89.803 Y72.981 E8.27080
G1 X90.421 Y72.981 E8.28237
G1 X96.019 Y78.579 E8.43070
G1 X96.019 Y77.962 E8.44228
G1 X91.038 Y72.981 E8.57425
G1 X91.656 Y72.981 E8.58582
G1 X96.019 Y77.344 E8.70142
G1 X96.019 Y76.727 E8.71299
G1 X92.273 Y72.981 E8.81224
G1 X92.891 Y72.981 E8.82381
G1 X96.019 Y76.109 E8.90669
G1 X96.019 Y75.492 E8.91826
G1 X93.508 Y72.981 E8.98477
G1 X94.126 Y72.981 E8.99634
G1 X96.019 Y74.874 E9.04650
G1 X96.019 Y74.256 E9.05807
G1 X94.744 Y72.981 E9.09185
G1 X95.361 Y72.981 E9.10343
G1 X96.019 Y73.639 E9.12085
G1 X96.019 Y73.021 E9.13242
G1 X95.979 Y72.981 E9.13348
G1 X89.763 Y77.264 F12000.000
G1 X85.480 Y72.981 E9.24695 F1200.000
G1 X88.613 Y76.732 F12000.000
G1 X84.863 Y72.981 E9.34634 F1200.000
G1 X84.245 Y72.981 E9.35791
G1 X87.690 Y76.426 E9.44918
G1 X86.898 Y76.251 E9.46437
G1 X83.628 Y72.981 E9.55102
G1 X83.010 Y72.981 E9.56259
G1 X86.106 Y76.077 E9.64462
G1 X85.483 Y76.071 E9.65630
G1 X82.393 Y72.981 E9.73818
G1 X81.775 Y72.981 E9.74975
G1 X84.865 Y76.071 E9.83163
G1 X84.248 Y76.071 E9.84320
G1 X81.158 Y72.981 E9.92508
G1 X80.540 Y72.981 E9.93665
G1 X83.682 Y76.124 E10.01991
G1 X83.176 Y76.235 E10.02962
G1 X79.923 Y72.981 E10.11584
G1 X79.305 Y72.981 E10.12741
G1 X82.670 Y76.346 E10.21658
G1 X82.164 Y76.458 E10.22629
G1 X78.688 Y72.981 E10.31841
G1 X78.070 Y72.981 E10.32998
G1 X81.683 Y76.595 E10.42573
G1 X81.261 Y76.790 E10.43445
G1 X77.452 Y72.981 E10.53537
G1 X76.835 Y72.981 E10.54694
G1 X80.839 Y76.985 E10.65304
G1 X80.417 Y77.181 E10.66175
G1 X76.217 Y72.981 E10.77303
G1 X75.600 Y72.981 E10.78460
G1 X79.994 Y77.376 E10.90105
G1 X79.619 Y77.618 E10.90942
G1 X74.982 Y72.981 E11.03229
G1 X74.365 Y72.981 E11.04386
G1 X79.269 Y77.885 E11.17381
G1 X78.918 Y78.152 E11.18206
G1 X73.981 Y73.216 E11.31287
G1 X73.981 Y73.833 E11.32444
G1 X78.567 Y78.419 E11.44595
G1 X78.216 Y78.685 E11.45420
G1 X73.981 Y74.451 E11.56642
G1 X73.981 Y75.068 E11.57799
G1 X77.916 Y79.003 E11.68225
G1 X77.633 Y79.337 E11.69046
G1 X73.981 Y75.686 E11.78721
G1 X73.981 Y76.303 E11.79879
G1 X77.349 Y79.671 E11.88802
G1 X77.065 Y80.005 E11.89623
G1 X73.981 Y76.921 E11.97795
G1 X73.981 Y77.538 E11.98952
G1 X76.782 Y80.339 E12.06373
G1 X76.556 Y80.730 E12.07220
G1 X73.981 Y78.156 E12.14042
G1 X73.981 Y78.773 E12.15199
G1 X76.342 Y81.134 E12.21455
G1 X76.128 Y81.538 E12.22310
G1 X73.981 Y79.391 E12.27999
G1 X73.981 Y80.009 E12.29156
G1 X75.914 Y81.941 E12.34277
G1 X75.708 Y82.353 E12.35140
G1 X73.981 Y80.626 E12.39716
G1 X73.981 Y81.244 E12.40873
G1 X75.574 Y82.836 E12.45093
G1 X75.440 Y83.320 E12.46033
G1 X73.981 Y81.861 E12.49898
G1 X73.981 Y82.479 E12.51055
G1 X75.306 Y83.803 E12.54565
G1 X75.172 Y84.286 E12.55505
G1 X73.981 Y83.096 E12.58658
G1 X73.981 Y83.714 E12.59815
G1 X75.119 Y84.851 E12.62830
G1 X75.087 Y85.437 E12.63929
G1 X73.981 Y84.331 E12.66859
G1 X73.981 Y84.949 E12.68017
G1 X75.056 Y86.023 E12.70863
G1 X75.041 Y86.626 E12.71994
G1 X74.047 Y85.632 E12.74629
G1 X74.047 Y86.250 E12.75786
G1 X75.163 Y87.365 E12.78742
G1 X75.284 Y88.104 E12.80144
G1 X74.047 Y86.867 E12.83421
G1 X74.137 Y87.575 E12.84757
G1 X75.471 Y88.909 E12.88293
G1 X75.880 Y89.935 F12000.000
G1 X74.304 Y88.359 E12.92470 F1200.000
G1 X74.471 Y89.143 E12.93972
G1 X76.536 Y91.208 E12.99444
G1 X75.353 Y91.260 E13.01663
G1 X79.652 Y95.559 E13.13054
G1 X79.765 Y94.437 E13.15167
G1 X81.806 Y96.479 E13.20576
G1 X82.718 Y96.773 E13.22373
G1 X81.112 Y95.167 E13.26629
G1 X80.891 Y96.181 F12000.000
G1 X74.857 Y90.147 E13.42619 F1200.000
G1 X76.740 Y93.265 F12000.000
G1 X77.101 Y93.626 E13.43574 F1200.000
M106 S255
M104 S188 ; set temperature
G1 E11.43574 F1680.000
G92 E0
G1 Z0.400 F12000.000
G1 X78.005 Y92.672 F12000.000
G1 E2.00000 F1680.000
G1 X77.598 Y92.287 E2.00733 F1261.908
G1 X76.420 Y90.549 E2.03486
G1 X75.643 Y88.598 E2.06238
G1 X75.303 Y86.526 E2.08990
G1 X75.417 Y84.429 E2.11743
G1 X75.978 Y82.406 E2.14495
G1 X76.962 Y80.550 E2.17248
G1 X78.322 Y78.950 E2.20000
G1 X79.993 Y77.679 E2.22752
G1 X81.899 Y76.797 E2.25505
G1 X83.950 Y76.346 E2.28257
G1 X86.050 Y76.346 E2.31009
G1 X87.975 Y76.769 E2.33593
G1 X88.101 Y76.797 E2.33762 F1261.908
G1 X90.007 Y77.679 E2.36514
G1 X91.678 Y78.950 E2.39267
G1 X93.038 Y80.550 E2.42019
G1 X94.022 Y82.406 E2.44771
G1 X94.583 Y84.429 E2.47524
G1 X94.697 Y86.526 E2.50276
G1 X94.357 Y88.598 E2.53028
G1 X93.580 Y90.549 E2.55781
G1 X92.402 Y92.287 E2.58533
G1 X90.877 Y93.731 E2.61285
G1 X89.078 Y94.814 E2.64038
G1 X87.088 Y95.484 E2.66790
G1 X85.000 Y95.711 E2.69543
G1 X82.912 Y95.484 E2.72295
G1 X80.922 Y94.814 E2.75047
G1 X79.123 Y93.731 E2.77800
G1 X78.059 Y92.723 E2.79720
G1 X78.373 Y92.391 F12000.000
G1 X77.949 Y91.989 E2.80487 F1009.526
G1 X76.826 Y90.333 E2.83109
G1 X76.086 Y88.475 E2.85731
G1 X75.762 Y86.501 E2.88353
G1 X75.870 Y84.503 E2.90975
G1 X76.406 Y82.576 E2.93597
G1 X77.343 Y80.808 E2.96219
G1 X78.638 Y79.283 E2.98841
G1 X78.701 Y79.236 E2.98945
G1 X80.230 Y78.073 E3.01463
G1 X82.046 Y77.233 E3.04085
G1 X84.000 Y76.803 E3.06707
G1 X86.000 Y76.803 E3.09330 F1009.526
G1 X87.954 Y77.233 E3.11952
G1 X89.770 Y78.073 E3.14574
G1 X91.362 Y79.283 E3.17196
G1 X92.657 Y80.808 E3.19818
G1 X93.594 Y82.576 E3.22440
G1 X94.130 Y84.503 E3.25062
G1 X94.238 Y86.501 E3.27684
G1 X93.914 Y88.475 E3.30306
G1 X93.174 Y90.333 E3.32928
G1 X92.051 Y91.989 E3.35550
G1 X90.599 Y93.365 E3.38172
G1 X88.885 Y94.396 E3.40794
G1 X86.989 Y95.035 E3.43416
G1 X85.000 Y95.251 E3.46038
G1 X83.011 Y95.035 E3.48660
G1 X81.115 Y94.396 E3.51282
G1 X79.401 Y93.365 E3.53905
G1 X78.428 Y92.443 E3.55662
G1 E1.55662 F1680.000
G92 E0
G1 X84.045 Y76.305 F12000.000
G1 X95.963 Y88.421 F12000.000
G1 E2.00000 F1680.000
G1 X95.736 Y89.489 E2.01430 F1261.908
G1 X94.777 Y91.645 E2.04524
G1 X93.389 Y93.554 E2.07617
G1 X91.636 Y95.133 E2.10710
G1 X89.592 Y96.313 E2.13804
G1 X87.347 Y97.042 E2.16897
G1 X85.000 Y97.289 E2.19990
G1 X82.653 Y97.042 E2.23083
G1 X80.408 Y96.313 E2.26177
G1 X78.364 Y95.133 E2.29270
G1 X76.611 Y93.554 E2.32363
G1 X75.223 Y91.645 E2.35457
G1 X74.263 Y89.488 E2.38550
G1 X73.773 Y87.180 E2.41643
G1 X73.773 Y85.293 E2.44117
G1 X73.707 Y85.293 E2.44203
G1 X73.707 Y72.707 E2.60699
G1 X96.293 Y72.707 E2.90302 F1261.908
G1 X96.293 Y85.293 E3.06798
G1 X96.227 Y85.293 E3.06884
G1 X96.227 Y87.180 E3.09357
G1 X95.979 Y88.348 E3.10922
G1 X96.426 Y88.443 F12000.000
G1 X96.174 Y89.631 E3.12514 F1009.526
G1 X95.175 Y91.874 E3.15733
G1 X93.731 Y93.861 E3.18952
G1 X91.906 Y95.505 E3.22171
G1 X89.779 Y96.733 E3.25391
G1 X87.443 Y97.492 E3.28610
G1 X84.838 Y97.766 E3.32042
G1 X84.838 Y97.732 E3.32086
G1 X82.557 Y97.492 E3.35093
G1 X80.221 Y96.733 E3.38312
G1 X78.094 Y95.505 E3.41531
G1 X76.269 Y93.861 E3.44750
G1 X74.825 Y91.874 E3.47970
G1 X73.826 Y89.631 E3.51189
G1 X73.316 Y87.228 E3.54408
G1 X73.316 Y85.750 E3.56345
G1 X73.250 Y85.750 E3.56432
G1 X73.250 Y72.250 E3.74126
G1 X96.750 Y72.250 E4.04927
G1 X96.750 Y85.750 E4.22621
G1 X96.684 Y85.750 E4.22707 F1009.526
G1 X96.684 Y87.228 E4.24645
G1 X96.442 Y88.369 E4.26174
G1 X96.751 Y85.684 F12000.000
G1 X94.689 Y88.501 F12000.000
G1 X95.882 Y87.308 E4.28385 F1682.544
G1 X95.916 Y86.617 E4.29292
G1 X94.817 Y87.716 E4.31328
G1 X94.946 Y86.930 E4.32371
G1 X95.916 Y85.961 E4.34168
G1 X95.916 Y85.304 E4.35029
G1 X94.993 Y86.227 E4.36740
G1 X94.959 Y85.604 E4.37557
G1 X95.982 Y84.582 E4.39453
G1 X95.982 Y83.925 E4.40314
G1 X94.925 Y84.982 E4.42272
G1 X94.888 Y84.362 E4.43085
G1 X95.982 Y83.269 E4.45112
G1 X95.982 Y82.612 E4.45973
G1 X94.745 Y83.848 E4.48264
G1 X94.603 Y83.334 E4.48964
G1 X95.982 Y81.955 E4.51520
G1 X95.982 Y81.299 E4.52380
G1 X94.460 Y82.820 E4.55201
G1 X94.317 Y82.307 E4.55900
