; generated by Slic3r 1.1.7 on 2014-12-03 at 12:24:46

; perimeters extrusion width = 0.50mm
; infill extrusion width = 0.50mm
; solid infill extrusion width = 0.50mm
; top infill extrusion width = 0.50mm

G21 ; set units to millimeters
M104 S190 ; set temperature
G28 ; home all axes
G1 Z15 F120 ; lift nozzle
M109 S190 ; wait for temperature to be reached
G90 ; use absolute coordinates
G92 E0
M82 ; use absolute distances for extrusion
M106 S102
G1 F1680.000 E-2.00000
G92 E0
G1 Z0.200 F12000.000
G1 X66.965 Y66.964 F12000.000
G1 E2.00000 F1680.000
G1 X68.025 Y65.904 E2.03225 F1200.000
G1 X69.887 Y64.603 E2.08110
G1 X72.621 Y64.000 E2.14131
G1 X97.379 Y64.000 E2.67376
G1 X99.615 Y64.397 E2.72261
G1 X101.975 Y65.904 E2.78282 F1200.000
G1 X104.096 Y68.025 E2.84734
G1 X105.397 Y69.887 E2.89619
G1 X106.000 Y72.621 E2.95641
G1 X105.991 Y85.340 E3.22994
G1 X105.779 Y87.867 E3.28448
G1 X105.148 Y90.832 E3.34967
G1 X104.728 Y92.124 E3.37890
G1 X103.495 Y94.894 E3.44409
G1 X102.816 Y96.071 E3.47331
G1 X101.045 Y98.509 E3.53812
G1 X100.125 Y99.533 E3.56773
G1 X97.872 Y101.561 E3.63293
G1 X96.773 Y102.360 E3.66215
G1 X94.148 Y103.876 E3.72734
G1 X92.906 Y104.428 E3.75657
G1 X90.023 Y105.365 E3.82176
G1 X88.694 Y105.647 E3.85098
G1 X85.679 Y105.964 E3.91619
G1 X84.321 Y105.964 E3.94539
G1 X81.306 Y105.647 E4.01060
G1 X79.977 Y105.365 E4.03982
G1 X77.094 Y104.428 E4.10501
G1 X75.852 Y103.876 E4.13424
G1 X73.227 Y102.360 E4.19943
G1 X72.129 Y101.562 E4.22862
G1 X69.875 Y99.533 E4.29384
G1 X68.966 Y98.523 E4.32307
G1 X67.184 Y96.071 E4.38826
G1 X66.505 Y94.895 E4.41747
G1 X65.272 Y92.124 E4.48269
G1 X64.852 Y90.833 E4.51189
G1 X64.088 Y86.856 E4.59899
G1 X64.000 Y85.000 E4.63894
G1 X64.000 Y72.621 E4.90516
G1 X64.397 Y70.385 E4.95402
G1 X65.904 Y68.025 E5.01423
G1 X66.912 Y67.017 E5.04489
G1 F1680.000 E3.04489
G92 E0
G1 X92.620 Y91.861 F12000.000
G1 E2.00000 F1680.000
G1 X91.027 Y93.296 E2.04611 F900.000
G1 X89.171 Y94.368 E2.09221
G1 X87.132 Y95.030 E2.13831
G1 X85.090 Y95.245 E2.18246
G1 X85.000 Y95.254 E2.18441
G1 X82.868 Y95.030 E2.23052
G1 X80.829 Y94.368 E2.27662
G1 X78.973 Y93.296 E2.32272
G1 X78.905 Y93.235 E2.32468
G1 X77.380 Y91.861 E2.36883
G1 X76.120 Y90.127 E2.41493
G1 X75.248 Y88.169 E2.46103
G1 X74.802 Y86.072 E2.50714
G1 X74.802 Y83.928 E2.55324
G1 X75.248 Y81.831 E2.59935
G1 X76.120 Y79.873 E2.64545
G1 X77.380 Y78.139 E2.69155
G1 X78.973 Y76.704 E2.73765
G1 X80.829 Y75.632 E2.78376
G1 X82.868 Y74.970 E2.82986
G1 X85.000 Y74.746 E2.87596
G1 X87.042 Y74.960 E2.92012
G1 X87.132 Y74.970 E2.92207 F900.000
G1 X89.171 Y75.632 E2.96817
G1 X91.027 Y76.704 E3.01427
G1 X92.620 Y78.139 E3.06038
G1 X93.880 Y79.873 E3.10648
G1 X94.752 Y81.831 E3.15258
G1 X95.198 Y83.928 E3.19869
G1 X95.198 Y86.072 E3.24479
G1 X94.752 Y88.169 E3.29089
G1 X93.880 Y90.127 E3.33700
G1 X92.664 Y91.801 E3.38149
G1 X92.247 Y91.525 F12000.000
G1 X90.732 Y92.889 E3.42533 F720.000
G1 X88.966 Y93.908 E3.46917
G1 X87.027 Y94.538 E3.51302
G1 X84.962 Y94.747 E3.55766
G1 X82.973 Y94.538 E3.60069
G1 X81.034 Y93.908 E3.64453
G1 X79.268 Y92.889 E3.68837
G1 X77.753 Y91.525 E3.73222
G1 X76.555 Y89.876 E3.77606
G1 X75.726 Y88.013 E3.81990
G1 X75.302 Y86.019 E3.86374
G1 X75.302 Y83.981 E3.90759
G1 X75.726 Y81.987 E3.95143
G1 X76.555 Y80.124 E3.99527
G1 X77.753 Y78.475 E4.03911
G1 X79.268 Y77.111 E4.08296
G1 X81.034 Y76.092 E4.12680
G1 X83.010 Y75.458 E4.17145
G1 X85.000 Y75.249 E4.21447 F720.000
G1 X87.027 Y75.462 E4.25831
G1 X88.966 Y76.092 E4.30215
G1 X90.732 Y77.111 E4.34600
G1 X92.218 Y78.450 E4.38902
G1 X93.445 Y80.124 E4.43367
G1 X94.274 Y81.987 E4.47751
G1 X94.698 Y83.981 E4.52135
G1 X94.698 Y86.019 E4.56519
G1 X94.274 Y88.013 E4.60904
G1 X93.445 Y89.876 E4.65288
G1 X92.291 Y91.464 E4.69511
G1 F1680.000 E2.69511
G92 E0
G1 X82.873 Y74.977 F12000.000
G1 X94.905 Y94.477 F12000.000
G1 E2.00000 F1680.000
G1 X93.080 Y96.121 E2.05282 F900.000
G1 X90.591 Y97.557 E2.11462
G1 X87.858 Y98.445 E2.17643
G1 X85.000 Y98.746 E2.23823
G1 X82.142 Y98.445 E2.30003
G1 X79.409 Y97.557 E2.36183
G1 X76.920 Y96.121 E2.42364
G1 X74.785 Y94.198 E2.48544
G1 X73.096 Y91.873 E2.54724
G1 X71.927 Y89.248 E2.60904
G1 X71.329 Y86.437 E2.67085
G1 X71.329 Y84.250 E2.71788
G1 X71.250 Y84.250 E2.71958
G1 X71.250 Y72.932 E2.96300
G1 X72.932 Y71.250 E3.01415
G1 X97.068 Y71.250 E3.53323 F900.000
G1 X98.750 Y72.932 E3.58439
G1 X98.750 Y84.250 E3.82780
G1 X98.671 Y84.250 E3.82951
G1 X98.671 Y86.437 E3.87654
G1 X98.073 Y89.248 E3.93834
G1 X96.904 Y91.873 E4.00014
G1 X95.215 Y94.198 E4.06195
G1 X94.961 Y94.427 E4.06931
G1 X95.239 Y94.849 F12000.000
G1 X93.375 Y96.527 E4.12327 F720.000
G1 X90.795 Y98.017 E4.18733
G1 X87.962 Y98.937 E4.25139
G1 X85.000 Y99.249 E4.31545
G1 X82.038 Y98.937 E4.37952
G1 X79.205 Y98.017 E4.44358
G1 X76.625 Y96.527 E4.50764
G1 X74.411 Y94.534 E4.57171
G1 X72.660 Y92.124 E4.63577
G1 X71.449 Y89.403 E4.69983
G1 X70.829 Y86.489 E4.76389
G1 X70.829 Y84.750 E4.80130
G1 X70.750 Y84.750 E4.80301
G1 X70.750 Y72.725 E5.06163
G1 X72.725 Y70.750 E5.12169
G1 X97.275 Y70.750 E5.64968
G1 X99.250 Y72.725 E5.70975
G1 X99.250 Y84.750 E5.96837 F720.000
G1 X99.171 Y84.750 E5.97007
G1 X99.171 Y86.489 E6.00748
G1 X98.551 Y89.403 E6.07154
G1 X97.340 Y92.124 E6.13561
G1 X95.589 Y94.534 E6.19967
G1 X95.295 Y94.799 E6.20817
G1 X99.222 Y73.224 F12000.000
G1 X96.898 Y71.592 F12000.000
G1 X98.408 Y73.102 E6.25408 F1200.000
G1 X98.408 Y73.815 E6.26942
G1 X96.185 Y71.592 E6.33702
G1 X95.472 Y71.592 E6.35235
G1 X98.408 Y74.528 E6.44163
G1 X98.408 Y75.241 E6.45697
G1 X94.759 Y71.592 E6.56794
G1 X94.046 Y71.592 E6.58327
G1 X98.408 Y75.954 E6.71592
G1 X98.408 Y76.667 E6.73126
G1 X93.333 Y71.592 E6.88559
G1 X92.620 Y71.592 E6.90093
G1 X98.408 Y77.380 E7.07695
G1 X98.408 Y78.093 E7.09228
G1 X91.907 Y71.592 E7.28999
G1 X91.194 Y71.592 E7.30532
G1 X98.408 Y78.806 E7.52472
G1 X98.408 Y79.519 E7.54005
G1 X90.481 Y71.592 E7.78112
G1 X89.768 Y71.592 E7.79646
G1 X98.408 Y80.232 E8.05922
G1 X98.408 Y80.945 E8.07455
G1 X89.055 Y71.592 E8.35900
G1 X88.342 Y71.592 E8.37433
G1 X98.408 Y81.658 E8.68046
G1 X98.408 Y82.371 E8.69579
G1 X87.629 Y71.592 E9.02361
G1 X86.916 Y71.592 E9.03894
G1 X98.408 Y83.084 E9.38844
G1 X98.408 Y83.797 E9.40377
G1 X93.825 Y79.214 E9.54316
G1 X94.644 Y80.746 F12000.000
G1 X98.328 Y84.430 E9.65521 F1200.000
G1 X98.328 Y85.143 E9.67054
G1 X95.126 Y81.941 E9.76794
G1 X95.318 Y82.846 E9.78785
G1 X98.328 Y85.856 E9.87940
G1 X98.299 Y86.539 E9.89411
G1 X95.510 Y83.751 E9.97891
G1 X95.540 Y84.494 E9.99490
G1 X98.174 Y87.127 E10.07499
G1 X98.049 Y87.715 E10.08792
G1 X95.540 Y85.207 E10.16421
G1 X95.540 Y85.920 E10.17954
G1 X97.924 Y88.303 E10.25203
G1 X97.799 Y88.891 E10.26495
G1 X95.448 Y86.541 E10.33644
G1 X95.323 Y87.129 E10.34937
G1 X97.619 Y89.425 E10.41920
G1 X97.400 Y89.918 E10.43081
G1 X95.198 Y87.717 E10.49776
G1 X95.069 Y88.300 E10.51061
G1 X97.180 Y90.412 E10.57482
G1 X96.960 Y90.905 E10.58644
G1 X94.849 Y88.794 E10.65066
G1 X94.629 Y89.287 E10.66227
G1 X96.741 Y91.398 E10.72649
G1 X96.490 Y91.860 E10.73780
G1 X94.410 Y89.780 E10.80107
G1 X94.190 Y90.273 E10.81268
G1 X96.190 Y92.273 E10.87351
G1 X95.890 Y92.686 E10.88449
G1 X93.894 Y90.691 E10.94519
G1 X93.594 Y91.104 E10.95616
G1 X95.590 Y93.099 E11.01686
G1 X95.290 Y93.512 E11.02784
G1 X93.294 Y91.517 E11.08854
G1 X92.994 Y91.929 E11.09952
G1 X94.981 Y93.917 E11.15996
G1 X94.622 Y94.271 E11.17081
G1 X92.649 Y92.297 E11.23084
G1 X92.273 Y92.635 E11.24170
G1 X94.247 Y94.608 E11.30173
G1 X93.872 Y94.946 E11.31259
G1 X91.898 Y92.972 E11.37262
G1 X91.523 Y93.310 E11.38348
G1 X93.497 Y95.284 E11.44352
G1 X93.122 Y95.622 E11.45437
G1 X91.131 Y93.631 E11.51492
G1 X90.679 Y93.892 E11.52614
G1 X92.720 Y95.933 E11.58821
G1 X92.268 Y96.194 E11.59943
G1 X90.227 Y94.153 E11.66150
G1 X89.775 Y94.414 E11.67272
G1 X91.816 Y96.455 E11.73479
G1 X91.364 Y96.716 E11.74601
G1 X89.323 Y94.675 E11.80808
G1 X88.787 Y94.852 E11.82021
G1 X90.912 Y96.977 E11.88483
G1 X90.460 Y97.238 E11.89605
G1 X88.249 Y95.027 E11.96329
G1 X87.711 Y95.202 E11.97546
G1 X89.923 Y97.414 E12.04274
G1 X89.385 Y97.589 E12.05491
G1 X87.167 Y95.371 E12.12238
G1 X86.522 Y95.439 E12.13633
G1 X88.847 Y97.764 E12.20706
G1 X88.309 Y97.939 E12.21923
G1 X85.877 Y95.506 E12.29321
G1 X85.231 Y95.574 E12.30716
G1 X87.768 Y98.111 E12.38430
G1 X87.123 Y98.178 E12.39825
G1 X84.489 Y95.545 E12.47835
G1 X83.692 Y95.461 E12.49558
G1 X86.478 Y98.246 E12.58029
G1 X85.832 Y98.314 E12.59424
G1 X82.896 Y95.377 E12.68356
G1 X81.872 Y95.067 E12.70657
G1 X85.187 Y98.382 E12.80740
G1 X84.435 Y98.342 E12.82361
G1 X80.816 Y94.723 E12.93367
G1 X79.205 Y93.825 F12000.000
G1 X83.638 Y98.258 E13.06850 F1200.000
G1 X82.841 Y98.175 E13.08573
G1 X71.835 Y87.168 E13.42048
G1 X71.672 Y86.292 E13.43965
G1 X76.200 Y90.821 E13.57738
G1 X75.364 Y89.271 F12000.000
G1 X71.672 Y85.579 E13.68967 F1200.000
G1 X71.672 Y84.866 E13.70500
G1 X74.877 Y88.072 E13.80249
G1 X74.684 Y87.166 E13.82240
G1 X71.672 Y84.153 E13.91402
G1 X71.592 Y83.361 E13.93115
G1 X74.492 Y86.261 E14.01934
G1 X74.460 Y85.515 E14.03538
G1 X71.592 Y82.648 E14.12258
G1 X71.592 Y81.935 E14.13792
G1 X74.460 Y84.802 E14.22512
G1 X74.460 Y84.089 E14.24045
G1 X71.592 Y81.222 E14.32765
G1 X71.592 Y80.509 E14.34299
G1 X74.550 Y83.467 E14.43294
G1 X74.675 Y82.879 E14.44586
G1 X71.592 Y79.796 E14.53962
G1 X71.592 Y79.083 E14.55495
G1 X74.800 Y82.291 E14.65250
G1 X74.928 Y81.706 E14.66537
G1 X71.592 Y78.370 E14.76684
G1 X71.592 Y77.657 E14.78217
G1 X75.148 Y81.213 E14.89031
G1 X75.368 Y80.720 E14.90193
G1 X71.592 Y76.944 E15.01675
G1 X71.592 Y76.231 E15.03209
G1 X75.587 Y80.226 E15.15359
G1 X75.807 Y79.733 E15.16521
G1 X71.592 Y75.519 E15.29339
G1 X71.592 Y74.806 E15.30872
G1 X76.102 Y79.315 E15.44587
G1 X76.402 Y78.902 E15.45685
G1 X71.592 Y74.093 E15.60313
G1 X71.592 Y73.380 E15.61846
G1 X76.702 Y78.489 E15.77386
G1 X77.002 Y78.076 E15.78484
G1 X71.810 Y72.884 E15.94274
G1 X72.167 Y72.528 E15.95358
G1 X77.346 Y77.708 E16.11112
G1 X77.722 Y77.370 E16.12198
G1 X72.523 Y72.171 E16.28009
G1 X72.880 Y71.815 E16.29093
G1 X78.097 Y77.032 E16.44961
G1 X78.472 Y76.694 E16.46047
G1 X73.370 Y71.592 E16.61564
G1 X74.083 Y71.592 E16.63097
G1 X78.863 Y76.372 E16.77635
G1 X79.315 Y76.111 E16.78757
G1 X74.796 Y71.592 E16.92501
G1 X75.509 Y71.592 E16.94034
G1 X79.767 Y75.850 E17.06984
G1 X80.219 Y75.589 E17.08107
G1 X76.222 Y71.592 E17.20263
G1 X76.935 Y71.592 E17.21797
G1 X80.671 Y75.328 E17.33159
G1 X81.205 Y75.150 E17.34371
G1 X77.648 Y71.592 E17.45191
G1 X78.361 Y71.592 E17.46725
G1 X81.744 Y74.975 E17.57013
G1 X82.282 Y74.800 E17.58230
G1 X79.074 Y71.592 E17.67987
G1 X79.787 Y71.592 E17.69520
G1 X82.824 Y74.630 E17.78759
G1 X83.470 Y74.562 E17.80154
G1 X80.500 Y71.592 E17.89187
G1 X81.213 Y71.592 E17.90720
G1 X84.115 Y74.495 E17.99547
G1 X84.760 Y74.427 E18.00942
G1 X81.926 Y71.592 E18.09562
G1 X82.639 Y71.592 E18.11096
G1 X85.500 Y74.454 E18.19799
G1 X86.297 Y74.538 E18.21522
G1 X83.352 Y71.592 E18.30480
G1 X84.065 Y71.592 E18.32013
G1 X87.094 Y74.622 E18.41226
G1 X88.114 Y74.929 E18.43518
G1 X84.778 Y71.592 E18.53666
G1 X85.490 Y71.592 E18.55199
G1 X89.170 Y75.272 E18.66390
G1 X90.773 Y76.162 F12000.000
G1 X86.203 Y71.592 E18.80288 F1200.000
G1 F1680.000 E16.80288
G92 E0
G1 X72.028 Y88.074 F12000.000
G1 E2.00000 F1680.000
G1 X81.989 Y98.036 E2.30299 F1200.000
G1 X80.933 Y97.693 E2.32687
G1 X72.220 Y88.979 E2.59188
G1 X72.724 Y90.197 F12000.000
G1 X79.877 Y97.349 E2.80943 F1200.000
G1 X78.386 Y96.571 F12000.000
G1 X73.296 Y91.482 E2.96423 F1200.000
G1 X74.965 Y93.864 F12000.000
G1 X75.326 Y94.224 E2.97520 F1200.000
M106 S255
M104 S188 ; set temperature
G1 F1680.000 E0.97520
G92 E0
G1 Z0.400 F12000.000
G1 X92.581 Y91.897 F12000.000
G1 E2.00000 F1680.000
G1 X91.027 Y93.296 E2.02998 F1669.383
G1 X89.171 Y94.368 E2.06072
G1 X87.132 Y95.030 E2.09145
G1 X85.000 Y95.254 E2.12219
G1 X82.868 Y95.030 E2.15292
G1 X80.829 Y94.368 E2.18366
G1 X78.973 Y93.296 E2.21439
G1 X78.891 Y93.222 E2.21598
G1 X77.380 Y91.861 E2.24513
G1 X76.120 Y90.127 E2.27586
G1 X75.248 Y88.169 E2.30660
G1 X74.802 Y86.072 E2.33734
G1 X74.802 Y83.928 E2.36807
G1 X75.248 Y81.831 E2.39881
G1 X76.120 Y79.873 E2.42954
G1 X77.380 Y78.139 E2.46028
G1 X78.973 Y76.704 E2.49101
G1 X80.829 Y75.632 E2.52175
G1 X82.868 Y74.970 E2.55248
G1 X85.000 Y74.746 E2.58322
G1 X87.022 Y74.958 E2.61237
G1 X87.132 Y74.970 E2.61396 F1669.383
G1 X89.171 Y75.632 E2.64469
G1 X91.027 Y76.704 E2.67543
G1 X92.620 Y78.139 E2.70616
G1 X93.880 Y79.873 E2.73690
G1 X94.752 Y81.831 E2.76763
G1 X95.198 Y83.928 E2.79837
G1 X95.198 Y86.072 E2.82910
G1 X94.752 Y88.169 E2.85984
G1 X93.880 Y90.127 E2.89058
G1 X92.633 Y91.843 E2.92099
G1 X92.247 Y91.525 F12000.000
G1 X90.732 Y92.889 E2.95022 F1335.506
G1 X88.966 Y93.908 E2.97945
G1 X87.027 Y94.538 E3.00868
G1 X84.942 Y94.745 E3.03872
G1 X82.973 Y94.538 E3.06712
G1 X81.034 Y93.908 E3.09635
G1 X79.268 Y92.889 E3.12558
G1 X77.753 Y91.525 E3.15480
G1 X76.555 Y89.876 E3.18403
G1 X75.726 Y88.013 E3.21326
G1 X75.302 Y86.019 E3.24249
G1 X75.302 Y83.981 E3.27172
G1 X75.726 Y81.987 E3.30095
G1 X76.555 Y80.124 E3.33018
G1 X77.753 Y78.475 E3.35940
G1 X79.268 Y77.111 E3.38863
G1 X81.034 Y76.092 E3.41786
G1 X83.030 Y75.456 E3.44790
G1 X85.000 Y75.249 E3.47630 F1335.506
G1 X87.027 Y75.462 E3.50553
G1 X88.966 Y76.092 E3.53476
G1 X90.732 Y77.111 E3.56399
G1 X92.120 Y78.361 E3.59078
G1 X92.247 Y78.475 E3.59322
G1 X93.445 Y80.124 E3.62244
G1 X94.274 Y81.987 E3.65167
G1 X94.698 Y83.981 E3.68090
G1 X94.698 Y86.019 E3.71013
G1 X94.274 Y88.013 E3.73936
G1 X93.445 Y89.876 E3.76859
G1 X92.291 Y91.464 E3.79674
G1 F1680.000 E1.79674
G92 E0
G1 X82.893 Y74.975 F12000.000
G1 X95.461 Y93.860 F12000.000
G1 E2.00000 F1680.000
G1 X95.215 Y94.198 E2.00599 F1669.383
G1 X93.080 Y96.121 E2.04719
G1 X90.591 Y97.557 E2.08839
G1 X87.858 Y98.445 E2.12959
G1 X85.000 Y98.746 E2.17079
G1 X82.142 Y98.445 E2.21199
G1 X79.409 Y97.557 E2.25320
G1 X76.920 Y96.121 E2.29440
G1 X74.785 Y94.198 E2.33560
G1 X73.096 Y91.873 E2.37680
G1 X71.927 Y89.248 E2.41800
G1 X71.329 Y86.437 E2.45920
G1 X71.329 Y84.250 E2.49056
G1 X71.250 Y84.250 E2.49170
G1 X71.250 Y72.932 E2.65397
G1 X72.932 Y71.250 E2.68808
G1 X97.068 Y71.250 E3.03413 F1669.383
G1 X98.750 Y72.932 E3.06823
G1 X98.750 Y84.250 E3.23051
G1 X98.671 Y84.250 E3.23165
G1 X98.671 Y86.437 E3.26300
G1 X98.073 Y89.248 E3.30420
G1 X96.904 Y91.873 E3.34540
G1 X95.505 Y93.799 E3.37954
G1 X95.865 Y94.154 F12000.000
G1 X95.589 Y94.534 E3.38628 F1335.506
G1 X93.375 Y96.527 E3.42899
G1 X90.795 Y98.017 E3.47170
G1 X87.962 Y98.937 E3.51441
G1 X85.000 Y99.249 E3.55712
G1 X82.038 Y98.937 E3.59983
G1 X79.205 Y98.017 E3.64253
G1 X76.625 Y96.527 E3.68524
G1 X74.411 Y94.534 E3.72795
G1 X72.660 Y92.124 E3.77066
G1 X71.449 Y89.403 E3.81337
G1 X70.829 Y86.489 E3.85608
G1 X70.829 Y84.750 E3.88102
G1 X70.750 Y84.750 E3.88215
G1 X70.750 Y72.725 E4.05457
G1 X72.725 Y70.750 E4.09461
G1 X97.275 Y70.750 E4.44660
G1 X99.250 Y72.725 E4.48665
G1 X99.250 Y84.750 E4.65906 F1335.506
G1 X99.171 Y84.750 E4.66020
G1 X99.171 Y86.489 E4.68514
G1 X98.551 Y89.403 E4.72784
G1 X97.340 Y92.124 E4.77055
G1 X95.909 Y94.093 E4.80545
G1 X99.234 Y73.225 F12000.000
G1 X95.123 Y88.071 F12000.000
G1 X98.328 Y84.866 E4.87043 F2225.844
G1 X98.328 Y84.153 E4.88065
G1 X95.316 Y87.166 E4.94174
G1 X95.508 Y86.261 E4.95501
G1 X98.408 Y83.361 E5.01380
G1 X98.408 Y82.648 E5.02403
G1 X95.540 Y85.515 E5.08216
G1 X95.540 Y84.802 E5.09238
G1 X98.408 Y81.935 E5.15052
G1 X98.408 Y81.222 E5.16074
G1 X95.540 Y84.089 E5.21887
G1 X95.450 Y83.467 E5.22789
G1 X98.408 Y80.509 E5.28786
G1 X98.408 Y79.796 E5.29808
G1 X95.325 Y82.879 E5.36058
G1 X95.200 Y82.291 E5.36920
G1 X98.408 Y79.083 E5.43424
G1 X98.408 Y78.370 E5.44446
G1 X95.072 Y81.706 E5.51210
G1 X94.852 Y81.213 E5.51984
G1 X98.408 Y77.657 E5.59194
G1 X98.408 Y76.944 E5.60216
G1 X94.632 Y80.720 E5.67871
G1 X94.413 Y80.226 E5.68645
G1 X98.408 Y76.231 E5.76746
G1 X98.408 Y75.519 E5.77768
G1 X94.193 Y79.733 E5.86314
G1 X93.898 Y79.315 E5.87047
G1 X98.408 Y74.806 E5.96190
G1 X98.408 Y74.093 E5.97213
G1 X93.598 Y78.902 E6.06964
G1 X93.298 Y78.489 E6.07696
G1 X98.408 Y73.380 E6.18056
G1 X98.190 Y72.884 E6.18832
