; generated by Slic3r 1.1.7 on 2014-12-03 at 22:27:22

; perimeters extrusion width = 0.50mm
; infill extrusion width = 0.50mm
; solid infill extrusion width = 0.50mm
; top infill extrusion width = 0.50mm

G21 ; set units to millimeters
M104 S190 ; set temperature
G28 ; home all axes
G1 Z15 F120 ; lift nozzle
M109 S190 ; wait for temperature to be reached
G90 ; use absolute coordinates
G92 E0
M82 ; use absolute distances for extrusion
M106 S102
G1 F1680.000 E-2.00000
G92 E0
G1 Z0.350 F12000.000
G1 X67.203 Y68.088 F12000.000
G1 E2.00000 F1680.000
G1 X68.468 Y66.927 E2.05538 F1200.000
G1 X70.029 Y66.214 E2.11075
G1 X71.080 Y66.048 E2.14507
G1 X71.500 Y66.000 E2.15871
G1 X98.735 Y66.018 E3.03729
G1 X100.417 Y66.359 E3.09267 F1200.000
G1 X101.912 Y67.203 E3.14804
G1 X102.664 Y67.956 E3.18236
G1 X103.073 Y68.468 E3.20350
G1 X103.786 Y70.029 E3.25887
G1 X103.952 Y71.080 E3.29319
G1 X104.000 Y71.500 E3.30683
G1 X103.982 Y98.735 E4.18541
G1 X103.641 Y100.417 E4.24079
G1 X102.797 Y101.912 E4.29616
G1 X101.532 Y103.073 E4.35154
G1 X101.365 Y103.158 E4.35760
G1 X99.971 Y103.786 E4.40692
G1 X98.500 Y104.000 E4.45487
G1 X71.265 Y103.982 E5.33345
G1 X69.583 Y103.641 E5.38883
G1 X68.088 Y102.797 E5.44420
G1 X66.927 Y101.532 E5.49958
G1 X66.214 Y99.971 E5.55495
G1 X66.000 Y98.500 E5.60290
G1 X66.018 Y71.265 E6.48148
G1 X66.359 Y69.583 E6.53686
G1 X66.842 Y68.635 E6.57117
G1 X67.162 Y68.151 E6.58989
G1 F1680.000 E4.58989
G92 E0
G1 X71.849 Y100.616 F12000.000
G1 E2.00000 F1680.000
G1 X71.698 Y100.776 E2.00710 F720.000
G1 X71.529 Y100.916 E2.01418
G1 X71.343 Y101.034 E2.02128
G1 X71.144 Y101.127 E2.02836
G1 X70.935 Y101.195 E2.03546
G1 X70.719 Y101.236 E2.04254
G1 X70.500 Y101.250 E2.04963
G1 X70.281 Y101.236 E2.05672
G1 X70.065 Y101.195 E2.06381
G1 X69.856 Y101.127 E2.07091
G1 X69.657 Y101.034 E2.07799
G1 X69.471 Y100.916 E2.08509
G1 X69.302 Y100.776 E2.09217
G1 X69.151 Y100.616 E2.09927
G1 X69.022 Y100.438 E2.10636
G1 X68.916 Y100.245 E2.11344
G1 X68.836 Y100.041 E2.12054
G1 X68.781 Y99.828 E2.12762
G1 X68.753 Y99.610 E2.13472
G1 X68.753 Y99.390 E2.14180
G1 X68.781 Y99.172 E2.14890
G1 X68.836 Y98.959 E2.15598
G1 X68.916 Y98.755 E2.16308
G1 X69.022 Y98.562 E2.17017
G1 X69.151 Y98.384 E2.17725
G1 X69.302 Y98.224 E2.18435
G1 X69.471 Y98.084 E2.19144
G1 X69.657 Y97.966 E2.19853
G1 X69.856 Y97.873 E2.20562
G1 X70.065 Y97.805 E2.21271
G1 X70.281 Y97.764 E2.21980
G1 X70.588 Y97.753 E2.22972
G1 X70.828 Y97.781 E2.23751 F720.000
G1 X71.041 Y97.836 E2.24460
G1 X71.245 Y97.916 E2.25169
G1 X71.438 Y98.022 E2.25878
G1 X71.616 Y98.151 E2.26587
G1 X71.776 Y98.302 E2.27296
G1 X71.978 Y98.562 E2.28359
G1 X72.083 Y98.755 E2.29068
G1 X72.164 Y98.959 E2.29777
G1 X72.236 Y99.281 E2.30840
G1 X72.250 Y99.500 E2.31549
G1 X72.236 Y99.719 E2.32257
G1 X72.195 Y99.935 E2.32966
G1 X72.127 Y100.144 E2.33676
G1 X72.034 Y100.343 E2.34384
G1 X71.895 Y100.556 E2.35206
G1 F1680.000 E0.35206
G92 E0
G1 X70.566 Y97.512 F12000.000
G1 X71.693 Y101.750 F12000.000
G1 E2.00000 F1680.000
G1 X71.606 Y101.468 E2.00953 F900.000
G1 X71.823 Y101.321 E2.01797
G1 X72.040 Y101.141 E2.02708
G1 X72.234 Y100.934 E2.03621
G1 X72.400 Y100.706 E2.04532
G1 X72.592 Y100.329 E2.05898
G1 X72.680 Y100.059 E2.06811
G1 X72.733 Y99.782 E2.07722
G1 X72.750 Y99.500 E2.08633
G1 X72.733 Y99.218 E2.09545
G1 X72.640 Y98.805 E2.10911
G1 X72.472 Y98.416 E2.12278
G1 X72.321 Y98.177 E2.13190
G1 X72.141 Y97.960 E2.14101
G1 X71.792 Y97.658 E2.15588
G1 X71.584 Y97.528 E2.16379
G1 X71.329 Y97.408 E2.17290
G1 X71.060 Y97.320 E2.18202
G1 X70.782 Y97.267 E2.19114
G1 X70.359 Y97.254 E2.20480
G1 X70.078 Y97.290 E2.21392
G1 X69.805 Y97.360 E2.22303
G1 X69.542 Y97.464 E2.23215
G1 X69.294 Y97.600 E2.24127
G1 X69.066 Y97.766 E2.25037
G1 X68.859 Y97.960 E2.25950
G1 X68.679 Y98.177 E2.26862
G1 X68.532 Y98.394 E2.27705
G1 X68.250 Y98.307 E2.28659
G1 X68.250 Y71.559 E3.14946
G1 X68.418 Y70.499 E3.18410
G1 X68.878 Y69.595 E3.21680
G1 X69.595 Y68.878 E3.24951
G1 X70.499 Y68.418 E3.28222
G1 X71.559 Y68.250 E3.31686
G1 X98.441 Y68.250 E4.18406
G1 X99.501 Y68.418 E4.21870
G1 X100.405 Y68.878 E4.25140
G1 X101.073 Y69.546 E4.28189
G1 X101.122 Y69.595 E4.28411
G1 X101.582 Y70.499 E4.31682
G1 X101.750 Y71.559 E4.35145
G1 X101.750 Y98.441 E5.21866
G1 X101.582 Y99.501 E5.25329
G1 X101.122 Y100.405 E5.28600
G1 X100.405 Y101.122 E5.31871
G1 X99.501 Y101.582 E5.35142
G1 X98.441 Y101.750 E5.38605
G1 X71.768 Y101.750 E6.24651
G1 X71.693 Y102.250 F12000.000
G1 X71.520 Y102.250 E6.25211 F720.000
G1 X70.342 Y102.063 E6.29057
G1 X69.298 Y101.531 E6.32838
G1 X68.469 Y100.702 E6.36620
G1 X67.937 Y99.658 E6.40402
G1 X67.750 Y98.480 E6.44248
G1 X67.750 Y71.520 E7.31222
G1 X67.937 Y70.342 E7.35068
G1 X68.469 Y69.298 E7.38850
G1 X69.298 Y68.469 E7.42632
G1 X70.342 Y67.937 E7.46413
G1 X71.520 Y67.750 E7.50259
G1 X98.480 Y67.750 E8.37234
G1 X99.512 Y67.913 E8.40602
G1 X99.658 Y67.937 E8.41080 F720.000
G1 X100.702 Y68.469 E8.44861
G1 X101.531 Y69.298 E8.48643
G1 X102.063 Y70.342 E8.52425
G1 X102.250 Y71.520 E8.56271
G1 X102.250 Y98.480 E9.43245
G1 X102.063 Y99.658 E9.47091
G1 X101.531 Y100.702 E9.50873
G1 X100.702 Y101.531 E9.54655
G1 X99.658 Y102.063 E9.58436
G1 X98.480 Y102.250 E9.62282
G1 X71.768 Y102.250 E10.48455
G1 X99.631 Y68.002 F12000.000
G1 X100.143 Y69.129 F12000.000
G1 X100.871 Y69.857 E10.51773 F1200.000
G1 X101.318 Y71.019 F12000.000
G1 X98.981 Y68.682 E10.62435 F1200.000
G1 X98.176 Y68.592 E10.65048
G1 X101.408 Y71.824 E10.79793
G1 X101.408 Y72.540 E10.82101
G1 X97.460 Y68.592 E11.00110
G1 X96.745 Y68.592 E11.02418
G1 X101.408 Y73.255 E11.23691
G1 X101.408 Y73.971 E11.25999
G1 X96.029 Y68.592 E11.50535
G1 X95.314 Y68.592 E11.52843
G1 X101.408 Y74.686 E11.80644
G1 X101.408 Y75.402 E11.82952
G1 X94.598 Y68.592 E12.14016
G1 X93.883 Y68.592 E12.16324
G1 X101.408 Y76.117 E12.50653
G1 X101.408 Y76.832 E12.52961
G1 X93.168 Y68.592 E12.90553
G1 X92.452 Y68.592 E12.92861
G1 X101.408 Y77.548 E13.33717
G1 X101.408 Y78.263 E13.36025
G1 X91.737 Y68.592 E13.80146
G1 X91.021 Y68.592 E13.82453
G1 X101.408 Y78.979 E14.29838
G1 X101.408 Y79.694 E14.32146
G1 X90.306 Y68.592 E14.82794
G1 X89.590 Y68.592 E14.85102
G1 X101.408 Y80.410 E15.39013
G1 X101.408 Y81.125 E15.41321
G1 X88.875 Y68.592 E15.98497
G1 X88.160 Y68.592 E16.00805
G1 X101.408 Y81.840 E16.61245
G1 X101.408 Y82.556 E16.63553
G1 X87.444 Y68.592 E17.27257
G1 X86.729 Y68.592 E17.29565
G1 X101.408 Y83.271 E17.96532
G1 X101.408 Y83.987 E17.98840
G1 X86.013 Y68.592 E18.69072
G1 X85.298 Y68.592 E18.71380
G1 X101.408 Y84.702 E19.44875
G1 X101.408 Y85.418 E19.47183
G1 X84.582 Y68.592 E20.23942
G1 X83.867 Y68.592 E20.26250
G1 X101.408 Y86.133 E21.06274
G1 X101.408 Y86.848 E21.08582
G1 X83.152 Y68.592 E21.91869
G1 X82.436 Y68.592 E21.94177
G1 X101.408 Y87.564 E22.80728
G1 X101.408 Y88.279 E22.83036
G1 X81.721 Y68.592 E23.72851
G1 X81.005 Y68.592 E23.75159
G1 X101.408 Y88.995 E24.68238
G1 X101.408 Y89.710 E24.70546
G1 X80.290 Y68.592 E25.66889
G1 X79.574 Y68.592 E25.69197
G1 X101.408 Y90.426 E26.68803
G1 X101.408 Y91.141 E26.71111
G1 X78.859 Y68.592 E27.73982
G1 X78.144 Y68.592 E27.76290
G1 X101.408 Y91.856 E28.82425
G1 X101.408 Y92.572 E28.84733
G1 X77.428 Y68.592 E29.94131
G1 X76.713 Y68.592 E29.96439
G1 X101.408 Y93.287 E31.09102
G1 X101.408 Y94.003 E31.11410
G1 X75.997 Y68.592 E32.27336
G1 X75.282 Y68.592 E32.29644
G1 X101.408 Y94.718 E33.48834
G1 X101.408 Y95.433 E33.51142
G1 X74.567 Y68.592 E34.73596
G1 X73.851 Y68.592 E34.75904
G1 X101.408 Y96.149 E36.01623
G1 X101.408 Y96.864 E36.03930
G1 X73.136 Y68.592 E37.32913
G1 X72.420 Y68.592 E37.35220
G1 X101.408 Y97.580 E38.67466
G1 X101.408 Y98.295 E38.69774
G1 X71.705 Y68.592 E40.05284
G1 X71.071 Y68.674 E40.07346
G1 X101.326 Y98.929 E41.45375
G1 X101.193 Y99.511 E41.47302
G1 X70.489 Y68.807 E42.87379
G1 X70.015 Y69.049 E42.89095
G1 X100.951 Y99.985 E44.30233
G1 X100.632 Y100.382 E44.31875
G1 X69.618 Y69.368 E45.73367
G1 X69.261 Y69.725 E45.74999
G1 X100.275 Y100.739 E47.16491
G1 X99.843 Y101.023 E47.18157
G1 X68.977 Y70.157 E48.58977
G1 X68.743 Y70.638 E48.60704
G1 X99.362 Y101.257 E50.00395
G1 X98.744 Y101.355 E50.02413
G1 X68.645 Y71.256 E51.39732
G1 X68.592 Y71.919 E51.41878
G1 X98.081 Y101.408 E52.76411
G1 X97.366 Y101.408 E52.78719
G1 X68.592 Y72.634 E54.09988
G1 X68.592 Y73.350 E54.12296
G1 X96.650 Y101.408 E55.40301
G1 X95.935 Y101.408 E55.42609
G1 X68.592 Y74.065 E56.67350
G1 X68.592 Y74.781 E56.69658
G1 X95.219 Y101.408 E57.91135
G1 X94.504 Y101.408 E57.93443
G1 X68.592 Y75.496 E59.11656
G1 X68.592 Y76.212 E59.13964
G1 X93.788 Y101.408 E60.28914
G1 X93.073 Y101.408 E60.31222
G1 X68.592 Y76.927 E61.42907
G1 X68.592 Y77.642 E61.45215
G1 X92.358 Y101.408 E62.53637
G1 X91.642 Y101.408 E62.55945
G1 X68.592 Y78.358 E63.61102
G1 X68.592 Y79.073 E63.63410
G1 X90.927 Y101.408 E64.65304
G1 X90.211 Y101.408 E64.67612
G1 X68.592 Y79.789 E65.66242
G1 X68.592 Y80.504 E65.68550
G1 X89.496 Y101.408 E66.63916
G1 X88.781 Y101.408 E66.66224
G1 X68.592 Y81.219 E67.58326
G1 X68.592 Y81.935 E67.60633
G1 X88.065 Y101.408 E68.49472
G1 X87.350 Y101.408 E68.51779
G1 X68.592 Y82.650 E69.37354
G1 X68.592 Y83.366 E69.39662
G1 X86.634 Y101.408 E70.21972
G1 X85.919 Y101.408 E70.24280
G1 X68.592 Y84.081 E71.03326
G1 X68.592 Y84.797 E71.05634
G1 X85.203 Y101.408 E71.81416
G1 X84.488 Y101.408 E71.83724
G1 X68.592 Y85.512 E72.56243
G1 X68.592 Y86.227 E72.58551
G1 X83.773 Y101.408 E73.27805
G1 X83.057 Y101.408 E73.30113
G1 X68.592 Y86.943 E73.96104
G1 X68.592 Y87.658 E73.98412
G1 X82.342 Y101.408 E74.61138
G1 X81.626 Y101.408 E74.63446
G1 X68.592 Y88.374 E75.22909
G1 X68.592 Y89.089 E75.25217
G1 X80.911 Y101.408 E75.81416
G1 X80.195 Y101.408 E75.83724
G1 X68.592 Y89.805 E76.36659
G1 X68.592 Y90.520 E76.38967
G1 X79.480 Y101.408 E76.88638
G1 X78.765 Y101.408 E76.90946
G1 X68.592 Y91.235 E77.37353
G1 X68.592 Y91.951 E77.39661
G1 X78.049 Y101.408 E77.82804
G1 X77.334 Y101.408 E77.85112
G1 X68.592 Y92.666 E78.24991
G1 X68.592 Y93.382 E78.27299
G1 X76.618 Y101.408 E78.63915
G1 X75.903 Y101.408 E78.66223
G1 X72.795 Y98.300 E78.80402
G1 X73.081 Y99.301 E78.83762
G1 X75.187 Y101.408 E78.93372
G1 X74.472 Y101.408 E78.95680
G1 X73.044 Y99.979 E79.02196
G1 X72.876 Y100.527 E79.04044
G1 X73.757 Y101.408 E79.08062
G1 X73.041 Y101.408 E79.10370
G1 X72.620 Y100.986 E79.12293
G1 X72.292 Y101.373 E79.13930
G1 X72.326 Y101.408 E79.14086
G1 X71.699 Y97.203 F12000.000
G1 X68.592 Y94.097 E79.28257 F1200.000
G1 X68.592 Y94.813 E79.30565
G1 X70.702 Y96.922 E79.40189
G1 X70.017 Y96.952 E79.42403
G1 X68.592 Y95.528 E79.48900
G1 X68.592 Y96.243 E79.51208
G1 X69.472 Y97.123 E79.55221
G1 X69.014 Y97.380 E79.56917
G1 X68.592 Y96.959 E79.58839
G1 X68.592 Y97.674 E79.61147
G1 X68.627 Y97.708 E79.61303
G1 F1680.000 E77.61303
G92 E0
G1 X70.165 Y101.579 F12000.000
G1 E2.00000 F1680.000
G1 X70.472 Y101.664 E2.00625 F600.000
G1 X70.648 Y101.676 E2.00970
G1 X70.821 Y101.473 E2.01491
M104 S188 ; set temperature
G1 F1680.000 E0.01491
G92 E0
G1 Z0.650 F12000.000
G1 X70.582 Y97.742 F12000.000
G1 E2.00000 F1680.000
G1 X70.935 Y97.805 E2.00770 F1440.000
G1 X71.245 Y97.916 E2.01479
G1 X71.438 Y98.022 E2.01952
G1 X71.616 Y98.151 E2.02424
G1 X71.849 Y98.384 E2.03133
G1 X72.034 Y98.657 E2.03841
G1 X72.127 Y98.856 E2.04314
G1 X72.195 Y99.065 E2.04787
G1 X72.236 Y99.281 E2.05259
G1 X72.250 Y99.500 E2.05732
G1 X72.219 Y99.828 E2.06440
G1 X72.127 Y100.144 E2.07149
G1 X72.034 Y100.343 E2.07621
G1 X71.916 Y100.529 E2.08094
G1 X71.698 Y100.776 E2.08803
G1 X71.529 Y100.916 E2.09275
G1 X71.343 Y101.034 E2.09748
G1 X71.041 Y101.164 E2.10457
G1 X70.582 Y101.258 E2.11462
G1 X70.582 Y101.284 E2.11519
G1 X70.172 Y101.219 E2.12413
G1 X69.856 Y101.127 E2.13121
G1 X69.562 Y100.978 E2.13829
G1 X69.302 Y100.776 E2.14538
G1 X69.151 Y100.616 E2.15011
G1 X68.966 Y100.343 E2.15719
G1 X68.836 Y100.041 E2.16428
G1 X68.764 Y99.719 E2.17136
G1 X68.750 Y99.500 E2.17609
G1 X68.781 Y99.172 E2.18317
G1 X68.873 Y98.856 E2.19026
G1 X68.966 Y98.657 E2.19498
G1 X69.151 Y98.384 E2.20206
G1 X69.385 Y98.151 E2.20915
G1 X69.657 Y97.966 E2.21624
G1 X69.856 Y97.873 E2.22096
G1 X70.172 Y97.781 E2.22804
G1 X70.534 Y97.723 E2.23593
G1 X70.788 Y97.448 F12000.000
G1 X68.250 Y98.307 F12000.000
G1 X68.250 Y71.559 E2.81118 F1800.000
G1 X68.418 Y70.499 E2.83427
G1 X68.878 Y69.595 E2.85608
G1 X69.595 Y68.878 E2.87789
G1 X70.499 Y68.418 E2.89969
G1 X71.559 Y68.250 E2.92278
G1 X98.441 Y68.250 E3.50092
G1 X99.501 Y68.418 E3.52401
G1 X100.405 Y68.878 E3.54581
G1 X101.122 Y69.595 E3.56762
G1 X101.582 Y70.499 E3.58942
G1 X101.750 Y71.559 E3.61251
G1 X101.750 Y98.441 E4.19065
G1 X101.582 Y99.501 E4.21374
G1 X101.122 Y100.405 E4.23554
G1 X100.405 Y101.122 E4.25735
G1 X99.501 Y101.582 E4.27915
G1 X98.441 Y101.750 E4.30225
G1 X71.693 Y101.750 E4.87749
G1 X71.606 Y101.468 E4.88385
G1 X71.823 Y101.321 E4.88947
G1 X72.040 Y101.141 E4.89555
G1 X72.234 Y100.934 E4.90163
G1 X72.400 Y100.706 E4.90771
G1 X72.592 Y100.329 E4.91681
G1 X72.680 Y100.060 E4.92290
G1 X72.733 Y99.782 E4.92897
G1 X72.750 Y99.500 E4.93505
G1 X72.733 Y99.218 E4.94113
G1 X72.640 Y98.805 E4.95023
G1 X72.472 Y98.416 E4.95935
G1 X72.321 Y98.177 E4.96542
G1 X72.141 Y97.960 E4.97150
G1 X71.934 Y97.766 E4.97758
G1 X71.706 Y97.600 E4.98366
G1 X71.458 Y97.464 E4.98973
G1 X71.082 Y97.319 E4.99839
G1 X71.082 Y97.130 E5.00246
G1 X70.078 Y97.290 E5.02433
G1 X69.805 Y97.360 E5.03041
G1 X69.542 Y97.464 E5.03649
G1 X69.294 Y97.600 E5.04257
G1 X68.960 Y97.859 E5.05167
G1 X68.766 Y98.066 E5.05776
G1 X68.532 Y98.394 E5.06641
G1 X68.322 Y98.329 E5.07116
G1 X67.750 Y98.307 F12000.000
G1 X67.750 Y71.520 E5.64725 F1440.000
G1 X67.937 Y70.342 E5.67289
G1 X68.469 Y69.298 E5.69810
G1 X69.298 Y68.469 E5.72332
G1 X70.342 Y67.937 E5.74853
G1 X71.520 Y67.750 E5.77417
G1 X98.480 Y67.750 E6.35399
G1 X99.658 Y67.937 E6.37963
G1 X100.702 Y68.469 E6.40484 F1440.000
G1 X101.531 Y69.298 E6.43006
G1 X102.063 Y70.342 E6.45527
G1 X102.250 Y71.520 E6.48091
G1 X102.250 Y98.480 E7.06074
G1 X102.063 Y99.658 E7.08638
G1 X101.531 Y100.702 E7.11159
G1 X100.702 Y101.531 E7.13680
G1 X99.658 Y102.063 E7.16201
G1 X98.480 Y102.250 E7.18765
G1 X71.520 Y102.250 E7.76748
G1 X70.342 Y102.063 E7.79312
G1 X69.298 Y101.531 E7.81833
G1 X68.469 Y100.702 E7.84354
G1 X67.937 Y99.658 E7.86875
G1 X67.750 Y98.480 E7.89439
G1 X67.750 Y98.382 E7.89651
G1 X99.882 Y68.384 F12000.000
G1 X97.486 Y68.592 F12000.000
G1 X68.592 Y97.486 E8.77531 F2400.000
G1 X68.592 Y96.773 F12000.000
G1 X96.773 Y68.592 E9.63242 F2400.000
G1 X96.060 Y68.592 E9.64775
G1 X68.592 Y96.060 E10.48318
G1 X68.592 Y95.347 E10.49851
G1 X95.347 Y68.592 E11.31226
G1 X94.634 Y68.592 E11.32759
G1 X68.592 Y94.634 E12.11965
G1 X68.592 Y93.921 E12.13498
G1 X93.921 Y68.592 E12.90535
G1 X93.208 Y68.592 E12.92068
G1 X68.592 Y93.208 E13.66937
G1 X68.592 Y92.495 E13.68471
G1 X92.495 Y68.592 E14.41171
G1 X91.783 Y68.592 E14.42704
G1 X68.592 Y91.783 E15.13236
G1 X68.592 Y91.070 E15.14769
G1 X91.070 Y68.592 E15.83133
G1 X90.357 Y68.592 E15.84666
G1 X68.592 Y90.357 E16.50861
G1 X68.592 Y89.644 E16.52394
G1 X89.644 Y68.592 E17.16421
G1 X88.931 Y68.592 E17.17954
G1 X68.592 Y88.931 E17.79812
G1 X68.592 Y88.218 E17.81346
G1 X88.218 Y68.592 E18.41035
G1 X87.505 Y68.592 E18.42569
G1 X68.592 Y87.505 E19.00090
G1 X68.592 Y86.792 E19.01623
G1 X86.792 Y68.592 E19.56976
G1 X86.079 Y68.592 E19.58509
G1 X68.592 Y86.079 E20.11693
G1 X68.592 Y85.366 E20.13227
G1 X85.366 Y68.592 E20.64242
G1 X84.653 Y68.592 E20.65776
G1 X68.592 Y84.653 E21.14623
G1 X68.592 Y83.940 E21.16156
G1 X83.940 Y68.592 E21.62835
G1 X83.227 Y68.592 E21.64368
G1 X68.592 Y83.227 E22.08879
G1 X68.592 Y82.514 E22.10412
