; generated by Slic3r 1.2.1 on 2014-12-08 at 21:35:29

; external perimeters extrusion width = 0.50mm
; perimeters extrusion width = 0.72mm
; infill extrusion width = 0.27mm
; solid infill extrusion width = 0.72mm
; top infill extrusion width = 0.72mm
; support material extrusion width = 0.50mm

M104 S190 ; set temperature
G28 ; home all axes
G1 Z15 F120 ; lift nozzle
M109 S190 ; wait for temperature to be reached
G21 ; set units to millimeters
G90 ; use absolute coordinates
M82 ; use absolute distances for extrusion
G92 E0
M106 S102
G1 E-2.00000 F1680.000
G92 E0
G1 Z0.350 F12000.000
G1 X65.102 Y47.074 F12000.000
G1 E2.00000 F1680.000
G1 X66.848 Y45.638 E2.06363 F1200.000
G1 X70.000 Y44.814 E2.15535
G1 X100.000 Y44.814 E2.99991
G1 X102.225 Y45.211 E3.06354
G1 X104.176 Y46.352 E3.12717 F1200.000
G1 X105.612 Y48.098 E3.19081
G1 X106.436 Y51.250 E3.28253
G1 X106.436 Y107.250 E4.85903
G1 X105.706 Y110.227 E4.94533
G1 X99.706 Y121.727 E5.31049
G1 X98.325 Y123.516 E5.37412
G1 X96.411 Y124.718 E5.43775
G1 X94.000 Y125.186 E5.50689
G1 X76.000 Y125.186 E6.01362
G1 X73.775 Y124.789 E6.07725
G1 X71.824 Y123.648 E6.14088
G1 X70.294 Y121.727 E6.21002
G1 X64.294 Y110.227 E6.57518
G1 X63.564 Y107.250 E6.66147
G1 X63.564 Y51.250 E8.23798
G1 X63.961 Y49.025 E8.30161
G1 X65.064 Y47.139 E8.36313
G1 E6.36313 F1680.000
G92 E0
G1 X68.508 Y50.582 F12000.000
G1 E2.00000 F1680.000
G1 X69.367 Y49.723 E2.03422 F1200.000
G1 X100.633 Y49.723 E2.91439
G1 X101.527 Y50.617 E2.95001
G1 X101.527 Y107.883 E4.56213 F1200.000
G1 X100.633 Y108.777 E4.59774
G1 X95.783 Y108.777 E4.73428
G1 X95.527 Y109.033 E4.74445
G1 X95.527 Y119.383 E5.03582
G1 X94.633 Y120.277 E5.07143
G1 X75.367 Y120.277 E5.61378
G1 X74.473 Y119.383 E5.64940
G1 X74.473 Y109.033 E5.94077
G1 X74.217 Y108.777 E5.95094
G1 X69.367 Y108.777 E6.08747
G1 X68.473 Y107.883 E6.12309
G1 X68.473 Y50.643 E7.73450
G1 X68.909 Y50.798 F12000.000
G1 X69.548 Y50.159 E7.75994 F1200.000
G1 X100.452 Y50.159 E8.62994
G1 X101.091 Y50.798 E8.65538 F1200.000
G1 X101.091 Y107.702 E10.25732
G1 X100.452 Y108.341 E10.28276
G1 X95.346 Y108.341 E10.42649
G1 X95.091 Y108.596 E10.43666
G1 X95.091 Y119.202 E10.73523
G1 X94.452 Y119.841 E10.76067
G1 X75.548 Y119.841 E11.29284
G1 X74.909 Y119.202 E11.31828
G1 X74.909 Y108.596 E11.61684
G1 X74.654 Y108.341 E11.62702
G1 X69.548 Y108.341 E11.77075
G1 X68.909 Y107.702 E11.79619
G1 X68.909 Y50.873 E13.39602
G1 X69.346 Y50.979 F12000.000
G1 X69.729 Y50.596 E13.41128 F1200.000
G1 X100.271 Y50.596 E14.27111
G1 X100.654 Y50.979 E14.28637
G1 X100.654 Y107.521 E15.87814 F1200.000
G1 X100.271 Y107.904 E15.89340
G1 X94.910 Y107.904 E16.04433
G1 X94.654 Y108.160 E16.05450
G1 X94.654 Y119.021 E16.36026
G1 X94.271 Y119.404 E16.37552
G1 X75.729 Y119.404 E16.89752
G1 X75.346 Y119.021 E16.91279
G1 X75.346 Y108.160 E17.21854
G1 X75.090 Y107.904 E17.22872
G1 X69.729 Y107.904 E17.37964
G1 X69.346 Y107.521 E17.39491
G1 X69.346 Y51.054 E18.98456
G1 X69.782 Y51.160 F12000.000
G1 X69.910 Y51.032 E18.98965 F1200.000
G1 X100.090 Y51.032 E19.83930
G1 X100.218 Y51.160 E19.84438 F1200.000
G1 X100.218 Y107.340 E21.42598
G1 X100.090 Y107.468 E21.43107
G1 X94.474 Y107.468 E21.58918
G1 X94.218 Y107.724 E21.59936
G1 X94.218 Y118.840 E21.91231
G1 X94.090 Y118.968 E21.91740
G1 X75.910 Y118.968 E22.42922
G1 X75.782 Y118.840 E22.43431
G1 X75.782 Y107.724 E22.74726
G1 X75.526 Y107.468 E22.75744
G1 X69.910 Y107.468 E22.91556
G1 X69.782 Y107.340 E22.92065
G1 X69.782 Y51.235 E24.50013
G1 X70.250 Y51.500 F12000.000
G1 X99.750 Y51.500 E25.33061 F720.000
G1 X99.750 Y107.000 E26.89304
G1 X93.750 Y107.000 E27.06195 F720.000
G1 X93.750 Y118.500 E27.38570
G1 X76.250 Y118.500 E27.87835
G1 X76.250 Y107.000 E28.20210
G1 X70.250 Y107.000 E28.37101
G1 X70.250 Y51.575 E29.93133
G1 X100.000 Y106.567 F12000.000
G1 X99.330 Y90.566 F12000.000
G1 X99.330 Y106.580 E30.38216 F900.000
G1 X93.330 Y106.580 E30.55107
G1 X93.330 Y118.080 E30.87482
G1 X76.670 Y118.080 E31.34384
G1 X76.670 Y106.580 E31.66758
G1 X70.670 Y106.580 E31.83649
G1 X70.670 Y51.920 E33.37528
G1 X99.330 Y51.920 E34.18212 F900.000
G1 X99.330 Y90.491 E35.26797
G1 X75.973 Y106.313 F12000.000
G1 X70.937 Y101.277 E35.46846 F1200.000
G1 X70.937 Y101.894 E35.48584
G1 X75.356 Y106.313 E35.66174
G1 X74.738 Y106.313 E35.67912
G1 X70.937 Y102.512 E35.83045
G1 X70.937 Y103.129 E35.84783
G1 X74.121 Y106.313 E35.97458
G1 X73.504 Y106.313 E35.99196
G1 X70.937 Y103.746 E36.09412
G1 X70.937 Y104.364 E36.11151
G1 X72.886 Y106.313 E36.18909
G1 X72.269 Y106.313 E36.20647
G1 X70.937 Y104.981 E36.25948
G1 X70.937 Y105.599 E36.27686
G1 X71.651 Y106.313 E36.30528
G1 X71.034 Y106.313 E36.32266
G1 X70.937 Y106.216 E36.32651
G1 E34.32651 F1680.000
G92 E0
G1 X76.977 Y117.813 F12000.000
G1 E2.00000 F1680.000
G1 X76.937 Y117.773 E2.00159 F1200.000
G1 X76.937 Y117.155 E2.01897
G1 X77.595 Y117.813 E2.04515
G1 X78.212 Y117.813 E2.06253
G1 X76.937 Y116.538 E2.11328
G1 X76.937 Y115.920 E2.13066
G1 X78.830 Y117.813 E2.20599
G1 X79.447 Y117.813 E2.22338
G1 X76.937 Y115.303 E2.32329
G1 X76.937 Y114.686 E2.34067
G1 X80.064 Y117.813 E2.46516
G1 X80.682 Y117.813 E2.48254
G1 X76.937 Y114.068 E2.63162
G1 X76.937 Y113.451 E2.64900
G1 X81.299 Y117.813 E2.82265
G1 X81.917 Y117.813 E2.84003
G1 X76.937 Y112.833 E3.03827
G1 X76.937 Y112.216 E3.05565
G1 X82.534 Y117.813 E3.27847
G1 X83.151 Y117.813 E3.29585
G1 X76.937 Y111.599 E3.54324
G1 X76.937 Y110.981 E3.56062
G1 X83.769 Y117.813 E3.83260
G1 X84.386 Y117.813 E3.84998
G1 X76.937 Y110.364 E4.14653
G1 X76.937 Y109.746 E4.16391
G1 X85.004 Y117.813 E4.48505
G1 X85.621 Y117.813 E4.50243
G1 X76.937 Y109.129 E4.84815
G1 X76.937 Y108.512 E4.86553
G1 X86.238 Y117.813 E5.23583
G1 X86.856 Y117.813 E5.25321
G1 X76.937 Y107.894 E5.64808
G1 X76.937 Y107.277 E5.66546
G1 X87.473 Y117.813 E6.08492
G1 X88.091 Y117.813 E6.10230
G1 X70.937 Y100.659 E6.78522
G1 X70.937 Y100.042 E6.80260
G1 X88.708 Y117.813 E7.51009
G1 X89.325 Y117.813 E7.52747
G1 X70.937 Y99.425 E8.25955
G1 X70.937 Y98.807 E8.27693
G1 X89.943 Y117.813 E9.03358
G1 X90.560 Y117.813 E9.05096
G1 X70.937 Y98.190 E9.83220
G1 X70.937 Y97.572 E9.84958
G1 X91.178 Y117.813 E10.65539
G1 X91.795 Y117.813 E10.67278
G1 X70.937 Y96.955 E11.50317
G1 X70.937 Y96.338 E11.52055
G1 X92.412 Y117.813 E12.37553
G1 X93.026 Y117.809 E12.39281
G1 X70.937 Y95.720 E13.27222
G1 X70.937 Y95.103 E13.28960
G1 X93.063 Y117.228 E14.17047
G1 X93.063 Y116.611 E14.18785
G1 X70.937 Y94.485 E15.06871
G1 X70.937 Y93.868 E15.08609
G1 X93.063 Y115.993 E15.96696
G1 X93.063 Y115.376 E15.98434
G1 X70.937 Y93.251 E16.86520
G1 X70.937 Y92.633 E16.88258
G1 X93.063 Y114.758 E17.76345
G1 X93.063 Y114.141 E17.78083
G1 X70.937 Y92.016 E18.66169
G1 X70.937 Y91.398 E18.67907
G1 X93.063 Y113.524 E19.55993
G1 X93.063 Y112.906 E19.57732
G1 X70.937 Y90.781 E20.45818
G1 X70.937 Y90.164 E20.47556
G1 X93.063 Y112.289 E21.35642
G1 X93.063 Y111.671 E21.37380
G1 X70.937 Y89.546 E22.25467
G1 X70.937 Y88.929 E22.27205
G1 X93.063 Y111.054 E23.15291
G1 X93.063 Y110.437 E23.17029
G1 X70.937 Y88.312 E24.05116
G1 X70.937 Y87.694 E24.06854
G1 X93.063 Y109.819 E24.94940
G1 X93.063 Y109.202 E24.96678
G1 X70.937 Y87.077 E25.84765
G1 X70.937 Y86.459 E25.86503
G1 X93.063 Y108.584 E26.74589
G1 X93.063 Y107.967 E26.76327
G1 X70.937 Y85.842 E27.64414
G1 X70.937 Y85.225 E27.66152
G1 X93.063 Y107.350 E28.54238
G1 X93.063 Y106.732 E28.55976
G1 X70.937 Y84.607 E29.44062
G1 X70.937 Y83.990 E29.45801
G1 X93.260 Y106.313 E30.34674
G1 X93.878 Y106.313 E30.36412
G1 X70.937 Y83.372 E31.27744
G1 X70.937 Y82.755 E31.29482
G1 X94.495 Y106.313 E32.23271
G1 X95.112 Y106.313 E32.25009
G1 X70.937 Y82.138 E33.21257
G1 X70.937 Y81.520 E33.22995
G1 X95.730 Y106.313 E34.21700
G1 X96.347 Y106.313 E34.23438
G1 X70.937 Y80.903 E35.24602
G1 X70.937 Y80.285 E35.26340
G1 X96.965 Y106.313 E36.29962
G1 X97.582 Y106.313 E36.31700
G1 X70.937 Y79.668 E37.37779
G1 X70.937 Y79.051 E37.39518
G1 X98.199 Y106.313 E38.48055
G1 X98.817 Y106.313 E38.49793
G1 X70.937 Y78.433 E39.60789
G1 X70.937 Y77.816 E39.62527
G1 X99.063 Y105.941 E40.74501
G1 X99.063 Y105.324 E40.76239
G1 X70.937 Y77.198 E41.88213
G1 X70.937 Y76.581 E41.89951
G1 X99.063 Y104.706 E43.01925
G1 X99.063 Y104.089 E43.03663
G1 X70.937 Y75.964 E44.15637
G1 X70.937 Y75.346 E44.17376
G1 X99.063 Y103.471 E45.29350
G1 X99.063 Y102.854 E45.31088
G1 X70.937 Y74.729 E46.43062
G1 X70.937 Y74.111 E46.44800
G1 X99.063 Y102.237 E47.56774
G1 X99.063 Y101.619 E47.58512
G1 X70.937 Y73.494 E48.70486
G1 X70.937 Y72.877 E48.72224
G1 X99.063 Y101.002 E49.84198
G1 X99.063 Y100.384 E49.85936
G1 X70.937 Y72.259 E50.97910
G1 X70.937 Y71.642 E50.99648
G1 X99.063 Y99.767 E52.11622
G1 X99.063 Y99.150 E52.13360
G1 X70.937 Y71.024 E53.25334
G1 X70.937 Y70.407 E53.27073
G1 X99.063 Y98.532 E54.39047
G1 X99.063 Y97.915 E54.40785
G1 X70.937 Y69.790 E55.52759
G1 X70.937 Y69.172 E55.54497
G1 X99.063 Y97.297 E56.66471
G1 X99.063 Y96.680 E56.68209
G1 X70.937 Y68.555 E57.80183
G1 X70.937 Y67.937 E57.81921
G1 X99.063 Y96.063 E58.93895
G1 X99.063 Y95.445 E58.95633
G1 X70.937 Y67.320 E60.07607
G1 X70.937 Y66.703 E60.09345
G1 X99.063 Y94.828 E61.21319
G1 X99.063 Y94.210 E61.23057
G1 X70.937 Y66.085 E62.35031
G1 X70.937 Y65.468 E62.36770
G1 X99.063 Y93.593 E63.48744
G1 X99.063 Y92.976 E63.50482
G1 X70.937 Y64.850 E64.62456
G1 X70.937 Y64.233 E64.64194
G1 X99.063 Y92.358 E65.76168
G1 X99.063 Y91.741 E65.77906
G1 X70.937 Y63.616 E66.89880
G1 X70.937 Y62.998 E66.91618
G1 X99.063 Y91.123 E68.03592
G1 X99.063 Y90.506 E68.05330
G1 X70.937 Y62.381 E69.17304
G1 X70.937 Y61.763 E69.19042
G1 X99.063 Y89.889 E70.31016
G1 X99.063 Y89.271 E70.32754
G1 X70.937 Y61.146 E71.44729
G1 X70.937 Y60.529 E71.46467
G1 X99.063 Y88.654 E72.58441
G1 X99.063 Y88.036 E72.60179
G1 X70.937 Y59.911 E73.72153
G1 X70.937 Y59.294 E73.73891
G1 X99.063 Y87.419 E74.85865
G1 X99.063 Y86.802 E74.87603
G1 X70.937 Y58.676 E75.99577
G1 X70.937 Y58.059 E76.01315
G1 X99.063 Y86.184 E77.13289
G1 X99.063 Y85.567 E77.15027
G1 X70.937 Y57.442 E78.27001
G1 X70.937 Y56.824 E78.28739
G1 X99.063 Y84.949 E79.40713
G1 X99.063 Y84.332 E79.42451
G1 X70.937 Y56.207 E80.54426
G1 X70.937 Y55.589 E80.56164
G1 X99.063 Y83.715 E81.68138
G1 X99.063 Y83.097 E81.69876
G1 X70.937 Y54.972 E82.81850
G1 X70.937 Y54.355 E82.83588
G1 X99.063 Y82.480 E83.95562
G1 X99.063 Y81.862 E83.97300
G1 X70.937 Y53.737 E85.09274
G1 X70.937 Y53.120 E85.11012
G1 X99.063 Y81.245 E86.22986
G1 X99.063 Y80.628 E86.24724
G1 X70.937 Y52.503 E87.36698
G1 X71.240 Y52.187 E87.37928
G1 X99.063 Y80.010 E88.48698
G1 X99.063 Y79.393 E88.50436
G1 X71.857 Y52.187 E89.58749
G1 X72.475 Y52.187 E89.60487
G1 X99.063 Y78.775 E90.66341
G1 X99.063 Y78.158 E90.68079
G1 X73.092 Y52.187 E91.71475
G1 X73.709 Y52.187 E91.73214
G1 X99.063 Y77.541 E92.74152
G1 X99.063 Y76.923 E92.75890
G1 X74.327 Y52.187 E93.74370
G1 X74.944 Y52.187 E93.76108
G1 X99.063 Y76.306 E94.72131
G1 X99.063 Y75.688 E94.73869
G1 X75.562 Y52.187 E95.67433
G1 X76.179 Y52.187 E95.69171
G1 X99.063 Y75.071 E96.60277
G1 X99.063 Y74.454 E96.62015
G1 X76.796 Y52.187 E97.50664
G1 X77.414 Y52.187 E97.52402
G1 X99.063 Y73.836 E98.38592
G1 X99.063 Y73.219 E98.40330
G1 X78.031 Y52.187 E99.24062
G1 X78.648 Y52.187 E99.25800
G1 X99.063 Y72.602 E100.07074
G1 X99.063 Y71.984 E100.08813
G1 X79.266 Y52.187 E100.87629
G1 X79.883 Y52.187 E100.89367
G1 X99.063 Y71.367 E101.65725
G1 X99.063 Y70.749 E101.67463
G1 X80.501 Y52.187 E102.41363
G1 X81.118 Y52.187 E102.43101
G1 X99.063 Y70.132 E103.14543
G1 X99.063 Y69.515 E103.16281
G1 X81.735 Y52.187 E103.85265
G1 X82.353 Y52.187 E103.87003
G1 X99.063 Y68.897 E104.53529
G1 X99.063 Y68.280 E104.55267
G1 X82.970 Y52.187 E105.19335
G1 X83.588 Y52.187 E105.21073
G1 X99.063 Y67.662 E105.82683
G1 X99.063 Y67.045 E105.84421
G1 X84.205 Y52.187 E106.43573
G1 X84.822 Y52.187 E106.45311
G1 X99.063 Y66.428 E107.02005
G1 X99.063 Y65.810 E107.03743
G1 X85.440 Y52.187 E107.57979
G1 X86.057 Y52.187 E107.59717
G1 X99.063 Y65.193 E108.11495
G1 X99.063 Y64.575 E108.13233
G1 X86.675 Y52.187 E108.62553
G1 X87.292 Y52.187 E108.64291
G1 X99.063 Y63.958 E109.11153
G1 X99.063 Y63.341 E109.12891
G1 X87.909 Y52.187 E109.57295
G1 X88.527 Y52.187 E109.59033
G1 X99.063 Y62.723 E110.00978
G1 X99.063 Y62.106 E110.02716
G1 X89.144 Y52.187 E110.42204
G1 X89.762 Y52.187 E110.43942
G1 X99.063 Y61.488 E110.80972
G1 X99.063 Y60.871 E110.82710
G1 X90.379 Y52.187 E111.17282
G1 X90.996 Y52.187 E111.19020
G1 X99.063 Y60.254 E111.51133
G1 X99.063 Y59.636 E111.52871
G1 X91.614 Y52.187 E111.82527
G1 X92.231 Y52.187 E111.84265
G1 X99.063 Y59.019 E112.11463
G1 X99.063 Y58.401 E112.13201
G1 X92.849 Y52.187 E112.37940
G1 X93.466 Y52.187 E112.39678
G1 X99.063 Y57.784 E112.61960
G1 X99.063 Y57.167 E112.63698
G1 X94.083 Y52.187 E112.83521
G1 X94.701 Y52.187 E112.85259
G1 X99.063 Y56.549 E113.02625
G1 X99.063 Y55.932 E113.04363
G1 X95.318 Y52.187 E113.19270
G1 X95.936 Y52.187 E113.21008
G1 X99.063 Y55.314 E113.33458
G1 X99.063 Y54.697 E113.35196
G1 X96.553 Y52.187 E113.45187
G1 X97.170 Y52.187 E113.46925
G1 X99.063 Y54.080 E113.54459
G1 X99.063 Y53.462 E113.56197
G1 X97.788 Y52.187 E113.61272
G1 X98.405 Y52.187 E113.63010
G1 X99.063 Y52.845 E113.65627
G1 X99.063 Y52.227 E113.67365
G1 X99.023 Y52.187 E113.67525
G1 E111.67525 F1680.000
G92 E0
G1 Z0.350 F12000.000
M104 S188 ; set temperature
G1 Z0.500 F12000.000
G1 Z0.650 F12000.000
G1 X70.795 Y71.935 F12000.000
G1 E2.00000 F1680.000
G1 X70.795 Y52.045 E2.55994 F1800.000
G1 X99.205 Y52.045 E3.35973 F1800.000
G1 X99.205 Y106.455 E4.89147
G1 X93.205 Y106.455 E5.06039
G1 X93.205 Y117.955 E5.38413
G1 X76.795 Y117.955 E5.84610
G1 X76.795 Y106.455 E6.16985
G1 X70.795 Y106.455 E6.33876
G1 X70.795 Y72.010 E7.30845
G1 X70.250 Y72.010 F12000.000
G1 X70.250 Y51.500 E7.69275 F1440.000
G1 X99.750 Y51.500 E8.24550
G1 X99.750 Y107.000 E9.28542
G1 X93.750 Y107.000 E9.39784 F1440.000
G1 X93.750 Y118.500 E9.61332
G1 X76.250 Y118.500 E9.94122
G1 X76.250 Y107.000 E10.15670
G1 X70.250 Y107.000 E10.26912
G1 X70.250 Y72.085 E10.92333
G1 X100.000 Y106.567 F12000.000
G1 X71.189 Y52.399 F12000.000
G1 X71.149 Y52.439 E10.92493 F2400.000
G1 X71.149 Y53.372 E10.95121
G1 X72.122 Y52.399 E10.98997
G1 X73.056 Y52.399 E11.01625
G1 X71.149 Y54.306 E11.09219
G1 X71.149 Y55.239 E11.11847
G1 X73.989 Y52.399 E11.23157
G1 X74.923 Y52.399 E11.25785
G1 X71.149 Y56.173 E11.40812
G1 X71.149 Y57.107 E11.43441
G1 X75.857 Y52.399 E11.62185
G1 X76.790 Y52.399 E11.64813
G1 X71.149 Y58.040 E11.87274
G1 X71.149 Y58.974 E11.89902
G1 X77.724 Y52.399 E12.16080
G1 X78.657 Y52.399 E12.18709
G1 X71.149 Y59.907 E12.48604
G1 X71.149 Y60.841 E12.51232
G1 X79.591 Y52.399 E12.84844
G1 X80.525 Y52.399 E12.87472
G1 X71.149 Y61.775 E13.24801
G1 X71.149 Y62.708 E13.27429
G1 X81.458 Y52.399 E13.68475
G1 X82.392 Y52.399 E13.71103
G1 X71.149 Y63.642 E14.15866
G1 X71.149 Y64.575 E14.18494
G1 X83.325 Y52.399 E14.66974
G1 X84.259 Y52.399 E14.69603
G1 X71.149 Y65.509 E15.21799
G1 X71.149 Y66.443 E15.24428
G1 X85.193 Y52.399 E15.80341
G1 X86.126 Y52.399 E15.82970
G1 X71.149 Y67.376 E16.42600
G1 X71.149 Y68.310 E16.45228
G1 X87.060 Y52.399 E17.08576
G1 X87.994 Y52.399 E17.11204
G1 X71.149 Y69.244 E17.78269
G1 X71.149 Y70.177 E17.80897
G1 X88.927 Y52.399 E18.51679
G1 X89.861 Y52.399 E18.54307
G1 X71.149 Y71.111 E19.28806
G1 X71.149 Y72.044 E19.31434
G1 X90.794 Y52.399 E20.09649
G1 X91.728 Y52.399 E20.12278
G1 X71.149 Y72.978 E20.94210
G1 X71.149 Y73.912 E20.96838
G1 X92.662 Y52.399 E21.82488
G1 X93.595 Y52.399 E21.85116
G1 X71.149 Y74.845 E22.74482
G1 X71.149 Y75.779 E22.77111
G1 X94.529 Y52.399 E23.70194
G1 X95.462 Y52.399 E23.72822
G1 X71.149 Y76.712 E24.69623
