; generated by Slic3r 1.2.1 on 2014-12-08 at 22:19:08

; external perimeters extrusion width = 0.50mm
; perimeters extrusion width = 0.72mm
; infill extrusion width = 0.27mm
; solid infill extrusion width = 0.72mm
; top infill extrusion width = 0.72mm
; support material extrusion width = 0.50mm

M104 S190 ; set temperature
G28 ; home all axes
G1 Z15 F120 ; lift nozzle
M109 S190 ; wait for temperature to be reached
G21 ; set units to millimeters
G90 ; use absolute coordinates
M82 ; use absolute distances for extrusion
G92 E0
M106 S102
G1 E-2.00000 F1680.000
G92 E0
G1 Z0.350 F12000.000
G1 X65.102 Y52.824 F12000.000
G1 E2.00000 F1680.000
G1 X66.848 Y51.388 E2.06363 F1200.000
G1 X70.000 Y50.564 E2.15535
G1 X100.000 Y50.564 E2.99991
G1 X102.225 Y50.961 E3.06354
G1 X104.176 Y52.102 E3.12717 F1200.000
G1 X105.612 Y53.848 E3.19081
G1 X106.436 Y57.000 E3.28253
G1 X106.436 Y113.000 E4.85903
G1 X106.039 Y115.225 E4.92266
G1 X104.898 Y117.176 E4.98630
G1 X103.152 Y118.612 E5.04993
G1 X100.000 Y119.436 E5.14165
G1 X70.000 Y119.436 E5.98620
G1 X67.775 Y119.039 E6.04984
G1 X65.824 Y117.898 E6.11347
G1 X64.388 Y116.152 E6.17710
G1 X63.564 Y113.000 E6.26882
G1 X63.564 Y57.000 E7.84533
G1 X63.961 Y54.775 E7.90896
G1 X65.064 Y52.889 E7.97048
G1 E5.97048 F1680.000
G92 E0
G1 X68.508 Y56.332 F12000.000
G1 E2.00000 F1680.000
G1 X69.367 Y55.473 E2.03422 F1200.000
G1 X100.633 Y55.473 E2.91439
G1 X101.527 Y56.367 E2.95001
G1 X101.527 Y113.633 E4.56213 F1200.000
G1 X100.633 Y114.527 E4.59774
G1 X69.367 Y114.527 E5.47792
G1 X68.473 Y113.633 E5.51353
G1 X68.473 Y56.393 E7.12494
G1 X68.909 Y56.548 F12000.000
G1 X69.548 Y55.909 E7.15038 F1200.000
G1 X100.452 Y55.909 E8.02038
G1 X101.091 Y56.548 E8.04582 F1200.000
G1 X101.091 Y113.452 E9.64776
G1 X100.452 Y114.091 E9.67320
G1 X69.548 Y114.091 E10.54320
G1 X68.909 Y113.452 E10.56864
G1 X68.909 Y56.623 E12.16848
G1 X69.346 Y56.729 F12000.000
G1 X69.729 Y56.346 E12.18374 F1200.000
G1 X100.271 Y56.346 E13.04356
G1 X100.654 Y56.729 E13.05882
G1 X100.654 Y113.271 E14.65059 F1200.000
G1 X100.271 Y113.654 E14.66586
G1 X69.729 Y113.654 E15.52568
G1 X69.346 Y113.271 E15.54094
G1 X69.346 Y56.804 E17.13060
G1 X69.782 Y56.910 F12000.000
G1 X69.910 Y56.782 E17.13569 F1200.000
G1 X100.090 Y56.782 E17.98533
G1 X100.218 Y56.910 E17.99042 F1200.000
G1 X100.218 Y113.090 E19.57201
G1 X100.090 Y113.218 E19.57710
G1 X69.910 Y113.218 E20.42675
G1 X69.782 Y113.090 E20.43183
G1 X69.782 Y56.985 E22.01132
G1 X70.250 Y57.250 F12000.000
G1 X99.750 Y57.250 E22.84180 F720.000
G1 X99.750 Y112.750 E24.40423
G1 X70.250 Y112.750 E25.23471 F720.000
G1 X70.250 Y57.325 E26.79503
G1 X100.000 Y112.317 F12000.000
G1 X99.330 Y89.322 F12000.000
G1 X99.330 Y112.330 E27.44275 F900.000
G1 X70.670 Y112.330 E28.24959
G1 X70.670 Y57.670 E29.78838
G1 X99.330 Y57.670 E30.59522 F900.000
G1 X99.330 Y89.247 E31.48417
G1 X99.023 Y57.937 F12000.000
G1 X99.063 Y57.977 E31.48576 F1200.000
G1 X99.063 Y58.595 E31.50316
G1 X98.405 Y57.937 E31.52935
G1 X97.787 Y57.937 E31.54674
G1 X99.063 Y59.213 E31.59753
G1 X99.063 Y59.831 E31.61492
G1 X97.169 Y57.937 E31.69030
G1 X96.551 Y57.937 E31.70770
G1 X99.063 Y60.449 E31.80768
G1 X99.063 Y61.067 E31.82507
G1 X95.933 Y57.937 E31.94965
G1 X95.316 Y57.937 E31.96704
G1 X99.063 Y61.684 E32.11622
G1 X99.063 Y62.302 E32.13361
G1 X94.698 Y57.937 E32.30738
G1 X94.080 Y57.937 E32.32478
G1 X99.063 Y62.920 E32.52315
G1 X99.063 Y63.538 E32.54054
G1 X93.462 Y57.937 E32.76351
G1 X92.844 Y57.937 E32.78090
G1 X99.063 Y64.156 E33.02846
G1 X99.063 Y64.773 E33.04586
G1 X92.227 Y57.937 E33.31802
G1 X91.609 Y57.937 E33.33541
G1 X99.063 Y65.391 E33.63217
G1 X99.063 Y66.009 E33.64956
G1 X90.991 Y57.937 E33.97092
G1 X90.373 Y57.937 E33.98831
G1 X99.063 Y66.627 E34.33427
G1 X99.063 Y67.245 E34.35166
G1 X89.755 Y57.937 E34.72221
G1 X89.137 Y57.937 E34.73960
G1 X99.063 Y67.863 E35.13475
G1 X99.063 Y68.480 E35.15214
G1 X88.520 Y57.937 E35.57189
G1 X87.902 Y57.937 E35.58928
G1 X99.063 Y69.098 E36.03362
G1 X99.063 Y69.716 E36.05101
G1 X87.284 Y57.937 E36.51995
G1 X86.666 Y57.937 E36.53735
G1 X99.063 Y70.334 E37.03088
G1 X99.063 Y70.952 E37.04828
G1 X86.048 Y57.937 E37.56641
G1 X85.430 Y57.937 E37.58380
G1 X99.063 Y71.570 E38.12653
G1 X99.063 Y72.187 E38.14393
G1 X84.813 Y57.937 E38.71125
G1 X84.195 Y57.937 E38.72865
G1 X99.063 Y72.805 E39.32057
G1 X99.063 Y73.423 E39.33797
G1 X83.577 Y57.937 E39.95449
G1 X82.959 Y57.937 E39.97188
G1 X99.063 Y74.041 E40.61300
G1 X99.063 Y74.659 E40.63039
G1 X82.341 Y57.937 E41.29611
G1 X81.724 Y57.937 E41.31350
G1 X99.063 Y75.276 E42.00382
G1 X99.063 Y75.894 E42.02121
G1 X81.106 Y57.937 E42.73612
G1 X80.488 Y57.937 E42.75352
G1 X99.063 Y76.512 E43.49302
G1 X99.063 Y77.130 E43.51042
G1 X79.870 Y57.937 E44.27452
G1 X79.252 Y57.937 E44.29192
G1 X99.063 Y77.748 E45.08062
G1 X99.063 Y78.366 E45.09801
G1 X78.634 Y57.937 E45.91131
G1 X78.017 Y57.937 E45.92870
G1 X99.063 Y78.983 E46.76660
G1 X99.063 Y79.601 E46.78399
G1 X77.399 Y57.937 E47.64649
G1 X76.781 Y57.937 E47.66388
G1 X99.063 Y80.219 E48.55097
G1 X99.063 Y80.837 E48.56837
G1 X76.163 Y57.937 E49.48006
G1 X75.545 Y57.937 E49.49745
G1 X99.063 Y81.455 E50.43373
G1 X99.063 Y82.072 E50.45113
G1 X74.928 Y57.937 E51.41201
G1 X74.310 Y57.937 E51.42940
G1 X99.063 Y82.690 E52.41488
G1 X99.063 Y83.308 E52.43228
G1 X73.692 Y57.937 E53.44235
G1 X73.074 Y57.937 E53.45975
G1 X99.063 Y83.926 E54.49442
G1 X99.063 Y84.544 E54.51182
G1 X72.456 Y57.937 E55.57109
G1 X71.838 Y57.937 E55.58848
G1 X99.063 Y85.162 E56.67235
G1 X99.063 Y85.779 E56.68974
G1 X71.221 Y57.937 E57.79821
G1 X70.937 Y58.272 E57.81055
G1 X99.063 Y86.397 E58.93029
G1 X99.063 Y87.015 E58.94768
G1 X70.937 Y58.890 E60.06742
G1 X70.937 Y59.508 E60.08482
G1 X99.063 Y87.633 E61.20456
G1 X99.063 Y88.251 E61.22195
G1 X70.937 Y60.126 E62.34169
G1 X70.937 Y60.743 E62.35908
G1 X99.063 Y88.869 E63.47882
G1 X99.063 Y89.486 E63.49622
G1 X70.937 Y61.361 E64.61596
G1 X70.937 Y61.979 E64.63335
G1 X99.063 Y90.104 E65.75309
G1 X99.063 Y90.722 E65.77048
G1 X70.937 Y62.597 E66.89022
G1 X70.937 Y63.215 E66.90762
G1 X99.063 Y91.340 E68.02736
G1 X99.063 Y91.958 E68.04475
G1 X70.937 Y63.832 E69.16449
G1 X70.937 Y64.450 E69.18188
G1 X99.063 Y92.575 E70.30162
G1 X99.063 Y93.193 E70.31902
G1 X70.937 Y65.068 E71.43876
G1 X70.937 Y65.686 E71.45615
G1 X99.063 Y93.811 E72.57589
G1 X99.063 Y94.429 E72.59328
G1 X70.937 Y66.304 E73.71302
G1 X70.937 Y66.922 E73.73042
G1 X99.063 Y95.047 E74.85016
G1 X99.063 Y95.665 E74.86755
G1 X70.937 Y67.539 E75.98729
G1 X70.937 Y68.157 E76.00468
G1 X99.063 Y96.282 E77.12442
G1 X99.063 Y96.900 E77.14182
G1 X70.937 Y68.775 E78.26156
G1 X70.937 Y69.393 E78.27895
G1 X99.063 Y97.518 E79.39869
G1 X99.063 Y98.136 E79.41608
G1 X70.937 Y70.011 E80.53582
G1 X70.937 Y70.629 E80.55322
G1 X99.063 Y98.754 E81.67296
G1 X99.063 Y99.371 E81.69035
G1 X70.937 Y71.246 E82.81009
G1 X70.937 Y71.864 E82.82748
G1 X99.063 Y99.989 E83.94722
G1 X99.063 Y100.607 E83.96462
G1 X70.937 Y72.482 E85.08436
G1 X70.937 Y73.100 E85.10175
G1 X99.063 Y101.225 E86.22149
G1 X99.063 Y101.843 E86.23888
G1 X70.937 Y73.718 E87.35862
G1 X70.937 Y74.335 E87.37601
G1 X99.063 Y102.461 E88.49576
G1 X99.063 Y103.078 E88.51315
G1 X70.937 Y74.953 E89.63289
G1 X70.937 Y75.571 E89.65028
G1 X99.063 Y103.696 E90.77002
G1 X99.063 Y104.314 E90.78741
G1 X70.937 Y76.189 E91.90715
G1 X70.937 Y76.807 E91.92455
G1 X99.063 Y104.932 E93.04429
G1 X99.063 Y105.550 E93.06168
G1 X70.937 Y77.425 E94.18142
G1 X70.937 Y78.042 E94.19881
G1 X99.063 Y106.168 E95.31855
G1 X99.063 Y106.785 E95.33595
G1 X70.937 Y78.660 E96.45569
G1 X70.937 Y79.278 E96.47308
G1 X99.063 Y107.403 E97.59282
G1 X99.063 Y108.021 E97.61021
G1 X70.937 Y79.896 E98.72995
G1 X70.937 Y80.514 E98.74735
G1 X99.063 Y108.639 E99.86709
G1 X99.063 Y109.257 E99.88448
G1 X70.937 Y81.131 E101.00422
G1 X70.937 Y81.749 E101.02161
G1 X99.063 Y109.874 E102.14135
G1 X99.063 Y110.492 E102.15875
G1 X70.937 Y82.367 E103.27849
G1 X70.937 Y82.985 E103.29588
G1 X99.063 Y111.110 E104.41562
G1 X99.063 Y111.728 E104.43301
G1 X70.937 Y83.603 E105.55275
G1 X70.937 Y84.221 E105.57015
G1 X98.779 Y112.063 E106.67861
G1 X98.162 Y112.063 E106.69601
G1 X70.937 Y84.838 E107.77988
G1 X70.937 Y85.456 E107.79727
G1 X97.544 Y112.063 E108.85654
G1 X96.926 Y112.063 E108.87393
G1 X70.937 Y86.074 E109.90861
G1 X70.937 Y86.692 E109.92600
G1 X96.308 Y112.063 E110.93608
G1 X95.690 Y112.063 E110.95347
G1 X70.937 Y87.310 E111.93895
G1 X70.937 Y87.928 E111.95635
G1 X95.072 Y112.063 E112.91723
G1 X94.455 Y112.063 E112.93462
G1 X70.937 Y88.545 E113.87091
G1 X70.937 Y89.163 E113.88830
G1 X93.837 Y112.063 E114.79999
G1 X93.219 Y112.063 E114.81738
G1 X70.937 Y89.781 E115.70447
G1 X70.937 Y90.399 E115.72187
G1 X92.601 Y112.063 E116.58436
G1 X91.983 Y112.063 E116.60175
G1 X70.937 Y91.017 E117.43965
G1 X70.937 Y91.634 E117.45705
G1 X91.366 Y112.063 E118.27035
G1 X90.748 Y112.063 E118.28774
G1 X70.937 Y92.252 E119.07644
G1 X70.937 Y92.870 E119.09383
G1 X90.130 Y112.063 E119.85794
G1 X89.512 Y112.063 E119.87533
G1 X70.937 Y93.488 E120.61484
G1 X70.937 Y94.106 E120.63223
G1 X88.894 Y112.063 E121.34715
G1 X88.276 Y112.063 E121.36454
G1 X70.937 Y94.724 E122.05485
G1 X70.937 Y95.341 E122.07225
G1 X87.659 Y112.063 E122.73796
G1 X87.041 Y112.063 E122.75536
G1 X70.937 Y95.959 E123.39647
G1 X70.937 Y96.577 E123.41387
G1 X86.423 Y112.063 E124.03039
G1 X85.805 Y112.063 E124.04778
G1 X70.937 Y97.195 E124.63971
G1 X70.937 Y97.813 E124.65710
G1 X85.187 Y112.063 E125.22443
G1 X84.570 Y112.063 E125.24182
G1 X70.937 Y98.430 E125.78455
G1 X70.937 Y99.048 E125.80195
G1 X83.952 Y112.063 E126.32008
G1 X83.334 Y112.063 E126.33747
G1 X70.937 Y99.666 E126.83101
G1 X70.937 Y100.284 E126.84840
G1 X82.716 Y112.063 E127.31734
G1 X82.098 Y112.063 E127.33473
G1 X70.937 Y100.902 E127.77908
G1 X70.937 Y101.520 E127.79647
G1 X81.480 Y112.063 E128.21621
G1 X80.863 Y112.063 E128.23361
G1 X70.937 Y102.137 E128.62875
G1 X70.937 Y102.755 E128.64615
G1 X80.245 Y112.063 E129.01670
G1 X79.627 Y112.063 E129.03409
G1 X70.937 Y103.373 E129.38004
G1 X70.937 Y103.991 E129.39744
G1 X79.009 Y112.063 E129.71879
G1 X78.391 Y112.063 E129.73619
G1 X70.937 Y104.609 E130.03294
G1 X70.937 Y105.227 E130.05034
G1 X77.773 Y112.063 E130.32250
G1 X77.156 Y112.063 E130.33989
G1 X70.937 Y105.844 E130.58746
G1 X70.937 Y106.462 E130.60485
G1 X76.538 Y112.063 E130.82782
G1 X75.920 Y112.063 E130.84521
G1 X70.937 Y107.080 E131.04358
G1 X70.937 Y107.698 E131.06097
G1 X75.302 Y112.063 E131.23475
G1 X74.684 Y112.063 E131.25214
G1 X70.937 Y108.316 E131.40131
G1 X70.937 Y108.933 E131.41871
G1 X74.067 Y112.063 E131.54329
G1 X73.449 Y112.063 E131.56068
G1 X70.937 Y109.551 E131.66066
G1 X70.937 Y110.169 E131.67805
G1 X72.831 Y112.063 E131.75344
G1 X72.213 Y112.063 E131.77083
G1 X70.937 Y110.787 E131.82162
G1 X70.937 Y111.405 E131.83901
G1 X71.595 Y112.063 E131.86520
G1 X70.977 Y112.063 E131.88259
G1 X70.937 Y112.023 E131.88418
G1 E129.88418 F1680.000
G92 E0
G1 Z0.350 F12000.000
M104 S188 ; set temperature
G1 Z0.650 F12000.000
G1 X70.795 Y80.515 F12000.000
G1 E2.00000 F1680.000
G1 X70.795 Y57.795 E2.63960 F1800.000
G1 X99.205 Y57.795 E3.43939 F1800.000
G1 X99.205 Y112.205 E4.97113
G1 X70.795 Y112.205 E5.77093
G1 X70.795 Y80.590 E6.66095
G1 X70.250 Y80.590 F12000.000
G1 X70.250 Y57.250 E7.09828 F1440.000
G1 X99.750 Y57.250 E7.65103
G1 X99.750 Y112.750 E8.69094
G1 X70.250 Y112.750 E9.24369 F1440.000
G1 X70.250 Y80.665 E9.84488
G1 X100.000 Y112.317 F12000.000
G1 X71.189 Y58.149 F12000.000
G1 X71.149 Y58.189 E9.84648 F2400.000
G1 X71.149 Y59.123 E9.87279
G1 X72.123 Y58.149 E9.91160
G1 X73.058 Y58.149 E9.93792
G1 X71.149 Y60.058 E10.01394
G1 X71.149 Y60.993 E10.04026
G1 X73.993 Y58.149 E10.15350
G1 X74.928 Y58.149 E10.17981
G1 X71.149 Y61.928 E10.33027
G1 X71.149 Y62.862 E10.35659
G1 X75.862 Y58.149 E10.54426
G1 X76.797 Y58.149 E10.57057
G1 X71.149 Y63.797 E10.79546
G1 X71.149 Y64.732 E10.82178
G1 X77.732 Y58.149 E11.08389
G1 X78.667 Y58.149 E11.11020
G1 X71.149 Y65.667 E11.40952
G1 X71.149 Y66.602 E11.43584
G1 X79.602 Y58.149 E11.77238
G1 X80.536 Y58.149 E11.79869
G1 X71.149 Y67.536 E12.17245
G1 X71.149 Y68.471 E12.19876
G1 X81.471 Y58.149 E12.60973
G1 X82.406 Y58.149 E12.63605
G1 X71.149 Y69.406 E13.08424
G1 X71.149 Y70.341 E13.11055
G1 X83.341 Y58.149 E13.59595
G1 X84.275 Y58.149 E13.62227
G1 X71.149 Y71.275 E14.14489
G1 X71.149 Y72.210 E14.17120
G1 X85.210 Y58.149 E14.73104
G1 X86.145 Y58.149 E14.75735
G1 X71.149 Y73.145 E15.35441
G1 X71.149 Y74.080 E15.38072
G1 X87.080 Y58.149 E16.01499
G1 X88.015 Y58.149 E16.04130
G1 X71.149 Y75.015 E16.71279
G1 X71.149 Y75.949 E16.73910
G1 X88.949 Y58.149 E17.44780
G1 X89.884 Y58.149 E17.47412
G1 X71.149 Y76.884 E18.22003
G1 X71.149 Y77.819 E18.24635
G1 X90.819 Y58.149 E19.02948
G1 X91.754 Y58.149 E19.05580
G1 X71.149 Y78.754 E19.87615
G1 X71.149 Y79.688 E19.90246
G1 X92.688 Y58.149 E20.76003
G1 X93.623 Y58.149 E20.78634
G1 X71.149 Y80.623 E21.68112
G1 X71.149 Y81.558 E21.70744
G1 X94.558 Y58.149 E22.63943
G1 X95.493 Y58.149 E22.66575
G1 X71.149 Y82.493 E23.63496
G1 X71.149 Y83.428 E23.66128
G1 X96.428 Y58.149 E24.66771
G1 X97.362 Y58.149 E24.69402
G1 X71.149 Y84.362 E25.73767
G1 X71.149 Y85.297 E25.76398
G1 X98.297 Y58.149 E26.84484
G1 X98.851 Y58.529 E26.86377
G1 X71.149 Y86.232 E27.96670
G1 X71.149 Y87.167 E27.99302
G1 X98.851 Y59.464 E29.09595
G1 X98.851 Y60.399 E29.12226
G1 X71.149 Y88.101 E30.22519
G1 X71.149 Y89.036 E30.25151
G1 X98.851 Y61.333 E31.35444
G1 X98.851 Y62.268 E31.38075
G1 X71.149 Y89.971 E32.48368
G1 X71.149 Y90.906 E32.51000
G1 X98.851 Y63.203 E33.61293
G1 X98.851 Y64.138 E33.63924
G1 X71.149 Y91.841 E34.74217
G1 X71.149 Y92.775 E34.76849
G1 X98.851 Y65.072 E35.87142
G1 X98.851 Y66.007 E35.89773
G1 X71.149 Y93.710 E37.00066
G1 X71.149 Y94.645 E37.02698
G1 X98.851 Y66.942 E38.12991
G1 X98.851 Y67.877 E38.15622
G1 X71.149 Y95.580 E39.25915
G1 X71.149 Y96.514 E39.28547
G1 X98.851 Y68.812 E40.38840
G1 X98.851 Y69.746 E40.41471
G1 X71.149 Y97.449 E41.51764
G1 X71.149 Y98.384 E41.54396
G1 X98.851 Y70.681 E42.64689
G1 X98.851 Y71.616 E42.67320
G1 X71.149 Y99.319 E43.77613
G1 X71.149 Y100.254 E43.80245
G1 X98.851 Y72.551 E44.90538
G1 X98.851 Y73.485 E44.93169
G1 X71.149 Y101.188 E46.03462
G1 X71.149 Y102.123 E46.06094
G1 X98.851 Y74.420 E47.16387
G1 X98.851 Y75.355 E47.19018
G1 X71.149 Y103.058 E48.29311
G1 X71.149 Y103.993 E48.31943
G1 X98.851 Y76.290 E49.42236
G1 X98.851 Y77.225 E49.44867
G1 X71.149 Y104.928 E50.55160
G1 X71.149 Y105.862 E50.57792
G1 X98.851 Y78.159 E51.68085
G1 X98.851 Y79.094 E51.70716
G1 X71.149 Y106.797 E52.81009
G1 X71.149 Y107.732 E52.83641
G1 X98.851 Y80.029 E53.93934
G1 X98.851 Y80.964 E53.96565
G1 X71.149 Y108.667 E55.06858
G1 X71.149 Y109.601 E55.09490
G1 X98.851 Y81.899 E56.19783
G1 X98.851 Y82.833 E56.22414
G1 X71.149 Y110.536 E57.32707
G1 X71.149 Y111.471 E57.35339
G1 X98.851 Y83.768 E58.45632
G1 X98.851 Y84.703 E58.48263
G1 X71.703 Y111.851 E59.56349
G1 X72.638 Y111.851 E59.58981
G1 X98.851 Y85.638 E60.63345
G1 X98.851 Y86.572 E60.65977
G1 X73.572 Y111.851 E61.66620
G1 X74.507 Y111.851 E61.69251
G1 X98.851 Y87.507 E62.66173
G1 X98.851 Y88.442 E62.68804
G1 X75.442 Y111.851 E63.62004
G1 X76.377 Y111.851 E63.64636
G1 X98.851 Y89.377 E64.54114
G1 X98.851 Y90.312 E64.56745
G1 X77.312 Y111.851 E65.42502
G1 X78.246 Y111.851 E65.45133
G1 X98.851 Y91.246 E66.27168
G1 X98.851 Y92.181 E66.29800
G1 X79.181 Y111.851 E67.08113
G1 X80.116 Y111.851 E67.10744
G1 X98.851 Y93.116 E67.85336
G1 X98.851 Y94.051 E67.87967
G1 X81.051 Y111.851 E68.58837
G1 X81.985 Y111.851 E68.61469
G1 X98.851 Y94.985 E69.28617
G1 X98.851 Y95.920 E69.31249
G1 X82.920 Y111.851 E69.94676
G1 X83.855 Y111.851 E69.97307
G1 X98.851 Y96.855 E70.57012
G1 X98.851 Y97.790 E70.59644
G1 X84.790 Y111.851 E71.15627
G1 X85.725 Y111.851 E71.18259
G1 X98.851 Y98.725 E71.70521
G1 X98.851 Y99.659 E71.73152
G1 X86.659 Y111.851 E72.21693
G1 X87.594 Y111.851 E72.24324
G1 X98.851 Y100.594 E72.69143
G1 X98.851 Y101.529 E72.71774
G1 X88.529 Y111.851 E73.12871
G1 X89.464 Y111.851 E73.15503
G1 X98.851 Y102.464 E73.52878
G1 X98.851 Y103.398 E73.55510
G1 X90.398 Y111.851 E73.89164
G1 X91.333 Y111.851 E73.91795
