; generated by Slic3r 1.2.1 on 2014-12-08 at 17:08:34

; external perimeters extrusion width = 0.50mm
; perimeters extrusion width = 0.72mm
; infill extrusion width = 0.27mm
; solid infill extrusion width = 0.72mm
; top infill extrusion width = 0.72mm
; support material extrusion width = 0.50mm

M104 S190 ; set temperature
G28 ; home all axes
G1 Z15 F120 ; lift nozzle
M109 S190 ; wait for temperature to be reached
G21 ; set units to millimeters
G90 ; use absolute coordinates
M82 ; use absolute distances for extrusion
G92 E0
M106 S102
G1 E-2.00000 F1680.000
G92 E0
G1 Z0.350 F12000.000
G1 X65.602 Y71.824 F12000.000
G1 E2.00000 F1680.000
G1 X67.348 Y70.388 E2.06363 F1200.000
G1 X70.500 Y69.564 E2.15535
G1 X99.500 Y69.564 E2.97176
G1 X101.725 Y69.961 E3.03539
G1 X103.676 Y71.102 E3.09902 F1200.000
G1 X105.112 Y72.848 E3.16265
G1 X105.936 Y76.000 E3.25437
G1 X105.936 Y94.000 E3.76111
G1 X105.539 Y96.225 E3.82474
G1 X104.398 Y98.176 E3.88837
G1 X102.652 Y99.612 E3.95200
G1 X99.500 Y100.436 E4.04372
G1 X70.500 Y100.436 E4.86013
G1 X68.275 Y100.039 E4.92376
G1 X66.324 Y98.898 E4.98739
G1 X64.888 Y97.152 E5.05103
G1 X64.064 Y94.000 E5.14275
G1 X64.064 Y76.000 E5.64948
G1 X64.461 Y73.775 E5.71311
G1 X65.564 Y71.889 E5.77463
G1 E3.77463 F1680.000
G92 E0
G1 X76.297 Y76.670 F12000.000
G1 E2.00000 F1680.000
G1 X98.830 Y76.670 E2.63435 F900.000
G1 X98.830 Y93.330 E3.10337
G1 X71.170 Y93.330 E3.88206
G1 X71.170 Y76.670 E4.35108
G1 X76.222 Y76.670 E4.49330 F900.000
G1 X76.222 Y76.250 F12000.000
G1 X99.250 Y76.250 E5.14158 F720.000
G1 X99.250 Y93.750 E5.63424
G1 X70.750 Y93.750 E6.43657 F720.000
G1 X70.750 Y76.250 E6.92923
G1 X76.147 Y76.250 E7.08116
G1 X98.758 Y93.659 F12000.000
G1 X71.437 Y93.023 F12000.000
G1 X71.477 Y93.063 E7.08275 F1200.000
G1 X72.103 Y93.063 E7.10037
G1 X71.437 Y92.397 E7.12687
G1 X71.437 Y91.771 E7.14448
G1 X72.729 Y93.063 E7.19589
G1 X73.354 Y93.063 E7.21351
G1 X71.437 Y91.146 E7.28983
G1 X71.437 Y90.520 E7.30744
G1 X73.980 Y93.063 E7.40867
G1 X74.606 Y93.063 E7.42628
G1 X71.437 Y89.894 E7.55242
G1 X71.437 Y89.269 E7.57003
G1 X75.231 Y93.063 E7.72108
G1 X75.857 Y93.063 E7.73869
G1 X71.437 Y88.643 E7.91465
G1 X71.437 Y88.017 E7.93226
G1 X76.483 Y93.063 E8.13313
G1 X77.108 Y93.063 E8.15074
G1 X71.437 Y87.392 E8.37652
G1 X71.437 Y86.766 E8.39413
G1 X77.734 Y93.063 E8.64481
G1 X78.360 Y93.063 E8.66243
G1 X71.437 Y86.140 E8.93802
G1 X71.437 Y85.515 E8.95563
G1 X78.985 Y93.063 E9.25614
G1 X79.611 Y93.063 E9.27375
G1 X71.437 Y84.889 E9.59916
G1 X71.437 Y84.263 E9.61677
G1 X80.237 Y93.063 E9.96709
G1 X80.862 Y93.063 E9.98471
G1 X71.437 Y83.638 E10.35994
G1 X71.437 Y83.012 E10.37755
G1 X81.488 Y93.063 E10.77769
G1 X82.114 Y93.063 E10.79530
G1 X71.437 Y82.386 E11.22035
G1 X71.437 Y81.761 E11.23796
G1 X82.739 Y93.063 E11.68792
G1 X83.365 Y93.063 E11.70553
G1 X71.437 Y81.135 E12.18040
G1 X71.437 Y80.509 E12.19801
G1 X83.991 Y93.063 E12.69779
G1 X84.616 Y93.063 E12.71540
G1 X71.437 Y79.884 E13.24008
G1 X71.437 Y79.258 E13.25770
G1 X85.242 Y93.063 E13.80729
G1 X85.868 Y93.063 E13.82490
G1 X71.437 Y78.632 E14.39941
G1 X71.437 Y78.007 E14.41702
G1 X86.493 Y93.063 E15.01643
G1 X87.119 Y93.063 E15.03405
G1 X71.437 Y77.381 E15.65837
G1 X71.619 Y76.937 E15.67187
G1 X87.744 Y93.063 E16.31385
G1 X88.370 Y93.063 E16.33147
G1 X72.245 Y76.937 E16.97345
G1 X72.871 Y76.937 E16.99107
G1 X88.996 Y93.063 E17.63305
G1 X89.621 Y93.063 E17.65067
G1 X73.496 Y76.937 E18.29266
G1 X74.122 Y76.937 E18.31027
G1 X90.247 Y93.063 E18.95226
G1 X90.873 Y93.063 E18.96987
G1 X74.748 Y76.937 E19.61186
G1 X75.373 Y76.937 E19.62947
G1 X91.498 Y93.063 E20.27146
G1 X92.124 Y93.063 E20.28907
G1 X75.999 Y76.937 E20.93106
G1 X76.625 Y76.937 E20.94867
G1 X92.750 Y93.063 E21.59066
G1 X93.375 Y93.063 E21.60827
G1 X77.250 Y76.937 E22.25026
G1 X77.876 Y76.937 E22.26787
G1 X94.001 Y93.063 E22.90986
G1 X94.627 Y93.063 E22.92747
G1 X78.502 Y76.937 E23.56946
G1 X79.127 Y76.937 E23.58707
G1 X95.252 Y93.063 E24.22906
G1 X95.878 Y93.063 E24.24667
G1 X79.753 Y76.937 E24.88866
G1 X80.379 Y76.937 E24.90627
G1 X96.504 Y93.063 E25.54826
G1 X97.129 Y93.063 E25.56587
G1 X81.004 Y76.937 E26.20786
G1 X81.630 Y76.937 E26.22547
G1 X97.755 Y93.063 E26.86746
G1 X98.381 Y93.063 E26.88507
G1 X82.256 Y76.937 E27.52706
G1 X82.881 Y76.937 E27.54468
G1 X98.563 Y92.619 E28.16900
G1 X98.563 Y91.993 E28.18661
G1 X83.507 Y76.937 E28.78602
G1 X84.132 Y76.937 E28.80363
G1 X98.563 Y91.368 E29.37814
G1 X98.563 Y90.742 E29.39575
G1 X84.758 Y76.937 E29.94534
G1 X85.384 Y76.937 E29.96296
G1 X98.563 Y90.116 E30.48764
G1 X98.563 Y89.491 E30.50525
G1 X86.009 Y76.937 E31.00503
G1 X86.635 Y76.937 E31.02264
G1 X98.563 Y88.865 E31.49751
G1 X98.563 Y88.239 E31.51512
G1 X87.261 Y76.937 E31.96508
G1 X87.886 Y76.937 E31.98269
G1 X98.563 Y87.614 E32.40774
G1 X98.563 Y86.988 E32.42535
G1 X88.512 Y76.937 E32.82549
G1 X89.138 Y76.937 E32.84311
G1 X98.563 Y86.362 E33.21834
G1 X98.563 Y85.737 E33.23595
G1 X89.763 Y76.937 E33.58627
G1 X90.389 Y76.937 E33.60388
G1 X98.563 Y85.111 E33.92929
G1 X98.563 Y84.485 E33.94691
G1 X91.015 Y76.937 E34.24741
G1 X91.640 Y76.937 E34.26502
G1 X98.563 Y83.860 E34.54062
G1 X98.563 Y83.234 E34.55823
G1 X92.266 Y76.937 E34.80891
G1 X92.892 Y76.937 E34.82653
G1 X98.563 Y82.608 E35.05230
G1 X98.563 Y81.983 E35.06991
G1 X93.517 Y76.937 E35.27078
G1 X94.143 Y76.937 E35.28839
G1 X98.563 Y81.357 E35.46435
G1 X98.563 Y80.731 E35.48196
G1 X94.769 Y76.937 E35.63301
G1 X95.394 Y76.937 E35.65062
G1 X98.563 Y80.106 E35.77676
G1 X98.563 Y79.480 E35.79438
G1 X96.020 Y76.937 E35.89560
G1 X96.646 Y76.937 E35.91322
G1 X98.563 Y78.854 E35.98954
G1 X98.563 Y78.229 E36.00715
G1 X97.271 Y76.937 E36.05856
G1 X97.897 Y76.937 E36.07618
G1 X98.563 Y77.603 E36.10268
G1 X98.563 Y76.977 E36.12029
G1 X98.523 Y76.937 E36.12188
G1 E34.12188 F1680.000
G92 E0
G1 Z0.350 F12000.000
M106 S255
M104 S188 ; set temperature
G1 Z0.650 F12000.000
G1 X85.942 Y76.795 F12000.000
G1 E2.00000 F1680.000
G1 X98.705 Y76.795 E2.35930 F1413.388
G1 X98.705 Y93.205 E2.82127
G1 X71.295 Y93.205 E3.59291
G1 X71.295 Y76.795 E4.05488
G1 X85.867 Y76.795 E4.46511 F1413.388
G1 X85.867 Y76.250 F12000.000
G1 X99.250 Y76.250 E4.71587 F1130.710
G1 X99.250 Y93.750 E5.04377
G1 X70.750 Y93.750 E5.57778 F1130.710
G1 X70.750 Y76.250 E5.90569
G1 X85.792 Y76.250 E6.18753
G1 X98.758 Y93.659 F12000.000
G1 X71.689 Y77.149 F12000.000
G1 X71.649 Y77.189 E6.18912 F1884.517
G1 X71.649 Y78.129 E6.21560
G1 X72.629 Y77.149 E6.25464
G1 X73.570 Y77.149 E6.28112
G1 X71.649 Y79.070 E6.35761
G1 X71.649 Y80.010 E6.38408
G1 X74.510 Y77.149 E6.49802
G1 X75.451 Y77.149 E6.52450
G1 X71.649 Y80.951 E6.67588
G1 X71.649 Y81.891 E6.70235
G1 X76.391 Y77.149 E6.89118
G1 X77.332 Y77.149 E6.91766
G1 X71.649 Y82.832 E7.14393
G1 X71.649 Y83.773 E7.17041
G1 X78.273 Y77.149 E7.43413
G1 X79.213 Y77.149 E7.46061
G1 X71.649 Y84.713 E7.76178
G1 X71.649 Y85.654 E7.78826
G1 X80.154 Y77.149 E8.12687
G1 X81.094 Y77.149 E8.15335
G1 X71.649 Y86.594 E8.52941
G1 X71.649 Y87.535 E8.55589
G1 X82.035 Y77.149 E8.96940
G1 X82.975 Y77.149 E8.99588
G1 X71.649 Y88.475 E9.44683
G1 X71.649 Y89.416 E9.47331
G1 X83.916 Y77.149 E9.96171
G1 X84.857 Y77.149 E9.98819
G1 X71.649 Y90.357 E10.51404
G1 X71.649 Y91.297 E10.54052
G1 X85.797 Y77.149 E11.10381
G1 X86.738 Y77.149 E11.13029
G1 X71.649 Y92.238 E11.73103
G1 X71.975 Y92.851 E11.75061
G1 X87.678 Y77.149 E12.37578
G1 X88.619 Y77.149 E12.40226
G1 X72.916 Y92.851 E13.02744
G1 X73.857 Y92.851 E13.05392
G1 X89.559 Y77.149 E13.67909
G1 X90.500 Y77.149 E13.70557
G1 X74.797 Y92.851 E14.33075
G1 X75.738 Y92.851 E14.35723
G1 X91.441 Y77.149 E14.98240
G1 X92.381 Y77.149 E15.00888
G1 X76.678 Y92.851 E15.63406
G1 X77.619 Y92.851 E15.66054
G1 X93.322 Y77.149 E16.28571
G1 X94.262 Y77.149 E16.31219
G1 X78.559 Y92.851 E16.93737
G1 X79.500 Y92.851 E16.96385
G1 X95.203 Y77.149 E17.58902
G1 X96.143 Y77.149 E17.61550
G1 X80.441 Y92.851 E18.24068
G1 X81.381 Y92.851 E18.26716
G1 X97.084 Y77.149 E18.89233
G1 X98.025 Y77.149 E18.91881
G1 X82.322 Y92.851 E19.54399
G1 X83.262 Y92.851 E19.57047
G1 X98.351 Y77.762 E20.17121
G1 X98.351 Y78.703 E20.19769
G1 X84.203 Y92.851 E20.76098
G1 X85.143 Y92.851 E20.78746
G1 X98.351 Y79.643 E21.31331
G1 X98.351 Y80.584 E21.33979
G1 X86.084 Y92.851 E21.82819
G1 X87.025 Y92.851 E21.85467
G1 X98.351 Y81.525 E22.30562
G1 X98.351 Y82.465 E22.33210
G1 X87.965 Y92.851 E22.74561
G1 X88.906 Y92.851 E22.77209
G1 X98.351 Y83.406 E23.14815
G1 X98.351 Y84.346 E23.17463
G1 X89.846 Y92.851 E23.51324
G1 X90.787 Y92.851 E23.53972
G1 X98.351 Y85.287 E23.84089
G1 X98.351 Y86.227 E23.86737
G1 X91.727 Y92.851 E24.13109
G1 X92.668 Y92.851 E24.15757
G1 X98.351 Y87.168 E24.38384
G1 X98.351 Y88.109 E24.41032
G1 X93.609 Y92.851 E24.59915
G1 X94.549 Y92.851 E24.62562
G1 X98.351 Y89.049 E24.77700
G1 X98.351 Y89.990 E24.80348
G1 X95.490 Y92.851 E24.91742
G1 X96.430 Y92.851 E24.94390
G1 X98.351 Y90.930 E25.02038
G1 X98.351 Y91.871 E25.04686
G1 X97.371 Y92.851 E25.08590
G1 X98.311 Y92.851 E25.11238
G1 X98.351 Y92.811 E25.11397
G1 E23.11397 F1680.000
G92 E0
G1 Z0.650 F12000.000
G1 Z0.950 F12000.000
G1 X71.295 Y88.228 F12000.000
G1 E2.00000 F1680.000
G1 X71.295 Y76.795 E2.32185 F1413.388
G1 X98.705 Y76.795 E3.09349 F1413.388
G1 X98.705 Y93.205 E3.55546
G1 X71.295 Y93.205 E4.32710
G1 X71.295 Y88.303 E4.46511
G1 X70.750 Y88.303 F12000.000
G1 X70.750 Y76.250 E4.69094 F1130.710
G1 X99.250 Y76.250 E5.22496
G1 X99.250 Y93.750 E5.55286
G1 X70.750 Y93.750 E6.08687 F1130.710
G1 X70.750 Y88.378 E6.18753
G1 X99.500 Y93.317 F12000.000
G1 X71.649 Y92.811 F12000.000
G1 X71.689 Y92.851 E6.18912 F1884.517
G1 X72.629 Y92.851 E6.21560
G1 X71.649 Y91.871 E6.25464
G1 X71.649 Y90.930 E6.28112
G1 X73.570 Y92.851 E6.35761
G1 X74.510 Y92.851 E6.38408
G1 X71.649 Y89.990 E6.49802
G1 X71.649 Y89.049 E6.52450
G1 X75.451 Y92.851 E6.67588
G1 X76.391 Y92.851 E6.70235
G1 X71.649 Y88.109 E6.89118
G1 X71.649 Y87.168 E6.91766
G1 X77.332 Y92.851 E7.14393
G1 X78.273 Y92.851 E7.17041
G1 X71.649 Y86.227 E7.43413
G1 X71.649 Y85.287 E7.46061
G1 X79.213 Y92.851 E7.76178
G1 X80.154 Y92.851 E7.78826
G1 X71.649 Y84.346 E8.12687
G1 X71.649 Y83.406 E8.15335
G1 X81.094 Y92.851 E8.52941
G1 X82.035 Y92.851 E8.55589
G1 X71.649 Y82.465 E8.96940
G1 X71.649 Y81.525 E8.99588
G1 X82.975 Y92.851 E9.44683
G1 X83.916 Y92.851 E9.47331
G1 X71.649 Y80.584 E9.96171
G1 X71.649 Y79.643 E9.98819
G1 X84.857 Y92.851 E10.51404
G1 X85.797 Y92.851 E10.54052
G1 X71.649 Y78.703 E11.10381
G1 X71.649 Y77.762 E11.13029
G1 X86.738 Y92.851 E11.73103
G1 X87.678 Y92.851 E11.75751
G1 X71.975 Y77.149 E12.38269
G1 X72.916 Y77.149 E12.40917
G1 X88.619 Y92.851 E13.03434
G1 X89.559 Y92.851 E13.06082
G1 X73.857 Y77.149 E13.68600
G1 X74.797 Y77.149 E13.71248
G1 X90.500 Y92.851 E14.33765
G1 X91.441 Y92.851 E14.36413
G1 X75.738 Y77.149 E14.98931
G1 X76.678 Y77.149 E15.01579
G1 X92.381 Y92.851 E15.64096
G1 X93.322 Y92.851 E15.66744
G1 X77.619 Y77.149 E16.29262
G1 X78.559 Y77.149 E16.31910
G1 X94.262 Y92.851 E16.94427
G1 X95.203 Y92.851 E16.97075
G1 X79.500 Y77.149 E17.59593
G1 X80.441 Y77.149 E17.62241
G1 X96.143 Y92.851 E18.24758
G1 X97.084 Y92.851 E18.27406
G1 X81.381 Y77.149 E18.89924
G1 X82.322 Y77.149 E18.92572
G1 X98.025 Y92.851 E19.55089
G1 X98.351 Y92.238 E19.57047
G1 X83.262 Y77.149 E20.17121
G1 X84.203 Y77.149 E20.19769
G1 X98.351 Y91.297 E20.76098
G1 X98.351 Y90.357 E20.78746
G1 X85.143 Y77.149 E21.31331
G1 X86.084 Y77.149 E21.33979
G1 X98.351 Y89.416 E21.82819
G1 X98.351 Y88.475 E21.85467
G1 X87.025 Y77.149 E22.30562
G1 X87.965 Y77.149 E22.33210
G1 X98.351 Y87.535 E22.74561
G1 X98.351 Y86.594 E22.77209
G1 X88.906 Y77.149 E23.14815
G1 X89.846 Y77.149 E23.17463
G1 X98.351 Y85.654 E23.51324
G1 X98.351 Y84.713 E23.53972
G1 X90.787 Y77.149 E23.84089
G1 X91.727 Y77.149 E23.86737
G1 X98.351 Y83.773 E24.13109
G1 X98.351 Y82.832 E24.15757
G1 X92.668 Y77.149 E24.38384
G1 X93.609 Y77.149 E24.41032
G1 X98.351 Y81.891 E24.59915
G1 X98.351 Y80.951 E24.62563
G1 X94.549 Y77.149 E24.77701
G1 X95.490 Y77.149 E24.80348
G1 X98.351 Y80.010 E24.91742
G1 X98.351 Y79.070 E24.94390
G1 X96.430 Y77.149 E25.02038
G1 X97.371 Y77.149 E25.04686
G1 X98.351 Y78.129 E25.08590
G1 X98.351 Y77.189 E25.11238
G1 X98.311 Y77.149 E25.11397
G1 E23.11397 F1680.000
G92 E0
G1 Z1.100 F12000.000
G1 Z1.250 F12000.000
G1 X98.705 Y87.377 F12000.000
G1 E2.00000 F1680.000
G1 X98.705 Y93.205 E2.16406 F1413.388
G1 X71.295 Y93.205 E2.93570
G1 X71.295 Y76.795 E3.39767
G1 X98.705 Y76.795 E4.16931 F1413.388
G1 X98.705 Y87.302 E4.46511
G1 X99.250 Y87.302 F12000.000
G1 X99.250 Y93.750 E4.58592 F1130.710
G1 X70.750 Y93.750 E5.11993 F1130.710
G1 X70.750 Y76.250 E5.44783
G1 X99.250 Y76.250 E5.98184
G1 X99.250 Y87.227 E6.18753
G1 X98.817 Y93.500 F12000.000
G1 X98.351 Y92.811 F12000.000
G1 X98.311 Y92.851 E6.18912 F1884.517
G1 X97.371 Y92.851 E6.21560
G1 X98.351 Y91.871 E6.25464
G1 X98.351 Y90.930 E6.28112
G1 X96.430 Y92.851 E6.35761
G1 X95.490 Y92.851 E6.38408
G1 X98.351 Y89.990 E6.49802
G1 X98.351 Y89.049 E6.52450
G1 X94.549 Y92.851 E6.67588
G1 X93.609 Y92.851 E6.70235
G1 X98.351 Y88.109 E6.89118
G1 X98.351 Y87.168 E6.91766
G1 X92.668 Y92.851 E7.14393
G1 X91.727 Y92.851 E7.17041
G1 X98.351 Y86.227 E7.43413
G1 X98.351 Y85.287 E7.46061
G1 X90.787 Y92.851 E7.76178
G1 X89.846 Y92.851 E7.78826
G1 X98.351 Y84.346 E8.12687
G1 X98.351 Y83.406 E8.15335
G1 X88.906 Y92.851 E8.52941
G1 X87.965 Y92.851 E8.55589
G1 X98.351 Y82.465 E8.96940
G1 X98.351 Y81.525 E8.99588
G1 X87.025 Y92.851 E9.44683
G1 X86.084 Y92.851 E9.47331
G1 X98.351 Y80.584 E9.96171
G1 X98.351 Y79.643 E9.98819
G1 X85.143 Y92.851 E10.51404
G1 X84.203 Y92.851 E10.54052
G1 X98.351 Y78.703 E11.10381
G1 X98.351 Y77.762 E11.13029
G1 X83.262 Y92.851 E11.73103
G1 X82.322 Y92.851 E11.75751
G1 X98.025 Y77.149 E12.38269
G1 X97.084 Y77.149 E12.40917
G1 X81.381 Y92.851 E13.03434
G1 X80.441 Y92.851 E13.06082
G1 X96.143 Y77.149 E13.68600
G1 X95.203 Y77.149 E13.71248
G1 X79.500 Y92.851 E14.33765
G1 X78.559 Y92.851 E14.36413
G1 X94.262 Y77.149 E14.98931
G1 X93.322 Y77.149 E15.01579
G1 X77.619 Y92.851 E15.64096
G1 X76.678 Y92.851 E15.66744
G1 X92.381 Y77.149 E16.29262
G1 X91.441 Y77.149 E16.31910
G1 X75.738 Y92.851 E16.94427
G1 X74.797 Y92.851 E16.97075
G1 X90.500 Y77.149 E17.59593
G1 X89.559 Y77.149 E17.62241
G1 X73.857 Y92.851 E18.24758
G1 X72.916 Y92.851 E18.27406
G1 X88.619 Y77.149 E18.89924
G1 X87.678 Y77.149 E18.92572
G1 X71.975 Y92.851 E19.55089
G1 X71.649 Y92.238 E19.57047
G1 X86.738 Y77.149 E20.17121
G1 X85.797 Y77.149 E20.19769
G1 X71.649 Y91.297 E20.76098
G1 X71.649 Y90.357 E20.78746
G1 X84.857 Y77.149 E21.31331
G1 X83.916 Y77.149 E21.33979
G1 X71.649 Y89.416 E21.82819
G1 X71.649 Y88.475 E21.85467
G1 X82.975 Y77.149 E22.30562
G1 X82.035 Y77.149 E22.33210
G1 X71.649 Y87.535 E22.74561
G1 X71.649 Y86.594 E22.77209
G1 X81.094 Y77.149 E23.14815
G1 X80.154 Y77.149 E23.17463
G1 X71.649 Y85.654 E23.51324
G1 X71.649 Y84.713 E23.53972
G1 X79.213 Y77.149 E23.84089
G1 X78.273 Y77.149 E23.86737
G1 X71.649 Y83.773 E24.13109
G1 X71.649 Y82.832 E24.15757
G1 X77.332 Y77.149 E24.38384
G1 X76.391 Y77.149 E24.41032
G1 X71.649 Y81.891 E24.59915
G1 X71.649 Y80.951 E24.62562
G1 X75.451 Y77.149 E24.77700
G1 X74.510 Y77.149 E24.80348
G1 X71.649 Y80.010 E24.91742
G1 X71.649 Y79.070 E24.94390
G1 X73.570 Y77.149 E25.02038
G1 X72.629 Y77.149 E25.04686
G1 X71.649 Y78.129 E25.08590
G1 X71.649 Y77.189 E25.11238
G1 X71.689 Y77.149 E25.11397
G1 E23.11397 F1680.000
G92 E0
G1 Z1.550 F12000.000
G1 X75.637 Y93.205 F12000.000
G1 E2.00000 F1680.000
G1 X71.295 Y93.205 E2.12223 F1749.537
G1 X71.295 Y76.795 E2.58420
G1 X98.705 Y76.795 E3.35584 F1749.537
