; generated by Slic3r 1.2.1 on 2014-12-08 at 18:29:15

; external perimeters extrusion width = 0.50mm
; perimeters extrusion width = 0.72mm
; infill extrusion width = 0.27mm
; solid infill extrusion width = 0.72mm
; top infill extrusion width = 0.72mm
; support material extrusion width = 0.50mm

M104 S190 ; set temperature
G28 ; home all axes
G1 Z15 F120 ; lift nozzle
M109 S190 ; wait for temperature to be reached
G21 ; set units to millimeters
G90 ; use absolute coordinates
M82 ; use absolute distances for extrusion
G92 E0
M106 S255
G1 E-2.00000 F1680.000
G92 E0
G1 Z0.350 F12000.000
G1 X75.552 Y75.495 F12000.000
G1 E2.00000 F1680.000
G1 X76.936 Y74.295 E2.05157 F1137.113
G1 X78.612 Y73.218 E2.10766
G1 X80.279 Y72.457 E2.15924
G1 X82.187 Y71.897 E2.21523
G1 X84.004 Y71.635 E2.26690
G1 X85.996 Y71.635 E2.32299
G1 X87.810 Y71.896 E2.37456
G1 X89.721 Y72.457 E2.43066 F1137.113
G1 X91.388 Y73.218 E2.48223
G1 X93.064 Y74.295 E2.53833
G1 X94.448 Y75.495 E2.58989
G1 X95.751 Y76.998 E2.64589
G1 X96.743 Y78.542 E2.69755
G1 X97.571 Y80.354 E2.75364
G1 X98.087 Y82.112 E2.80522
G1 X98.371 Y84.084 E2.86131
G1 X98.371 Y85.916 E2.91288
G1 X98.087 Y87.888 E2.96897
G1 X97.571 Y89.646 E3.02054
G1 X96.743 Y91.458 E3.07663
G1 X95.753 Y92.999 E3.12821
G1 X94.448 Y94.505 E3.18430
G1 X93.064 Y95.705 E3.23587
G1 X91.388 Y96.782 E3.29196
G1 X89.721 Y97.543 E3.34353
G1 X87.810 Y98.104 E3.39962
G1 X85.996 Y98.365 E3.45120
G1 X84.004 Y98.365 E3.50729
G1 X82.190 Y98.104 E3.55886
G1 X80.279 Y97.543 E3.61495
G1 X78.613 Y96.782 E3.66651
G1 X76.936 Y95.705 E3.72261
G1 X75.552 Y94.505 E3.77419
G1 X74.247 Y92.999 E3.83028
G1 X73.257 Y91.458 E3.88185
G1 X72.429 Y89.646 E3.93794
G1 X71.913 Y87.888 E3.98951
G1 X71.629 Y85.916 E4.04560
G1 X71.629 Y84.084 E4.09718
G1 X71.913 Y82.112 E4.15327
G1 X72.429 Y80.354 E4.20484
G1 X73.257 Y78.541 E4.26095
G1 X74.247 Y77.001 E4.31250
G1 X75.503 Y75.552 E4.36648
G1 E2.36648 F1680.000
G92 E0
G1 X79.213 Y78.766 F12000.000
G1 E2.00000 F1680.000
G1 X79.333 Y78.627 E2.00518 F1137.113
G1 X79.498 Y78.484 E2.01134
G1 X81.358 Y77.289 E2.07357
G1 X81.557 Y77.198 E2.07972
G1 X83.679 Y76.575 E2.14197
G1 X83.895 Y76.544 E2.14812
G1 X86.105 Y76.544 E2.21035
G1 X86.322 Y76.575 E2.21650
G1 X88.443 Y77.198 E2.27875 F1137.113
G1 X88.642 Y77.289 E2.28489
G1 X90.502 Y78.484 E2.34714
G1 X90.667 Y78.627 E2.35328
G1 X92.114 Y80.298 E2.41552
G1 X92.233 Y80.482 E2.42167
G1 X93.151 Y82.493 E2.48391
G1 X93.213 Y82.702 E2.49006
G1 X93.527 Y84.890 E2.55229
G1 X93.527 Y85.109 E2.55845
G1 X93.213 Y87.298 E2.62069
G1 X93.151 Y87.507 E2.62685
G1 X92.233 Y89.518 E2.68908
G1 X92.114 Y89.702 E2.69524
G1 X90.667 Y91.373 E2.75747
G1 X90.501 Y91.516 E2.76363
G1 X88.642 Y92.711 E2.82586
G1 X88.443 Y92.802 E2.83201
G1 X86.322 Y93.425 E2.89425
G1 X86.105 Y93.456 E2.90040
G1 X83.894 Y93.456 E2.96264
G1 X83.678 Y93.425 E2.96880
G1 X81.557 Y92.802 E3.03103
G1 X81.358 Y92.711 E3.03718
G1 X79.498 Y91.516 E3.09942
G1 X79.333 Y91.373 E3.10557
G1 X77.886 Y89.702 E3.16781
G1 X77.767 Y89.518 E3.17396
G1 X76.849 Y87.507 E3.23620
G1 X76.787 Y87.297 E3.24235
G1 X76.473 Y85.109 E3.30459
G1 X76.473 Y84.891 E3.31074
G1 X76.787 Y82.703 E3.37297
G1 X76.849 Y82.493 E3.37913
G1 X77.768 Y80.482 E3.44137
G1 X77.886 Y80.298 E3.44752
G1 X79.164 Y78.823 E3.50246
G1 X79.493 Y79.109 F12000.000
G1 X79.643 Y78.936 E3.50888 F1137.113
G1 X79.761 Y78.834 E3.51327
G1 X81.568 Y77.673 E3.57375
G1 X81.710 Y77.608 E3.57815
G1 X83.772 Y77.003 E3.63863
G1 X83.926 Y76.980 E3.64302
G1 X86.074 Y76.980 E3.70350
G1 X86.229 Y77.003 E3.70790 F1137.113
G1 X88.290 Y77.608 E3.76838
G1 X88.432 Y77.673 E3.77277
G1 X90.171 Y78.790 E3.83096
G1 X90.357 Y78.936 E3.83763
G1 X91.764 Y80.560 E3.89812
G1 X91.849 Y80.691 E3.90251
G1 X92.741 Y82.646 E3.96298
G1 X92.785 Y82.795 E3.96738
G1 X93.091 Y84.922 E4.02786
G1 X93.091 Y85.078 E4.03226
G1 X92.785 Y87.205 E4.09274
G1 X92.741 Y87.354 E4.09714
G1 X91.849 Y89.309 E4.15762
G1 X91.764 Y89.440 E4.16201
G1 X90.357 Y91.064 E4.22249
G1 X90.239 Y91.166 E4.22689
G1 X88.432 Y92.327 E4.28737
G1 X88.290 Y92.392 E4.29176
G1 X86.229 Y92.997 E4.35224
G1 X86.074 Y93.020 E4.35664
G1 X83.926 Y93.020 E4.41712
G1 X83.771 Y92.997 E4.42152
G1 X81.710 Y92.392 E4.48199
G1 X81.568 Y92.327 E4.48638
G1 X79.761 Y91.166 E4.54687
G1 X79.643 Y91.064 E4.55126
G1 X78.236 Y89.440 E4.61174
G1 X78.151 Y89.309 E4.61614
G1 X77.259 Y87.354 E4.67662
G1 X77.215 Y87.204 E4.68102
G1 X76.909 Y85.078 E4.74150
G1 X76.909 Y84.922 E4.74589
G1 X77.215 Y82.796 E4.80637
G1 X77.259 Y82.646 E4.81076
G1 X78.151 Y80.691 E4.87125
G1 X78.236 Y80.560 E4.87564
G1 X79.444 Y79.165 E4.92759
G1 X79.774 Y79.451 F12000.000
G1 X80.023 Y79.184 E4.93786 F1137.113
G1 X81.778 Y78.057 E4.99658
G1 X81.863 Y78.018 E4.99922
G1 X83.864 Y77.430 E5.05795
G1 X83.957 Y77.417 E5.06058
G1 X86.043 Y77.417 E5.11931
G1 X86.136 Y77.430 E5.12194
G1 X88.137 Y78.018 E5.18067 F1137.113
G1 X88.222 Y78.057 E5.18330
G1 X89.977 Y79.184 E5.24203
G1 X90.048 Y79.246 E5.24467
G1 X91.414 Y80.822 E5.30339
G1 X91.465 Y80.901 E5.30603
G1 X92.331 Y82.798 E5.36475
G1 X92.358 Y82.888 E5.36739
G1 X92.654 Y84.953 E5.42611
G1 X92.655 Y85.047 E5.42875
G1 X92.358 Y87.112 E5.48748
G1 X92.331 Y87.202 E5.49011
G1 X91.465 Y89.099 E5.54884
G1 X91.414 Y89.178 E5.55147
G1 X90.048 Y90.754 E5.61020
G1 X89.977 Y90.816 E5.61284
G1 X88.222 Y91.943 E5.67156
G1 X88.137 Y91.982 E5.67420
G1 X86.136 Y92.570 E5.73292
G1 X86.043 Y92.583 E5.73556
G1 X83.957 Y92.583 E5.79428
G1 X83.864 Y92.570 E5.79692
G1 X81.863 Y91.982 E5.85564
G1 X81.778 Y91.943 E5.85828
G1 X80.023 Y90.816 E5.91700
G1 X79.952 Y90.754 E5.91964
G1 X78.586 Y89.178 E5.97836
G1 X78.535 Y89.099 E5.98100
G1 X77.669 Y87.201 E6.03973
G1 X77.642 Y87.112 E6.04236
G1 X77.346 Y85.047 E6.10109
G1 X77.346 Y84.953 E6.10372
G1 X77.642 Y82.888 E6.16245
G1 X77.669 Y82.799 E6.16508
G1 X78.535 Y80.901 E6.22381
G1 X78.586 Y80.822 E6.22645
G1 X79.725 Y79.508 E6.27541
G1 X80.055 Y79.794 F12000.000
G1 X80.285 Y79.535 E6.28516 F1137.113
G1 X82.016 Y78.428 E6.34300
G1 X83.957 Y77.858 E6.39997
G1 X86.012 Y77.853 E6.45781
G1 X87.984 Y78.428 E6.51565 F1137.113
G1 X89.739 Y79.555 E6.57435
G1 X91.081 Y81.111 E6.63219
G1 X91.930 Y82.981 E6.69003
G1 X92.218 Y84.984 E6.74700
G1 X91.930 Y87.019 E6.80484
G1 X91.081 Y88.889 E6.86268
G1 X89.739 Y90.445 E6.92051
G1 X87.984 Y91.572 E6.97922
G1 X86.012 Y92.147 E7.03706
G1 X83.957 Y92.142 E7.09490
G1 X81.987 Y91.559 E7.15274
G1 X80.285 Y90.465 E7.20971
G1 X78.936 Y88.916 E7.26754
G1 X78.079 Y87.049 E7.32538
G1 X77.782 Y84.984 E7.38409
G1 X78.079 Y82.951 E7.44193
G1 X78.919 Y81.111 E7.49890
G1 X80.006 Y79.850 E7.54574
G1 X81.012 Y80.857 F12000.000
G1 X81.747 Y80.121 E7.57502 F682.268
G1 X83.850 Y82.224 E7.65874
G1 X83.850 Y79.250 E7.74245
G1 X86.150 Y79.250 E7.80720
G1 X86.150 Y82.224 E7.89091
G1 X88.253 Y80.121 E7.97463 F682.268
G1 X89.879 Y81.747 E8.03938
G1 X87.776 Y83.850 E8.12309
G1 X90.750 Y83.850 E8.20681
G1 X90.750 Y86.150 E8.27156
G1 X87.776 Y86.150 E8.35527
G1 X89.879 Y88.253 E8.43898
G1 X88.253 Y89.879 E8.50373
G1 X86.150 Y87.776 E8.58745
G1 X86.150 Y90.750 E8.67116
G1 X83.850 Y90.750 E8.73591
G1 X83.850 Y87.776 E8.81962
G1 X81.747 Y89.879 E8.90334
G1 X80.121 Y88.253 E8.96809
G1 X82.224 Y86.150 E9.05180
G1 X79.250 Y86.150 E9.13551
G1 X79.250 Y83.850 E9.20026
G1 X82.224 Y83.850 E9.28398
G1 X80.121 Y81.747 E9.36769
G1 X80.959 Y80.910 E9.40105
G1 E7.40105 F1680.000
G92 E0
G1 X86.163 Y81.724 F12000.000
G1 X87.742 Y89.963 F12000.000
G1 E2.00000 F1680.000
G1 X88.178 Y90.398 E2.01733 F852.835
G1 X87.627 Y90.752 E2.03576
G1 X86.570 Y91.062 E2.06677
G1 X86.570 Y88.790 E2.13073 F852.835
G1 X87.689 Y89.910 E2.17531
G1 E0.17531 F1680.000
G92 E0
G1 X82.577 Y90.812 F12000.000
G1 E2.00000 F1680.000
G1 X82.373 Y90.752 E2.00597 F852.835
G1 X81.822 Y90.398 E2.02440
G1 X83.430 Y88.790 E2.08841 F852.835
G1 X83.430 Y91.062 E2.15237
G1 X82.649 Y90.833 E2.17531
G1 X79.118 Y87.187 F12000.000
G1 X78.836 Y86.570 E2.19439 F852.835
G1 X81.210 Y86.570 E2.26122 F852.835
G1 X79.580 Y88.199 E2.32609
G1 X79.149 Y87.255 E2.35533
G1 E0.35533 F1680.000
G92 E0
G1 X81.131 Y83.351 F12000.000
G1 E2.00000 F1680.000
G1 X81.210 Y83.430 E2.00315 F852.835
G1 X78.836 Y83.430 E2.06998
G1 X79.580 Y81.801 E2.12041 F852.835
G1 X81.078 Y83.298 E2.18002
G1 E0.18002 F1680.000
G92 E0
G1 X83.430 Y79.448 F12000.000
G1 E2.00000 F1680.000
G1 X83.430 Y81.210 E2.04959 F852.835
G1 X81.822 Y79.602 E2.11360
G1 X82.373 Y79.248 E2.13203
G1 X83.430 Y78.938 E2.16304 F852.835
G1 X83.430 Y79.373 E2.17531
G1 E0.17531 F1680.000
G92 E0
G1 X88.106 Y79.674 F12000.000
G1 E2.00000 F1680.000
G1 X86.570 Y81.210 E2.06115 F852.835
G1 X86.570 Y78.938 E2.12512 F852.835
G1 X87.627 Y79.248 E2.15613
G1 X88.178 Y79.602 E2.17456
G1 X88.159 Y79.621 E2.17531
G1 X90.960 Y82.985 F12000.000
G1 X91.164 Y83.430 E2.18909 F852.835
G1 X88.790 Y83.430 E2.25591
G1 X90.420 Y81.801 E2.32079 F852.835
G1 X90.929 Y82.917 E2.35533
G1 X90.640 Y87.716 F12000.000
G1 X90.420 Y88.199 E2.37027 F852.835
G1 X88.790 Y86.570 E2.43515
G1 X91.164 Y86.570 E2.50197 F852.835
G1 X90.671 Y87.648 E2.53535
G1 X91.053 Y87.823 F12000.000
G1 X90.676 Y88.648 E2.56089 F682.268
G1 X89.419 Y90.099 E2.61495
G1 X87.803 Y91.138 E2.66902
G1 X85.960 Y91.679 E2.72309
G1 X84.040 Y91.679 E2.77715
G1 X82.197 Y91.138 E2.83122
G1 X80.581 Y90.099 E2.88528
G1 X79.324 Y88.648 E2.93935
G1 X78.526 Y86.901 E2.99342
G1 X78.253 Y85.000 E3.04748
G1 X78.526 Y83.099 E3.10155
G1 X79.324 Y81.352 E3.15562
G1 X80.581 Y79.901 E3.20968
G1 X82.197 Y78.862 E3.26375
G1 X84.040 Y78.321 E3.31781
G1 X85.960 Y78.321 E3.37188
G1 X87.803 Y78.862 E3.42595
G1 X89.419 Y79.901 E3.48001 F682.268
G1 X90.676 Y81.352 E3.53408
G1 X91.474 Y83.099 E3.58815
G1 X91.747 Y85.000 E3.64221
G1 X91.474 Y86.901 E3.69628
G1 X91.084 Y87.754 E3.72269
G1 E1.72269 F1680.000
G92 E0
G1 X88.165 Y79.207 F12000.000
G1 X86.857 Y89.484 F12000.000
G1 E2.00000 F1680.000
G1 X87.722 Y90.349 E2.03442 F1137.113
G1 X86.874 Y90.694 E2.06021
G1 X86.837 Y90.658 E2.06165
G1 X86.352 Y91.148 F12000.000
G1 X85.893 Y91.214 E2.06672 F600.000
G1 X84.107 Y91.214 E2.08631
G1 X83.648 Y91.148 E2.09138
G1 X82.278 Y90.349 F12000.000
G1 X82.345 Y90.415 E2.09403 F1137.113
G1 X83.163 Y90.369 E2.11710
G1 X82.710 Y89.917 E2.13510
G1 X83.163 Y89.504 E2.15233
G1 X83.143 Y89.484 E2.15313
G1 E0.15313 F1680.000
G92 E0
G1 X80.654 Y89.457 F12000.000
G1 E2.00000 F1680.000
G1 X79.679 Y88.410 E2.01569 F600.000
G1 X79.670 Y87.703 F12000.000
G1 X79.630 Y87.663 E2.01730 F1137.113
G1 X79.650 Y86.837 E2.04054
G1 X80.093 Y87.280 E2.05817
G1 X80.516 Y86.857 E2.07501
G1 X80.496 Y86.837 E2.07581
G1 E0.07581 F1680.000
G92 E0
G1 X79.269 Y83.127 F12000.000
G1 E2.00000 F1680.000
G1 X79.304 Y83.163 E2.00140 F1137.113
G1 X80.516 Y83.143 E2.03552
G1 X79.670 Y82.297 E2.06920
G1 X79.679 Y81.590 F12000.000
G1 X80.654 Y80.543 E2.08488 F600.000
G1 E0.08488 F1680.000
G92 E0
G1 X83.143 Y80.516 F12000.000
G1 E2.00000 F1680.000
G1 X82.278 Y79.651 E2.03442 F1137.113
G1 X83.163 Y79.342 E2.06080
G1 X83.126 Y79.306 E2.06224
G1 X83.648 Y78.852 F12000.000
G1 X84.107 Y78.786 E2.06731 F600.000
G1 X85.893 Y78.786 E2.08690
G1 X86.352 Y78.852 E2.09197
G1 X87.655 Y79.585 F12000.000
G1 X87.722 Y79.651 E2.09462 F1137.113
G1 X87.290 Y80.083 E2.11183
G1 X86.837 Y79.631 E2.12984
G1 X86.837 Y80.496 E2.15418
G1 X86.857 Y80.516 E2.15498
G1 E0.15498 F1680.000
G92 E0
G1 X89.346 Y80.543 F12000.000
G1 E2.00000 F1680.000
G1 X90.321 Y81.590 E2.01569 F600.000
G1 X90.330 Y82.297 F12000.000
G1 X90.370 Y82.337 E2.01730 F1137.113
G1 X89.907 Y82.720 E2.03421
G1 X90.350 Y83.163 E2.05184
G1 X89.504 Y83.163 E2.07566
G1 X89.484 Y83.143 E2.07645
G1 E0.07645 F1680.000
G92 E0
G1 X89.484 Y86.857 F12000.000
G1 E2.00000 F1680.000
G1 X90.330 Y87.703 E2.03367 F1137.113
G1 X90.731 Y86.873 E2.05965
G1 X90.696 Y86.837 E2.06104
G1 X90.321 Y88.410 F12000.000
G1 X89.346 Y89.457 E2.07673 F600.000
G1 E0.07673 F1680.000
G92 E0
G1 Z0.350 F12000.000
M104 S188 ; set temperature
G1 Z0.650 F12000.000
G1 X89.010 Y89.121 F12000.000
G1 E2.00000 F1680.000
G1 X88.253 Y89.879 E2.02008 F600.000
G1 X86.150 Y87.776 E2.07579
G1 X86.150 Y90.750 E2.13151
G1 X83.850 Y90.750 E2.17461
G1 X83.850 Y87.776 E2.23033
G1 X81.747 Y89.879 E2.28604
G1 X80.121 Y88.253 E2.32914
G1 X82.224 Y86.150 E2.38486
G1 X79.250 Y86.150 E2.44058
G1 X79.250 Y83.850 E2.48367
G1 X82.224 Y83.850 E2.53939
G1 X80.121 Y81.747 E2.59511
G1 X81.747 Y80.121 E2.63820
G1 X83.850 Y82.224 E2.69392
G1 X83.850 Y79.250 E2.74964
G1 X86.150 Y79.250 E2.79274
G1 X86.150 Y82.224 E2.84845
G1 X88.253 Y80.121 E2.90417 F600.000
G1 X89.879 Y81.747 E2.94727
G1 X87.776 Y83.850 E3.00299
G1 X90.750 Y83.850 E3.05870
G1 X90.750 Y86.150 E3.10180
G1 X87.776 Y86.150 E3.15752
G1 X89.879 Y88.253 E3.21324
G1 X89.063 Y89.068 E3.23485
G1 E1.23485 F1680.000
G92 E0
G1 X85.825 Y81.844 F12000.000
G1 X87.686 Y90.565 F12000.000
G1 E2.00000 F1680.000
G1 X87.574 Y90.637 E2.00374 F600.000
G1 X86.695 Y90.895 E2.02953
G1 X86.695 Y89.092 E2.08028 F600.000
G1 X87.979 Y90.376 E2.13141
G1 X87.749 Y90.524 E2.13912
G1 E0.13912 F1680.000
G92 E0
G1 X83.305 Y89.798 F12000.000
G1 E2.00000 F1680.000
G1 X83.305 Y90.895 E2.03088 F600.000
G1 X82.426 Y90.637 E2.05668
G1 X82.021 Y90.376 E2.07023
G1 X83.305 Y89.092 E2.12136 F600.000
G1 X83.305 Y89.723 E2.13912
G1 E0.13912 F1680.000
G92 E0
G1 X79.932 Y86.695 F12000.000
G1 E2.00000 F1680.000
G1 X80.908 Y86.695 E2.02748 F600.000
G1 X79.619 Y87.983 E2.07877
G1 X79.031 Y86.695 E2.11864
G1 X79.857 Y86.695 E2.14189 F600.000
G1 E0.14189 F1680.000
G92 E0
G1 X80.774 Y83.305 F12000.000
G1 E2.00000 F1680.000
G1 X79.031 Y83.305 E2.04906 F600.000
G1 X79.619 Y82.017 E2.08893 F600.000
G1 X80.908 Y83.305 E2.14022
G1 X80.849 Y83.305 E2.14189
G1 E0.14189 F1680.000
G92 E0
G1 X83.305 Y79.501 F12000.000
G1 E2.00000 F1680.000
G1 X83.305 Y80.908 E2.03960 F600.000
G1 X82.021 Y79.624 E2.09073
G1 X82.426 Y79.363 E2.10428
G1 X83.305 Y79.105 E2.13008 F600.000
G1 X83.305 Y79.426 E2.13912
G1 E0.13912 F1680.000
G92 E0
G1 X86.695 Y80.257 F12000.000
G1 E2.00000 F1680.000
G1 X86.695 Y79.105 E2.03242 F600.000
G1 X87.574 Y79.363 E2.05822
G1 X87.979 Y79.624 E2.07177
G1 X86.695 Y80.908 E2.12290
G1 X86.695 Y80.332 E2.13912 F600.000
G1 E0.13912 F1680.000
G92 E0
G1 X90.374 Y83.305 F12000.000
G1 E2.00000 F1680.000
G1 X89.092 Y83.305 E2.03609 F600.000
G1 X90.381 Y82.017 E2.08738 F600.000
G1 X90.969 Y83.305 E2.12726
G1 X90.449 Y83.305 E2.14189
G1 E0.14189 F1680.000
G92 E0
G1 X90.050 Y87.653 F12000.000
G1 E2.00000 F1680.000
G1 X89.092 Y86.695 E2.03814 F600.000
G1 X90.969 Y86.695 E2.09097 F600.000
G1 X90.381 Y87.983 E2.13085
G1 X90.103 Y87.706 E2.14189
G1 X90.933 Y88.085 F12000.000
G1 X90.676 Y88.648 E2.15348 F600.000
G1 X89.419 Y90.099 E2.18946
G1 X87.803 Y91.138 E2.22545
G1 X85.960 Y91.679 E2.26143
G1 X84.040 Y91.679 E2.29742
G1 X82.197 Y91.138 E2.33341
G1 X80.581 Y90.099 E2.36939
G1 X79.324 Y88.648 E2.40538
G1 X78.526 Y86.901 E2.44136
G1 X78.253 Y85.000 E2.47735
G1 X78.526 Y83.099 E2.51333
G1 X79.324 Y81.352 E2.54932
G1 X80.581 Y79.901 E2.58530
G1 X82.197 Y78.862 E2.62129
G1 X84.040 Y78.321 E2.65727
G1 X85.960 Y78.321 E2.69326
G1 X87.803 Y78.862 E2.72924
G1 X89.419 Y79.901 E2.76523 F600.000
G1 X90.676 Y81.352 E2.80121
G1 X91.474 Y83.099 E2.83720
G1 X91.747 Y85.000 E2.87318
G1 X91.474 Y86.901 E2.90917
G1 X90.964 Y88.017 E2.93216
G1 E0.93216 F1680.000
G92 E0
G1 X88.165 Y79.207 F12000.000
G1 Z0.950 F12000.000
G1 X89.879 Y88.253 F12000.000
G1 E2.00000 F1680.000
G1 X88.253 Y89.879 E2.04310 F600.000
G1 X86.150 Y87.776 E2.09881
G1 X86.150 Y90.750 E2.15453
G1 X83.850 Y90.750 E2.19763
G1 X83.850 Y87.776 E2.25335
G1 X81.747 Y89.879 E2.30906
