; generated by Slic3r 1.2.1 on 2014-12-07 at 13:57:32

; external perimeters extrusion width = 0.50mm
; perimeters extrusion width = 0.50mm
; infill extrusion width = 0.50mm
; solid infill extrusion width = 0.50mm
; top infill extrusion width = 0.50mm

M104 S190 ; set temperature
G28 ; home all axes
G1 Z15 F120 ; lift nozzle
M109 S190 ; wait for temperature to be reached
G21 ; set units to millimeters
G90 ; use absolute coordinates
M82 ; use absolute distances for extrusion
G92 E0
M106 S102
G1 E-2.00000 F1680.000
G92 E0
G1 Z0.350 F12000.000
G1 X42.811 Y56.926 F12000.000
G1 E2.00000 F1680.000
G1 X81.782 Y34.426 E3.26683 F1200.000
G1 X83.907 Y33.657 E3.33047
G1 X86.168 Y33.670 E3.39410
G1 X88.218 Y34.426 E3.45562 F1200.000
G1 X127.189 Y56.926 E4.72245
G1 X128.918 Y58.382 E4.78609
G1 X130.037 Y60.346 E4.84972
G1 X130.407 Y62.500 E4.91124
G1 X130.407 Y107.500 E6.17807
G1 X130.011 Y109.725 E6.24170
G1 X128.869 Y111.676 E6.30534
G1 X127.189 Y113.074 E6.36686
G1 X88.218 Y135.574 E7.63369
G1 X86.093 Y136.343 E7.69732
G1 X83.832 Y136.330 E7.76096
G1 X81.782 Y135.574 E7.82248
G1 X42.811 Y113.074 E9.08931
G1 X41.082 Y111.618 E9.15294
G1 X39.964 Y109.654 E9.21658
G1 X39.593 Y107.500 E9.27809
G1 X39.593 Y62.500 E10.54493
G1 X39.989 Y60.275 E10.60856
G1 X41.131 Y58.324 E10.67219
G1 X42.753 Y56.974 E10.73160
G1 E8.73160 F1680.000
G92 E0
G1 X54.534 Y63.427 F12000.000
G1 E2.00000 F1680.000
G1 X72.885 Y64.015 E2.47789 F900.000
G1 X84.170 Y42.935 E3.10027
G1 X85.000 Y41.384 E3.14605 F900.000
G1 X97.115 Y64.015 E3.81422
G1 X122.772 Y63.192 E4.48238
G1 X109.231 Y85.000 E5.15054
G1 X122.772 Y106.808 E5.81870
G1 X97.115 Y105.985 E6.48687
G1 X85.000 Y128.616 E7.15503
G1 X72.885 Y105.985 E7.82319
G1 X47.228 Y106.808 E8.49135
G1 X60.769 Y85.000 E9.15952
G1 X47.228 Y63.192 E9.82768
G1 X54.459 Y63.424 E10.01600
G1 X54.472 Y63.021 F12000.000
G1 X72.647 Y63.604 E10.48932 F720.000
G1 X85.000 Y40.530 E11.17058
G1 X95.873 Y60.841 E11.77024
G1 X97.353 Y63.604 E11.85184 F720.000
G1 X123.512 Y62.765 E12.53309
G1 X109.706 Y85.000 E13.21435
G1 X123.512 Y107.235 E13.89561
G1 X97.353 Y106.396 E14.57686
G1 X85.000 Y129.470 E15.25812
G1 X72.647 Y106.396 E15.93938
G1 X46.488 Y107.235 E16.62064
G1 X60.294 Y85.000 E17.30189
G1 X46.488 Y62.765 E17.98315
G1 X54.397 Y63.019 E18.18913
G1 E16.18913 F1680.000
G92 E0
G1 X95.782 Y61.332 F12000.000
G1 X49.613 Y66.517 F12000.000
G1 E2.00000 F1680.000
G1 X94.113 Y111.016 E3.63806 F1200.000
G1 X93.913 Y111.390 E3.64908
G1 X50.551 Y68.028 E5.24524
G1 X51.490 Y69.540 F12000.000
G1 X93.713 Y111.763 E6.79949 F1200.000
G1 X93.513 Y112.136 E6.81051
G1 X52.429 Y71.051 E8.32285
G1 X53.367 Y72.563 F12000.000
G1 X93.313 Y112.509 E9.79329 F1200.000
G1 X93.114 Y112.882 E9.80431
G1 X54.306 Y74.075 E11.23284
G1 X55.245 Y75.586 F12000.000
G1 X92.914 Y113.256 E12.61947 F1200.000
G1 X92.714 Y113.629 E12.63048
G1 X56.183 Y77.098 E13.97520
G1 X57.122 Y78.610 F12000.000
G1 X92.514 Y114.002 E15.27801 F1200.000
G1 X92.314 Y114.375 E15.28903
G1 X58.061 Y80.121 E16.54993
G1 X58.999 Y81.633 F12000.000
G1 X92.115 Y114.748 E17.76893 F1200.000
G1 X91.915 Y115.122 E17.77995
G1 X59.938 Y83.145 E18.95704
G1 X60.877 Y84.656 F12000.000
G1 X91.715 Y115.495 E20.09222 F1200.000
G1 X91.515 Y115.868 E20.10324
G1 X60.920 Y85.273 E21.22946
G1 X60.701 Y85.627 E21.24029
G1 X91.315 Y116.241 E22.36723
G1 X91.116 Y116.615 E22.37825
G1 X60.481 Y85.980 E23.50592
G1 X60.262 Y86.334 E23.51675
G1 X90.916 Y116.988 E24.64515
G1 X90.716 Y117.361 E24.65617
G1 X60.042 Y86.687 E25.78528
G1 X59.823 Y87.041 E25.79612
G1 X90.516 Y117.734 E26.92596
G1 X90.316 Y118.107 E26.93698
G1 X59.603 Y87.394 E28.06755
G1 X59.384 Y87.748 E28.07838
G1 X90.117 Y118.481 E29.20968
G1 X89.917 Y118.854 E29.22070
G1 X59.164 Y88.101 E30.35272
G1 X58.945 Y88.455 E30.36355
G1 X89.717 Y119.227 E31.49629
G1 X89.517 Y119.600 E31.50731
G1 X58.725 Y88.808 E32.64078
G1 X58.506 Y89.162 E32.65162
G1 X89.317 Y119.973 E33.78581
G1 X89.118 Y120.347 E33.79683
G1 X58.286 Y89.515 E34.93176
G1 X58.067 Y89.869 E34.94259
G1 X88.918 Y120.720 E36.07823
G1 X88.718 Y121.093 E36.08925
G1 X57.847 Y90.222 E37.22563
G1 X57.628 Y90.576 E37.23646
G1 X72.768 Y105.716 E37.79377
G1 X72.212 Y105.733 E37.80823
G1 X57.408 Y90.929 E38.35318
G1 X57.189 Y91.283 E38.36401
G1 X71.657 Y105.751 E38.89661
G1 X71.102 Y105.769 E38.91107
G1 X56.969 Y91.636 E39.43131
G1 X56.750 Y91.990 E39.44214
G1 X70.547 Y105.787 E39.95002
G1 X69.992 Y105.805 E39.96448
G1 X56.530 Y92.343 E40.46001
G1 X56.311 Y92.697 E40.47084
G1 X69.436 Y105.823 E40.95401
G1 X68.881 Y105.840 E40.96846
G1 X56.091 Y93.050 E41.43928
G1 X55.872 Y93.404 E41.45011
G1 X68.326 Y105.858 E41.90856
G1 X67.771 Y105.876 E41.92302
G1 X55.652 Y93.757 E42.36912
G1 X55.433 Y94.111 E42.37995
G1 X67.216 Y105.894 E42.81369
G1 X66.661 Y105.912 E42.82815
G1 X55.213 Y94.464 E43.24954
G1 X54.994 Y94.818 E43.26037
G1 X66.105 Y105.929 E43.66939
G1 X65.550 Y105.947 E43.68385
G1 X54.774 Y95.171 E44.08052
G1 X54.555 Y95.525 E44.09135
G1 X64.995 Y105.965 E44.47567
G1 X64.440 Y105.983 E44.49013
G1 X54.335 Y95.878 E44.86208
G1 X54.116 Y96.232 E44.87291
G1 X63.885 Y106.001 E45.23251
G1 X63.329 Y106.019 E45.24697
G1 X53.896 Y96.585 E45.59421
G1 X53.677 Y96.939 E45.60505
G1 X62.774 Y106.036 E45.93993
G1 X62.219 Y106.054 E45.95439
G1 X53.457 Y97.292 E46.27692
G1 X53.238 Y97.646 E46.28775
G1 X61.664 Y106.072 E46.59792
G1 X61.109 Y106.090 E46.61238
G1 X53.018 Y97.999 E46.91019
G1 X52.799 Y98.353 E46.92103
G1 X60.553 Y106.108 E47.20648
G1 X59.998 Y106.125 E47.22094
G1 X52.579 Y98.706 E47.49404
G1 X52.360 Y99.060 E47.50487
G1 X59.443 Y106.143 E47.76562
G1 X58.888 Y106.161 E47.78008
G1 X52.140 Y99.413 E48.02846
G1 X51.921 Y99.767 E48.03929
G1 X58.333 Y106.179 E48.27533
G1 X57.777 Y106.197 E48.28978
G1 X51.701 Y100.120 E48.51346
G1 X51.482 Y100.474 E48.52429
G1 X57.222 Y106.214 E48.73560
G1 X56.667 Y106.232 E48.75006
G1 X51.262 Y100.827 E48.94902
G1 X51.043 Y101.181 E48.95985
G1 X56.112 Y106.250 E49.14646
G1 X55.557 Y106.268 E49.16091
G1 X50.823 Y101.534 E49.33516
G1 X50.604 Y101.888 E49.34599
G1 X55.001 Y106.286 E49.50788
G1 X54.446 Y106.304 E49.52234
G1 X50.384 Y102.241 E49.67187
G1 X50.165 Y102.595 E49.68270
G1 X53.891 Y106.321 E49.81988
G1 X53.336 Y106.339 E49.83433
G1 X49.945 Y102.948 E49.95915
G1 X49.726 Y103.302 E49.96998
G1 X52.781 Y106.357 E50.08244
G1 X52.225 Y106.375 E50.09690
G1 X49.506 Y103.655 E50.19701
G1 X49.287 Y104.009 E50.20784
G1 X51.670 Y106.393 E50.29558
G1 X51.115 Y106.410 E50.31004
G1 X49.067 Y104.362 E50.38543
G1 X48.847 Y104.716 E50.39626
G1 X50.560 Y106.428 E50.45930
G1 X50.005 Y106.446 E50.47375
G1 X48.628 Y105.069 E50.52443
G1 X48.408 Y105.423 E50.53526
G1 X49.449 Y106.464 E50.57358
G1 X48.894 Y106.482 E50.58804
G1 X48.189 Y105.776 E50.61400
G1 X47.969 Y106.130 E50.62483
G1 X48.339 Y106.499 E50.63844
G1 X47.784 Y106.517 E50.65290
G1 X47.750 Y106.483 E50.65414
G1 X73.375 Y106.323 F12000.000
G1 X88.518 Y121.466 E51.21159 F1200.000
G1 X88.318 Y121.839 E51.22261
G1 X74.035 Y107.556 E51.74840
G1 X74.695 Y108.789 F12000.000
G1 X88.119 Y122.213 E52.24253 F1200.000
G1 X87.919 Y122.586 E52.25355
G1 X75.355 Y110.022 E52.71602
G1 X76.015 Y111.255 F12000.000
G1 X87.719 Y122.959 E53.14684 F1200.000
G1 X87.519 Y123.332 E53.15786
G1 X76.676 Y112.489 E53.55702
G1 X77.336 Y113.722 F12000.000
G1 X87.319 Y123.706 E53.92453 F1200.000
G1 X87.120 Y124.079 E53.93555
G1 X77.996 Y114.955 E54.27140
G1 X78.656 Y116.188 F12000.000
G1 X86.920 Y124.452 E54.57559 F1200.000
G1 X86.720 Y124.825 E54.58661
G1 X79.316 Y117.421 E54.85915
G1 X79.977 Y118.655 F12000.000
G1 X86.520 Y125.198 E55.10003 F1200.000
G1 X86.320 Y125.572 E55.11105
G1 X80.637 Y119.888 E55.32027
G1 X81.297 Y121.121 F12000.000
G1 X86.121 Y125.945 E55.49784 F1200.000
G1 X85.921 Y126.318 E55.50885
G1 X81.957 Y122.354 E55.65476
G1 X82.617 Y123.587 F12000.000
G1 X85.721 Y126.691 E55.76902 F1200.000
G1 X85.521 Y127.064 E55.78004
G1 X83.277 Y124.821 E55.86263
G1 X83.938 Y126.054 F12000.000
G1 X85.322 Y127.438 E55.91357 F1200.000
G1 X85.122 Y127.811 E55.92459
G1 X84.598 Y127.287 E55.94388
G1 E53.94388 F1680.000
G92 E0
G1 X121.093 Y106.481 F12000.000
G1 E2.00000 F1680.000
G1 X75.088 Y60.476 E3.69346 F1200.000
G1 X74.888 Y60.850 E3.70448
G1 X120.501 Y106.462 E5.38351
G1 X119.909 Y106.443 E5.39892
G1 X74.689 Y61.223 E7.06351
G1 X74.489 Y61.596 E7.07453
G1 X119.317 Y106.424 E8.72468
G1 X118.725 Y106.405 E8.74010
G1 X74.289 Y61.969 E10.37581
G1 X74.089 Y62.343 E10.38683
G1 X118.133 Y106.386 E12.00810
G1 X117.541 Y106.367 E12.02352
G1 X73.889 Y62.716 E13.63036
G1 X73.690 Y63.089 E13.64138
G1 X116.949 Y106.348 E15.23378
G1 X116.357 Y106.329 E15.24920
G1 X73.490 Y63.462 E16.82716
G1 X73.290 Y63.835 E16.83818
G1 X115.765 Y106.310 E18.40171
G1 X115.173 Y106.291 E18.41712
G1 X73.090 Y64.209 E19.96621
G1 X72.587 Y64.279 E19.97943
G1 X114.581 Y106.272 E21.52525
G1 X113.989 Y106.253 E21.54066
G1 X71.995 Y64.260 E23.08648
G1 X71.403 Y64.241 E23.10190
G1 X113.397 Y106.234 E24.64771
G1 X112.805 Y106.215 E24.66313
G1 X70.811 Y64.222 E26.20895
G1 X70.219 Y64.203 E26.22436
G1 X112.213 Y106.196 E27.77018
G1 X111.621 Y106.177 E27.78560
G1 X69.627 Y64.184 E29.33141
G1 X69.035 Y64.165 E29.34683
G1 X111.029 Y106.158 E30.89264
G1 X110.437 Y106.139 E30.90806
G1 X68.443 Y64.146 E32.45388
G1 X67.851 Y64.127 E32.46929
G1 X109.845 Y106.120 E34.01511
G1 X109.253 Y106.101 E34.03053
G1 X67.259 Y64.108 E35.57634
G1 X66.667 Y64.089 E35.59176
G1 X108.661 Y106.082 E37.13757
G1 X108.069 Y106.063 E37.15299
G1 X66.075 Y64.070 E38.69881
G1 X65.483 Y64.051 E38.71422
G1 X107.477 Y106.044 E40.26004
G1 X106.885 Y106.025 E40.27546
G1 X64.891 Y64.032 E41.82127
G1 X64.299 Y64.013 E41.83669
G1 X106.293 Y106.006 E43.38251
G1 X105.701 Y105.987 E43.39792
G1 X63.707 Y63.994 E44.94374
G1 X63.115 Y63.975 E44.95916
G1 X105.109 Y105.968 E46.50497
G1 X104.517 Y105.949 E46.52039
G1 X62.523 Y63.956 E48.06620
G1 X61.931 Y63.937 E48.08162
G1 X103.925 Y105.930 E49.62744
G1 X103.333 Y105.911 E49.64285
G1 X61.339 Y63.918 E51.18867
G1 X60.747 Y63.899 E51.20409
G1 X102.741 Y105.892 E52.74990
G1 X102.149 Y105.873 E52.76532
G1 X60.155 Y63.880 E54.31113
G1 X59.563 Y63.861 E54.32655
G1 X101.557 Y105.854 E55.87237
G1 X100.965 Y105.835 E55.88778
G1 X58.971 Y63.842 E57.43360
G1 X58.379 Y63.823 E57.44902
G1 X100.373 Y105.816 E58.99483
G1 X99.781 Y105.797 E59.01025
G1 X57.787 Y63.804 E60.55607
G1 X57.195 Y63.785 E60.57148
G1 X99.189 Y105.778 E62.11730
G1 X98.597 Y105.759 E62.13272
G1 X56.603 Y63.766 E63.67853
G1 X56.011 Y63.747 E63.69395
G1 X98.005 Y105.740 E65.23976
G1 X97.413 Y105.721 E65.25518
G1 X55.419 Y63.728 E66.80100
G1 X54.827 Y63.709 E66.81641
G1 X96.910 Y105.791 E68.36550
G1 X96.710 Y106.165 E68.37652
G1 X54.235 Y63.690 E69.94005
G1 X53.643 Y63.671 E69.95547
G1 X96.510 Y106.538 E71.53343
G1 X96.310 Y106.911 E71.54445
G1 X53.051 Y63.652 E73.13685
G1 X52.459 Y63.633 E73.15227
G1 X96.111 Y107.284 E74.75910
G1 X95.911 Y107.657 E74.77012
G1 X51.867 Y63.614 E76.39140
G1 X51.275 Y63.595 E76.40682
G1 X95.711 Y108.031 E78.04253
G1 X95.511 Y108.404 E78.05355
G1 X50.683 Y63.576 E79.70370
G1 X50.091 Y63.557 E79.71912
G1 X95.311 Y108.777 E81.38370
G1 X95.112 Y109.150 E81.39472
G1 X49.499 Y63.538 E83.07375
G1 X48.907 Y63.519 E83.08916
G1 X94.912 Y109.524 E84.78263
G1 X94.712 Y109.897 E84.79365
G1 X48.315 Y63.500 E86.50154
G1 X47.754 Y63.512 E86.51614
G1 X94.512 Y110.270 E88.23732
G1 X94.312 Y110.643 E88.24834
G1 X48.674 Y65.005 E89.92831
G1 E87.92831 F1680.000
G92 E0
G1 X84.878 Y42.189 F12000.000
G1 E2.00000 F1680.000
G1 X85.402 Y42.713 E2.01928 F1200.000
G1 X86.062 Y43.946 F12000.000
G1 X84.678 Y42.562 E2.07022 F1200.000
G1 X84.479 Y42.936 E2.08124
G1 X86.723 Y45.179 E2.16384
G1 X87.383 Y46.413 F12000.000
G1 X84.279 Y43.309 E2.27809 F1200.000
G1 X84.079 Y43.682 E2.28911
G1 X88.043 Y47.646 E2.43502
G1 X88.703 Y48.879 F12000.000
G1 X83.879 Y44.055 E2.61259 F1200.000
G1 X83.680 Y44.428 E2.62361
G1 X89.363 Y50.112 E2.83283
G1 X90.023 Y51.345 F12000.000
G1 X83.480 Y44.802 E3.07371 F1200.000
G1 X83.280 Y45.175 E3.08473
G1 X90.684 Y52.579 E3.35727
G1 X91.344 Y53.812 F12000.000
G1 X83.080 Y45.548 E3.66146 F1200.000
G1 X82.880 Y45.921 E3.67248
G1 X92.004 Y55.045 E4.00833
G1 X92.664 Y56.278 F12000.000
G1 X82.681 Y46.294 E4.37583 F1200.000
G1 X82.481 Y46.668 E4.38685
G1 X93.324 Y57.511 E4.78601
G1 X93.985 Y58.745 F12000.000
G1 X82.281 Y47.041 E5.21683 F1200.000
G1 X82.081 Y47.414 E5.22785
G1 X94.645 Y59.978 E5.69032
G1 X95.305 Y61.211 F12000.000
G1 X81.881 Y47.787 E6.18446 F1200.000
G1 X81.682 Y48.160 E6.19548
G1 X95.965 Y62.444 E6.72126
G1 X96.625 Y63.677 F12000.000
G1 X81.482 Y48.534 E7.27871 F1200.000
G1 X81.282 Y48.907 E7.28973
G1 X112.153 Y79.778 E8.42610
G1 X111.933 Y80.131 E8.43693
G1 X81.082 Y49.280 E9.57258
G1 X80.882 Y49.653 E9.58360
G1 X111.714 Y80.485 E10.71852
G1 X111.494 Y80.838 E10.72935
G1 X80.683 Y50.027 E11.86355
G1 X80.483 Y50.400 E11.87457
G1 X111.275 Y81.192 E13.00804
G1 X111.055 Y81.545 E13.01887
G1 X80.283 Y50.773 E14.15162
G1 X80.083 Y51.146 E14.16264
G1 X110.836 Y81.899 E15.29466
G1 X110.616 Y82.252 E15.30549
G1 X79.883 Y51.519 E16.43679
G1 X79.684 Y51.893 E16.44781
G1 X110.397 Y82.606 E17.57838
G1 X110.177 Y82.959 E17.58921
G1 X79.484 Y52.266 E18.71905
G1 X79.284 Y52.639 E18.73007
G1 X109.958 Y83.313 E19.85919
G1 X109.738 Y83.666 E19.87002
G1 X79.084 Y53.012 E20.99842
G1 X78.884 Y53.385 E21.00943
G1 X109.519 Y84.020 E22.13710
G1 X109.299 Y84.373 E22.14793
G1 X78.685 Y53.759 E23.27488
G1 X78.485 Y54.132 E23.28590
G1 X109.080 Y84.727 E24.41211
G1 X109.123 Y85.344 E24.42821
G1 X78.285 Y54.505 E25.56339
G1 X78.085 Y54.878 E25.57441
G1 X110.062 Y86.855 E26.75150
G1 X111.001 Y88.367 F12000.000
G1 X77.885 Y55.252 E27.97050 F1200.000
G1 X77.686 Y55.625 E27.98151
G1 X111.939 Y89.879 E29.24242
G1 X112.878 Y91.390 F12000.000
G1 X77.486 Y55.998 E30.54523 F1200.000
G1 X77.286 Y56.371 E30.55625
G1 X113.817 Y92.902 E31.90096
G1 X114.755 Y94.414 F12000.000
G1 X77.086 Y56.744 E33.28759 F1200.000
G1 X76.886 Y57.118 E33.29861
G1 X115.694 Y95.925 E34.72714
G1 X116.633 Y97.437 F12000.000
G1 X76.687 Y57.491 E36.19757 F1200.000
G1 X76.487 Y57.864 E36.20859
G1 X117.571 Y98.949 E37.72094
G1 X118.510 Y100.460 F12000.000
G1 X76.287 Y58.237 E39.27519 F1200.000
G1 X76.087 Y58.610 E39.28621
G1 X119.449 Y101.972 E40.88236
G1 X120.387 Y103.483 F12000.000
G1 X75.887 Y58.984 E42.52043 F1200.000
G1 X75.688 Y59.357 E42.53145
G1 X121.326 Y104.995 E44.21142
G1 X121.685 Y106.500 F12000.000
G1 X75.288 Y60.103 E45.91932 F1200.000
G1 X75.488 Y59.730 E45.93034
G1 X122.246 Y106.488 E47.65152
G1 E45.65152 F1680.000
G92 E0
G1 X122.216 Y63.483 F12000.000
G1 E2.00000 F1680.000
G1 X122.250 Y63.517 E2.00125 F1200.000
G1 X122.031 Y63.870 E2.01208
G1 X121.661 Y63.500 E2.02568
G1 X121.106 Y63.518 E2.04014
G1 X121.811 Y64.224 E2.06611
G1 X121.592 Y64.577 E2.07694
G1 X120.551 Y63.536 E2.11526
G1 X119.995 Y63.554 E2.12971
G1 X121.372 Y64.931 E2.18039
G1 X121.152 Y65.284 E2.19122
G1 X119.440 Y63.572 E2.25425
G1 X118.885 Y63.590 E2.26871
G1 X120.933 Y65.638 E2.34410
G1 X120.713 Y65.991 E2.35493
G1 X118.330 Y63.607 E2.44268
G1 X117.775 Y63.625 E2.45714
G1 X120.494 Y66.345 E2.55724
G1 X120.274 Y66.698 E2.56807
G1 X117.219 Y63.643 E2.68053
G1 X116.664 Y63.661 E2.69499
G1 X120.055 Y67.052 E2.81981
G1 X119.835 Y67.405 E2.83064
G1 X116.109 Y63.679 E2.96782
G1 X115.554 Y63.696 E2.98228
G1 X119.616 Y67.759 E3.13181
G1 X119.396 Y68.112 E3.14264
G1 X114.999 Y63.714 E3.30453
G1 X114.443 Y63.732 E3.31899
G1 X119.177 Y68.466 E3.49323
G1 X118.957 Y68.819 E3.50406
G1 X113.888 Y63.750 E3.69066
G1 X113.333 Y63.768 E3.70512
G1 X118.738 Y69.173 E3.90408
G1 X118.518 Y69.526 E3.91491
G1 X112.778 Y63.786 E4.12623
G1 X112.223 Y63.803 E4.14069
G1 X118.299 Y69.880 E4.36436
G1 X118.079 Y70.233 E4.37519
G1 X111.667 Y63.821 E4.61122
G1 X111.112 Y63.839 E4.62568
G1 X117.860 Y70.587 E4.87407
G1 X117.640 Y70.940 E4.88490
G1 X110.557 Y63.857 E5.14564
G1 X110.002 Y63.875 E5.16010
G1 X117.421 Y71.294 E5.43320
G1 X117.201 Y71.647 E5.44403
G1 X109.447 Y63.892 E5.72949
G1 X108.891 Y63.910 E5.74395
G1 X116.982 Y72.001 E6.04177
G1 X116.762 Y72.354 E6.05260
G1 X108.336 Y63.928 E6.36277
