; generated by Slic3r 1.2.1 on 2014-12-07 at 13:56:37

; external perimeters extrusion width = 0.50mm
; perimeters extrusion width = 0.50mm
; infill extrusion width = 0.50mm
; solid infill extrusion width = 0.50mm
; top infill extrusion width = 0.50mm

M104 S190 ; set temperature
G28 ; home all axes
G1 Z15 F120 ; lift nozzle
M109 S190 ; wait for temperature to be reached
G21 ; set units to millimeters
G90 ; use absolute coordinates
M82 ; use absolute distances for extrusion
G92 E0
M106 S102
G1 E-2.00000 F1680.000
G92 E0
G1 Z0.350 F12000.000
G1 X42.811 Y56.926 F12000.000
G1 E2.00000 F1680.000
G1 X81.782 Y34.426 E3.26683 F1200.000
G1 X83.907 Y33.657 E3.33047
G1 X86.168 Y33.670 E3.39410
G1 X88.218 Y34.426 E3.45562 F1200.000
G1 X127.189 Y56.926 E4.72245
G1 X128.918 Y58.382 E4.78609
G1 X130.037 Y60.346 E4.84972
G1 X130.407 Y62.500 E4.91124
G1 X130.407 Y107.500 E6.17807
G1 X130.011 Y109.725 E6.24170
G1 X128.869 Y111.676 E6.30534
G1 X127.189 Y113.074 E6.36686
G1 X88.218 Y135.574 E7.63369
G1 X86.093 Y136.343 E7.69732
G1 X83.832 Y136.330 E7.76096
G1 X81.782 Y135.574 E7.82248
G1 X42.811 Y113.074 E9.08931
G1 X41.082 Y111.618 E9.15294
G1 X39.964 Y109.654 E9.21658
G1 X39.593 Y107.500 E9.27809
G1 X39.593 Y62.500 E10.54493
G1 X39.989 Y60.275 E10.60856
G1 X41.131 Y58.324 E10.67219
G1 X42.753 Y56.974 E10.73160
G1 E8.73160 F1680.000
G92 E0
G1 X52.183 Y98.828 F12000.000
G1 E2.00000 F1680.000
G1 X60.769 Y85.000 E2.42368 F900.000
G1 X47.228 Y63.192 E3.09185
G1 X72.885 Y64.015 E3.76001
G1 X85.000 Y41.384 E4.42817 F900.000
G1 X97.115 Y64.015 E5.09633
G1 X122.772 Y63.192 E5.76450
G1 X109.231 Y85.000 E6.43266
G1 X122.772 Y106.808 E7.10082
G1 X97.115 Y105.985 E7.76898
G1 X85.000 Y128.616 E8.43715
G1 X72.885 Y105.985 E9.10531
G1 X47.228 Y106.808 E9.77347
G1 X52.143 Y98.892 E10.01600
G1 X51.800 Y98.679 F12000.000
G1 X60.294 Y85.000 E10.43511 F720.000
G1 X46.488 Y62.765 E11.11637
G1 X72.647 Y63.604 E11.79763
G1 X85.000 Y40.530 E12.47888
G1 X97.119 Y63.167 E13.14724
G1 X97.353 Y63.604 E13.16014 F720.000
G1 X123.512 Y62.765 E13.84140
G1 X109.706 Y85.000 E14.52265
G1 X123.512 Y107.235 E15.20391
G1 X97.353 Y106.396 E15.88517
G1 X85.000 Y129.470 E16.56642
G1 X72.647 Y106.396 E17.24768
G1 X46.488 Y107.235 E17.92894
G1 X51.761 Y98.743 E18.18913
G1 X97.140 Y63.662 F12000.000
G1 X47.750 Y106.483 F12000.000
G1 X47.784 Y106.517 E18.19038 F1200.000
G1 X48.339 Y106.499 E18.20484
G1 X47.969 Y106.130 E18.21844
G1 X48.189 Y105.776 E18.22927
G1 X48.894 Y106.482 E18.25524
G1 X49.449 Y106.464 E18.26969
G1 X48.408 Y105.423 E18.30801
G1 X48.628 Y105.069 E18.31884
G1 X50.005 Y106.446 E18.36952
G1 X50.560 Y106.428 E18.38398
G1 X48.847 Y104.716 E18.44701
G1 X49.067 Y104.362 E18.45784
G1 X51.115 Y106.410 E18.53323
G1 X51.670 Y106.393 E18.54769
G1 X49.287 Y104.009 E18.63544
G1 X49.506 Y103.655 E18.64627
G1 X52.225 Y106.375 E18.74637
G1 X52.781 Y106.357 E18.76083
G1 X49.726 Y103.302 E18.87329
G1 X49.945 Y102.948 E18.88412
G1 X53.336 Y106.339 E19.00894
G1 X53.891 Y106.321 E19.02340
G1 X50.165 Y102.595 E19.16057
G1 X50.384 Y102.241 E19.17140
G1 X54.446 Y106.304 E19.32094
G1 X55.001 Y106.286 E19.33540
G1 X50.604 Y101.888 E19.49728
G1 X50.823 Y101.534 E19.50811
G1 X55.557 Y106.268 E19.68236
G1 X56.112 Y106.250 E19.69682
G1 X51.043 Y101.181 E19.88342
G1 X51.262 Y100.827 E19.89425
G1 X56.667 Y106.232 E20.09321
G1 X57.222 Y106.214 E20.10767
G1 X51.482 Y100.474 E20.31899
G1 X51.701 Y100.120 E20.32982
G1 X57.777 Y106.197 E20.55349
G1 X58.333 Y106.179 E20.56795
G1 X51.921 Y99.767 E20.80398
G1 X52.140 Y99.413 E20.81481
G1 X58.888 Y106.161 E21.06320
G1 X59.443 Y106.143 E21.07766
G1 X52.360 Y99.060 E21.33840
G1 X52.579 Y98.706 E21.34923
G1 X59.998 Y106.125 E21.62233
G1 X60.553 Y106.108 E21.63679
G1 X52.799 Y98.353 E21.92225
G1 X53.018 Y97.999 E21.93308
G1 X61.109 Y106.090 E22.23089
G1 X61.664 Y106.072 E22.24535
G1 X53.238 Y97.646 E22.55553
G1 X53.457 Y97.292 E22.56636
G1 X62.219 Y106.054 E22.88889
G1 X62.774 Y106.036 E22.90334
G1 X53.677 Y96.939 E23.23823
G1 X53.896 Y96.585 E23.24906
G1 X63.329 Y106.019 E23.59630
G1 X63.885 Y106.001 E23.61076
G1 X54.116 Y96.232 E23.97036
G1 X54.335 Y95.878 E23.98119
G1 X64.440 Y105.983 E24.35315
G1 X64.995 Y105.965 E24.36761
G1 X54.555 Y95.525 E24.75192
G1 X54.774 Y95.171 E24.76275
G1 X65.550 Y105.947 E25.15942
G1 X66.105 Y105.929 E25.17388
G1 X54.994 Y94.818 E25.58291
G1 X55.213 Y94.464 E25.59374
G1 X66.661 Y105.912 E26.01512
G1 X67.216 Y105.894 E26.02958
G1 X55.433 Y94.111 E26.46332
G1 X55.652 Y93.757 E26.47415
G1 X67.771 Y105.876 E26.92025
G1 X68.326 Y105.858 E26.93471
G1 X55.872 Y93.404 E27.39317
G1 X56.091 Y93.050 E27.40400
G1 X68.881 Y105.840 E27.87481
G1 X69.436 Y105.823 E27.88927
G1 X56.311 Y92.697 E28.37244
G1 X56.530 Y92.343 E28.38327
G1 X69.992 Y105.805 E28.87879
G1 X70.547 Y105.787 E28.89325
G1 X56.750 Y91.990 E29.40114
G1 X56.969 Y91.636 E29.41197
G1 X71.102 Y105.769 E29.93221
G1 X71.657 Y105.751 E29.94667
G1 X57.189 Y91.283 E30.47926
G1 X57.408 Y90.929 E30.49009
G1 X72.212 Y105.733 E31.03505
G1 X72.768 Y105.716 E31.04951
G1 X57.628 Y90.576 E31.60682
G1 X57.847 Y90.222 E31.61765
G1 X88.718 Y121.093 E32.75402
G1 X88.918 Y120.720 E32.76504
G1 X58.067 Y89.869 E33.90069
G1 X58.286 Y89.515 E33.91152
G1 X89.118 Y120.347 E35.04644
G1 X89.317 Y119.973 E35.05746
G1 X58.506 Y89.162 E36.19166
G1 X58.725 Y88.808 E36.20249
G1 X89.517 Y119.600 E37.33596
G1 X89.717 Y119.227 E37.34698
G1 X58.945 Y88.455 E38.47973
G1 X59.164 Y88.101 E38.49056
G1 X89.917 Y118.854 E39.62258
G1 X90.117 Y118.481 E39.63360
G1 X59.384 Y87.748 E40.76489
G1 X59.603 Y87.394 E40.77572
G1 X90.316 Y118.107 E41.90630
G1 X90.516 Y117.734 E41.91731
G1 X59.823 Y87.041 E43.04716
G1 X60.042 Y86.687 E43.05799
G1 X90.716 Y117.361 E44.18711
G1 X90.916 Y116.988 E44.19813
G1 X60.262 Y86.334 E45.32652
G1 X60.481 Y85.980 E45.33735
G1 X91.116 Y116.615 E46.46502
G1 X91.315 Y116.241 E46.47604
G1 X60.701 Y85.627 E47.60298
G1 X60.920 Y85.273 E47.61381
G1 X91.515 Y115.868 E48.74003
G1 X91.715 Y115.495 E48.75105
G1 X60.877 Y84.656 E49.88623
G1 X59.938 Y83.145 F12000.000
G1 X91.915 Y115.122 E51.06332 F1200.000
G1 X92.115 Y114.748 E51.07434
G1 X58.999 Y81.633 E52.29334
G1 X58.061 Y80.121 F12000.000
G1 X92.314 Y114.375 E53.55424 F1200.000
G1 X92.514 Y114.002 E53.56526
G1 X57.122 Y78.610 E54.86807
G1 X56.183 Y77.098 F12000.000
G1 X92.714 Y113.629 E56.21279 F1200.000
G1 X92.914 Y113.256 E56.22381
G1 X55.245 Y75.586 E57.61043
G1 X54.306 Y74.075 F12000.000
G1 X93.114 Y112.882 E59.03896 F1200.000
G1 X93.313 Y112.509 E59.04998
G1 X53.367 Y72.563 E60.52042
G1 X52.429 Y71.051 F12000.000
G1 X93.513 Y112.136 E62.03276 F1200.000
G1 X93.713 Y111.763 E62.04378
G1 X51.490 Y69.540 E63.59803
G1 X50.551 Y68.028 F12000.000
G1 X93.913 Y111.390 E65.19419 F1200.000
G1 X94.113 Y111.016 E65.20521
G1 X49.613 Y66.517 E66.84328
G1 X48.674 Y65.005 F12000.000
G1 X94.312 Y110.643 E68.52325 F1200.000
G1 X94.512 Y110.270 E68.53427
G1 X47.754 Y63.512 E70.25545
G1 X48.315 Y63.500 E70.27004
G1 X94.712 Y109.897 E71.97794
G1 X94.912 Y109.524 E71.98896
G1 X48.907 Y63.519 E73.68242
G1 X49.499 Y63.538 E73.69784
G1 X95.112 Y109.150 E75.37686
G1 X95.311 Y108.777 E75.38788
G1 X50.091 Y63.557 E77.05247
G1 X50.683 Y63.576 E77.06789
G1 X95.511 Y108.404 E78.71804
G1 X95.711 Y108.031 E78.72906
G1 X51.275 Y63.595 E80.36477
G1 X51.867 Y63.614 E80.38019
G1 X95.911 Y107.657 E82.00146
G1 X96.111 Y107.284 E82.01248
G1 X52.459 Y63.633 E83.61932
G1 X53.051 Y63.652 E83.63474
G1 X96.310 Y106.911 E85.22714
G1 X96.510 Y106.538 E85.23816
G1 X53.643 Y63.671 E86.81612
G1 X54.235 Y63.690 E86.83154
G1 X96.710 Y106.165 E88.39506
G1 X96.910 Y105.791 E88.40608
G1 X54.827 Y63.709 E89.95517
G1 X55.419 Y63.728 E89.97059
G1 X97.413 Y105.721 E91.51640
G1 X98.005 Y105.740 E91.53182
G1 X56.011 Y63.747 E93.07764
G1 X56.603 Y63.766 E93.09305
G1 X98.597 Y105.759 E94.63887
G1 X99.189 Y105.778 E94.65429
G1 X57.195 Y63.785 E96.20010
G1 X57.787 Y63.804 E96.21552
G1 X99.781 Y105.797 E97.76134
G1 X100.373 Y105.816 E97.77675
G1 X58.379 Y63.823 E99.32257
G1 X58.971 Y63.842 E99.33799
G1 X100.965 Y105.835 E100.88380
G1 X101.557 Y105.854 E100.89922
G1 X59.563 Y63.861 E102.44503
G1 X60.155 Y63.880 E102.46045
G1 X102.149 Y105.873 E104.00627
G1 X102.741 Y105.892 E104.02168
G1 X60.747 Y63.899 E105.56750
G1 X61.339 Y63.918 E105.58292
G1 X103.333 Y105.911 E107.12873
G1 X103.925 Y105.930 E107.14415
G1 X61.931 Y63.937 E108.68996
G1 X62.523 Y63.956 E108.70538
G1 X104.517 Y105.949 E110.25120
G1 X105.109 Y105.968 E110.26661
G1 X63.115 Y63.975 E111.81243
G1 X63.707 Y63.994 E111.82785
G1 X105.701 Y105.987 E113.37366
G1 X106.293 Y106.006 E113.38908
G1 X64.299 Y64.013 E114.93490
G1 X64.891 Y64.032 E114.95031
G1 X106.885 Y106.025 E116.49613
G1 X107.477 Y106.044 E116.51155
G1 X65.483 Y64.051 E118.05736
G1 X66.075 Y64.070 E118.07278
G1 X108.069 Y106.063 E119.61859
G1 X108.661 Y106.082 E119.63401
G1 X66.667 Y64.089 E121.17983
G1 X67.259 Y64.108 E121.19524
G1 X109.253 Y106.101 E122.74106
G1 X109.845 Y106.120 E122.75648
G1 X67.851 Y64.127 E124.30229
G1 X68.443 Y64.146 E124.31771
G1 X110.437 Y106.139 E125.86352
G1 X111.029 Y106.158 E125.87894
G1 X69.035 Y64.165 E127.42476
G1 X69.627 Y64.184 E127.44017
G1 X111.621 Y106.177 E128.98599
G1 X112.213 Y106.196 E129.00141
G1 X70.219 Y64.203 E130.54722
G1 X70.811 Y64.222 E130.56264
G1 X112.805 Y106.215 E132.10845
G1 X113.397 Y106.234 E132.12387
G1 X71.403 Y64.241 E133.66969
G1 X71.995 Y64.260 E133.68510
G1 X113.989 Y106.253 E135.23092
G1 X114.581 Y106.272 E135.24634
G1 X72.587 Y64.279 E136.79215
G1 X73.090 Y64.209 E136.80537
G1 X115.173 Y106.291 E138.35446
G1 X115.765 Y106.310 E138.36988
G1 X73.290 Y63.835 E139.93341
G1 X73.490 Y63.462 E139.94442
G1 X116.357 Y106.329 E141.52239
G1 X116.949 Y106.348 E141.53781
G1 X73.690 Y63.089 E143.13021
G1 X73.889 Y62.716 E143.14122
G1 X117.541 Y106.367 E144.74806
G1 X118.133 Y106.386 E144.76348
G1 X74.089 Y62.343 E146.38476
G1 X74.289 Y61.969 E146.39577
G1 X118.725 Y106.405 E148.03149
G1 X119.317 Y106.424 E148.04690
G1 X74.489 Y61.596 E149.69706
G1 X74.689 Y61.223 E149.70807
G1 X119.909 Y106.443 E151.37266
G1 X120.501 Y106.462 E151.38808
G1 X74.888 Y60.850 E153.06710
G1 X75.088 Y60.476 E153.07812
G1 X121.093 Y106.481 E154.77158
G1 X121.685 Y106.500 F12000.000
G1 X75.288 Y60.103 E156.47948 F1200.000
G1 X75.488 Y59.730 E156.49050
G1 X122.246 Y106.488 E158.21168
G1 X121.326 Y104.995 F12000.000
G1 X75.688 Y59.357 E159.89165 F1200.000
G1 X75.887 Y58.984 E159.90267
G1 X120.387 Y103.483 E161.54074
G1 X119.449 Y101.972 F12000.000
G1 X76.087 Y58.610 E163.13690 F1200.000
G1 X76.287 Y58.237 E163.14791
G1 X118.510 Y100.460 E164.70217
G1 X117.571 Y98.949 F12000.000
G1 X76.487 Y57.864 E166.21451 F1200.000
G1 X76.687 Y57.491 E166.22553
G1 X116.633 Y97.437 E167.69597
G1 X115.694 Y95.925 F12000.000
G1 X76.886 Y57.118 E169.12450 F1200.000
G1 X77.086 Y56.744 E169.13551
G1 X114.755 Y94.414 E170.52214
G1 X113.817 Y92.902 F12000.000
G1 X77.286 Y56.371 E171.86686 F1200.000
G1 X77.486 Y55.998 E171.87787
G1 X112.878 Y91.390 E173.18068
G1 X111.939 Y89.879 F12000.000
G1 X77.686 Y55.625 E174.44159 F1200.000
G1 X77.885 Y55.252 E174.45261
G1 X111.001 Y88.367 E175.67160
G1 X110.062 Y86.855 F12000.000
G1 X78.085 Y54.878 E176.84869 F1200.000
G1 X78.285 Y54.505 E176.85971
G1 X109.123 Y85.344 E177.99489
G1 X109.080 Y84.727 E178.01099
G1 X78.485 Y54.132 E179.13720
G1 X78.685 Y53.759 E179.14822
G1 X109.299 Y84.373 E180.27517
G1 X109.519 Y84.020 E180.28600
G1 X78.884 Y53.385 E181.41367
G1 X79.084 Y53.012 E181.42468
G1 X109.738 Y83.666 E182.55308
G1 X109.958 Y83.313 E182.56391
G1 X79.284 Y52.639 E183.69303
G1 X79.484 Y52.266 E183.70405
G1 X110.177 Y82.959 E184.83389
G1 X110.397 Y82.606 E184.84472
G1 X79.684 Y51.893 E185.97529
G1 X79.883 Y51.519 E185.98631
G1 X110.616 Y82.252 E187.11761
G1 X110.836 Y81.899 E187.12844
G1 X80.083 Y51.146 E188.26046
G1 X80.283 Y50.773 E188.27148
G1 X111.055 Y81.545 E189.40423
G1 X111.275 Y81.192 E189.41506
G1 X80.483 Y50.400 E190.54853
G1 X80.683 Y50.027 E190.55955
G1 X111.494 Y80.838 E191.69375
G1 X111.714 Y80.485 E191.70458
G1 X80.882 Y49.653 E192.83950
G1 X81.082 Y49.280 E192.85052
G1 X111.933 Y80.131 E193.98617
G1 X112.153 Y79.778 E193.99700
G1 X81.282 Y48.907 E195.13337
G1 X81.482 Y48.534 E195.14439
G1 X96.625 Y63.677 E195.70184
G1 X97.232 Y64.284 F12000.000
G1 X112.372 Y79.424 E196.25915 F1200.000
G1 X112.592 Y79.071 E196.26998
G1 X97.788 Y64.266 E196.81493
G1 X98.343 Y64.249 E196.82939
G1 X112.811 Y78.717 E197.36199
G1 X113.031 Y78.364 E197.37282
G1 X98.898 Y64.231 E197.89306
G1 X99.453 Y64.213 E197.90752
G1 X113.250 Y78.010 E198.41540
G1 X113.470 Y77.657 E198.42623
G1 X100.008 Y64.195 E198.92176
G1 X100.564 Y64.177 E198.93622
G1 X113.689 Y77.303 E199.41939
G1 X113.909 Y76.950 E199.43022
G1 X101.119 Y64.160 E199.90103
G1 X101.674 Y64.142 E199.91549
G1 X114.128 Y76.596 E200.37394
G1 X114.348 Y76.243 E200.38477
G1 X102.229 Y64.124 E200.83087
G1 X102.784 Y64.106 E200.84533
G1 X114.567 Y75.889 E201.27907
G1 X114.787 Y75.536 E201.28990
G1 X103.339 Y64.088 E201.71129
G1 X103.895 Y64.071 E201.72575
G1 X115.006 Y75.182 E202.13477
G1 X115.226 Y74.829 E202.14560
G1 X104.450 Y64.053 E202.54228
G1 X105.005 Y64.035 E202.55673
G1 X115.445 Y74.475 E202.94105
G1 X115.665 Y74.122 E202.95188
G1 X105.560 Y64.017 E203.32383
G1 X106.115 Y63.999 E203.33829
G1 X115.884 Y73.768 E203.69789
G1 X116.104 Y73.415 E203.70872
G1 X106.671 Y63.981 E204.05597
G1 X107.226 Y63.964 E204.07043
G1 X116.323 Y73.061 E204.40531
G1 X116.543 Y72.708 E204.41614
G1 X107.781 Y63.946 E204.73867
G1 X108.336 Y63.928 E204.75313
G1 X116.762 Y72.354 E205.06330
G1 X116.982 Y72.001 E205.07413
G1 X108.891 Y63.910 E205.37195
G1 X109.447 Y63.892 E205.38641
G1 X117.201 Y71.647 E205.67186
G1 X117.421 Y71.294 E205.68270
G1 X110.002 Y63.875 E205.95580
G1 X110.557 Y63.857 E205.97025
G1 X117.640 Y70.940 E206.23100
G1 X117.860 Y70.587 E206.24183
G1 X111.112 Y63.839 E206.49022
G1 X111.667 Y63.821 E206.50468
G1 X118.079 Y70.233 E206.74071
G1 X118.299 Y69.880 E206.75154
G1 X112.223 Y63.803 E206.97521
G1 X112.778 Y63.786 E206.98967
G1 X118.518 Y69.526 E207.20099
G1 X118.738 Y69.173 E207.21182
G1 X113.333 Y63.768 E207.41078
G1 X113.888 Y63.750 E207.42523
G1 X118.957 Y68.819 E207.61184
G1 X119.177 Y68.466 E207.62267
G1 X114.443 Y63.732 E207.79691
G1 X114.999 Y63.714 E207.81137
G1 X119.396 Y68.112 E207.97326
G1 X119.616 Y67.759 E207.98409
G1 X115.554 Y63.696 E208.13362
G1 X116.109 Y63.679 E208.14808
G1 X119.835 Y67.405 E208.28526
G1 X120.055 Y67.052 E208.29609
G1 X116.664 Y63.661 E208.42091
G1 X117.219 Y63.643 E208.43536
G1 X120.274 Y66.698 E208.54782
G1 X120.494 Y66.345 E208.55866
G1 X117.775 Y63.625 E208.65876
G1 X118.330 Y63.607 E208.67322
G1 X120.713 Y65.991 E208.76097
G1 X120.933 Y65.638 E208.77180
G1 X118.885 Y63.590 E208.84719
G1 X119.440 Y63.572 E208.86164
G1 X121.153 Y65.284 E208.92468
G1 X121.372 Y64.931 E208.93551
G1 X119.995 Y63.554 E208.98618
G1 X120.551 Y63.536 E209.00064
G1 X121.592 Y64.577 E209.03896
G1 X121.811 Y64.224 E209.04979
G1 X121.106 Y63.518 E209.07576
G1 X121.661 Y63.500 E209.09021
G1 X122.031 Y63.870 E209.10382
G1 X122.250 Y63.517 E209.11465
G1 X122.216 Y63.483 E209.11590
G1 E207.11590 F1680.000
G92 E0
G1 X95.965 Y62.444 F12000.000
G1 E2.00000 F1680.000
G1 X81.682 Y48.160 E2.52579 F1200.000
G1 X81.881 Y47.787 E2.53681
G1 X95.305 Y61.211 E3.03094
G1 X94.645 Y59.978 F12000.000
G1 X82.081 Y47.414 E3.49341 F1200.000
G1 X82.281 Y47.041 E3.50443
G1 X93.985 Y58.745 E3.93525
G1 X93.324 Y57.511 F12000.000
G1 X82.481 Y46.668 E4.33441 F1200.000
G1 X82.681 Y46.294 E4.34543
G1 X92.664 Y56.278 E4.71294
G1 X92.004 Y55.045 F12000.000
G1 X82.880 Y45.921 E5.04879 F1200.000
