; generated by Slic3r 0.9.10b on 2014-02-05 at 10:36:09

; layer_height = 0.3
; perimeters = 1
; top_solid_layers = 3
; bottom_solid_layers = 3
; fill_density = .3
; perimeter_speed = 30
; infill_speed = 60
; travel_speed = 130
; nozzle_diameter = 0.5
; filament_diameter = 2.9
; extrusion_multiplier = 0.95
; perimeters extrusion width = 0.50mm
; infill extrusion width = 0.50mm
; solid infill extrusion width = 0.50mm
; top infill extrusion width = 0.50mm

G21 ; set units to millimeters
M107
M190 S100 ; wait for bed temperature to be reached
M104 S230 ; set temperature
G28 ; home all axes
G1 Z15 F120 ; lift nozzle
M109 S230 ; wait for temperature to be reached
G90 ; use absolute coordinates
G92 E0
M82 ; use absolute distances for extrusion
G1 F1680.000 E-2.00000
G92 E0
G1 Z0.500 F7800.000
G1 X46.426 Y51.240
G1 F1680.000 E2.00000
G1 X48.926 Y49.040 F540.000 E2.11974
G1 X50.906 Y47.500 E2.20993
G1 X51.246 Y47.250 E2.22511
G1 X53.326 Y45.840 E2.31546
G1 X53.666 Y45.630 E2.32983
G1 X56.206 Y44.140 E2.43572
G1 X58.656 Y42.910 E2.53429
G1 X61.486 Y41.680 E2.64524
G1 X63.846 Y40.830 E2.73543
G1 X66.656 Y40.010 E2.84069
G1 X69.496 Y39.360 E2.94544
G1 X69.906 Y39.280 E2.96046
G1 X72.776 Y38.840 E3.06486
G1 X75.716 Y38.570 E3.17102
G1 X78.196 Y38.500 E3.26023
G1 X81.106 Y38.570 E3.36489
G1 X84.046 Y38.840 E3.47105
G1 X86.916 Y39.280 E3.57545
G1 X89.776 Y39.910 E3.68075
G1 X92.976 Y40.830 E3.80047
G1 X95.716 Y41.830 E3.90535
G1 X98.026 Y42.830 E3.99586
G1 X134.236 Y59.070 E5.42279
G1 X135.516 Y59.830 E5.47632
G1 X136.586 Y60.860 E5.52972
G1 X137.406 Y62.120 E5.58378
G1 X137.906 Y63.520 E5.63723
G1 X138.076 Y65.000 E5.69080
G1 X138.076 Y105.000 E7.12906
G1 X137.906 Y106.480 E7.18262
G1 X137.396 Y107.880 E7.23620
G1 X136.586 Y109.140 E7.29006
G1 X135.516 Y110.170 E7.34346
G1 X134.236 Y110.930 E7.39699
G1 X98.026 Y127.160 E8.82377
G1 X95.716 Y128.160 E8.91428
G1 X92.976 Y129.160 E9.01916
G1 X92.586 Y129.280 E9.03383
G1 X89.776 Y130.080 E9.13888
G1 X86.916 Y130.710 E9.24419
G1 X84.046 Y131.150 E9.34859
G1 X81.546 Y131.390 E9.43889
G1 X81.106 Y131.420 E9.45475
G1 X78.226 Y131.490 E9.55833
G1 X75.716 Y131.420 E9.64862
G1 X75.256 Y131.390 E9.66519
G1 X72.726 Y131.140 E9.75661
G1 X69.916 Y130.710 E9.85882
G1 X69.496 Y130.630 E9.87420
G1 X66.656 Y129.980 E9.97895
G1 X64.236 Y129.280 E10.06953
G1 X63.846 Y129.160 E10.08421
G1 X61.106 Y128.160 E10.18908
G1 X58.796 Y127.160 E10.27959
G1 X56.186 Y125.840 E10.38476
G1 X53.326 Y124.150 E10.50420
G1 X51.246 Y122.740 E10.59456
G1 X48.576 Y120.660 E10.71626
G1 X46.426 Y118.750 E10.81966
G1 X44.656 Y116.980 E10.90967
G1 X42.456 Y114.480 E11.02941
G1 X40.916 Y112.500 E11.11960
G1 X40.666 Y112.160 E11.13478
G1 X39.026 Y109.730 E11.24019
G1 X37.756 Y107.580 E11.32997
G1 X36.246 Y104.610 E11.44977
G1 X35.246 Y102.300 E11.54028
G1 X34.246 Y99.560 E11.64516
G1 X33.326 Y96.360 E11.76488
G1 X32.696 Y93.500 E11.87018
G1 X32.256 Y90.630 E11.97458
G1 X32.016 Y88.130 E12.06489
G1 X31.986 Y87.690 E12.08075
G1 X31.916 Y85.170 E12.17139
G1 X31.986 Y82.300 E12.27462
G1 X32.306 Y78.970 E12.39490
G1 X32.696 Y76.490 E12.48517
G1 X33.326 Y73.630 E12.59047
G1 X34.246 Y70.430 E12.71019
G1 X35.096 Y68.070 E12.80039
G1 X36.246 Y65.380 E12.90558
G1 X37.566 Y62.770 E13.01075
G1 X39.266 Y59.890 E13.13099
G1 X40.736 Y57.740 E13.22464
G1 X42.446 Y55.520 E13.32540
G1 X44.656 Y53.010 E13.44565
G1 X46.373 Y51.293 E13.53296
G1 F1680.000 E11.53296
G92 E0
G1 X55.666 Y60.774 F7800.000
G1 F1680.000 E2.00000
G1 X57.232 Y59.393 F540.000 E2.07507
G1 X58.882 Y58.113 E2.15014
G1 X60.609 Y56.940 E2.22521
G1 X62.406 Y55.877 E2.30028
G1 X64.266 Y54.929 E2.37535
G1 X66.182 Y54.100 E2.45042
G1 X68.146 Y53.393 E2.52549
G1 X70.151 Y52.810 E2.60056
G1 X72.189 Y52.355 E2.67563
G1 X74.251 Y52.028 E2.75070
G1 X76.329 Y51.832 E2.82577
G1 X78.416 Y51.766 E2.90084
G1 X79.514 Y51.801 E2.94033
G1 X80.503 Y51.832 E2.97591
G1 X82.582 Y52.028 E3.05098
G1 X84.644 Y52.355 E3.12605
G1 X86.681 Y52.810 E3.20112
G1 X88.686 Y53.393 E3.27619
G1 X89.719 Y53.765 E3.31567
G1 X90.650 Y54.100 E3.35126
G1 X92.566 Y54.929 E3.42632
G1 X94.427 Y55.877 E3.50140
G1 X96.224 Y56.940 E3.57646
G1 X97.950 Y58.113 E3.65153
G1 X99.621 Y59.412 E3.72761
G1 X101.166 Y60.774 E3.80167
G1 X102.643 Y62.250 E3.87674
G1 X104.040 Y63.838 E3.95282
G1 X105.303 Y65.466 E4.02689
G1 X106.476 Y67.192 E4.10194
G1 X107.552 Y69.014 E4.17802
G1 X108.487 Y70.849 E4.25207
G1 X109.316 Y72.766 E4.32714
G1 X110.023 Y74.730 E4.40222
G1 X110.606 Y76.735 E4.47730
G1 X111.061 Y78.773 E4.55237
G1 X111.388 Y80.835 E4.62745
G1 X111.584 Y82.913 E4.70250
G1 X111.650 Y85.000 E4.77758
G1 X111.616 Y86.093 E4.81690
G1 X111.584 Y87.087 E4.85265
G1 X111.388 Y89.165 E4.92771
G1 X111.061 Y91.227 E5.00278
G1 X110.606 Y93.265 E5.07785
G1 X110.023 Y95.270 E5.15293
G1 X109.653 Y96.299 E5.19227
G1 X109.316 Y97.234 E5.22800
G1 X108.487 Y99.150 E5.30306
G1 X107.539 Y101.010 E5.37813
G1 X106.498 Y102.770 E5.45164
G1 X105.303 Y104.534 E5.52827
G1 X104.023 Y106.184 E5.60334
G1 X102.643 Y107.750 E5.67841
G1 X101.166 Y109.226 E5.75348
G1 X99.600 Y110.607 E5.82855
G1 X97.950 Y111.887 E5.90362
G1 X96.224 Y113.060 E5.97869
G1 X94.427 Y114.123 E6.05374
G1 X92.605 Y115.051 E6.12727
G1 X90.651 Y115.900 E6.20388
G1 X88.686 Y116.607 E6.27896
G1 X86.723 Y117.178 E6.35247
G1 X84.643 Y117.645 E6.42911
G1 X82.581 Y117.972 E6.50417
G1 X80.503 Y118.168 E6.57924
G1 X78.416 Y118.234 E6.65432
G1 X77.299 Y118.199 E6.69451
G1 X76.329 Y118.168 E6.72938
G1 X74.250 Y117.972 E6.80446
G1 X72.189 Y117.645 E6.87952
G1 X70.152 Y117.190 E6.95457
G1 X68.147 Y116.607 E7.02965
G1 X67.094 Y116.228 E7.06987
G1 X66.182 Y115.900 E7.10473
G1 X64.266 Y115.071 E7.17979
G1 X62.382 Y114.109 E7.25587
G1 X60.609 Y113.060 E7.32993
G1 X58.882 Y111.887 E7.40500
G1 X57.211 Y110.588 E7.48108
G1 X55.666 Y109.226 E7.55514
G1 X54.190 Y107.750 E7.63021
G1 X52.792 Y106.162 E7.70629
G1 X51.529 Y104.534 E7.78036
G1 X50.356 Y102.808 E7.85542
G1 X49.293 Y101.010 E7.93049
G1 X48.345 Y99.150 E8.00556
G1 X47.516 Y97.234 E8.08063
G1 X46.809 Y95.270 E8.15570
G1 X46.226 Y93.265 E8.23077
G1 X45.771 Y91.227 E8.30584
G1 X45.445 Y89.165 E8.38091
G1 X45.248 Y87.087 E8.45598
G1 X45.182 Y85.000 E8.53105
G1 X45.248 Y82.913 E8.60612
G1 X45.445 Y80.835 E8.68119
G1 X45.771 Y78.773 E8.75626
G1 X46.226 Y76.735 E8.83133
G1 X46.809 Y74.730 E8.90640
G1 X47.516 Y72.766 E8.98147
G1 X48.345 Y70.850 E9.05654
G1 X49.293 Y68.990 E9.13161
G1 X50.356 Y67.192 E9.20668
G1 X51.529 Y65.466 E9.28174
G1 X52.809 Y63.816 E9.35682
G1 X54.190 Y62.250 E9.43189
G1 X55.613 Y60.827 E9.50426
G1 X55.986 Y61.161 F7800.000
G1 X57.551 Y59.778 F378.000 E9.57936
G1 X59.176 Y58.518 E9.65330
G1 X60.877 Y57.362 E9.72724
G1 X62.647 Y56.315 E9.80118
G1 X64.479 Y55.382 E9.87512
G1 X66.366 Y54.565 E9.94906
G1 X68.301 Y53.869 E10.02300
G1 X70.276 Y53.295 E10.09694
G1 X72.283 Y52.846 E10.17088
G1 X74.314 Y52.525 E10.24482
G1 X76.361 Y52.331 E10.31876
G1 X78.416 Y52.267 E10.39270
G1 X80.484 Y52.332 E10.46708
G1 X82.519 Y52.525 E10.54058
G1 X84.550 Y52.846 E10.61452
G1 X86.557 Y53.295 E10.68845
G1 X88.531 Y53.869 E10.76240
G1 X90.466 Y54.565 E10.83633
G1 X91.460 Y54.995 E10.87526
G1 X92.353 Y55.382 E10.91027
G1 X94.186 Y56.315 E10.98421
G1 X95.956 Y57.362 E11.05815
G1 X97.656 Y58.518 E11.13209
G1 X99.291 Y59.787 E11.20648
G1 X100.824 Y61.138 E11.27997
G1 X102.278 Y62.592 E11.35391
G1 X103.645 Y64.145 E11.42829
G1 X104.898 Y65.760 E11.50179
G1 X106.054 Y67.460 E11.57573
G1 X107.106 Y69.241 E11.65011
G1 X108.034 Y71.063 E11.72360
G1 X108.851 Y72.950 E11.79755
G1 X109.547 Y74.885 E11.87148
G1 X110.121 Y76.860 E11.94543
G1 X110.570 Y78.866 E12.01937
G1 X110.891 Y80.898 E12.09331
G1 X111.085 Y82.945 E12.16725
G1 X111.150 Y85.000 E12.24119
G1 X111.116 Y86.077 E12.27995
G1 X111.085 Y87.055 E12.31513
G1 X110.891 Y89.103 E12.38907
G1 X110.570 Y91.134 E12.46301
G1 X110.121 Y93.140 E12.53695
G1 X109.547 Y95.115 E12.61089
G1 X109.182 Y96.130 E12.64965
G1 X108.851 Y97.050 E12.68483
G1 X108.034 Y98.937 E12.75876
G1 X107.101 Y100.769 E12.83271
G1 X106.068 Y102.516 E12.90564
G1 X104.898 Y104.240 E12.98058
G1 X103.638 Y105.865 E13.05452
G1 X102.278 Y107.408 E13.12846
G1 X100.824 Y108.862 E13.20240
G1 X99.281 Y110.222 E13.27634
G1 X97.656 Y111.482 E13.35028
G1 X95.956 Y112.638 E13.42422
G1 X94.186 Y113.684 E13.49816
G1 X92.378 Y114.606 E13.57110
G1 X90.466 Y115.435 E13.64604
G1 X88.531 Y116.131 E13.71998
G1 X86.583 Y116.697 E13.79292
G1 X84.550 Y117.154 E13.86786
G1 X82.519 Y117.475 E13.94180
G1 X80.472 Y117.669 E14.01573
G1 X78.416 Y117.733 E14.08968
G1 X77.314 Y117.699 E14.12932
G1 X76.361 Y117.669 E14.16362
G1 X74.313 Y117.475 E14.23756
G1 X72.283 Y117.154 E14.31149
G1 X70.276 Y116.705 E14.38543
G1 X68.301 Y116.131 E14.45937
G1 X67.264 Y115.758 E14.49902
G1 X66.366 Y115.435 E14.53331
G1 X64.479 Y114.618 E14.60725
G1 X62.647 Y113.685 E14.68119
G1 X60.877 Y112.638 E14.75513
G1 X59.176 Y111.482 E14.82907
G1 X57.551 Y110.222 E14.90301
G1 X56.009 Y108.862 E14.97695
G1 X54.554 Y107.408 E15.05089
G1 X53.187 Y105.855 E15.12528
G1 X51.934 Y104.240 E15.19877
G1 X50.778 Y102.539 E15.27271
G1 X49.732 Y100.769 E15.34665
G1 X48.798 Y98.937 E15.42059
G1 X47.981 Y97.050 E15.49453
G1 X47.285 Y95.115 E15.56847
G1 X46.711 Y93.140 E15.64241
G1 X46.263 Y91.134 E15.71635
G1 X45.941 Y89.103 E15.79029
G1 X45.747 Y87.055 E15.86423
G1 X45.683 Y85.000 E15.93817
G1 X45.747 Y82.945 E16.01211
G1 X45.941 Y80.897 E16.08605
G1 X46.263 Y78.866 E16.15999
G1 X46.711 Y76.860 E16.23393
G1 X47.285 Y74.885 E16.30787
G1 X47.981 Y72.950 E16.38181
G1 X48.798 Y71.063 E16.45575
G1 X49.732 Y69.231 E16.52969
G1 X50.778 Y67.460 E16.60363
G1 X51.934 Y65.760 E16.67757
G1 X53.195 Y64.135 E16.75151
G1 X54.554 Y62.592 E16.82545
G1 X55.933 Y61.214 E16.89553
G1 X51.548 Y56.388 F7800.000
G1 X53.397 Y54.758 F540.000 E16.98419
G1 X55.346 Y53.246 E17.07285
G1 X57.385 Y51.860 E17.16150
G1 X59.508 Y50.605 E17.25017
G1 X61.704 Y49.486 E17.33882
G1 X63.967 Y48.507 E17.42748
G1 X66.287 Y47.671 E17.51614
G1 X68.655 Y46.983 E17.60480
G1 X71.061 Y46.446 E17.69346
G1 X73.497 Y46.060 E17.78212
G1 X75.952 Y45.828 E17.87077
G1 X78.416 Y45.750 E17.95943
G1 X80.881 Y45.828 E18.04809
G1 X83.335 Y46.060 E18.13675
G1 X85.771 Y46.446 E18.22541
G1 X88.177 Y46.983 E18.31407
G1 X90.545 Y47.671 E18.40273
G1 X92.865 Y48.507 E18.49139
G1 X95.128 Y49.486 E18.58005
G1 X97.325 Y50.605 E18.66870
G1 X99.447 Y51.860 E18.75736
G1 X101.487 Y53.246 E18.84602
G1 X103.435 Y54.758 E18.93468
G1 X105.284 Y56.388 E19.02334
G1 X107.028 Y58.132 E19.11200
G1 X108.659 Y59.981 E19.20066
G1 X110.170 Y61.930 E19.28932
G1 X111.556 Y63.969 E19.37797
G1 X112.609 Y65.750 E19.45237
G1 X130.025 Y65.750 E20.07858
G1 X128.686 Y67.719 E20.16420
G1 X127.655 Y69.463 E20.23705
G1 X126.735 Y71.269 E20.30990
G1 X125.931 Y73.128 E20.38275
G1 X125.244 Y75.034 E20.45559
G1 X124.679 Y76.980 E20.52845
G1 X124.237 Y78.957 E20.60129
G1 X123.920 Y80.958 E20.67415
G1 X123.729 Y82.975 E20.74699
G1 X123.666 Y85.000 E20.81984
G1 X123.729 Y87.025 E20.89269
G1 X123.920 Y89.042 E20.96553
G1 X124.237 Y91.043 E21.03838
G1 X124.679 Y93.020 E21.11123
G1 X125.244 Y94.966 E21.18409
G1 X125.931 Y96.872 E21.25693
G1 X126.735 Y98.731 E21.32978
G1 X127.655 Y100.537 E21.40263
G1 X128.686 Y102.281 E21.47548
G1 X130.025 Y104.250 E21.56109
G1 X112.609 Y104.250 E22.18730
G1 X111.556 Y106.031 E22.26170
G1 X110.170 Y108.070 E22.35036
G1 X108.659 Y110.019 E22.43902
G1 X107.028 Y111.868 E22.52768
G1 X105.284 Y113.612 E22.61633
G1 X103.435 Y115.242 E22.70500
G1 X101.487 Y116.754 E22.79365
G1 X99.447 Y118.140 E22.88231
G1 X97.325 Y119.395 E22.97097
G1 X95.128 Y120.514 E23.05963
G1 X92.865 Y121.493 E23.14829
G1 X90.545 Y122.329 E23.23695
G1 X88.177 Y123.017 E23.32561
G1 X85.771 Y123.554 E23.41427
G1 X83.335 Y123.940 E23.50293
G1 X80.881 Y124.172 E23.59158
G1 X78.416 Y124.250 E23.68025
G1 X75.952 Y124.172 E23.76890
G1 X73.497 Y123.940 E23.85756
G1 X71.062 Y123.554 E23.94622
G1 X68.655 Y123.016 E24.03488
G1 X66.287 Y122.329 E24.12354
G1 X63.967 Y121.493 E24.21219
G1 X61.704 Y120.514 E24.30085
G1 X59.508 Y119.395 E24.38951
G1 X57.385 Y118.140 E24.47817
G1 X55.346 Y116.754 E24.56683
G1 X53.397 Y115.242 E24.65549
G1 X51.548 Y113.612 E24.74415
G1 X49.804 Y111.868 E24.83280
G1 X48.174 Y110.019 E24.92146
G1 X46.663 Y108.070 E25.01013
G1 X45.277 Y106.031 E25.09878
G1 X44.021 Y103.909 E25.18744
G1 X42.902 Y101.712 E25.27610
G1 X41.873 Y99.310 E25.37004
G1 X41.087 Y97.129 E25.45341
G1 X40.400 Y94.761 E25.54207
G1 X39.862 Y92.355 E25.63073
G1 X39.476 Y89.919 E25.71939
G1 X39.244 Y87.464 E25.80805
G1 X39.167 Y85.000 E25.89670
G1 X39.244 Y82.535 E25.98536
G1 X39.476 Y80.081 E26.07402
G1 X39.862 Y77.645 E26.16268
G1 X40.400 Y75.239 E26.25134
G1 X41.087 Y72.871 E26.34000
G1 X41.923 Y70.551 E26.42866
G1 X42.902 Y68.288 E26.51732
G1 X44.021 Y66.091 E26.60597
G1 X45.277 Y63.969 E26.69464
G1 X46.663 Y61.930 E26.78329
G1 X48.174 Y59.981 E26.87195
G1 X49.804 Y58.132 E26.96061
G1 X51.495 Y56.441 E27.04657
G1 X51.205 Y56.024 F7800.000
G1 X53.079 Y54.372 F378.000 E27.13636
G1 X55.052 Y52.842 E27.22615
G1 X57.117 Y51.438 E27.31594
G1 X59.267 Y50.167 E27.40573
G1 X61.491 Y49.033 E27.49552
G1 X63.783 Y48.041 E27.58530
G1 X66.133 Y47.196 E27.67509
G1 X68.531 Y46.499 E27.76488
G1 X70.968 Y45.954 E27.85467
G1 X73.434 Y45.564 E27.94446
G1 X75.897 Y45.331 E28.03340
G1 X78.416 Y45.250 E28.12404
G1 X80.912 Y45.329 E28.21382
G1 X83.398 Y45.564 E28.30361
G1 X85.865 Y45.954 E28.39340
G1 X88.302 Y46.499 E28.48319
G1 X90.700 Y47.196 E28.57298
G1 X93.027 Y48.033 E28.66192
G1 X95.341 Y49.033 E28.75256
G1 X97.566 Y50.167 E28.84234
G1 X99.715 Y51.438 E28.93213
G1 X101.781 Y52.842 E29.02192
G1 X103.754 Y54.372 E29.11171
G1 X105.627 Y56.024 E29.20150
G1 X107.393 Y57.789 E29.29129
G1 X109.044 Y59.662 E29.38108
G1 X110.575 Y61.636 E29.47087
G1 X111.978 Y63.701 E29.56065
G1 X112.894 Y65.250 E29.62536
G1 X131.074 Y65.250 E30.27903
G1 X130.230 Y66.338 E30.32853
G1 X129.109 Y67.987 E30.40025
G1 X128.093 Y69.704 E30.47197
G1 X127.188 Y71.482 E30.54369
G1 X126.396 Y73.312 E30.61541
G1 X125.720 Y75.189 E30.68712
G1 X125.163 Y77.104 E30.75884
G1 X124.728 Y79.051 E30.83056
G1 X124.416 Y81.021 E30.90228
G1 X124.229 Y83.006 E30.97400
G1 X124.166 Y85.000 E31.04572
G1 X124.229 Y86.994 E31.11744
G1 X124.416 Y88.979 E31.18915
G1 X124.728 Y90.949 E31.26087
G1 X125.163 Y92.896 E31.33259
G1 X125.720 Y94.811 E31.40431
G1 X126.396 Y96.688 E31.47603
G1 X127.188 Y98.518 E31.54774
G1 X128.093 Y100.296 E31.61946
G1 X129.109 Y102.013 E31.69119
G1 X130.230 Y103.662 E31.76290
G1 X131.074 Y104.750 E31.81240
G1 X112.894 Y104.750 E32.46607
G1 X111.978 Y106.299 E32.53078
G1 X110.575 Y108.364 E32.62057
G1 X109.044 Y110.338 E32.71036
G1 X107.393 Y112.211 E32.80015
G1 X105.627 Y113.976 E32.88993
G1 X103.754 Y115.628 E32.97972
G1 X101.781 Y117.158 E33.06951
G1 X99.715 Y118.562 E33.15930
G1 X97.566 Y119.833 E33.24909
G1 X95.341 Y120.967 E33.33888
G1 X93.049 Y121.959 E33.42867
G1 X90.700 Y122.804 E33.51845
G1 X88.302 Y123.501 E33.60824
G1 X85.865 Y124.046 E33.69803
G1 X83.398 Y124.436 E33.78782
G1 X80.912 Y124.671 E33.87761
G1 X78.416 Y124.750 E33.96740
G1 X75.920 Y124.671 E34.05719
G1 X73.434 Y124.436 E34.14698
G1 X70.968 Y124.046 E34.23676
G1 X68.531 Y123.501 E34.32655
G1 X66.133 Y122.804 E34.41634
G1 X63.783 Y121.959 E34.50613
G1 X61.491 Y120.967 E34.59592
G1 X59.267 Y119.833 E34.68571
G1 X57.117 Y118.562 E34.77550
G1 X55.052 Y117.158 E34.86528
G1 X53.079 Y115.628 E34.95508
G1 X51.205 Y113.976 E35.04486
G1 X49.440 Y112.211 E35.13465
G1 X47.788 Y110.338 E35.22444
G1 X46.258 Y108.364 E35.31423
G1 X44.854 Y106.299 E35.40402
G1 X43.583 Y104.150 E35.49381
