; generated by Slic3r 0.9.10b on 2013-09-30 at 15:26:30

; layer_height = 0.25
; perimeters = 2
; top_solid_layers = 3
; bottom_solid_layers = 3
; fill_density = 0.4
; perimeter_speed = 30
; infill_speed = 60
; travel_speed = 130
; nozzle_diameter = 0.5
; filament_diameter = 2.9
; extrusion_multiplier = 1
; perimeters extrusion width = 0.84mm
; infill extrusion width = 0.84mm
; solid infill extrusion width = 0.84mm
; top infill extrusion width = 0.84mm
; first layer extrusion width = 0.75mm

G21 ; set units to millimeters
M107
M190 S100 ; wait for bed temperature to be reached
M104 S225 ; set temperature
G28 ; home all axes
G1 Z5 F1000 ; lift nozzle
M109 S225 ; wait for temperature to be reached
G90 ; use absolute coordinates
G92 E0
M82 ; use absolute distances for extrusion
G1 F1800.000 E-1.00000
G92 E0
G1 Z0.375 F7800.000
G1 X21.940 Y53.810
G1 F1800.000 E1.00000
G1 X23.190 Y53.430 F720.000 E1.05165
G1 X24.500 Y53.300 E1.10369
G1 X145.500 Y53.300 E5.88733
G1 X146.810 Y53.430 E5.93937
G1 X148.060 Y53.810 E5.99103
G1 X149.220 Y54.430 E6.04302
G1 X150.240 Y55.260 E6.09501
G1 X151.070 Y56.280 E6.14700
G1 X151.690 Y57.440 E6.19900
G1 X152.070 Y58.690 E6.25065
G1 X152.200 Y60.000 E6.30270
G1 X152.200 Y110.000 E8.27940
G1 X152.070 Y111.310 E8.33145
G1 X151.690 Y112.560 E8.38310
G1 X151.070 Y113.720 E8.43510
G1 X150.240 Y114.740 E8.48709
G1 X149.220 Y115.570 E8.53908
G1 X148.060 Y116.190 E8.59107
G1 X146.810 Y116.570 E8.64273
G1 X145.500 Y116.700 E8.69477
G1 X31.500 Y116.700 E13.20167
G1 X30.160 Y116.560 E13.25493
G1 X28.880 Y116.160 E13.30795
G1 X27.710 Y115.520 E13.36067
G1 X26.680 Y114.650 E13.41397
G1 X25.850 Y113.600 E13.46689
G1 X25.250 Y112.400 E13.51993
G1 X24.890 Y111.100 E13.57326
G1 X17.890 Y69.100 E15.25659
G1 X17.800 Y68.000 E15.30023
G1 X17.800 Y60.000 E15.61650
G1 X17.930 Y58.690 E15.66854
G1 X18.310 Y57.440 E15.72020
G1 X18.930 Y56.280 E15.77219
G1 X19.760 Y55.260 E15.82418
G1 X20.780 Y54.430 E15.87617
G1 X21.848 Y53.859 E15.92404
G1 F1800.000 E14.92404
G92 E0
G1 X45.652 Y64.402 F7800.000
G1 F1800.000 E1.00000
G1 X59.144 Y64.402 F504.000 E1.53341
G1 X63.098 Y68.356 E1.75448
G1 X63.098 Y69.144 E1.78565
G1 X59.144 Y73.098 E2.00671
G1 X45.652 Y73.098 E2.54012
G1 X45.652 Y64.506 E2.87979
G1 X46.255 Y64.750 F7800.000
G1 F1800.000 E1.87979
G92 E0
G1 X75.652 Y64.402 F7800.000
G1 F1800.000 E1.00000
G1 X89.144 Y64.402 F504.000 E1.53341
G1 X93.098 Y68.356 E1.75448
G1 X93.098 Y69.144 E1.78565
G1 X89.144 Y73.098 E2.00671
G1 X75.652 Y73.098 E2.54012
G1 X75.652 Y64.506 E2.87979
G1 X76.255 Y64.750 F7800.000
G1 F1800.000 E1.87979
G92 E0
G1 X103.045 Y108.955 F7800.000
G1 F1800.000 E1.00000
G1 X103.045 Y108.045 F720.000 E1.03601
G1 X142.045 Y108.045 E2.57785
G1 X142.045 Y99.643 E2.90998
G1 X144.455 Y99.643 E3.00529
G1 X144.455 Y108.955 E3.37343
G1 X103.149 Y108.955 E5.00645
G1 X102.348 Y109.652 F7800.000
G1 X102.348 Y107.348 F504.000 E5.09752
G1 X141.348 Y107.348 E6.63936
G1 X141.348 Y98.947 E6.97149
G1 X145.152 Y98.947 E7.12186
G1 X145.152 Y109.652 E7.54506
G1 X102.453 Y109.652 E9.23314
G1 X102.696 Y109.049 F7800.000
G1 F1800.000 E8.23314
G92 E0
G1 X95.455 Y61.955 F7800.000
G1 F1800.000 E1.00000
G1 X95.455 Y73.955 F720.000 E1.47441
G1 X89.272 Y73.955 E1.71888
G1 X93.795 Y69.433 E1.97175
G1 X93.795 Y68.067 E2.02573
G1 X89.433 Y63.705 E2.26960
G1 X74.955 Y63.705 E2.84194
G1 X74.955 Y73.955 E3.24717
G1 X72.545 Y73.955 E3.34248
G1 X72.545 Y61.955 E3.81689
G1 X65.455 Y61.955 E4.09715
G1 X65.455 Y73.955 E4.57156
G1 X59.272 Y73.955 E4.81603
G1 X63.795 Y69.433 E5.06890
G1 X63.795 Y68.067 E5.12288
G1 X59.433 Y63.705 E5.36675
G1 X44.955 Y63.705 E5.93909
G1 X44.955 Y73.955 E6.34432
G1 X42.545 Y73.955 E6.43963
G1 X42.545 Y61.955 E6.91404
G1 X34.955 Y61.955 E7.21407
G1 X34.955 Y108.045 E9.03616
G1 X73.955 Y108.045 E10.57800
G1 X73.955 Y108.955 E10.61401
G1 X32.545 Y108.955 E12.25116
G1 X32.545 Y66.955 E13.91159
G1 X25.545 Y66.955 E14.18833
G1 X25.545 Y61.045 E14.42202
G1 X144.455 Y61.045 E19.12306
G1 X144.455 Y70.325 E19.48997
G1 X142.045 Y70.325 E19.58528
G1 X142.045 Y61.955 E19.91617
G1 X95.560 Y61.955 E21.75390
G1 X96.152 Y62.652 F7800.000
G1 X96.152 Y74.652 F504.000 E22.22831
G1 X71.848 Y74.652 E23.18914
G1 X71.848 Y62.652 E23.66355
G1 X66.152 Y62.652 E23.88875
G1 X66.152 Y74.652 E24.36316
G1 X41.848 Y74.652 E25.32398
G1 X41.848 Y62.652 E25.79839
G1 X35.652 Y62.652 E26.04336
G1 X35.652 Y107.348 E27.81039
G1 X74.652 Y107.348 E29.35223
G1 X74.652 Y109.652 E29.44330
G1 X31.848 Y109.652 E31.13551
G1 X31.848 Y67.652 E32.79594
G1 X24.848 Y67.652 E33.07268
G1 X24.848 Y60.348 E33.36143
G1 X145.152 Y60.348 E38.11753
G1 X145.152 Y71.022 E38.53949
G1 X141.348 Y71.022 E38.68987
G1 X141.348 Y62.652 E39.02076
G1 X96.256 Y62.652 E40.80343
G1 X95.455 Y62.652 F7800.000
G1 F1800.000 E39.80343
G92 E0
G1 X142.984 Y100.148 F7800.000
G1 F1800.000 E1.00000
G1 X143.951 Y101.115 F1440.000 E1.05416
G1 X143.951 Y102.102 E1.09328
G1 X142.549 Y100.700 E1.17182
G1 X142.549 Y101.687 E1.21093
G1 X143.951 Y103.089 E1.28947
G1 X143.951 Y104.076 E1.32858
G1 X142.549 Y102.674 E1.40712
G1 X142.549 Y103.662 E1.44623
G1 X143.951 Y105.063 E1.52477
G1 X143.951 Y106.050 E1.56388
G1 X142.549 Y104.649 E1.64242
G1 X142.549 Y105.636 E1.68153
G1 X143.951 Y107.037 E1.76007
G1 X143.951 Y108.024 E1.79918
G1 X142.549 Y106.623 E1.87772
G1 X142.549 Y107.610 E1.91683
G1 X143.390 Y108.451 E1.96396
G1 F1800.000 E0.96396
G92 E0
G1 X143.255 Y69.820 F7800.000
G1 F1800.000 E1.00000
G1 X142.549 Y69.114 F1440.000 E1.03948
G1 X142.549 Y68.127 F7800.000
G1 X143.951 Y69.529 F1440.000 E1.11784
G1 X143.951 Y68.542 F7800.000
G1 X142.549 Y67.140 F1440.000 E1.19620
G1 X142.549 Y66.153 F7800.000
G1 X143.951 Y67.555 F1440.000 E1.27455
G1 X143.951 Y66.567 F7800.000
G1 X142.549 Y65.166 F1440.000 E1.35291
G1 X142.549 Y64.179 F7800.000
G1 X143.951 Y65.580 F1440.000 E1.43127
G1 X143.951 Y64.593 F7800.000
G1 X142.549 Y63.192 F1440.000 E1.50962
G1 X142.549 Y62.205 F7800.000
G1 X143.951 Y63.606 F1440.000 E1.58798
G1 X143.951 Y62.619 F7800.000
G1 X142.881 Y61.549 F1440.000 E1.64780
G1 X143.868 Y61.549 F7800.000
G1 X143.951 Y61.632 F1440.000 E1.65244
G1 F1800.000 E0.65244
G92 E0
G1 X94.448 Y69.060 F7800.000
G1 F1800.000 E1.00000
G1 X94.293 Y68.905 F480.000 E1.00428
G1 X94.691 Y68.817 E1.01222
G1 X94.293 Y68.419 E1.02320
G1 X94.505 Y69.436 F7800.000
G1 X94.951 Y69.882 F1440.000 E1.04812
G1 X94.011 Y69.930 F7800.000
G1 X94.951 Y70.869 F1440.000 E1.10064
G1 X94.951 Y71.856 F7800.000
G1 X93.518 Y70.423 F1440.000 E1.18075
G1 X93.024 Y70.917 F7800.000
G1 X94.951 Y72.843 F1440.000 E1.28846
G1 X94.571 Y73.451 F7800.000
G1 X92.531 Y71.410 F1440.000 E1.40255
G1 X92.037 Y71.904 F7800.000
G1 X93.584 Y73.451 F1440.000 E1.48904
G1 X92.597 Y73.451 F7800.000
G1 X91.544 Y72.397 F1440.000 E1.54794
G1 X91.050 Y72.891 F7800.000
G1 X91.610 Y73.451 F1440.000 E1.57925
G1 X90.623 Y73.451 F7800.000
G1 X90.557 Y73.384 F1440.000 E1.58296
G1 F1800.000 E0.58296
G92 E0
G1 X76.295 Y73.929 F7800.000
G1 F1800.000 E1.00000
G1 X76.188 Y73.821 F480.000 E1.00602
G1 X77.175 Y73.821 E1.04514
G1 X77.282 Y73.929 E1.05116
G1 X78.162 Y73.821 E1.08627
G1 X78.269 Y73.929 E1.09230
G1 X79.149 Y73.821 E1.12741
G1 X79.256 Y73.929 E1.13344
G1 X80.136 Y73.821 E1.16855
G1 X80.243 Y73.929 E1.17457
G1 X81.123 Y73.821 E1.20968
G1 X81.230 Y73.929 E1.21571
G1 X82.110 Y73.821 E1.25082
G1 X82.218 Y73.929 E1.25685
G1 X83.097 Y73.821 E1.29196
G1 X83.205 Y73.929 E1.29798
G1 X84.084 Y73.821 E1.33310
G1 X84.192 Y73.929 E1.33912
G1 X85.071 Y73.821 E1.37423
G1 X85.179 Y73.929 E1.38026
G1 X86.058 Y73.821 E1.41537
G1 X86.166 Y73.929 E1.42139
G1 X87.045 Y73.821 E1.45651
G1 X87.153 Y73.929 E1.46253
G1 X88.032 Y73.821 E1.49764
G1 X88.140 Y73.929 E1.50367
G1 F1800.000 E0.50367
G92 E0
G1 X94.951 Y67.908 F7800.000
G1 F1800.000 E1.00000
G1 X88.592 Y61.549 F1440.000 E1.35550
G1 X89.579 Y61.549 F7800.000
G1 X94.951 Y66.921 F1440.000 E1.65582
G1 X94.951 Y65.934 F7800.000
G1 X90.566 Y61.549 F1440.000 E1.90095
G1 X91.553 Y61.549 F7800.000
G1 X94.951 Y64.947 F1440.000 E2.09089
G1 X94.951 Y63.960 F7800.000
G1 X92.540 Y61.549 F1440.000 E2.22565
G1 X93.528 Y61.549 F7800.000
G1 X94.951 Y62.972 F1440.000 E2.30522
G1 X94.951 Y61.985 F7800.000
G1 X94.515 Y61.549 F1440.000 E2.32960
G1 F1800.000 E1.32960
G92 E0
G1 X89.257 Y63.201 F7800.000
G1 F1800.000 E1.00000
G1 X87.605 Y61.549 F1440.000 E1.09233
G1 X86.618 Y61.549 F7800.000
G1 X88.270 Y63.201 F1440.000 E1.18467
G1 X87.283 Y63.201 F7800.000
G1 X85.631 Y61.549 F1440.000 E1.27700
G1 X84.644 Y61.549 F7800.000
G1 X86.295 Y63.201 F1440.000 E1.36934
G1 X85.308 Y63.201 F7800.000
G1 X83.657 Y61.549 F1440.000 E1.46167
G1 X82.670 Y61.549 F7800.000
G1 X84.321 Y63.201 F1440.000 E1.55401
G1 X83.334 Y63.201 F7800.000
G1 X81.683 Y61.549 F1440.000 E1.64634
G1 X80.696 Y61.549 F7800.000
G1 X82.347 Y63.201 F1440.000 E1.73867
G1 X81.360 Y63.201 F7800.000
G1 X79.709 Y61.549 F1440.000 E1.83101
G1 X78.722 Y61.549 F7800.000
G1 X80.373 Y63.201 F1440.000 E1.92334
G1 X79.386 Y63.201 F7800.000
G1 X77.735 Y61.549 F1440.000 E2.01568
G1 X76.747 Y61.549 F7800.000
G1 X78.399 Y63.201 F1440.000 E2.10801
G1 X77.412 Y63.201 F7800.000
G1 X75.760 Y61.549 F1440.000 E2.20034
G1 X74.773 Y61.549 F7800.000
G1 X76.425 Y63.201 F1440.000 E2.29268
G1 X75.438 Y63.201 F7800.000
G1 X73.786 Y61.549 F1440.000 E2.38501
G1 X73.049 Y61.799 F7800.000
G1 X74.451 Y63.201 F1440.000 E2.46337
G1 X74.451 Y64.188 F7800.000
G1 X73.049 Y62.786 F1440.000 E2.54173
G1 X73.049 Y63.773 F7800.000
G1 X74.451 Y65.175 F1440.000 E2.62008
G1 X74.451 Y66.162 F7800.000
G1 X73.049 Y64.760 F1440.000 E2.69844
G1 X73.049 Y65.748 F7800.000
G1 X74.451 Y67.149 F1440.000 E2.77680
G1 X74.451 Y68.136 F7800.000
G1 X73.049 Y66.735 F1440.000 E2.85515
G1 X73.049 Y67.722 F7800.000
G1 X74.451 Y69.123 F1440.000 E2.93351
G1 X74.451 Y70.110 F7800.000
G1 X73.049 Y68.709 F1440.000 E3.01187
G1 X73.049 Y69.696 F7800.000
G1 X74.451 Y71.097 F1440.000 E3.09022
G1 X74.451 Y72.084 F7800.000
G1 X73.049 Y70.683 F1440.000 E3.16858
G1 X73.049 Y71.670 F7800.000
G1 X74.451 Y73.071 F1440.000 E3.24694
G1 X73.843 Y73.451 F7800.000
G1 X73.049 Y72.657 F1440.000 E3.29132
G1 F1800.000 E2.29132
G92 E0
G1 X64.394 Y69.114 F7800.000
G1 F1800.000 E1.00000
G1 X64.293 Y69.012 F480.000 E1.00279
G1 X64.637 Y68.871 E1.01004
G1 X64.293 Y68.526 E1.01952
G1 X64.699 Y69.242 F7800.000
G1 X64.951 Y69.494 F1440.000 E1.03360
G1 X64.205 Y69.736 F7800.000
G1 X64.951 Y70.481 F1440.000 E1.07527
G1 X64.951 Y71.468 F7800.000
G1 X63.712 Y70.229 F1440.000 E1.14453
G1 X63.218 Y70.723 F7800.000
G1 X64.951 Y72.455 F1440.000 E1.24139
G1 X64.951 Y73.442 F7800.000
G1 X62.725 Y71.216 F1440.000 E1.36584
G1 X62.231 Y71.710 F7800.000
G1 X63.972 Y73.451 F1440.000 E1.46318
G1 X62.985 Y73.451 F7800.000
G1 X61.738 Y72.203 F1440.000 E1.53293
G1 X61.244 Y72.697 F7800.000
G1 X61.998 Y73.451 F1440.000 E1.57508
G1 X61.011 Y73.451 F7800.000
G1 X60.751 Y73.190 F1440.000 E1.58965
G1 F1800.000 E0.58965
G92 E0
G1 X57.433 Y73.821 F7800.000
G1 F1800.000 E1.00000
G1 X57.541 Y73.929 F480.000 E1.00601
G1 X56.446 Y73.821 F7800.000
G1 X56.554 Y73.929 F480.000 E1.01202
G1 X55.459 Y73.821 F7800.000
G1 X55.567 Y73.929 F480.000 E1.01803
G1 X54.472 Y73.821 F7800.000
G1 X54.580 Y73.929 F480.000 E1.02404
G1 X53.485 Y73.821 F7800.000
G1 X53.593 Y73.929 F480.000 E1.03005
G1 X52.498 Y73.821 F7800.000
G1 X52.606 Y73.929 F480.000 E1.03606
G1 X51.511 Y73.821 F7800.000
G1 X51.619 Y73.929 F480.000 E1.04207
G1 X50.524 Y73.821 F7800.000
G1 X50.631 Y73.929 F480.000 E1.04808
G1 X49.537 Y73.821 F7800.000
G1 X49.644 Y73.929 F480.000 E1.05409
G1 X48.550 Y73.821 F7800.000
G1 X48.657 Y73.929 F480.000 E1.06011
G1 X47.563 Y73.821 F7800.000
G1 X47.670 Y73.929 F480.000 E1.06612
G1 X46.576 Y73.821 F7800.000
G1 X46.683 Y73.929 F480.000 E1.07213
G1 X45.696 Y73.929 F7800.000
G1 X45.679 Y73.911 F480.000 E1.07311
G1 X44.231 Y73.451 F7800.000
G1 X43.049 Y72.269 F1440.000 E1.13918
G1 X43.049 Y71.282 F7800.000
G1 X44.451 Y72.683 F1440.000 E1.21754
G1 X44.451 Y71.696 F7800.000
G1 X43.049 Y70.295 F1440.000 E1.29590
G1 X43.049 Y69.308 F7800.000
G1 X44.451 Y70.709 F1440.000 E1.37425
G1 X44.451 Y69.722 F7800.000
G1 X43.049 Y68.321 F1440.000 E1.45261
G1 X43.049 Y67.334 F7800.000
G1 X44.451 Y68.735 F1440.000 E1.53097
G1 X44.451 Y67.748 F7800.000
G1 X43.049 Y66.347 F1440.000 E1.60933
G1 X43.049 Y65.359 F7800.000
G1 X44.451 Y66.761 F1440.000 E1.68768
G1 X44.451 Y65.774 F7800.000
G1 X43.049 Y64.372 F1440.000 E1.76604
G1 X43.049 Y63.385 F7800.000
G1 X44.451 Y64.787 F1440.000 E1.84440
G1 X44.451 Y63.800 F7800.000
G1 X43.049 Y62.398 F1440.000 E1.92275
G1 X43.187 Y61.549 F7800.000
G1 X44.839 Y63.201 F1440.000 E2.01509
G1 X45.826 Y63.201 F7800.000
G1 X44.174 Y61.549 F1440.000 E2.10742
G1 X45.161 Y61.549 F7800.000
G1 X46.813 Y63.201 F1440.000 E2.19975
G1 X47.800 Y63.201 F7800.000
G1 X46.148 Y61.549 F1440.000 E2.29209
G1 X47.136 Y61.549 F7800.000
G1 X48.787 Y63.201 F1440.000 E2.38442
G1 X49.774 Y63.201 F7800.000
G1 X48.123 Y61.549 F1440.000 E2.47676
G1 X49.110 Y61.549 F7800.000
G1 X50.761 Y63.201 F1440.000 E2.56909
G1 X51.748 Y63.201 F7800.000
G1 X50.097 Y61.549 F1440.000 E2.66143
G1 X51.084 Y61.549 F7800.000
G1 X52.735 Y63.201 F1440.000 E2.75376
G1 X53.722 Y63.201 F7800.000
G1 X52.071 Y61.549 F1440.000 E2.84609
G1 X53.058 Y61.549 F7800.000
G1 X54.709 Y63.201 F1440.000 E2.93843
G1 X55.696 Y63.201 F7800.000
G1 X54.045 Y61.549 F1440.000 E3.03076
G1 X55.032 Y61.549 F7800.000
G1 X56.684 Y63.201 F1440.000 E3.12310
G1 X57.671 Y63.201 F7800.000
G1 X56.019 Y61.549 F1440.000 E3.21543
G1 X57.006 Y61.549 F7800.000
G1 X58.658 Y63.201 F1440.000 E3.30776
G1 X58.980 Y61.549 F7800.000
G1 X64.951 Y67.520 F1440.000 E3.64157
G1 X64.951 Y68.507 F7800.000
G1 X57.993 Y61.549 F1440.000 E4.03056
G1 X59.967 Y61.549 F7800.000
G1 X64.951 Y66.533 F1440.000 E4.30918
G1 X64.951 Y65.546 F7800.000
G1 X60.954 Y61.549 F1440.000 E4.53261
G1 X61.941 Y61.549 F7800.000
G1 X64.951 Y64.558 F1440.000 E4.70086
G1 X64.951 Y63.571 F7800.000
G1 X62.929 Y61.549 F1440.000 E4.81392
G1 X63.916 Y61.549 F7800.000
G1 X64.951 Y62.584 F1440.000 E4.87179
G1 X64.951 Y61.597 F7800.000
G1 X64.903 Y61.549 F1440.000 E4.87448
G1 F1800.000 E3.87448
G92 E0
G1 X43.244 Y73.451 F7800.000
G1 F1800.000 E1.00000
G1 X43.049 Y73.256 F1440.000 E1.01089
G1 F1800.000 E0.01089
G92 E0
G1 X34.451 Y73.541 F7800.000
G1 F1800.000 E1.00000
G1 X33.049 Y72.140 F1440.000 E1.07836
G1 X33.049 Y73.127 F7800.000
G1 X34.451 Y74.528 F1440.000 E1.15671
G1 X34.451 Y75.515 F7800.000
G1 X33.049 Y74.114 F1440.000 E1.23507
G1 X33.049 Y75.101 F7800.000
G1 X34.451 Y76.502 F1440.000 E1.31343
G1 X34.451 Y77.489 F7800.000
G1 X33.049 Y76.088 F1440.000 E1.39178
G1 X33.049 Y77.075 F7800.000
G1 X34.451 Y78.476 F1440.000 E1.47014
G1 X34.451 Y79.463 F7800.000
G1 X33.049 Y78.062 F1440.000 E1.54850
G1 X33.049 Y79.049 F7800.000
G1 X34.451 Y80.451 F1440.000 E1.62685
G1 X34.451 Y81.438 F7800.000
G1 X33.049 Y80.036 F1440.000 E1.70521
G1 X33.049 Y81.023 F7800.000
G1 X34.451 Y82.425 F1440.000 E1.78357
G1 X34.451 Y83.412 F7800.000
G1 X33.049 Y82.010 F1440.000 E1.86192
G1 X33.049 Y82.997 F7800.000
G1 X34.451 Y84.399 F1440.000 E1.94028
G1 X34.451 Y85.386 F7800.000
G1 X33.049 Y83.984 F1440.000 E2.01864
G1 X33.049 Y84.971 F7800.000
G1 X34.451 Y86.373 F1440.000 E2.09699
G1 X34.451 Y87.360 F7800.000
G1 X33.049 Y85.958 F1440.000 E2.17535
G1 X33.049 Y86.946 F7800.000
G1 X34.451 Y88.347 F1440.000 E2.25371
G1 X34.451 Y89.334 F7800.000
G1 X33.049 Y87.933 F1440.000 E2.33206
G1 X33.049 Y88.920 F7800.000
G1 X34.451 Y90.321 F1440.000 E2.41042
G1 X34.451 Y91.308 F7800.000
G1 X33.049 Y89.907 F1440.000 E2.48878
G1 X33.049 Y90.894 F7800.000
G1 X34.451 Y92.295 F1440.000 E2.56714
