; generated by Slic3r 0.9.10b on 2013-09-30 at 15:27:08

; layer_height = 0.25
; perimeters = 2
; top_solid_layers = 3
; bottom_solid_layers = 3
; fill_density = 0.4
; perimeter_speed = 30
; infill_speed = 60
; travel_speed = 130
; nozzle_diameter = 0.5
; filament_diameter = 2.9
; extrusion_multiplier = 1
; perimeters extrusion width = 0.84mm
; infill extrusion width = 0.84mm
; solid infill extrusion width = 0.84mm
; top infill extrusion width = 0.84mm
; first layer extrusion width = 0.75mm

G21 ; set units to millimeters
M107
M190 S100 ; wait for bed temperature to be reached
M104 S225 ; set temperature
G28 ; home all axes
G1 Z5 F1000 ; lift nozzle
M109 S225 ; wait for temperature to be reached
G90 ; use absolute coordinates
G92 E0
M82 ; use absolute distances for extrusion
G1 F1800.000 E-1.00000
G92 E0
G1 Z0.375 F7800.000
G1 X21.941 Y53.811
G1 F1800.000 E1.00000
G1 X23.191 Y53.431 F720.000 E1.05165
G1 X24.501 Y53.301 E1.10369
G1 X145.491 Y53.301 E5.88693
G1 X146.801 Y53.431 E5.93898
G1 X148.051 Y53.811 E5.99063
G1 X149.211 Y54.431 E6.04263
G1 X150.231 Y55.261 E6.09462
G1 X151.061 Y56.281 E6.14661
G1 X151.681 Y57.441 E6.19861
G1 X152.061 Y58.691 E6.25026
G1 X152.191 Y60.001 E6.30230
G1 X152.191 Y109.991 E8.27861
G1 X152.061 Y111.301 E8.33066
G1 X151.681 Y112.551 E8.38231
G1 X151.061 Y113.711 E8.43431
G1 X150.231 Y114.731 E8.48630
G1 X149.211 Y115.561 E8.53828
G1 X148.051 Y116.181 E8.59028
G1 X146.801 Y116.561 E8.64193
G1 X145.491 Y116.691 E8.69398
G1 X31.491 Y116.691 E13.20087
G1 X30.151 Y116.551 E13.25414
G1 X28.871 Y116.151 E13.30716
G1 X27.701 Y115.511 E13.35988
G1 X26.671 Y114.641 E13.41318
G1 X25.841 Y113.581 E13.46641
G1 X25.241 Y112.391 E13.51909
G1 X24.881 Y111.091 E13.57242
G1 X17.891 Y69.101 E15.25531
G1 X17.801 Y68.001 E15.29894
G1 X17.801 Y60.001 E15.61521
G1 X17.931 Y58.691 E15.66726
G1 X18.311 Y57.441 E15.71891
G1 X18.931 Y56.281 E15.77091
G1 X19.761 Y55.261 E15.82289
G1 X20.781 Y54.431 E15.87488
G1 X21.849 Y53.860 E15.92275
G1 F1800.000 E14.92275
G92 E0
G1 X44.956 Y63.706 F7800.000
G1 F1800.000 E1.00000
G1 X59.434 Y63.706 F720.000 E1.57234
G1 X63.796 Y68.068 E1.81621
G1 X63.796 Y69.434 E1.87019
G1 X59.434 Y73.796 E2.11406
G1 X44.956 Y73.796 E2.68641
G1 X44.956 Y63.811 E3.08114
G1 X45.653 Y64.403 F7800.000
G1 X59.145 Y64.403 F504.000 E3.61455
G1 X63.099 Y68.357 E3.83561
G1 X63.099 Y69.145 E3.86678
G1 X59.145 Y73.099 E4.08785
G1 X45.653 Y73.099 E4.62126
G1 X45.653 Y64.507 E4.96093
G1 X46.256 Y64.751 F7800.000
G1 F1800.000 E3.96093
G92 E0
G1 X74.956 Y63.706 F7800.000
G1 F1800.000 E1.00000
G1 X89.432 Y63.706 F720.000 E1.57226
G1 X93.794 Y68.068 E1.81614
G1 X93.794 Y69.434 E1.87011
G1 X89.432 Y73.796 E2.11398
G1 X74.956 Y73.796 E2.68625
G1 X74.956 Y63.811 E3.08098
G1 X75.653 Y64.403 F7800.000
G1 X89.143 Y64.403 F504.000 E3.61431
G1 X93.097 Y68.357 E3.83538
G1 X93.097 Y69.145 E3.86655
G1 X89.143 Y73.099 E4.08761
G1 X75.653 Y73.099 E4.62094
G1 X75.653 Y64.507 E4.96062
G1 X76.256 Y64.751 F7800.000
G1 F1800.000 E3.96062
G92 E0
G1 X144.454 Y108.954 F7800.000
G1 F1800.000 E1.00000
G1 X32.546 Y108.954 F720.000 E5.42423
G1 X32.546 Y66.956 E7.08458
G1 X25.546 Y66.956 E7.36132
G1 X25.546 Y61.046 E7.59501
G1 X144.454 Y61.046 E12.29598
G1 X144.454 Y108.850 E14.18589
G1 X145.151 Y109.651 F7800.000
G1 X31.849 Y109.651 F504.000 E18.66518
G1 X31.849 Y67.653 E20.32553
G1 X24.849 Y67.653 E20.60227
G1 X24.849 Y60.349 E20.89101
G1 X145.151 Y60.349 E25.64704
G1 X145.151 Y109.546 E27.59201
G1 X144.548 Y109.303 F7800.000
G1 F1800.000 E26.59201
G92 E0
G1 X134.505 Y108.450 F7800.000
G1 F1800.000 E1.00000
G1 X94.298 Y68.243 F1440.000 E3.25312
G1 X94.298 Y69.230 E3.29223
G1 X133.518 Y108.450 E5.49003
G1 X132.531 Y108.450 E5.52914
G1 X94.011 Y69.930 E7.68772
G1 X93.518 Y70.423 E7.71538
G1 X131.544 Y108.450 E9.84630
G1 X130.557 Y108.450 E9.88541
G1 X93.024 Y70.917 E11.98867
G1 X92.531 Y71.410 E12.01633
G1 X129.570 Y108.450 E14.09194
G1 X128.583 Y108.450 E14.13105
G1 X92.037 Y71.904 E16.17900
G1 X91.544 Y72.397 E16.20666
G1 X127.596 Y108.450 E18.22695
G1 X126.609 Y108.450 E18.26606
G1 X91.050 Y72.891 E20.25871
G1 X90.557 Y73.384 E20.28636
G1 X125.622 Y108.450 E22.25135
G1 X124.635 Y108.450 E22.29046
G1 X90.063 Y73.878 E24.22779
G1 X89.498 Y74.300 E24.25573
G1 X123.648 Y108.450 E26.16939
G1 X122.661 Y108.450 E26.20850
G1 X88.511 Y74.300 E28.12216
G1 X87.524 Y74.300 E28.16127
G1 X121.674 Y108.450 E30.07493
G1 X120.687 Y108.450 E30.11404
G1 X86.537 Y74.300 E32.02770
G1 X85.550 Y74.300 E32.06681
G1 X119.700 Y108.450 E33.98047
G1 X118.713 Y108.450 E34.01959
G1 X84.563 Y74.300 E35.93325
G1 X83.576 Y74.300 E35.97236
G1 X117.726 Y108.450 E37.88602
G1 X116.739 Y108.450 E37.92513
G1 X82.589 Y74.300 E39.83879
G1 X81.602 Y74.300 E39.87790
G1 X115.752 Y108.450 E41.79156
G1 X114.765 Y108.450 E41.83067
G1 X80.615 Y74.300 E43.74433
G1 X79.628 Y74.300 E43.78344
G1 X113.778 Y108.450 E45.69710
G1 X112.790 Y108.450 E45.73621
G1 X78.641 Y74.300 E47.64987
G1 X77.654 Y74.300 E47.68898
G1 X111.803 Y108.450 E49.60264
G1 X110.816 Y108.450 E49.64176
G1 X76.667 Y74.300 E51.55542
G1 X75.680 Y74.300 E51.59453
G1 X109.829 Y108.450 E53.50819
G1 F1800.000 E52.50819
G92 E0
G1 X104.894 Y108.450 F7800.000
G1 F1800.000 E1.00000
G1 X57.995 Y61.550 F1440.000 E3.62814
G1 X58.982 Y61.550 F7800.000
G1 X105.881 Y108.450 F1440.000 E6.25628
G1 X106.868 Y108.450 E6.29539
G1 X59.969 Y61.550 E8.92353
G1 X60.956 Y61.550 E8.96265
G1 X107.855 Y108.450 E11.59079
G1 X108.842 Y108.450 E11.62990
G1 X74.693 Y74.300 E13.54356
G1 X74.452 Y74.059 F7800.000
G1 X61.943 Y61.550 F1440.000 E14.24453
G1 X62.930 Y61.550 E14.28364
G1 X74.452 Y73.072 E14.92930
G1 X74.452 Y72.085 E14.96841
G1 X63.917 Y61.550 E15.55876
G1 X64.904 Y61.550 E15.59787
G1 X74.452 Y71.098 E16.13291
G1 X74.452 Y70.111 E16.17202
G1 X65.891 Y61.550 E16.65174
G1 X66.878 Y61.550 E16.69085
G1 X74.452 Y69.124 E17.11527
G1 X74.452 Y68.137 E17.15438
G1 X67.865 Y61.550 E17.52348
G1 X68.852 Y61.550 E17.56259
G1 X74.452 Y67.150 E17.87638
G1 X74.452 Y66.163 E17.91549
G1 X69.839 Y61.550 E18.17397
G1 X70.826 Y61.550 E18.21308
G1 X74.452 Y65.176 E18.41625
G1 X74.452 Y64.189 E18.45536
G1 X71.813 Y61.550 E18.60321
G1 X72.800 Y61.550 E18.64233
G1 X74.452 Y63.202 E18.73487
G1 X75.439 Y63.202 E18.77398
G1 X73.787 Y61.550 E18.86653
G1 X74.774 Y61.550 E18.90564
G1 X76.426 Y63.202 E18.99818
G1 X77.413 Y63.202 E19.03730
G1 X75.761 Y61.550 E19.12984
G1 X76.748 Y61.550 E19.16895
G1 X78.400 Y63.202 E19.26150
G1 X79.387 Y63.202 E19.30061
G1 X77.735 Y61.550 E19.39315
G1 X78.723 Y61.550 E19.43227
G1 X80.374 Y63.202 E19.52481
G1 X81.361 Y63.202 E19.56392
G1 X79.710 Y61.550 E19.65647
G1 X80.697 Y61.550 E19.69558
G1 X82.348 Y63.202 E19.78812
G1 X83.335 Y63.202 E19.82724
G1 X81.684 Y61.550 E19.91978
G1 X82.671 Y61.550 E19.95889
G1 X84.322 Y63.202 E20.05144
G1 X85.309 Y63.202 E20.09055
G1 X83.658 Y61.550 E20.18309
G1 X84.645 Y61.550 E20.22221
G1 X86.296 Y63.202 E20.31475
G1 X87.283 Y63.202 E20.35386
G1 X85.632 Y61.550 E20.44641
G1 X86.619 Y61.550 E20.48552
G1 X88.270 Y63.202 E20.57806
G1 X89.257 Y63.202 E20.61717
G1 X87.606 Y61.550 E20.70972
G1 X88.593 Y61.550 E20.74883
G1 X135.492 Y108.450 E23.37697
G1 X136.479 Y108.450 E23.41608
G1 X89.580 Y61.550 E26.04423
G1 X90.567 Y61.550 E26.08334
G1 X137.467 Y108.450 E28.71148
G1 X138.454 Y108.450 E28.75059
G1 X91.554 Y61.550 E31.37873
G1 X92.541 Y61.550 E31.41784
G1 X139.441 Y108.450 E34.04598
G1 X140.428 Y108.450 E34.08509
G1 X93.528 Y61.550 E36.71323
G1 X94.515 Y61.550 E36.75235
G1 X141.415 Y108.450 E39.38049
G1 X142.402 Y108.450 E39.41960
G1 X95.502 Y61.550 E42.04774
G1 X96.489 Y61.550 E42.08685
G1 X143.389 Y108.450 E44.71499
G1 X143.950 Y108.024 E44.74290
G1 X97.476 Y61.550 E47.34717
G1 X98.463 Y61.550 E47.38628
G1 X143.950 Y107.037 E49.93524
G1 X143.950 Y106.050 E49.97435
G1 X99.450 Y61.550 E52.46799
G1 X100.437 Y61.550 E52.50710
G1 X143.950 Y105.063 E54.94543
G1 X143.950 Y104.076 E54.98454
G1 X101.424 Y61.550 E57.36756
G1 X102.412 Y61.550 E57.40667
G1 X143.950 Y103.088 E59.73438
G1 X143.950 Y102.101 E59.77349
G1 X103.399 Y61.550 E62.04589
G1 X104.386 Y61.550 E62.08500
G1 X143.950 Y101.114 E64.30209
G1 X143.950 Y100.127 E64.34120
G1 X105.373 Y61.550 E66.50297
G1 X106.360 Y61.550 E66.54208
G1 X143.950 Y99.140 E68.64854
G1 X143.950 Y98.153 E68.68765
G1 X107.347 Y61.550 E70.73880
G1 X108.334 Y61.550 E70.77792
G1 X143.950 Y97.166 E72.77375
G1 X143.950 Y96.179 E72.81287
G1 X109.321 Y61.550 E74.75339
G1 X110.308 Y61.550 E74.79250
G1 X143.950 Y95.192 E76.67772
G1 X143.950 Y94.205 E76.71683
G1 X111.295 Y61.550 E78.54673
G1 X112.282 Y61.550 E78.58585
G1 X143.950 Y93.218 E80.36044
G1 X143.950 Y92.231 E80.39955
G1 X113.269 Y61.550 E82.11883
G1 X114.256 Y61.550 E82.15794
G1 X143.950 Y91.244 E83.82191
G1 X143.950 Y90.257 E83.86102
G1 X115.243 Y61.550 E85.46968
G1 X116.230 Y61.550 E85.50879
G1 X143.950 Y89.270 E87.06214
G1 X143.950 Y88.283 E87.10125
G1 X117.217 Y61.550 E88.59928
G1 X118.204 Y61.550 E88.63840
G1 X143.950 Y87.296 E90.08112
G1 X143.950 Y86.309 E90.12023
G1 X119.191 Y61.550 E91.50764
G1 X120.178 Y61.550 E91.54675
G1 X143.950 Y85.322 E92.87885
G1 X143.950 Y84.335 E92.91796
G1 X121.165 Y61.550 E94.19475
G1 X122.152 Y61.550 E94.23386
G1 X143.950 Y83.348 E95.45534
G1 X143.950 Y82.361 E95.49445
G1 X123.139 Y61.550 E96.66062
G1 X124.126 Y61.550 E96.69973
G1 X143.950 Y81.374 E97.81058
G1 X143.950 Y80.387 E97.84969
G1 X125.113 Y61.550 E98.90524
G1 X126.101 Y61.550 E98.94435
G1 X143.950 Y79.399 E99.94458
G1 X143.950 Y78.412 E99.98369
G1 X127.088 Y61.550 E100.92861
G1 X128.075 Y61.550 E100.96772
G1 X143.950 Y77.425 E101.85733
G1 X143.950 Y76.438 E101.89644
G1 X129.062 Y61.550 E102.73074
G1 X130.049 Y61.550 E102.76985
G1 X143.950 Y75.451 E103.54883
G1 X143.950 Y74.464 E103.58794
G1 X131.036 Y61.550 E104.31162
G1 X132.023 Y61.550 E104.35073
G1 X143.950 Y73.477 E105.01909
G1 X143.950 Y72.490 E105.05820
G1 X133.010 Y61.550 E105.67125
G1 X133.997 Y61.550 E105.71036
G1 X143.950 Y71.503 E106.26810
G1 X143.950 Y70.516 E106.30721
G1 X134.984 Y61.550 E106.80964
G1 X135.971 Y61.550 E106.84875
G1 X143.950 Y69.529 E107.29586
G1 X143.950 Y68.542 E107.33497
G1 X136.958 Y61.550 E107.72678
G1 X137.945 Y61.550 E107.76589
G1 X143.950 Y67.555 E108.10238
G1 X143.950 Y66.568 E108.14149
G1 X138.932 Y61.550 E108.42267
G1 X139.919 Y61.550 E108.46179
G1 X143.950 Y65.581 E108.68765
G1 X143.950 Y64.594 E108.72677
G1 X140.906 Y61.550 E108.89732
G1 X141.893 Y61.550 E108.93643
G1 X143.950 Y63.607 E109.05168
G1 X143.950 Y62.620 E109.09079
G1 X142.880 Y61.550 E109.15073
G1 X143.867 Y61.550 E109.18984
G1 X143.950 Y61.633 E109.19446
G1 F1800.000 E108.19446
G92 E0
G1 X80.218 Y108.450 F7800.000
G1 F1800.000 E1.00000
G1 X46.069 Y74.300 F1440.000 E2.91366
G1 X47.056 Y74.300 E2.95277
G1 X81.205 Y108.450 E4.86643
G1 X82.192 Y108.450 E4.90554
G1 X48.043 Y74.300 E6.81920
G1 X49.030 Y74.300 E6.85831
G1 X83.179 Y108.450 E8.77197
G1 X84.166 Y108.450 E8.81109
G1 X50.017 Y74.300 E10.72475
G1 X51.004 Y74.300 E10.76386
G1 X85.153 Y108.450 E12.67752
G1 X86.140 Y108.450 E12.71663
G1 X51.991 Y74.300 E14.63029
G1 X52.978 Y74.300 E14.66940
G1 X87.127 Y108.450 E16.58306
G1 X88.114 Y108.450 E16.62217
G1 X53.965 Y74.300 E18.53583
G1 X54.952 Y74.300 E18.57494
G1 X89.102 Y108.450 E20.48860
G1 X90.089 Y108.450 E20.52771
G1 X55.939 Y74.300 E22.44137
G1 X56.926 Y74.300 E22.48048
G1 X91.076 Y108.450 E24.39414
G1 X92.063 Y108.450 E24.43326
G1 X57.913 Y74.300 E26.34692
G1 X58.900 Y74.300 E26.38603
G1 X93.050 Y108.450 E28.29969
G1 X94.037 Y108.450 E28.33880
G1 X59.765 Y74.178 E30.25931
G1 X60.258 Y73.684 E30.28696
G1 X95.024 Y108.450 E32.23513
G1 X96.011 Y108.450 E32.27424
G1 X60.752 Y73.191 E34.25006
G1 X61.246 Y72.697 E34.27772
G1 X96.998 Y108.450 E36.28120
G1 X97.985 Y108.450 E36.32031
G1 X61.739 Y72.204 E38.35144
G1 X62.233 Y71.710 E38.37910
G1 X98.972 Y108.450 E40.43789
G1 X99.959 Y108.450 E40.47700
G1 X62.726 Y71.217 E42.56344
G1 X63.220 Y70.723 E42.59110
G1 X100.946 Y108.450 E44.70520
G1 X101.933 Y108.450 E44.74431
G1 X63.713 Y70.230 E46.88607
G1 X64.207 Y69.736 E46.91372
G1 X102.920 Y108.450 E49.08314
G1 X103.907 Y108.450 E49.12225
G1 X64.300 Y68.843 E51.34173
G1 F1800.000 E50.34173
G92 E0
G1 X58.659 Y63.202 F7800.000
G1 F1800.000 E1.00000
G1 X57.008 Y61.550 F1440.000 E1.09255
G1 X56.021 Y61.550 E1.13166
G1 X57.672 Y63.202 E1.22420
G1 X56.685 Y63.202 E1.26331
G1 X55.034 Y61.550 E1.35586
G1 X54.047 Y61.550 E1.39497
G1 X55.698 Y63.202 E1.48752
G1 X54.711 Y63.202 E1.52663
G1 X53.059 Y61.550 E1.61917
G1 X52.072 Y61.550 E1.65828
G1 X53.724 Y63.202 E1.75083
G1 X52.737 Y63.202 E1.78994
G1 X51.085 Y61.550 E1.88249
G1 X50.098 Y61.550 E1.92160
G1 X51.750 Y63.202 E2.01414
G1 X50.763 Y63.202 E2.05325
G1 X49.111 Y61.550 E2.14580
G1 X48.124 Y61.550 E2.18491
G1 X49.776 Y63.202 E2.27746
G1 X48.789 Y63.202 E2.31657
G1 X47.137 Y61.550 E2.40911
G1 X46.150 Y61.550 E2.44822
G1 X47.802 Y63.202 E2.54077
G1 X46.815 Y63.202 E2.57988
G1 X45.163 Y61.550 E2.67243
G1 X44.176 Y61.550 E2.71154
G1 X45.828 Y63.202 E2.80408
G1 X44.841 Y63.202 E2.84319
G1 X43.189 Y61.550 E2.93574
G1 X42.202 Y61.550 E2.97485
G1 X44.452 Y63.800 E3.10092
G1 X44.452 Y64.787 E3.14003
G1 X41.215 Y61.550 E3.32141
G1 X40.228 Y61.550 E3.36052
G1 X44.452 Y65.774 E3.59721
G1 X44.452 Y66.761 E3.63633
G1 X39.241 Y61.550 E3.92833
G1 X38.254 Y61.550 E3.96744
G1 X44.452 Y67.748 E4.31476
G1 X44.452 Y68.735 E4.35387
G1 X37.267 Y61.550 E4.75650
G1 X36.280 Y61.550 E4.79561
G1 X44.452 Y69.722 E5.25354
G1 X44.452 Y70.709 E5.29266
G1 X35.293 Y61.550 E5.80591
G1 X34.306 Y61.550 E5.84502
G1 X44.452 Y71.696 E6.41358
G1 X44.452 Y72.683 E6.45269
G1 X33.319 Y61.550 E7.07656
G1 X32.332 Y61.550 E7.11567
G1 X44.452 Y73.670 E7.79486
G1 X45.082 Y74.300 F7800.000
G1 X79.231 Y108.450 F1440.000 E9.70852
G1 X78.244 Y108.450 E9.74763
G1 X31.345 Y61.550 E12.37577
G1 X30.358 Y61.550 E12.41488
G1 X77.257 Y108.450 E15.04302
G1 X76.270 Y108.450 E15.08214
G1 X29.370 Y61.550 E17.71028
G1 F1800.000 E16.71028
G92 E0
G1 X26.376 Y66.452 F7800.000
G1 F1800.000 E1.00000
G1 X26.050 Y66.126 F1440.000 E1.01823
G1 X26.050 Y65.139 E1.05735
G1 X27.363 Y66.452 E1.13089
G1 X28.350 Y66.452 E1.17000
G1 X26.050 Y64.152 E1.29886
G1 X26.050 Y63.165 E1.33797
G1 X29.337 Y66.452 E1.52214
G1 X30.324 Y66.452 E1.56125
G1 X26.050 Y62.178 E1.80073
G1 X26.409 Y61.550 E1.82939
G1 X31.311 Y66.452 E2.10406
G1 X32.298 Y66.452 E2.14317
G1 X27.396 Y61.550 E2.41784
G1 X28.383 Y61.550 E2.45695
G1 X75.283 Y108.450 E5.08509
G1 X74.296 Y108.450 E5.12420
G1 X33.050 Y67.204 E7.43552
G1 X33.050 Y68.191 E7.47463
G1 X73.309 Y108.450 E9.73063
G1 X72.322 Y108.450 E9.76974
G1 X33.050 Y69.178 E11.97043
G1 X33.050 Y70.165 E12.00954
G1 X71.335 Y108.450 E14.15492
G1 X70.348 Y108.450 E14.19403
G1 X33.050 Y71.152 E16.28409
G1 X33.050 Y72.139 E16.32321
G1 X69.361 Y108.450 E18.35796
G1 X68.374 Y108.450 E18.39707
G1 X33.050 Y73.126 E20.37651
G1 X33.050 Y74.113 E20.41562
G1 X67.387 Y108.450 E22.33976
G1 X66.400 Y108.450 E22.37887
G1 X33.050 Y75.100 E24.24769
G1 X33.050 Y76.087 E24.28680
G1 X65.413 Y108.450 E26.10031
G1 X64.425 Y108.450 E26.13942
G1 X33.050 Y77.075 E27.89761
G1 X33.050 Y78.062 E27.93673
G1 X63.438 Y108.450 E29.63961
G1 X62.451 Y108.450 E29.67872
G1 X33.050 Y79.049 E31.32630
G1 X33.050 Y80.036 E31.36541
G1 X61.464 Y108.450 E32.95767
G1 X60.477 Y108.450 E32.99678
G1 X33.050 Y81.023 E34.53373
G1 X33.050 Y82.010 E34.57284
G1 X59.490 Y108.450 E36.05448
G1 X58.503 Y108.450 E36.09359
G1 X33.050 Y82.997 E37.51992
G1 X33.050 Y83.984 E37.55903
G1 X57.516 Y108.450 E38.93005
G1 X56.529 Y108.450 E38.96916
G1 X33.050 Y84.971 E40.28486
G1 X33.050 Y85.958 E40.32397
G1 X55.542 Y108.450 E41.58437
G1 X54.555 Y108.450 E41.62348
G1 X33.050 Y86.945 E42.82856
G1 X33.050 Y87.932 E42.86767
G1 X53.568 Y108.450 E44.01744
G1 X52.581 Y108.450 E44.05655
G1 X33.050 Y88.919 E45.15101
G1 X33.050 Y89.906 E45.19012
G1 X51.594 Y108.450 E46.22927
G1 X50.607 Y108.450 E46.26838
G1 X33.050 Y90.893 E47.25221
G1 X33.050 Y91.880 E47.29132
G1 X49.620 Y108.450 E48.21985
G1 X48.633 Y108.450 E48.25896
G1 X33.050 Y92.867 E49.13217
G1 X33.050 Y93.854 E49.17128
G1 X47.646 Y108.450 E49.98918
G1 X46.659 Y108.450 E50.02829
