; generated by Slic3r 0.9.8 on 2013-09-29 at 00:56:37

; layer_height = 0.3
; perimeters = 2
; top_solid_layers = 3
; bottom_solid_layers = 3
; fill_density = 0.3
; perimeter_speed = 40
; infill_speed = 50
; travel_speed = 200
; scale = 1
; nozzle_diameter = 0.5
; filament_diameter = 2.9
; extrusion_multiplier = 0.95
; perimeters extrusion width = 0.70mm
; infill extrusion width = 0.70mm
; first layer extrusion width = 0.53mm

M107
M190 S100 ; wait for bed temperature to be reached
M104 S230 ; set temperature
G28 ; home all axes
G1 Z15 F120 ; lift nozzle
M109 S230 ; wait for temperature to be reached
G90 ; use absolute coordinates
G21 ; set units to millimeters
G92 E0
M82 ; use absolute distances for extrusion
G1 F1680.000 E-2.00000
G92 E0
G1 Z0.450 F12000.000
G1 X31.840 Y116.170
G1 F1680.000 E2.00000
G1 X30.540 Y116.040 F1200.000 E2.04394
G1 X29.290 Y115.650 E2.08798
G1 X28.150 Y115.020 E2.13178
G1 X27.150 Y114.180 E2.17571
G1 X26.340 Y113.150 E2.21977
G1 X25.750 Y111.980 E2.26384
G1 X25.410 Y110.720 E2.30773
G1 X18.410 Y68.720 E3.73975
G1 X18.320 Y67.650 E3.77586
G1 X18.320 Y60.340 E4.02171
G1 X18.450 Y59.070 E4.06465
G1 X18.820 Y57.850 E4.10752
G1 X19.420 Y56.720 E4.15055
G1 X20.230 Y55.730 E4.19357
G1 X21.220 Y54.920 E4.23659
G1 X22.350 Y54.320 E4.27962
G1 X23.570 Y53.950 E4.32249
G1 X24.840 Y53.820 E4.36543
G1 X145.150 Y53.820 E8.41166
G1 X146.420 Y53.950 E8.45459
G1 X147.640 Y54.320 E8.49747
G1 X148.770 Y54.920 E8.54050
G1 X149.760 Y55.730 E8.58352
G1 X150.570 Y56.720 E8.62654
G1 X151.170 Y57.850 E8.66957
G1 X151.540 Y59.070 E8.71244
G1 X151.670 Y60.340 E8.75538
G1 X151.670 Y109.650 E10.41376
G1 X151.540 Y110.920 E10.45669
G1 X151.170 Y112.140 E10.49957
G1 X150.570 Y113.270 E10.54260
G1 X149.760 Y114.260 E10.58562
G1 X148.770 Y115.070 E10.62864
G1 X147.640 Y115.670 E10.67167
G1 X146.420 Y116.040 E10.71454
G1 X145.150 Y116.170 E10.75748
G1 X31.918 Y116.170 E14.56566
G1 X31.840 Y116.170 E14.56828
G1 F1680.000 E12.56828
G92 E0
G1 X45.652 Y73.098 F12000.000
G1 F1680.000 E2.00000
G1 X45.652 Y64.402 F960.000 E2.29249
G1 X59.144 Y64.402 E2.74627
G1 X63.098 Y68.356 E2.93433
G1 X63.098 Y69.144 E2.96085
G1 X59.144 Y73.098 E3.14892
G1 X45.730 Y73.098 E3.60008
G1 X45.652 Y73.098 E3.60270
G1 X45.132 Y73.098 F12000.000
G1 F1680.000 E1.60270
G92 E0
G1 X75.652 Y73.098 F12000.000
G1 F1680.000 E2.00000
G1 X75.652 Y64.402 F960.000 E2.29249
G1 X89.144 Y64.402 E2.74627
G1 X93.098 Y68.356 E2.93433
G1 X93.098 Y69.144 E2.96085
G1 X89.144 Y73.098 E3.14892
G1 X75.730 Y73.098 E3.60008
G1 X75.652 Y73.098 E3.60270
G1 X75.132 Y73.098 F12000.000
G1 F1680.000 E1.60270
G92 E0
G1 X25.368 Y60.868 F12000.000
G1 F1680.000 E2.00000
G1 X144.632 Y60.868 F1200.000 E6.01105
G1 X144.632 Y70.452 E6.33339
G1 X141.868 Y70.452 E6.42635
G1 X141.868 Y62.132 E6.70618
G1 X95.632 Y62.132 E8.26117
G1 X95.632 Y74.132 E8.66475
G1 X88.846 Y74.132 E8.89300
G1 X93.618 Y69.360 E9.11999
G1 X93.618 Y68.140 E9.16098
G1 X89.360 Y63.882 E9.36353
G1 X75.132 Y63.882 E9.84202
G1 X75.132 Y74.132 E10.18675
G1 X72.368 Y74.132 E10.27971
G1 X72.368 Y62.132 E10.68329
G1 X65.632 Y62.132 E10.90983
G1 X65.632 Y74.132 E11.31341
G1 X58.846 Y74.132 E11.54165
G1 X63.618 Y69.360 E11.76864
G1 X63.618 Y68.140 E11.80964
G1 X59.360 Y63.882 E12.01218
G1 X45.132 Y63.882 E12.49068
G1 X45.132 Y74.132 E12.83540
G1 X42.368 Y74.132 E12.92836
G1 X42.368 Y62.132 E13.33194
G1 X35.132 Y62.132 E13.57530
G1 X35.132 Y107.868 E15.11348
G1 X74.132 Y107.868 E16.42511
G1 X74.132 Y109.132 E16.46762
G1 X32.368 Y109.132 E17.87222
G1 X32.368 Y67.132 E19.28475
G1 X25.368 Y67.132 E19.52017
G1 X25.368 Y60.946 E19.72822
G1 X25.368 Y60.868 E19.73084
G1 X24.848 Y60.348 F12000.000
G1 X145.152 Y60.348 F960.000 E23.77684
G1 X145.152 Y70.972 E24.13414
G1 X141.348 Y70.972 E24.26205
G1 X141.348 Y62.652 E24.54188
G1 X96.152 Y62.652 E26.06192
G1 X96.152 Y74.652 E26.46550
G1 X71.848 Y74.652 E27.28286
G1 X71.848 Y62.652 E27.68644
G1 X66.152 Y62.652 E27.87803
G1 X66.152 Y74.652 E28.28161
G1 X41.848 Y74.652 E29.09897
G1 X41.848 Y62.652 E29.50255
G1 X35.652 Y62.652 E29.71096
G1 X35.652 Y107.348 E31.21418
G1 X74.652 Y107.348 E32.52582
G1 X74.652 Y109.652 E32.60328
G1 X31.848 Y109.652 E34.04283
G1 X31.848 Y67.652 E35.45536
G1 X24.848 Y67.652 E35.69078
G1 X24.848 Y60.426 E35.93378
G1 X24.848 Y60.348 E35.93640
G1 X25.298 Y60.608 F12000.000
G1 F1680.000 E33.93640
G92 E0
G1 X141.868 Y99.572 F12000.000
G1 F1680.000 E2.00000
G1 X144.632 Y99.572 F1200.000 E2.09296
G1 X144.632 Y109.132 E2.41448
G1 X102.868 Y109.132 E3.81907
G1 X102.868 Y107.868 E3.86159
G1 X141.868 Y107.868 E5.17322
G1 X141.868 Y99.650 E5.44961
G1 X141.868 Y99.572 E5.45223
G1 X141.348 Y99.052 F12000.000
G1 X145.152 Y99.052 F960.000 E5.58014
G1 X145.152 Y109.652 E5.93662
G1 X102.348 Y109.652 E7.37616
G1 X102.348 Y107.348 E7.45363
G1 X141.348 Y107.348 E8.76526
G1 X141.348 Y99.130 E9.04165
G1 X141.348 Y99.052 E9.04428
G1 X141.798 Y99.312 F12000.000
G1 F1680.000 E7.04428
G92 E0
G1 X144.278 Y100.257 F12000.000
G1 F1680.000 E2.00000
G1 X143.947 Y99.926 F1800.000 E2.01688
G1 X143.159 Y99.926 E2.04530
G1 X144.278 Y101.045 E2.10238
G1 X144.278 Y101.833 E2.13081
G1 X142.371 Y99.926 E2.22809
G1 X142.222 Y100.566 E2.25177
G1 X144.278 Y102.621 E2.35663
G1 X144.278 Y103.409 E2.38506
G1 X142.222 Y101.354 E2.48991
G1 X142.222 Y102.142 E2.51834
G1 X144.278 Y104.198 E2.62320
G1 X144.278 Y104.986 E2.65162
G1 X142.222 Y102.930 E2.75648
G1 X142.222 Y103.718 E2.78491
G1 X144.278 Y105.774 E2.88977
G1 X144.278 Y106.562 E2.91819
G1 X142.222 Y104.506 E3.02305
G1 X142.222 Y105.294 E3.05148
G1 X144.278 Y107.350 E3.15633
G1 X144.278 Y108.138 E3.18476
G1 X142.222 Y106.083 E3.28962
G1 X142.222 Y106.871 E3.31804
G1 X144.129 Y108.778 E3.41532
G1 X143.341 Y108.778 E3.44375
G1 X142.222 Y107.659 E3.50083
G1 X142.222 Y108.447 E3.52926
G1 X142.553 Y108.778 E3.54614
G1 F1680.000 E1.54614
G92 E0
G1 X142.553 Y70.098 F12000.000
G1 F1680.000 E2.00000
G1 X142.222 Y69.767 F1800.000 E2.01692
G1 X142.222 Y68.977 E2.04548
G1 X143.343 Y70.098 E2.10279
G1 X144.133 Y70.098 E2.13135
G1 X142.222 Y68.187 E2.22906
G1 X142.222 Y67.397 E2.25762
G1 X144.278 Y69.453 E2.36273
G1 X144.278 Y68.663 E2.39129
G1 X142.222 Y66.607 E2.49639
G1 X142.222 Y65.817 E2.52496
G1 X144.278 Y67.873 E2.63006
G1 X144.278 Y67.083 E2.65863
G1 X142.222 Y65.027 E2.76373
G1 X142.222 Y64.237 E2.79229
G1 X144.278 Y66.293 E2.89740
G1 X144.278 Y65.503 E2.92596
G1 X142.222 Y63.447 E3.03107
G1 X142.222 Y62.657 E3.05963
G1 X144.278 Y64.713 E3.16474
G1 X144.278 Y63.923 E3.19330
G1 X142.222 Y61.867 E3.29840
G1 X142.367 Y61.222 E3.32231
G1 X144.278 Y63.133 E3.42002
G1 X144.278 Y62.343 E3.44858
G1 X143.157 Y61.222 E3.50589
G1 X143.947 Y61.222 E3.53445
G1 X144.278 Y61.553 E3.55137
G1 F1680.000 E1.55137
G92 E0
G1 X95.800 Y61.775 F12000.000
G1 F1680.000 E2.00000
G1 X95.469 Y61.444 F600.000 E2.01579
G1 X95.987 Y61.225 E2.03477
G1 X96.537 Y61.775 E2.06103
G1 X96.724 Y61.225 E2.08064
G1 X97.275 Y61.775 E2.10690
G1 X97.462 Y61.225 E2.12651
G1 X98.012 Y61.775 E2.15277
G1 X98.199 Y61.225 E2.17238
G1 X98.749 Y61.775 E2.19864
G1 X98.936 Y61.225 E2.21825
G1 X99.487 Y61.775 E2.24451
G1 X99.674 Y61.225 E2.26412
G1 X100.224 Y61.775 E2.29038
G1 X100.411 Y61.225 E2.30999
G1 X100.961 Y61.775 E2.33625
G1 X101.148 Y61.225 E2.35586
G1 X101.699 Y61.775 E2.38212
G1 X101.886 Y61.225 E2.40173
G1 X102.436 Y61.775 E2.42799
G1 X102.623 Y61.225 E2.44760
G1 X103.173 Y61.775 E2.47386
G1 X103.360 Y61.225 E2.49347
G1 X103.910 Y61.775 E2.51973
G1 X104.097 Y61.225 E2.53934
G1 X104.648 Y61.775 E2.56560
G1 X104.835 Y61.225 E2.58521
G1 X105.385 Y61.775 E2.61147
G1 X105.572 Y61.225 E2.63108
G1 X106.122 Y61.775 E2.65734
G1 X106.309 Y61.225 E2.67695
G1 X106.860 Y61.775 E2.70321
G1 X107.047 Y61.225 E2.72282
G1 X107.597 Y61.775 E2.74908
G1 X107.784 Y61.225 E2.76869
G1 X108.334 Y61.775 E2.79495
G1 X108.521 Y61.225 E2.81456
G1 X109.072 Y61.775 E2.84082
G1 X109.259 Y61.225 E2.86043
G1 X109.809 Y61.775 E2.88669
G1 X109.996 Y61.225 E2.90630
G1 X110.546 Y61.775 E2.93256
G1 X110.733 Y61.225 E2.95217
G1 X111.283 Y61.775 E2.97843
G1 X111.471 Y61.225 E2.99804
G1 X112.021 Y61.775 E3.02430
G1 X112.208 Y61.225 E3.04391
G1 X112.758 Y61.775 E3.07017
G1 X112.945 Y61.225 E3.08978
G1 X113.495 Y61.775 E3.11604
G1 X113.682 Y61.225 E3.13565
G1 X114.233 Y61.775 E3.16191
G1 X114.420 Y61.225 E3.18152
G1 X114.970 Y61.775 E3.20778
G1 X115.157 Y61.225 E3.22739
G1 X115.707 Y61.775 E3.25365
G1 X115.894 Y61.225 E3.27326
G1 X116.445 Y61.775 E3.29952
G1 X116.632 Y61.225 E3.31913
G1 X117.182 Y61.775 E3.34539
G1 X117.369 Y61.225 E3.36500
G1 X117.919 Y61.775 E3.39126
G1 X118.106 Y61.225 E3.41087
G1 X118.657 Y61.775 E3.43713
G1 X118.844 Y61.225 E3.45674
G1 X119.394 Y61.775 E3.48300
G1 X119.581 Y61.225 E3.50261
G1 X120.131 Y61.775 E3.52887
G1 X120.318 Y61.225 E3.54848
G1 X120.868 Y61.775 E3.57474
G1 X121.055 Y61.225 E3.59435
G1 X121.606 Y61.775 E3.62061
G1 X121.793 Y61.225 E3.64022
G1 X122.343 Y61.775 E3.66648
G1 X122.530 Y61.225 E3.68609
G1 X123.080 Y61.775 E3.71235
G1 X123.267 Y61.225 E3.73196
G1 X123.818 Y61.775 E3.75822
G1 X124.005 Y61.225 E3.77783
G1 X124.555 Y61.775 E3.80409
G1 X124.742 Y61.225 E3.82370
G1 X125.292 Y61.775 E3.84996
G1 X125.479 Y61.225 E3.86957
G1 X126.030 Y61.775 E3.89583
G1 X126.217 Y61.225 E3.91544
G1 X126.767 Y61.775 E3.94170
G1 X126.954 Y61.225 E3.96131
G1 X127.504 Y61.775 E3.98757
G1 X127.691 Y61.225 E4.00718
G1 X128.241 Y61.775 E4.03344
G1 X128.428 Y61.225 E4.05305
G1 X128.979 Y61.775 E4.07931
G1 X129.166 Y61.225 E4.09892
G1 X129.716 Y61.775 E4.12518
G1 X129.903 Y61.225 E4.14479
G1 X130.453 Y61.775 E4.17105
G1 X130.640 Y61.225 E4.19066
G1 X131.191 Y61.775 E4.21692
G1 X131.378 Y61.225 E4.23653
G1 X131.928 Y61.775 E4.26279
G1 X132.115 Y61.225 E4.28240
G1 X132.665 Y61.775 E4.30866
G1 X132.852 Y61.225 E4.32827
G1 X133.403 Y61.775 E4.35453
G1 X133.590 Y61.225 E4.37414
G1 X134.140 Y61.775 E4.40040
G1 X134.327 Y61.225 E4.42001
G1 X134.877 Y61.775 E4.44627
G1 X135.064 Y61.225 E4.46588
G1 X135.614 Y61.775 E4.49214
G1 X135.802 Y61.225 E4.51175
G1 X136.352 Y61.775 E4.53801
G1 X136.539 Y61.225 E4.55762
G1 X137.089 Y61.775 E4.58388
G1 X137.276 Y61.225 E4.60349
G1 X137.826 Y61.775 E4.62975
G1 X138.013 Y61.225 E4.64936
G1 X138.564 Y61.775 E4.67562
G1 X138.751 Y61.225 E4.69523
G1 X139.301 Y61.775 E4.72149
G1 X139.488 Y61.225 E4.74110
G1 X140.038 Y61.775 E4.76736
G1 X140.225 Y61.225 E4.78697
G1 X140.776 Y61.775 E4.81323
G1 X140.963 Y61.225 E4.83284
G1 X141.513 Y61.775 E4.85910
G1 X142.031 Y61.556 E4.87808
G1 X141.700 Y61.225 E4.89386
G1 F1680.000 E2.89386
G92 E0
G1 X76.017 Y74.229 F12000.000
G1 F1680.000 E2.00000
G1 X75.555 Y73.767 F600.000 E2.03181
G1 X76.372 Y73.521 E2.07335
G1 X77.080 Y74.229 E2.12210
G1 X77.435 Y73.521 E2.16067
G1 X78.144 Y74.229 E2.20942
G1 X78.499 Y73.521 E2.24798
G1 X79.207 Y74.229 E2.29673
G1 X79.562 Y73.521 E2.33529
G1 X80.271 Y74.229 E2.38404
G1 X80.626 Y73.521 E2.42261
G1 X81.334 Y74.229 E2.47136
G1 X81.689 Y73.521 E2.50992
G1 X82.398 Y74.229 E2.55867
G1 X82.753 Y73.521 E2.59724
G1 X83.461 Y74.229 E2.64599
G1 X83.816 Y73.521 E2.68455
G1 X84.525 Y74.229 E2.73330
G1 X84.880 Y73.521 E2.77186
G1 X85.588 Y74.229 E2.82061
G1 X85.943 Y73.521 E2.85918
G1 X86.652 Y74.229 E2.90793
G1 X87.007 Y73.521 E2.94649
G1 X87.715 Y74.229 E2.99524
G1 X88.070 Y73.521 E3.03381
G1 X88.532 Y73.983 E3.06560
G1 X89.941 Y73.441 F12000.000
G1 X90.278 Y73.778 F1800.000 E3.08194
G1 X91.027 Y73.778 E3.10761
G1 X90.315 Y73.066 E3.14210
G1 X90.690 Y72.692 E3.16025
G1 X91.776 Y73.778 E3.21289
G1 X92.525 Y73.778 E3.23855
G1 X91.064 Y72.317 E3.30934
G1 X91.439 Y71.943 E3.32749
G1 X93.273 Y73.778 E3.41643
G1 X94.022 Y73.778 E3.44210
G1 X91.813 Y71.568 E3.54918
G1 X92.188 Y71.194 E3.56733
G1 X94.771 Y73.778 E3.69257
G1 X95.278 Y73.535 E3.71182
G1 X92.562 Y70.820 E3.84346
G1 X92.936 Y70.445 E3.86161
G1 X95.278 Y72.787 E3.97510
G1 X95.278 Y72.038 E4.00076
G1 X93.311 Y70.071 E4.09610
G1 X93.685 Y69.696 E4.11425
G1 X95.278 Y71.289 E4.19144
G1 X95.278 Y70.540 E4.21711
G1 X93.972 Y69.234 E4.28040
G1 X93.972 Y68.485 E4.30606
G1 X95.278 Y69.791 E4.36935
G1 X95.278 Y69.042 E4.39502
G1 X87.458 Y61.222 E4.77405
G1 X88.207 Y61.222 E4.79972
G1 X95.278 Y68.293 E5.14245
G1 X95.278 Y67.544 E5.16812
G1 X88.956 Y61.222 E5.47455
G1 F1680.000 E3.47455
G92 E0
G1 X89.015 Y63.528 F12000.000
G1 F1680.000 E2.00000
G1 X86.709 Y61.222 F1800.000 E2.11176
G1 X85.960 Y61.222 E2.13742
G1 X88.266 Y63.528 E2.24918
G1 X87.517 Y63.528 E2.27485
G1 X85.211 Y61.222 E2.38660
G1 X84.462 Y61.222 E2.41227
G1 X86.768 Y63.528 E2.52403
G1 X86.019 Y63.528 E2.54970
G1 X83.713 Y61.222 E2.66145
G1 X82.965 Y61.222 E2.68712
G1 X85.270 Y63.528 E2.79888
G1 X84.521 Y63.528 E2.82455
G1 X82.216 Y61.222 E2.93630
G1 X81.467 Y61.222 E2.96197
G1 X83.772 Y63.528 E3.07373
G1 X83.023 Y63.528 E3.09939
G1 X80.718 Y61.222 E3.21115
G1 X79.969 Y61.222 E3.23682
G1 X82.275 Y63.528 E3.34857
G1 X81.526 Y63.528 E3.37424
G1 X79.220 Y61.222 E3.48600
G1 X78.471 Y61.222 E3.51167
G1 X80.777 Y63.528 E3.62342
G1 X80.028 Y63.528 E3.64909
G1 X77.722 Y61.222 E3.76085
G1 X76.973 Y61.222 E3.78651
G1 X79.279 Y63.528 E3.89827
G1 X78.530 Y63.528 E3.92394
G1 X76.224 Y61.222 E4.03569
G1 X75.475 Y61.222 E4.06136
G1 X77.781 Y63.528 E4.17312
G1 X77.032 Y63.528 E4.19879
G1 X74.727 Y61.222 E4.31054
G1 X73.978 Y61.222 E4.33621
G1 X76.283 Y63.528 E4.44797
G1 X75.534 Y63.528 E4.47363
G1 X73.229 Y61.222 E4.58539
G1 X72.722 Y61.464 E4.60464
G1 X74.786 Y63.528 E4.70465
G1 X74.778 Y64.269 E4.73006
G1 X72.722 Y62.213 E4.82969
G1 X72.722 Y62.962 E4.85536
G1 X74.778 Y65.018 E4.95500
G1 X74.778 Y65.767 E4.98067
G1 X72.722 Y63.711 E5.08031
G1 X72.722 Y64.460 E5.10598
G1 X74.778 Y66.516 E5.20561
G1 X74.778 Y67.265 E5.23128
G1 X72.722 Y65.209 E5.33092
G1 X72.722 Y65.958 E5.35659
G1 X74.778 Y68.014 E5.45623
G1 X74.778 Y68.762 E5.48189
G1 X72.722 Y66.707 E5.58153
G1 X72.722 Y67.456 E5.60720
G1 X74.778 Y69.511 E5.70684
G1 X74.778 Y70.260 E5.73251
G1 X72.722 Y68.205 E5.83215
G1 X72.722 Y68.954 E5.85781
G1 X74.778 Y71.009 E5.95745
G1 X74.778 Y71.758 E5.98312
G1 X72.722 Y69.702 E6.08276
G1 X72.722 Y70.451 E6.10843
G1 X74.778 Y72.507 E6.20807
G1 X74.778 Y73.256 E6.23373
G1 X72.722 Y71.200 E6.33337
G1 X72.722 Y71.949 E6.35904
G1 X74.551 Y73.778 E6.44768
G1 X73.802 Y73.778 E6.47335
G1 X72.722 Y72.698 E6.52568
G1 X72.722 Y73.447 E6.55135
G1 X73.053 Y73.778 E6.56739
G1 F1680.000 E4.56739
G92 E0
G1 X95.278 Y66.795 F12000.000
G1 F1680.000 E2.00000
G1 X89.705 Y61.222 F1800.000 E2.27013
G1 X90.454 Y61.222 E2.29580
G1 X95.278 Y66.046 E2.52963
G1 X95.278 Y65.298 E2.55530
G1 X91.202 Y61.222 E2.75284
G1 X91.951 Y61.222 E2.77850
G1 X95.278 Y64.549 E2.93974
G1 X95.278 Y63.800 E2.96541
G1 X92.700 Y61.222 E3.09034
G1 X93.449 Y61.222 E3.11601
G1 X95.278 Y63.051 E3.20464
G1 X95.278 Y62.302 E3.23031
G1 X94.198 Y61.222 E3.28265
G1 X94.947 Y61.222 E3.30831
G1 X95.278 Y61.553 E3.32435
G1 F1680.000 E1.32435
G92 E0
G1 X65.800 Y61.775 F12000.000
G1 F1680.000 E2.00000
G1 X65.469 Y61.444 F600.000 E2.01654
G1 X66.022 Y61.225 E2.03756
G1 X66.572 Y61.775 E2.06506
G1 X66.794 Y61.225 E2.08603
G1 X67.345 Y61.775 E2.11353
G1 X67.567 Y61.225 E2.13450
G1 X68.117 Y61.775 E2.16201
G1 X68.339 Y61.225 E2.18297
G1 X68.889 Y61.775 E2.21048
G1 X69.111 Y61.225 E2.23145
G1 X69.661 Y61.775 E2.25895
G1 X69.883 Y61.225 E2.27992
G1 X70.433 Y61.775 E2.30742
G1 X70.655 Y61.225 E2.32839
G1 X71.206 Y61.775 E2.35589
G1 X71.428 Y61.225 E2.37686
G1 X71.978 Y61.775 E2.40437
G1 X72.200 Y61.225 E2.42534
G1 X72.531 Y61.556 E2.44187
G1 F1680.000 E0.44187
G92 E0
G1 X46.017 Y74.229 F12000.000
G1 F1680.000 E2.00000
G1 X45.555 Y73.767 F600.000 E2.03181
