; generated by Slic3r 0.9.10b on 2013-10-31 at 19:16:53

; layer_height = 0.3
; perimeters = 1
; top_solid_layers = 2
; bottom_solid_layers = 2
; fill_density = 0.2
; perimeter_speed = 30
; infill_speed = 30
; travel_speed = 200
; nozzle_diameter = 0.5
; filament_diameter = 2.98
; extrusion_multiplier = 0.9
; perimeters extrusion width = 0.70mm
; infill extrusion width = 0.70mm
; solid infill extrusion width = 0.70mm
; top infill extrusion width = 0.70mm

G21 ; set units to millimeters
M107
M104 S190 ; set temperature
G28 ; home all axes
G1 Z15 F120 ; lift nozzle
M109 S190 ; wait for temperature to be reached
G90 ; use absolute coordinates
G92 E0
M82 ; use absolute distances for extrusion
G1 F1680.000 E-2.00000
G92 E0
G1 Z0.450 F12000.000
G1 X23.450 Y56.350
G1 F1680.000 E2.00000
G1 X24.700 Y55.970 F900.000 E2.04965
G1 X26.000 Y55.850 E2.09927
G1 X144.000 Y55.850 E6.58386
G1 X145.300 Y55.970 E6.63348
G1 X146.550 Y56.350 E6.68313
G1 X147.700 Y56.970 E6.73279
G1 X148.710 Y57.790 E6.78223
G1 X149.530 Y58.800 E6.83167
G1 X150.150 Y59.950 E6.88133
G1 X150.530 Y61.200 E6.93098
G1 X150.650 Y62.500 E6.98060
G1 X150.650 Y112.500 E8.88085
G1 X150.530 Y113.800 E8.93046
G1 X150.150 Y115.050 E8.98012
G1 X149.530 Y116.200 E9.02977
G1 X148.710 Y117.210 E9.07921
G1 X147.700 Y118.030 E9.12866
G1 X146.550 Y118.650 E9.17831
G1 X145.300 Y119.030 E9.22796
G1 X144.000 Y119.150 E9.27758
G1 X33.000 Y119.150 E13.49614
G1 X31.670 Y119.020 E13.54693
G1 X30.400 Y118.630 E13.59742
G1 X29.230 Y117.980 E13.64829
G1 X28.210 Y117.120 E13.69899
G1 X27.390 Y116.070 E13.74962
G1 X26.790 Y114.880 E13.80027
G1 X26.440 Y113.590 E13.85107
G1 X19.440 Y71.590 E15.46930
G1 X19.350 Y70.500 E15.51087
G1 X19.350 Y62.500 E15.81491
G1 X19.470 Y61.200 E15.86452
G1 X19.850 Y59.950 E15.91418
G1 X20.470 Y58.800 E15.96383
G1 X21.290 Y57.790 E16.01327
G1 X22.300 Y56.970 E16.06272
G1 X23.364 Y56.397 E16.10864
G1 F1680.000 E14.10864
G92 E0
G1 X47.673 Y66.873 F12000.000
G1 F1680.000 E2.00000
G1 X60.679 Y66.873 F720.000 E2.49431
G1 X61.000 Y66.552 E2.51155
G1 X65.705 Y71.257 E2.76446
G1 X61.136 Y75.827 E3.01008
G1 X47.673 Y75.827 E3.52173
G1 X47.673 Y66.971 E3.85831
G1 X77.673 Y66.873 F12000.000
G1 X90.679 Y66.873 F720.000 E4.35262
G1 X91.000 Y66.552 E4.36987
G1 X95.705 Y71.257 E4.62278
G1 X91.136 Y75.827 E4.86839
G1 X77.673 Y75.827 E5.38005
G1 X77.673 Y66.971 E5.71663
G1 F1680.000 E3.71663
G92 E0
G1 X33.327 Y70.173 F12000.000
G1 F1680.000 E2.00000
G1 X26.327 Y70.173 F720.000 E2.26604
G1 X26.327 Y62.827 E2.54520
G1 X143.673 Y62.827 E7.00492
G1 X143.673 Y112.173 E8.88030
G1 X33.327 Y112.173 E13.07399
G1 X33.327 Y70.271 E14.66647
G1 X33.629 Y69.698 F12000.000
G1 X27.232 Y63.302 F1200.000 E15.01070
G1 X26.802 Y63.798 E15.03569
G1 X32.702 Y69.698 E15.35323
G1 X31.776 Y69.698 E15.38849
G1 X26.802 Y64.724 E15.65615
G1 X26.802 Y65.651 E15.69141
G1 X30.849 Y69.698 E15.90921
G1 X29.922 Y69.698 E15.94447
G1 X26.802 Y66.578 E16.11239
G1 X26.802 Y67.505 E16.14765
G1 X28.995 Y69.698 E16.26570
G1 X28.069 Y69.698 E16.30097
G1 X26.802 Y68.431 E16.36914
G1 X26.802 Y69.358 E16.40441
G1 X27.142 Y69.698 E16.42271
G1 F1680.000 E14.42271
G92 E0
G1 X47.198 Y74.927 F12000.000
G1 F1680.000 E2.00000
G1 X35.573 Y63.302 F1200.000 E2.62560
G1 X36.500 Y63.302 E2.66087
G1 X47.198 Y74.000 E3.23660
G1 X47.198 Y73.074 E3.27186
G1 X37.426 Y63.302 E3.79772
G1 X38.353 Y63.302 E3.83299
G1 X47.198 Y72.147 E4.30898
G1 X47.198 Y71.220 E4.34424
G1 X39.280 Y63.302 E4.77036
G1 X40.207 Y63.302 E4.80563
G1 X47.198 Y70.293 E5.18187
G1 X47.198 Y69.367 E5.21714
G1 X41.133 Y63.302 E5.54352
G1 X42.060 Y63.302 E5.57878
G1 X47.198 Y68.440 E5.85529
G1 X47.198 Y67.513 E5.89055
G1 X42.987 Y63.302 E6.11718
G1 X43.914 Y63.302 E6.15245
G1 X47.198 Y66.586 E6.32921
G1 X47.937 Y66.398 E6.35822
G1 X44.840 Y63.302 E6.52486
G1 X45.767 Y63.302 E6.56013
G1 X48.864 Y66.398 E6.72677
G1 X49.791 Y66.398 E6.76204
G1 X46.694 Y63.302 E6.92868
G1 X47.621 Y63.302 E6.96394
G1 X50.717 Y66.398 E7.13059
G1 X51.644 Y66.398 E7.16585
G1 X48.547 Y63.302 E7.33250
G1 X49.474 Y63.302 E7.36776
G1 X52.571 Y66.398 E7.53441
G1 X53.497 Y66.398 E7.56967
G1 X50.401 Y63.302 E7.73632
G1 X51.327 Y63.302 E7.77158
G1 X54.424 Y66.398 E7.93822
G1 X55.351 Y66.398 E7.97349
G1 X52.254 Y63.302 E8.14013
G1 X53.181 Y63.302 E8.17540
G1 X56.278 Y66.398 E8.34204
G1 X57.204 Y66.398 E8.37731
G1 X54.108 Y63.302 E8.54395
G1 X55.034 Y63.302 E8.57922
G1 X58.131 Y66.398 E8.74586
G1 X59.058 Y66.398 E8.78112
G1 X55.961 Y63.302 E8.94777
G1 X56.888 Y63.302 E8.98303
G1 X59.985 Y66.398 E9.14968
G1 X60.697 Y66.184 F12000.000
G1 X57.815 Y63.302 F1200.000 E9.30479
G1 X58.741 Y63.302 E9.34005
G1 X107.138 Y111.698 E11.94444
G1 X108.065 Y111.698 E11.97970
G1 X59.668 Y63.302 E14.58409
G1 X60.595 Y63.302 E14.61936
G1 X108.992 Y111.698 E17.22375
G1 X109.918 Y111.698 E17.25901
G1 X61.522 Y63.302 E19.86340
G1 X62.448 Y63.302 E19.89867
G1 X110.845 Y111.698 E22.50306
G1 X111.772 Y111.698 E22.53832
G1 X63.375 Y63.302 E25.14271
G1 X64.302 Y63.302 E25.17797
G1 X77.198 Y76.198 E25.87198
G1 X77.302 Y76.302 F12000.000
G1 X112.699 Y111.698 F1200.000 E27.77679
G1 X113.625 Y111.698 E27.81206
G1 X78.229 Y76.302 E29.71687
G1 X79.155 Y76.302 E29.75214
G1 X114.552 Y111.698 E31.65695
G1 X115.479 Y111.698 E31.69222
G1 X80.082 Y76.302 E33.59703
G1 X81.009 Y76.302 E33.63230
G1 X116.406 Y111.698 E35.53711
G1 X117.332 Y111.698 E35.57238
G1 X81.936 Y76.302 E37.47719
G1 X82.862 Y76.302 E37.51246
G1 X118.259 Y111.698 E39.41727
G1 X119.186 Y111.698 E39.45254
G1 X83.789 Y76.302 E41.35736
G1 X84.716 Y76.302 E41.39262
G1 X120.112 Y111.698 E43.29744
G1 X121.039 Y111.698 E43.33270
G1 X85.642 Y76.302 E45.23752
G1 X86.569 Y76.302 E45.27278
G1 X121.966 Y111.698 E47.17760
G1 X122.893 Y111.698 E47.21286
G1 X87.496 Y76.302 E49.11768
G1 X88.423 Y76.302 E49.15294
G1 X123.819 Y111.698 E51.05776
G1 X124.746 Y111.698 E51.09302
G1 X89.349 Y76.302 E52.99784
G1 X90.276 Y76.302 E53.03310
G1 X125.673 Y111.698 E54.93792
G1 X126.600 Y111.698 E54.97318
G1 X91.203 Y76.302 E56.87800
G1 X91.731 Y75.903 E56.90317
G1 X127.526 Y111.698 E58.82945
G1 X128.453 Y111.698 E58.86471
G1 X92.194 Y75.439 E60.81593
G1 X92.658 Y74.976 E60.84086
G1 X129.380 Y111.698 E62.81701
G1 X130.307 Y111.698 E62.85228
G1 X93.121 Y74.513 E64.85336
G1 X93.584 Y74.049 E64.87829
G1 X131.233 Y111.698 E66.90431
G1 X132.160 Y111.698 E66.93958
G1 X94.048 Y73.586 E68.99053
G1 X94.511 Y73.123 E69.01547
G1 X133.087 Y111.698 E71.09136
G1 X134.014 Y111.698 E71.12662
G1 X94.974 Y72.659 E73.22745
G1 X95.438 Y72.196 E73.25238
G1 X134.940 Y111.698 E75.37814
G1 X135.867 Y111.698 E75.41341
G1 X95.901 Y71.733 E77.56410
G1 X96.365 Y71.269 E77.58904
G1 X136.794 Y111.698 E79.76467
G1 X137.721 Y111.698 E79.79993
G1 X89.324 Y63.302 E82.40432
G1 X88.397 Y63.302 E82.43959
G1 X90.988 Y65.893 E82.57902
G1 X90.525 Y66.356 E82.60396
G1 X87.470 Y63.302 E82.76833
G1 X86.544 Y63.302 E82.80360
G1 X89.640 Y66.398 E82.97024
G1 X88.714 Y66.398 E83.00551
G1 X85.617 Y63.302 E83.17215
G1 X84.690 Y63.302 E83.20741
G1 X87.787 Y66.398 E83.37406
G1 X86.860 Y66.398 E83.40932
G1 X83.763 Y63.302 E83.57597
G1 X82.837 Y63.302 E83.61123
G1 X85.933 Y66.398 E83.77788
G1 X85.007 Y66.398 E83.81314
G1 X81.910 Y63.302 E83.97979
G1 X80.983 Y63.302 E84.01505
G1 X84.080 Y66.398 E84.18169
G1 X83.153 Y66.398 E84.21696
G1 X80.056 Y63.302 E84.38360
G1 X79.130 Y63.302 E84.41887
G1 X82.226 Y66.398 E84.58551
G1 X81.300 Y66.398 E84.62078
G1 X78.203 Y63.302 E84.78742
G1 X77.276 Y63.302 E84.82268
G1 X80.373 Y66.398 E84.98933
G1 X79.446 Y66.398 E85.02459
G1 X76.349 Y63.302 E85.19124
G1 X75.423 Y63.302 E85.22650
G1 X78.519 Y66.398 E85.39315
G1 X77.593 Y66.398 E85.42841
G1 X74.496 Y63.302 E85.59506
G1 X73.569 Y63.302 E85.63032
G1 X77.198 Y66.931 E85.82561
G1 X77.198 Y67.857 E85.86088
G1 X72.642 Y63.302 E86.10604
G1 X71.716 Y63.302 E86.14131
G1 X77.198 Y68.784 E86.43635
G1 X77.198 Y69.711 E86.47161
G1 X70.789 Y63.302 E86.81652
G1 X69.862 Y63.302 E86.85178
G1 X77.198 Y70.638 E87.24656
G1 X77.198 Y71.564 E87.28182
G1 X68.936 Y63.302 E87.72647
G1 X68.009 Y63.302 E87.76174
G1 X77.198 Y72.491 E88.25626
G1 X77.198 Y73.418 E88.29152
G1 X67.082 Y63.302 E88.83591
G1 X66.155 Y63.302 E88.87118
G1 X77.198 Y74.345 E89.46544
G1 X77.198 Y75.271 E89.50071
G1 X65.229 Y63.302 E90.14484
G1 X66.073 Y71.560 F12000.000
G1 X106.211 Y111.698 F1200.000 E92.30480
G1 X105.285 Y111.698 E92.34007
G1 X65.610 Y72.024 E94.47509
G1 X65.147 Y72.487 E94.50003
G1 X104.358 Y111.698 E96.61012
G1 X103.431 Y111.698 E96.64538
G1 X64.683 Y72.950 E98.73054
G1 X64.220 Y73.414 E98.75547
G1 X102.504 Y111.698 E100.81569
G1 X101.578 Y111.698 E100.85096
G1 X63.757 Y73.877 E102.88624
G1 X63.293 Y74.341 E102.91118
G1 X100.651 Y111.698 E104.92153
G1 X99.724 Y111.698 E104.95679
G1 X62.830 Y74.804 E106.94221
G1 X62.366 Y75.267 E106.96714
G1 X98.797 Y111.698 E108.92762
G1 X97.871 Y111.698 E108.96288
G1 X61.903 Y75.731 E110.89843
G1 X61.440 Y76.194 E110.92336
G1 X96.944 Y111.698 E112.83397
G1 X96.017 Y111.698 E112.86923
G1 X60.621 Y76.302 E114.77405
G1 X59.694 Y76.302 E114.80931
G1 X95.091 Y111.698 E116.71413
G1 X94.164 Y111.698 E116.74939
G1 X58.767 Y76.302 E118.65421
G1 X57.840 Y76.302 E118.68947
G1 X93.237 Y111.698 E120.59429
G1 X92.310 Y111.698 E120.62956
G1 X56.914 Y76.302 E122.53437
G1 X55.987 Y76.302 E122.56964
G1 X91.384 Y111.698 E124.47445
G1 X90.457 Y111.698 E124.50972
G1 X55.060 Y76.302 E126.41453
G1 X54.133 Y76.302 E126.44980
G1 X89.530 Y111.698 E128.35461
G1 X88.603 Y111.698 E128.38988
G1 X53.207 Y76.302 E130.29469
G1 X52.280 Y76.302 E130.32996
G1 X87.677 Y111.698 E132.23477
G1 X86.750 Y111.698 E132.27004
G1 X51.353 Y76.302 E134.17485
G1 X50.426 Y76.302 E134.21012
G1 X85.823 Y111.698 E136.11493
G1 X84.896 Y111.698 E136.15020
G1 X49.500 Y76.302 E138.05501
G1 X48.573 Y76.302 E138.09028
G1 X83.970 Y111.698 E139.99509
G1 X83.043 Y111.698 E140.03036
G1 X47.646 Y76.302 E141.93517
G1 X47.198 Y75.854 F12000.000
G1 X34.646 Y63.302 F1200.000 E142.61065
G1 X33.719 Y63.302 E142.64591
G1 X82.116 Y111.698 E145.25030
G1 X81.189 Y111.698 E145.28557
G1 X32.793 Y63.302 E147.88995
G1 X31.866 Y63.302 E147.92522
G1 X80.263 Y111.698 E150.52961
G1 X79.336 Y111.698 E150.56487
G1 X30.939 Y63.302 E153.16926
G1 X30.012 Y63.302 E153.20453
G1 X78.409 Y111.698 E155.80892
G1 X77.482 Y111.698 E155.84418
G1 X29.086 Y63.302 E158.44857
G1 X28.159 Y63.302 E158.48383
G1 X76.556 Y111.698 E161.08822
G1 X75.629 Y111.698 E161.12349
G1 X33.802 Y69.871 E163.37436
G1 X33.802 Y70.798 E163.40962
G1 X74.702 Y111.698 E165.61062
G1 X73.776 Y111.698 E165.64589
G1 X33.802 Y71.724 E167.79702
G1 X33.802 Y72.651 E167.83228
G1 X72.849 Y111.698 E169.93354
G1 X71.922 Y111.698 E169.96880
G1 X33.802 Y73.578 E172.02019
G1 X33.802 Y74.505 E172.05545
G1 X70.995 Y111.698 E174.05697
G1 X70.069 Y111.698 E174.09223
G1 X33.802 Y75.431 E176.04388
G1 X33.802 Y76.358 E176.07914
G1 X69.142 Y111.698 E177.98092
G1 X68.215 Y111.698 E178.01618
G1 X33.802 Y77.285 E179.86808
G1 X33.802 Y78.212 E179.90335
G1 X67.288 Y111.698 E181.70538
G1 X66.362 Y111.698 E181.74064
G1 X33.802 Y79.138 E183.49281
G1 X33.802 Y80.065 E183.52807
G1 X65.435 Y111.698 E185.23036
G1 X64.508 Y111.698 E185.26562
G1 X33.802 Y80.992 E186.91804
G1 X33.802 Y81.919 E186.95331
G1 X63.581 Y111.698 E188.55586
G1 X62.655 Y111.698 E188.59112
G1 X33.802 Y82.845 E190.14380
G1 X33.802 Y83.772 E190.17906
G1 X61.728 Y111.698 E191.68187
G1 X60.801 Y111.698 E191.71713
G1 X33.802 Y84.699 E193.17007
G1 X33.802 Y85.626 E193.20533
G1 X59.874 Y111.698 E194.60840
G1 X58.948 Y111.698 E194.64366
G1 X33.802 Y86.552 E195.99685
G1 X33.802 Y87.479 E196.03212
G1 X58.021 Y111.698 E197.33544
G1 X57.094 Y111.698 E197.37071
G1 X33.802 Y88.406 E198.62416
G1 X33.802 Y89.333 E198.65942
G1 X56.167 Y111.698 E199.86300
G1 X55.241 Y111.698 E199.89827
G1 X33.802 Y90.259 E201.05198
G1 X33.802 Y91.186 E201.08724
G1 X54.314 Y111.698 E202.19108
G1 X53.387 Y111.698 E202.22634
G1 X33.802 Y92.113 E203.28031
G1 X33.802 Y93.039 E203.31558
G1 X52.461 Y111.698 E204.31967
G1 X51.534 Y111.698 E204.35494
G1 X33.802 Y93.966 E205.30916
G1 X33.802 Y94.893 E205.34443
G1 X50.607 Y111.698 E206.24878
G1 X49.680 Y111.698 E206.28405
G1 X33.802 Y95.820 E207.13853
G1 X33.802 Y96.746 E207.17380
G1 X48.754 Y111.698 E207.97841
G1 X47.827 Y111.698 E208.01367
G1 X33.802 Y97.673 E208.76842
G1 X33.802 Y98.600 E208.80368
G1 X46.900 Y111.698 E209.50855
G1 X45.973 Y111.698 E209.54382
G1 X33.802 Y99.527 E210.19882
G1 X33.802 Y100.453 E210.23408
G1 X45.047 Y111.698 E210.83921
G1 X44.120 Y111.698 E210.87447
G1 X33.802 Y101.380 E211.42973
G1 X33.802 Y102.307 E211.46500
G1 X43.193 Y111.698 E211.97038
G1 X42.266 Y111.698 E212.00565
G1 X33.802 Y103.234 E212.46117
G1 X33.802 Y104.160 E212.49643
G1 X41.340 Y111.698 E212.90208
G1 X40.413 Y111.698 E212.93734
G1 X33.802 Y105.087 E213.29311
G1 X33.802 Y106.014 E213.32838
G1 X39.486 Y111.698 E213.63428
G1 X38.559 Y111.698 E213.66955
G1 X33.802 Y106.941 E213.92558
G1 X33.802 Y107.867 E213.96084
G1 X37.633 Y111.698 E214.16701
G1 X36.706 Y111.698 E214.20227
G1 X33.802 Y108.794 E214.35856
G1 X33.802 Y109.721 E214.39383
G1 X35.779 Y111.698 E214.50025
G1 X34.852 Y111.698 E214.53551
G1 X33.802 Y110.648 E214.59206
G1 X33.802 Y111.574 E214.62732
G1 X33.926 Y111.698 E214.63400
G1 F1680.000 E212.63400
G92 E0
G1 X90.251 Y63.302 F12000.000
G1 F1680.000 E2.00000
G1 X138.647 Y111.698 F1200.000 E4.60439
G1 X139.574 Y111.698 E4.63965
G1 X91.177 Y63.302 E7.24404
G1 X92.104 Y63.302 E7.27931
G1 X140.501 Y111.698 E9.88370
G1 X141.427 Y111.698 E9.91896
G1 X93.031 Y63.302 E12.52335
G1 X93.957 Y63.302 E12.55862
G1 X142.354 Y111.698 E15.16301
G1 X143.198 Y111.616 E15.19528
G1 X94.884 Y63.302 E17.79522
G1 X95.811 Y63.302 E17.83049
G1 X143.198 Y110.689 E20.38056
G1 X143.198 Y109.762 E20.41583
G1 X96.738 Y63.302 E22.91603
G1 X97.664 Y63.302 E22.95129
G1 X143.198 Y108.836 E25.40163
G1 X143.198 Y107.909 E25.43689
G1 X98.591 Y63.302 E27.83735
G1 X99.518 Y63.302 E27.87261
G1 X143.198 Y106.982 E30.22321
G1 X143.198 Y106.055 E30.25847
G1 X100.445 Y63.302 E32.55919
G1 X101.371 Y63.302 E32.59445
G1 X143.198 Y105.129 E34.84530
G1 X143.198 Y104.202 E34.88056
G1 X102.298 Y63.302 E37.08154
G1 X103.225 Y63.302 E37.11681
G1 X143.198 Y103.275 E39.26791
G1 X143.198 Y102.348 E39.30318
G1 X104.152 Y63.302 E41.40441
G1 X105.078 Y63.302 E41.43968
G1 X143.198 Y101.422 E43.49104
G1 X143.198 Y100.495 E43.52631
G1 X106.005 Y63.302 E45.52780
G1 X106.932 Y63.302 E45.56306
G1 X143.198 Y99.568 E47.51469
G1 X143.198 Y98.641 E47.54995
G1 X107.859 Y63.302 E49.45170
G1 X108.785 Y63.302 E49.48697
G1 X143.198 Y97.715 E51.33885
G1 X143.198 Y96.788 E51.37411
G1 X109.712 Y63.302 E53.17612
G1 X110.639 Y63.302 E53.21138
G1 X143.198 Y95.861 E54.96352
G1 X143.198 Y94.934 E54.99879
G1 X111.566 Y63.302 E56.70105
G1 X112.492 Y63.302 E56.73632
G1 X143.198 Y94.008 E58.38872
G1 X143.198 Y93.081 E58.42398
G1 X113.419 Y63.302 E60.02651
G1 X114.346 Y63.302 E60.06177
G1 X143.198 Y92.154 E61.61443
G1 X143.198 Y91.227 E61.64969
G1 X115.272 Y63.302 E63.15247
G1 X116.199 Y63.302 E63.18774
G1 X143.198 Y90.301 E64.64065
G1 X143.198 Y89.374 E64.67591
G1 X117.126 Y63.302 E66.07896
G1 X118.053 Y63.302 E66.11422
G1 X143.198 Y88.447 E67.46739
G1 X143.198 Y87.521 E67.50266
G1 X118.979 Y63.302 E68.80596
G1 X119.906 Y63.302 E68.84122
G1 X143.198 Y86.594 E70.09465
G1 X143.198 Y85.667 E70.12991
G1 X120.833 Y63.302 E71.33347
G1 X121.760 Y63.302 E71.36874
G1 X143.198 Y84.740 E72.52242
G1 X143.198 Y83.814 E72.55769
G1 X122.686 Y63.302 E73.66151
G1 X123.613 Y63.302 E73.69677
G1 X143.198 Y82.887 E74.75072
G1 X143.198 Y81.960 E74.78598
G1 X124.540 Y63.302 E75.79005
G1 X125.467 Y63.302 E75.82532
G1 X143.198 Y81.033 E76.77952
G1 X143.198 Y80.107 E76.81479
G1 X126.393 Y63.302 E77.71912
G1 X127.320 Y63.302 E77.75438
G1 X143.198 Y79.180 E78.60884
G1 X143.198 Y78.253 E78.64411
G1 X128.247 Y63.302 E79.44870
G1 X129.174 Y63.302 E79.48396
G1 X143.198 Y77.326 E80.23868
G1 X143.198 Y76.400 E80.27395
G1 X130.100 Y63.302 E80.97880
G1 X131.027 Y63.302 E81.01406
G1 X143.198 Y75.473 E81.66904
G1 X143.198 Y74.546 E81.70430
G1 X131.954 Y63.302 E82.30941
G1 X132.881 Y63.302 E82.34467
G1 X143.198 Y73.619 E82.89991
