; generated by Slic3r 1.2.1 on 2015-01-18 at 18:04:12

; external perimeters extrusion width = 0.50mm
; perimeters extrusion width = 0.50mm
; infill extrusion width = 0.50mm
; solid infill extrusion width = 0.50mm
; top infill extrusion width = 0.50mm

M104 S190 ; set temperature
G28 ; home all axes
G1 Z15 F120 ; lift nozzle
M109 S190 ; wait for temperature to be reached
G21 ; set units to millimeters
G90 ; use absolute coordinates
M82 ; use absolute distances for extrusion
G92 E0
M106 S102
G1 E-2.00000 F1680.000
G92 E0
G1 Z0.350 F12000.000
G1 X18.167 Y32.311 F12000.000
G1 E2.00000 F1680.000
G1 X18.602 Y32.094 E2.01369 F1200.000
G1 X19.051 Y31.905 E2.02740
G1 X19.512 Y31.747 E2.04111
G1 X19.980 Y31.619 E2.05478
G1 X20.458 Y31.522 E2.06849
G1 X20.940 Y31.456 E2.08220
G1 X21.527 Y31.420 E2.09876
G1 X103.793 Y30.034 E4.41504
G1 X128.502 Y30.033 E5.11063
G1 X129.910 Y30.189 E5.15053
G1 X149.906 Y34.674 E5.72741 F1200.000
G1 X150.429 Y34.810 E5.74264
G1 X150.952 Y34.987 E5.75818
G1 X151.401 Y35.176 E5.77189
G1 X151.836 Y35.392 E5.78557
G1 X152.256 Y35.638 E5.79928
G1 X152.607 Y35.872 E5.81116
G1 X152.994 Y36.166 E5.82482
G1 X153.360 Y36.484 E5.83847
G1 X153.706 Y36.828 E5.85221
G1 X154.029 Y37.192 E5.86592
G1 X154.327 Y37.577 E5.87962
G1 X154.599 Y37.981 E5.89332
G1 X154.844 Y38.401 E5.90702
G1 X155.061 Y38.837 E5.92072
G1 X155.250 Y39.285 E5.93441
G1 X155.408 Y39.745 E5.94811
G1 X155.536 Y40.215 E5.96181
G1 X155.633 Y40.691 E5.97551
G1 X155.705 Y41.239 E5.99104
G1 X155.736 Y41.869 E6.00883
G1 X155.736 Y130.290 E8.49803
G1 X155.705 Y130.921 E8.51583
G1 X155.633 Y131.469 E8.53136
G1 X155.535 Y131.952 E8.54524
G1 X155.407 Y132.420 E8.55890
G1 X155.273 Y132.814 E8.57062
G1 X155.061 Y133.324 E8.58616
G1 X154.875 Y133.701 E8.59802
G1 X154.634 Y134.124 E8.61172
G1 X154.327 Y134.583 E8.62725
G1 X154.030 Y134.967 E8.64092
G1 X153.751 Y135.284 E8.65281
G1 X153.361 Y135.674 E8.66834
G1 X153.044 Y135.952 E8.68021
G1 X152.660 Y136.250 E8.69390
G1 X152.255 Y136.523 E8.70765
G1 X151.779 Y136.798 E8.72313
G1 X151.341 Y137.012 E8.73684
G1 X150.951 Y137.173 E8.74873
G1 X150.429 Y137.350 E8.76423
G1 X150.022 Y137.459 E8.77611
G1 X149.568 Y137.552 E8.78914
G1 X148.997 Y137.628 E8.80535
G1 X148.436 Y137.659 E8.82117
G1 X62.467 Y138.580 E11.24151
G1 X46.587 Y138.580 E11.68857
G1 X45.580 Y138.499 E11.71701
G1 X20.455 Y134.474 E12.43334
G1 X20.041 Y134.392 E12.44522
G1 X19.570 Y134.268 E12.45892
G1 X19.109 Y134.114 E12.47262
G1 X18.659 Y133.930 E12.48631
G1 X18.222 Y133.716 E12.50000
G1 X17.799 Y133.475 E12.51370
G1 X17.394 Y133.206 E12.52739
G1 X17.006 Y132.912 E12.54109
G1 X16.591 Y132.547 E12.55666
G1 X16.249 Y132.202 E12.57033
G1 X15.930 Y131.836 E12.58401
G1 X15.673 Y131.501 E12.59589
G1 X15.401 Y131.097 E12.60960
G1 X15.125 Y130.619 E12.62514
G1 X14.912 Y130.182 E12.63882
G1 X14.727 Y129.731 E12.65253
G1 X14.573 Y129.270 E12.66622
G1 X14.464 Y128.863 E12.67809
G1 X14.356 Y128.322 E12.69362
G1 X14.295 Y127.839 E12.70732
G1 X14.265 Y127.354 E12.72101
G1 X14.265 Y38.853 E15.21248
G1 X14.298 Y38.157 E15.23210
G1 X14.359 Y37.674 E15.24581
G1 X14.452 Y37.196 E15.25949
G1 X14.575 Y36.727 E15.27316
G1 X14.729 Y36.268 E15.28679
G1 X14.914 Y35.814 E15.30059
G1 X15.127 Y35.378 E15.31424
G1 X15.369 Y34.954 E15.32799
G1 X15.637 Y34.550 E15.34165
G1 X15.931 Y34.163 E15.35533
G1 X16.251 Y33.794 E15.36908
G1 X16.594 Y33.448 E15.38279
G1 X16.959 Y33.126 E15.39648
G1 X17.343 Y32.828 E15.41018
G1 X17.747 Y32.556 E15.42388
G1 X18.102 Y32.348 E15.43547
G1 E13.43547 F1680.000
G92 E0
G1 X93.602 Y121.173 F12000.000
G1 E2.00000 F1680.000
G1 X96.102 Y121.173 E2.06507 F720.000
G1 X96.102 Y122.973 E2.11192
G1 X97.902 Y122.973 E2.15878 F720.000
G1 X97.902 Y125.473 E2.22385
G1 X96.102 Y125.473 E2.27070
G1 X96.102 Y127.273 E2.31755
G1 X93.602 Y127.273 E2.38263
G1 X93.602 Y125.473 E2.42948
G1 X91.802 Y125.473 E2.47633
G1 X91.802 Y122.973 E2.54140
G1 X93.602 Y122.973 E2.58826
G1 X93.602 Y121.248 E2.63316
G1 X93.602 Y50.987 F12000.000
G1 X93.602 Y49.187 E2.68001 F720.000
G1 X91.802 Y49.187 E2.72686
G1 X91.802 Y46.687 E2.79193
G1 X93.602 Y46.687 E2.83878
G1 X93.602 Y44.887 E2.88564
G1 X96.102 Y44.887 E2.95071
G1 X96.102 Y46.687 E2.99756
G1 X97.902 Y46.687 E3.04441 F720.000
G1 X97.902 Y49.187 E3.10949
G1 X96.102 Y49.187 E3.15634
G1 X96.102 Y50.987 E3.20319
G1 X93.677 Y50.987 E3.26631
G1 X139.402 Y49.187 F12000.000
G1 X139.402 Y46.687 E3.33138 F720.000
G1 X141.202 Y46.687 E3.37824
G1 X141.202 Y44.887 E3.42509
G1 X143.702 Y44.887 E3.49016
G1 X143.702 Y46.687 E3.53701
G1 X145.502 Y46.687 E3.58386 F720.000
G1 X145.502 Y49.187 E3.64894
G1 X143.702 Y49.187 E3.69579
G1 X143.702 Y50.987 E3.74264
G1 X141.202 Y50.987 E3.80771
G1 X141.202 Y49.187 E3.85457
G1 X139.477 Y49.187 E3.89947
G1 X139.477 Y53.675 F12000.000
G1 X141.552 Y53.675 E3.95348 F720.000
G1 X141.552 Y59.175 E4.09664
G1 X95.752 Y59.175 E5.28876 F720.000
G1 X95.752 Y53.675 E5.43192
G1 X139.402 Y53.675 E6.56809
G1 E4.56809 F1680.000
G92 E0
G1 X139.402 Y63.675 F12000.000
G1 E2.00000 F1680.000
G1 X141.552 Y63.675 E2.05596 F720.000
G1 X141.552 Y69.175 E2.19912
G1 X95.752 Y69.175 E3.39125 F720.000
G1 X95.752 Y63.675 E3.53441
G1 X139.327 Y63.675 E4.66862
G1 E2.66862 F1680.000
G92 E0
G1 X139.327 Y73.675 F12000.000
G1 E2.00000 F1680.000
G1 X141.552 Y73.675 E2.05791 F720.000
G1 X141.552 Y74.862 E2.08882
G1 X141.552 Y79.175 E2.20107 F720.000
G1 X95.752 Y79.175 E3.39320
G1 X95.752 Y73.675 E3.53636
G1 X139.252 Y73.675 E4.66862
G1 E2.66862 F1680.000
G92 E0
G1 X139.252 Y83.675 F12000.000
G1 E2.00000 F1680.000
G1 X141.552 Y83.675 E2.05987 F720.000
G1 X141.552 Y89.175 E2.20303
G1 X95.752 Y89.175 E3.39515 F720.000
G1 X95.752 Y83.675 E3.53831
G1 X139.177 Y83.675 E4.66862
G1 E2.66862 F1680.000
G92 E0
G1 X139.177 Y93.675 F12000.000
G1 E2.00000 F1680.000
G1 X141.552 Y93.675 E2.06182 F720.000
G1 X141.552 Y99.175 E2.20498
G1 X95.752 Y99.175 E3.39711 F720.000
G1 X95.752 Y93.675 E3.54027
G1 X139.102 Y93.675 E4.66862
G1 E2.66862 F1680.000
G92 E0
G1 X139.102 Y103.675 F12000.000
G1 E2.00000 F1680.000
G1 X141.552 Y103.675 E2.06377 F720.000
G1 X141.552 Y109.175 E2.20693
G1 X95.752 Y109.175 E3.39906 F720.000
G1 X95.752 Y103.675 E3.54222
G1 X139.027 Y103.675 E4.66862
G1 E2.66862 F1680.000
G92 E0
G1 X139.027 Y113.675 F12000.000
G1 E2.00000 F1680.000
G1 X141.552 Y113.675 E2.06572 F720.000
G1 X141.552 Y119.175 E2.20888
G1 X95.752 Y119.175 E3.40101 F720.000
G1 X95.752 Y113.675 E3.54417
G1 X138.952 Y113.675 E4.66862
G1 E2.66862 F1680.000
G92 E0
G1 X141.202 Y121.173 F12000.000
G1 E2.00000 F1680.000
G1 X143.702 Y121.173 E2.06507 F720.000
G1 X143.702 Y122.973 E2.11192
G1 X145.502 Y122.973 E2.15878 F720.000
G1 X145.502 Y125.473 E2.22385
G1 X143.702 Y125.473 E2.27070
G1 X143.702 Y127.273 E2.31755
G1 X141.202 Y127.273 E2.38263
G1 X141.202 Y125.473 E2.42948
G1 X139.302 Y125.473 E2.47893
G1 X139.302 Y122.973 E2.54401
G1 X141.202 Y122.973 E2.59346
G1 X141.202 Y121.248 E2.63836
G1 E0.63836 F1680.000
G92 E0
G1 X88.254 Y64.298 F12000.000
G1 E2.00000 F1680.000
G1 X88.254 Y41.882 E2.58346 F720.000
G1 X88.309 Y41.648 E2.58971
G1 X88.407 Y41.479 E2.59481
G1 X88.545 Y41.340 E2.59990
G1 X88.715 Y41.242 E2.60500
G1 X88.949 Y41.187 E2.61125
G1 X103.652 Y41.185 E2.99396
G1 X103.652 Y44.175 E3.07179
G1 X128.752 Y44.175 E3.72511
G1 X128.752 Y41.185 E3.80294
G1 X146.925 Y41.187 E4.27598
G1 X148.355 Y41.187 E4.31319 F720.000
G1 X148.543 Y41.225 E4.31818
G1 X148.719 Y41.312 E4.32327
G1 X148.897 Y41.479 E4.32963
G1 X148.995 Y41.648 E4.33473
G1 X149.050 Y41.882 E4.34098
G1 X149.050 Y130.278 E6.64184
G1 X148.995 Y130.512 E6.64810
G1 X148.897 Y130.682 E6.65320
G1 X148.758 Y130.820 E6.65829
G1 X148.589 Y130.918 E6.66338
G1 X148.355 Y130.973 E6.66964
G1 X88.949 Y130.973 E8.21592
G1 X88.808 Y130.949 E8.21964
G1 X88.670 Y130.898 E8.22347
G1 X88.545 Y130.820 E8.22730
G1 X88.438 Y130.719 E8.23112
G1 X88.309 Y130.512 E8.23748
G1 X88.254 Y130.278 E8.24373
G1 X88.254 Y64.373 E9.95919
G1 E7.95919 F1680.000
G92 E0
G1 X109.928 Y41.475 F12000.000
G1 E2.00000 F1680.000
G1 X104.152 Y41.475 E2.15036 F720.000
G1 X104.152 Y36.720 E2.27413
G1 X128.252 Y36.720 E2.90143
G1 X128.252 Y41.475 E3.02521
G1 X110.003 Y41.475 E3.50020 F720.000
G1 E1.50020 F1680.000
G92 E0
G1 X103.928 Y44.447 F12000.000
G1 E2.00000 F1680.000
G1 X112.884 Y53.403 E2.32964 F1200.000
G1 X113.456 Y53.403 E2.34454
G1 X104.501 Y44.447 E2.67418
G1 X105.074 Y44.447 E2.68909
G1 X114.029 Y53.403 E3.01873
G1 X114.601 Y53.403 E3.03363
G1 X105.646 Y44.447 E3.36327
G1 X106.219 Y44.447 E3.37818
G1 X115.174 Y53.403 E3.70782
G1 X115.746 Y53.403 E3.72272
G1 X106.791 Y44.447 E4.05236
G1 X107.364 Y44.447 E4.06726
G1 X116.319 Y53.403 E4.39690
G1 X116.891 Y53.403 E4.41181
G1 X107.936 Y44.447 E4.74145
G1 X108.509 Y44.447 E4.75635
G1 X117.464 Y53.403 E5.08599
G1 X118.037 Y53.403 E5.10090
G1 X109.081 Y44.447 E5.43054
G1 X109.654 Y44.447 E5.44544
G1 X118.609 Y53.403 E5.77508
G1 X119.182 Y53.403 E5.78998
G1 X110.227 Y44.447 E6.11962
G1 X110.799 Y44.447 E6.13453
G1 X119.754 Y53.403 E6.46417
G1 X120.327 Y53.403 E6.47907
G1 X111.372 Y44.447 E6.80871
G1 X111.944 Y44.447 E6.82362
G1 X120.899 Y53.403 E7.15326
G1 X121.472 Y53.403 E7.16816
G1 X112.517 Y44.447 E7.49780
G1 X113.089 Y44.447 E7.51270
G1 X122.044 Y53.403 E7.84234
G1 X122.617 Y53.403 E7.85725
G1 X113.662 Y44.447 E8.18689
G1 X114.234 Y44.447 E8.20179
G1 X123.189 Y53.403 E8.53143
G1 X123.762 Y53.403 E8.54634
G1 X114.807 Y44.447 E8.87598
G1 X115.380 Y44.447 E8.89088
G1 X124.335 Y53.403 E9.22052
G1 X124.907 Y53.403 E9.23542
G1 X115.952 Y44.447 E9.56506
G1 X116.525 Y44.447 E9.57997
G1 X125.480 Y53.403 E9.90961
G1 X126.052 Y53.403 E9.92451
G1 X117.097 Y44.447 E10.25415
G1 X117.670 Y44.447 E10.26906
G1 X126.625 Y53.403 E10.59870
G1 X127.197 Y53.403 E10.61360
G1 X118.242 Y44.447 E10.94324
G1 X118.815 Y44.447 E10.95814
G1 X127.770 Y53.403 E11.28778
G1 X128.342 Y53.403 E11.30269
G1 X119.387 Y44.447 E11.63233
G1 X119.960 Y44.447 E11.64723
G1 X128.915 Y53.403 E11.97687
G1 X129.488 Y53.403 E11.99178
G1 X120.532 Y44.447 E12.32142
G1 X121.105 Y44.447 E12.33632
G1 X130.060 Y53.403 E12.66596
G1 X130.633 Y53.403 E12.68086
G1 X121.678 Y44.447 E13.01050
G1 X122.250 Y44.447 E13.02541
G1 X131.205 Y53.403 E13.35505
G1 X131.778 Y53.403 E13.36995
G1 X122.823 Y44.447 E13.69959
G1 X123.395 Y44.447 E13.71450
G1 X132.350 Y53.403 E14.04414
G1 X132.923 Y53.403 E14.05904
G1 X123.968 Y44.447 E14.38868
G1 X124.540 Y44.447 E14.40358
G1 X133.495 Y53.403 E14.73322
G1 X134.068 Y53.403 E14.74813
G1 X125.113 Y44.447 E15.07777
G1 X125.685 Y44.447 E15.09267
G1 X134.641 Y53.403 E15.42231
G1 X135.213 Y53.403 E15.43722
G1 X126.258 Y44.447 E15.76686
G1 X126.831 Y44.447 E15.78176
G1 X135.786 Y53.403 E16.11140
G1 X136.358 Y53.403 E16.12630
G1 X127.403 Y44.447 E16.45594
G1 X127.976 Y44.447 E16.47085
G1 X136.931 Y53.403 E16.80049
G1 X137.503 Y53.403 E16.81539
G1 X128.548 Y44.447 E17.14503
G1 X129.024 Y44.351 E17.15768
G1 X138.076 Y53.403 E17.49087
G1 X138.648 Y53.403 E17.50577
G1 X129.024 Y43.778 E17.86004
G1 X129.024 Y43.206 E17.87494
G1 X139.221 Y53.403 E18.25028
G1 X139.794 Y53.403 E18.26519
G1 X129.024 Y42.633 E18.66160
G1 X129.024 Y42.061 E18.67651
G1 X140.366 Y53.403 E19.09400
G1 X140.939 Y53.403 E19.10891
G1 X129.024 Y41.488 E19.54748
G1 X129.566 Y41.458 E19.56160
G1 X141.511 Y53.403 E20.00130
G1 X140.929 Y49.958 F12000.000
G1 X140.431 Y49.460 E20.01965 F1200.000
G1 X139.859 Y49.460 E20.03455
G1 X140.929 Y50.531 E20.07397
G1 X140.929 Y51.103 E20.08887
G1 X131.284 Y41.458 E20.44392
G1 X130.711 Y41.458 E20.45883
G1 X148.777 Y59.524 E21.12384
G1 X148.777 Y58.951 E21.13874
G1 X141.086 Y51.260 E21.42186
G1 X141.659 Y51.260 E21.43677
G1 X148.777 Y58.378 E21.69881
G1 X148.777 Y57.806 E21.71371
G1 X142.231 Y51.260 E21.95468
G1 X142.804 Y51.260 E21.96959
G1 X148.777 Y57.233 E22.18948
G1 X148.777 Y56.661 E22.20438
G1 X143.376 Y51.260 E22.40320
G1 X143.949 Y51.260 E22.41810
G1 X148.777 Y56.088 E22.59584
G1 X148.777 Y55.516 E22.61074
G1 X143.974 Y50.713 E22.78754
G1 X143.974 Y50.140 E22.80245
G1 X148.777 Y54.943 E22.97924
G1 X148.777 Y54.371 E22.99415
G1 X143.974 Y49.568 E23.17095
G1 X144.439 Y49.460 E23.18336
G1 X148.777 Y53.798 E23.34306
G1 X148.777 Y53.225 E23.35796
G1 X145.012 Y49.460 E23.49658
G1 X145.584 Y49.460 E23.51148
G1 X148.777 Y52.653 E23.62903
G1 X148.777 Y52.080 E23.64393
G1 X145.774 Y49.077 E23.75447
G1 X145.774 Y48.505 E23.76937
G1 X148.777 Y51.508 E23.87991
G1 X148.777 Y50.935 E23.89481
G1 X145.774 Y47.932 E24.00535
G1 X145.774 Y47.360 E24.02026
G1 X148.777 Y50.363 E24.13080
G1 X148.777 Y49.790 E24.14570
G1 X145.774 Y46.787 E24.25624
G1 X145.402 Y46.415 F12000.000
G1 X143.974 Y44.987 E24.30879 F1200.000
G1 X143.602 Y44.615 F12000.000
G1 X140.446 Y41.459 E24.42496 F1200.000
G1 X141.019 Y41.459 E24.43987
G1 X148.777 Y49.218 E24.72547
G1 X148.777 Y48.645 E24.74038
G1 X141.591 Y41.459 E25.00490
G1 X142.164 Y41.459 E25.01981
G1 X148.777 Y48.072 E25.26326
G1 X148.777 Y47.500 E25.27816
G1 X142.736 Y41.459 E25.50053
G1 X143.309 Y41.459 E25.51543
G1 X148.777 Y46.927 E25.71672
G1 X148.777 Y46.355 E25.73163
G1 X143.882 Y41.459 E25.91184
G1 X144.454 Y41.459 E25.92675
G1 X148.777 Y45.782 E26.08588
G1 X148.777 Y45.210 E26.10078
G1 X145.027 Y41.459 E26.23884
G1 X145.599 Y41.459 E26.25374
G1 X148.777 Y44.637 E26.37072
G1 X148.777 Y44.065 E26.38563
G1 X146.172 Y41.459 E26.48153
G1 X146.745 Y41.459 E26.49643
G1 X148.777 Y43.492 E26.57125
G1 X148.777 Y42.919 E26.58616
G1 X147.317 Y41.459 E26.63990
G1 X147.890 Y41.460 E26.65480
G1 X148.777 Y42.347 E26.68747
G1 X148.720 Y41.717 E26.70394
G1 X148.521 Y41.518 E26.71127
G1 X143.974 Y45.560 F12000.000
G1 X144.829 Y46.415 E26.74274 F1200.000
G1 X144.257 Y46.415 E26.75765
G1 X143.974 Y46.132 E26.76804
G1 E24.76804 F1680.000
G92 E0
G1 X139.129 Y48.731 F12000.000
G1 E2.00000 F1680.000
G1 X131.857 Y41.458 E2.26771 F1200.000
G1 X132.429 Y41.458 E2.28262
G1 X139.129 Y48.158 E2.52925
G1 X139.129 Y47.585 E2.54416
G1 X133.002 Y41.458 E2.76971
G1 X133.575 Y41.458 E2.78462
G1 X139.129 Y47.013 E2.98910
G1 X139.129 Y46.440 E3.00400
G1 X134.147 Y41.458 E3.18740
G1 X134.720 Y41.458 E3.20231
G1 X139.676 Y46.415 E3.38476
G1 X140.249 Y46.415 E3.39967
G1 X135.292 Y41.458 E3.58212
G1 X135.865 Y41.458 E3.59702
G1 X140.822 Y46.415 E3.77948
G1 X140.929 Y45.950 E3.79189
G1 X136.438 Y41.458 E3.95724
G1 X137.010 Y41.458 E3.97214
G1 X140.929 Y45.378 E4.11641
G1 X140.929 Y44.805 E4.13132
G1 X137.583 Y41.458 E4.25451
G1 X138.155 Y41.459 E4.26941
G1 X141.312 Y44.615 E4.38559
G1 X141.884 Y44.615 E4.40050
G1 X138.728 Y41.459 E4.51668
G1 X139.301 Y41.459 E4.53158
G1 X142.457 Y44.615 E4.64776
G1 X143.029 Y44.615 E4.66267
G1 X139.873 Y41.459 E4.77884
G1 X130.139 Y41.458 F12000.000
G1 X148.777 Y60.096 E5.46494 F1200.000
G1 X148.777 Y60.669 E5.47984
G1 X141.824 Y53.716 E5.73578
G1 X141.824 Y54.288 E5.75068
G1 X148.777 Y61.241 E6.00662
G1 X148.777 Y61.814 E6.02153
G1 X141.824 Y54.861 E6.27747
G1 X141.824 Y55.433 E6.29237
G1 X148.777 Y62.386 E6.54831
G1 X148.777 Y62.959 E6.56322
G1 X141.824 Y56.006 E6.81916
G1 X141.824 Y56.578 E6.83406
G1 X148.777 Y63.531 E7.09000
G1 X148.777 Y64.104 E7.10490
G1 X141.824 Y57.151 E7.36085
G1 X141.824 Y57.724 E7.37575
G1 X148.777 Y64.677 E7.63169
G1 X148.777 Y65.249 E7.64659
G1 X141.824 Y58.296 E7.90253
G1 X141.824 Y58.869 E7.91744
G1 X148.777 Y65.822 E8.17338
G1 X148.777 Y66.394 E8.18828
G1 X141.824 Y59.441 E8.44422
G1 X141.258 Y59.447 E8.45897
G1 X148.777 Y66.967 E8.73575
G1 X148.777 Y67.539 E8.75066
G1 X140.685 Y59.447 E9.04852
G1 X140.113 Y59.447 E9.06342
G1 X148.777 Y68.112 E9.38236
G1 X148.777 Y68.684 E9.39727
G1 X139.540 Y59.447 E9.73728
G1 X138.968 Y59.447 E9.75219
G1 X148.777 Y69.257 E10.11328
G1 X148.777 Y81.281 F12000.000
G1 X141.824 Y74.328 E10.36922 F1200.000
G1 X141.824 Y74.900 E10.38412
G1 X148.777 Y81.853 E10.64007
G1 X148.777 Y82.426 E10.65497
G1 X141.824 Y75.473 E10.91091
G1 X141.824 Y76.045 E10.92581
G1 X148.777 Y82.998 E11.18175
G1 X148.777 Y83.571 E11.19666
G1 X141.824 Y76.618 E11.45260
G1 X141.824 Y77.190 E11.46750
G1 X148.777 Y84.143 E11.72344
G1 X148.777 Y84.716 E11.73835
G1 X141.824 Y77.763 E11.99429
G1 X141.824 Y78.335 E12.00919
G1 X148.777 Y85.288 E12.26513
