; generated by Slic3r 1.2.1 on 2014-12-07 at 16:08:58

; external perimeters extrusion width = 0.50mm
; perimeters extrusion width = 0.50mm
; infill extrusion width = 0.50mm
; solid infill extrusion width = 0.50mm
; top infill extrusion width = 0.50mm

M104 S190 ; set temperature
G28 ; home all axes
G1 Z15 F120 ; lift nozzle
M109 S190 ; wait for temperature to be reached
G21 ; set units to millimeters
G90 ; use absolute coordinates
M82 ; use absolute distances for extrusion
G92 E0
M106 S102
G1 E-2.00000 F1680.000
G92 E0
G1 Z0.350 F12000.000
G1 X63.885 Y55.990 F12000.000
G1 E2.00000 F1680.000
G1 X64.576 Y55.211 E2.02932 F1200.000
G1 X64.791 Y55.005 E2.03769
G1 X65.602 Y54.345 E2.06715
G1 X65.846 Y54.178 E2.07547
G1 X66.754 Y53.658 E2.10493
G1 X67.022 Y53.532 E2.11325
G1 X68.002 Y53.166 E2.14271
G1 X68.286 Y53.085 E2.15103
G1 X69.312 Y52.883 E2.18047
G1 X69.607 Y52.850 E2.18881
G1 X70.300 Y52.809 E2.20836
G1 X100.759 Y52.649 E3.06584
G1 X101.222 Y52.663 E3.07888
G1 X101.503 Y52.682 E3.08681 F1200.000
G1 X102.601 Y52.852 E3.11809
G1 X102.875 Y52.919 E3.12604
G1 X103.933 Y53.277 E3.15747
G1 X104.186 Y53.388 E3.16525
G1 X105.162 Y53.920 E3.19655
G1 X105.396 Y54.076 E3.20447
G1 X106.264 Y54.767 E3.23571
G1 X106.470 Y54.962 E3.24370
G1 X107.208 Y55.794 E3.27501
G1 X107.378 Y56.024 E3.28305
G1 X107.924 Y56.899 E3.31210
G1 X120.291 Y80.821 E4.07021
G1 X120.678 Y81.838 E4.10085
G1 X120.757 Y82.115 E4.10894
G1 X120.966 Y83.182 E4.13956
G1 X120.997 Y83.466 E4.14761
G1 X121.024 Y84.555 E4.17827
G1 X121.007 Y84.840 E4.18632
G1 X120.849 Y85.918 E4.21698
G1 X120.784 Y86.196 E4.22502
G1 X120.447 Y87.232 E4.25569
G1 X120.335 Y87.498 E4.26382
G1 X119.846 Y88.435 E4.29356
G1 X104.757 Y112.295 E5.08832
G1 X104.346 Y112.873 E5.10828
G1 X104.154 Y113.112 E5.11691
G1 X103.461 Y113.852 E5.14545
G1 X103.241 Y114.053 E5.15385
G1 X102.446 Y114.672 E5.18221
G1 X102.190 Y114.840 E5.19083
G1 X101.307 Y115.328 E5.21924
G1 X101.029 Y115.454 E5.22782
G1 X100.080 Y115.797 E5.25622
G1 X99.777 Y115.881 E5.26506
G1 X98.796 Y116.069 E5.29321
G1 X98.493 Y116.104 E5.30179
G1 X98.049 Y116.138 E5.31432
G1 X69.922 Y117.345 E6.10688
G1 X68.892 Y117.307 E6.13590
G1 X68.601 Y117.273 E6.14414
G1 X67.565 Y117.063 E6.17389
G1 X67.283 Y116.981 E6.18217
G1 X66.288 Y116.601 E6.21215
G1 X66.030 Y116.477 E6.22022
G1 X65.116 Y115.944 E6.25000
G1 X64.877 Y115.776 E6.25824
G1 X64.064 Y115.100 E6.28800
G1 X63.854 Y114.894 E6.29628
G1 X63.162 Y114.093 E6.32607
G1 X62.985 Y113.851 E6.33450
G1 X62.523 Y113.117 E6.35892
G1 X49.956 Y89.800 E7.10462
G1 X49.755 Y89.393 E7.11739
G1 X49.635 Y89.127 E7.12561
G1 X49.279 Y88.124 E7.15557
G1 X49.205 Y87.842 E7.16377
G1 X49.019 Y86.793 E7.19376
G1 X48.992 Y86.502 E7.20198
G1 X48.982 Y85.438 E7.23194
G1 X49.003 Y85.147 E7.24016
G1 X49.168 Y84.096 E7.27011
G1 X49.237 Y83.813 E7.27833
G1 X49.574 Y82.803 E7.30829
G1 X49.920 Y82.052 E7.33156
G1 X63.168 Y57.076 E8.12747
G1 X63.706 Y56.229 E8.15571
G1 X63.840 Y56.050 E8.16202
G1 E6.16202 F1680.000
G92 E0
G1 X69.091 Y99.695 F12000.000
G1 E2.00000 F1680.000
G1 X69.160 Y93.313 E2.16614 F900.000
G1 X56.793 Y86.488 E2.53380
G1 X56.693 Y86.412 E2.53708
G1 X56.549 Y86.231 E2.54308
G1 X56.472 Y86.014 E2.54909
G1 X56.461 Y85.899 E2.55210
G1 X56.470 Y85.784 E2.55511
G1 X56.543 Y85.565 E2.56111
G1 X56.683 Y85.382 E2.56711
G1 X56.782 Y85.303 E2.57040
G1 X69.537 Y77.939 E2.95378
G1 X69.635 Y61.012 E3.39437
G1 X69.694 Y60.767 E3.40093
G1 X69.825 Y60.559 E3.40732
G1 X70.015 Y60.404 E3.41371
G1 X70.245 Y60.319 E3.42009
G1 X70.490 Y60.311 E3.42648
G1 X70.732 Y60.384 E3.43305
G1 X81.182 Y66.435 E3.74737
G1 X89.759 Y66.443 E3.97060
G1 X100.486 Y60.249 E4.29303
G1 X100.716 Y60.156 E4.29949
G1 X100.911 Y60.152 E4.30455
G1 X101.095 Y60.215 E4.30961 F900.000
G1 X101.247 Y60.336 E4.31467
G1 X101.349 Y60.501 E4.31973
G1 X101.387 Y60.678 E4.32444
G1 X100.114 Y76.927 E4.74867
G1 X113.215 Y83.658 E5.13206
G1 X113.315 Y83.728 E5.13524
G1 X113.452 Y83.890 E5.14075
G1 X113.498 Y83.986 E5.14352
G1 X113.539 Y84.194 E5.14903
G1 X113.532 Y84.300 E5.15180
G1 X113.467 Y84.501 E5.15731
G1 X113.338 Y84.669 E5.16282
G1 X113.242 Y84.745 E5.16600
G1 X99.296 Y92.796 E5.58516
G1 X98.585 Y107.874 E5.97806
G1 X98.508 Y108.140 E5.98526
G1 X98.353 Y108.369 E5.99245
G1 X98.135 Y108.538 E5.99965
G1 X97.875 Y108.633 E6.00684
G1 X97.599 Y108.642 E6.01403
G1 X97.333 Y108.565 E6.02124
G1 X84.608 Y101.365 E6.40181
G1 X70.036 Y109.778 E6.83978
G1 X69.801 Y109.850 E6.84616
G1 X69.683 Y109.855 E6.84924
G1 X69.452 Y109.808 E6.85538
G1 X69.248 Y109.689 E6.86152
G1 X69.094 Y109.511 E6.86766
G1 X69.006 Y109.292 E6.87380
G1 X68.989 Y109.166 E6.87712
G1 X69.090 Y99.770 E7.12168
G1 X68.687 Y99.766 F12000.000
G1 X68.754 Y93.550 E7.28350 F900.000
G1 X56.572 Y86.827 E7.64565
G1 X56.422 Y86.713 E7.65057
G1 X56.297 Y86.580 E7.65533
G1 X56.195 Y86.428 E7.66008
G1 X56.120 Y86.261 E7.66484
G1 X56.073 Y86.085 E7.66959
G1 X56.056 Y85.903 E7.67435
G1 X56.070 Y85.721 E7.67910
G1 X56.113 Y85.543 E7.68385
G1 X56.185 Y85.375 E7.68861
G1 X56.283 Y85.221 E7.69336
G1 X56.406 Y85.086 E7.69812
G1 X56.555 Y84.969 E7.70304
G1 X69.135 Y77.705 E8.08117
G1 X69.232 Y60.980 E8.51652
G1 X69.262 Y60.789 E8.52155
G1 X69.321 Y60.609 E8.52647
G1 X69.408 Y60.442 E8.53139
G1 X69.522 Y60.291 E8.53630
G1 X69.658 Y60.160 E8.54122
G1 X69.814 Y60.053 E8.54614
G1 X69.985 Y59.973 E8.55105
G1 X70.167 Y59.921 E8.55597
G1 X70.354 Y59.900 E8.56089
G1 X70.543 Y59.910 E8.56580
G1 X70.728 Y59.949 E8.57072
G1 X70.907 Y60.020 E8.57575
G1 X81.291 Y66.032 E8.88805
G1 X89.652 Y66.038 E9.10568
G1 X100.297 Y59.893 E9.42562
G1 X100.478 Y59.805 E9.43085
G1 X100.639 Y59.759 E9.43521
G1 X100.805 Y59.741 E9.43957 F900.000
G1 X100.973 Y59.752 E9.44393
G1 X101.135 Y59.792 E9.44829
G1 X101.289 Y59.859 E9.45266
G1 X101.428 Y59.952 E9.45702
G1 X101.550 Y60.067 E9.46138
G1 X101.650 Y60.201 E9.46574
G1 X101.725 Y60.351 E9.47010
G1 X101.773 Y60.512 E9.47446
G1 X101.792 Y60.670 E9.47861
G1 X100.537 Y76.691 E9.89689
G1 X113.425 Y83.312 E10.27403
G1 X113.576 Y83.418 E10.27883
G1 X113.700 Y83.542 E10.28338
G1 X113.801 Y83.684 E10.28793
G1 X113.876 Y83.842 E10.29248
G1 X113.925 Y84.010 E10.29703
G1 X113.944 Y84.184 E10.30158
G1 X113.933 Y84.358 E10.30613
G1 X113.893 Y84.528 E10.31068
G1 X113.825 Y84.690 E10.31523
G1 X113.731 Y84.837 E10.31978
G1 X113.614 Y84.966 E10.32433
G1 X113.468 Y85.080 E10.32913
G1 X99.689 Y93.035 E10.74329
G1 X98.987 Y107.925 E11.13127
G1 X98.946 Y108.123 E11.13654
G1 X98.875 Y108.312 E11.14179
G1 X98.775 Y108.488 E11.14705
G1 X98.649 Y108.645 E11.15231
G1 X98.499 Y108.782 E11.15757
G1 X98.331 Y108.893 E11.16283
G1 X98.147 Y108.976 E11.16809
G1 X97.952 Y109.030 E11.17335
G1 X97.751 Y109.053 E11.17861
G1 X97.549 Y109.043 E11.18387
G1 X97.351 Y109.003 E11.18913
G1 X97.162 Y108.932 E11.19439
G1 X84.610 Y101.829 E11.56979
G1 X70.212 Y110.142 E12.00253
G1 X70.034 Y110.212 E12.00749
G1 X69.854 Y110.251 E12.01230
G1 X69.669 Y110.260 E12.01712
G1 X69.485 Y110.238 E12.02193
G1 X69.308 Y110.187 E12.02674
G1 X69.141 Y110.107 E12.03156
G1 X68.990 Y110.001 E12.03637
G1 X68.858 Y109.871 E12.04118
G1 X68.749 Y109.722 E12.04599
G1 X68.666 Y109.556 E12.05081
G1 X68.611 Y109.380 E12.05562
G1 X68.585 Y109.191 E12.06058
G1 X68.686 Y99.841 E12.30397
G1 X68.282 Y99.837 F12000.000
G1 X68.348 Y93.786 E12.46146 F720.000
G1 X56.352 Y87.166 E12.81810
G1 X56.151 Y87.014 E12.82466
G1 X55.980 Y86.832 E12.83116
G1 X55.841 Y86.624 E12.83766
G1 X55.738 Y86.397 E12.84415
G1 X55.675 Y86.155 E12.85065
G1 X55.652 Y85.907 E12.85715
G1 X55.670 Y85.658 E12.86365
G1 X55.729 Y85.415 E12.87015
G1 X55.827 Y85.186 E12.87664
G1 X55.962 Y84.976 E12.88314
G1 X56.130 Y84.790 E12.88964
G1 X56.327 Y84.634 E12.89620
G1 X68.733 Y77.471 E13.26907
G1 X68.829 Y60.947 E13.69919
G1 X68.868 Y60.694 E13.70587
G1 X68.948 Y60.452 E13.71250
G1 X69.066 Y60.226 E13.71913
G1 X69.219 Y60.022 E13.72576
G1 X69.403 Y59.846 E13.73239
G1 X69.613 Y59.702 E13.73902
G1 X69.843 Y59.594 E13.74565
G1 X70.088 Y59.524 E13.75228
G1 X70.342 Y59.496 E13.75891
G1 X70.596 Y59.508 E13.76554
G1 X70.845 Y59.562 E13.77217
G1 X71.083 Y59.656 E13.77884
G1 X81.400 Y65.629 E14.08912
G1 X89.545 Y65.634 E14.30114
G1 X100.108 Y59.536 E14.61860
G1 X100.333 Y59.427 E14.62512
G1 X100.561 Y59.361 E14.63130
G1 X100.797 Y59.336 E14.63748
G1 X101.034 Y59.352 E14.64366
G1 X101.265 Y59.408 E14.64984 F720.000
G1 X101.483 Y59.504 E14.65603
G1 X101.681 Y59.635 E14.66221
G1 X101.853 Y59.798 E14.66839
G1 X101.994 Y59.989 E14.67457
G1 X102.101 Y60.201 E14.68075
G1 X102.170 Y60.429 E14.68694
G1 X102.198 Y60.661 E14.69304
G1 X100.961 Y76.455 E15.10538
G1 X113.634 Y82.966 E15.47626
G1 X113.836 Y83.109 E15.48269
G1 X114.009 Y83.280 E15.48902
G1 X114.150 Y83.479 E15.49536
G1 X114.255 Y83.698 E15.50169
G1 X114.322 Y83.932 E15.50802
G1 X114.348 Y84.174 E15.51436
G1 X114.334 Y84.417 E15.52069
G1 X114.278 Y84.654 E15.52702
G1 X114.184 Y84.878 E15.53336
G1 X114.053 Y85.083 E15.53969
G1 X113.889 Y85.263 E15.54602
G1 X113.694 Y85.415 E15.55245
G1 X100.081 Y93.275 E15.96161
G1 X99.388 Y107.975 E16.34468
G1 X99.334 Y108.235 E16.35159
G1 X99.241 Y108.484 E16.35850
G1 X99.110 Y108.715 E16.36541
G1 X98.944 Y108.922 E16.37232
G1 X98.748 Y109.101 E16.37923
G1 X98.526 Y109.247 E16.38614
G1 X98.284 Y109.357 E16.39305
G1 X98.028 Y109.427 E16.39996
G1 X97.765 Y109.457 E16.40687
G1 X97.499 Y109.445 E16.41378
G1 X97.239 Y109.392 E16.42069
G1 X96.991 Y109.299 E16.42760
G1 X84.612 Y102.294 E16.79782
G1 X70.388 Y110.506 E17.22533
G1 X70.152 Y110.600 E17.23194
G1 X69.906 Y110.652 E17.23848
G1 X69.655 Y110.664 E17.24503
G1 X69.405 Y110.635 E17.25157
G1 X69.164 Y110.565 E17.25812
G1 X68.937 Y110.456 E17.26466
G1 X68.731 Y110.312 E17.27121
G1 X68.551 Y110.136 E17.27775
G1 X68.403 Y109.933 E17.28430
G1 X68.290 Y109.708 E17.29084
G1 X68.216 Y109.468 E17.29739
G1 X68.181 Y109.216 E17.30399
G1 X68.282 Y99.912 E17.54620
G1 E15.54620 F1680.000
G92 E0
G1 X101.186 Y59.535 F12000.000
G1 X68.721 Y92.760 F12000.000
G1 E2.00000 F1680.000
G1 X59.823 Y83.862 E2.32753 F1200.000
G1 X59.461 Y84.071 E2.33841
G1 X67.447 Y92.056 E2.63236
G1 X66.172 Y91.353 F12000.000
G1 X59.099 Y84.280 E2.89273 F1200.000
G1 X58.737 Y84.489 E2.90361
G1 X64.898 Y90.650 E3.13039
G1 X63.624 Y89.947 F12000.000
G1 X58.375 Y84.698 E3.32359 F1200.000
G1 X58.013 Y84.907 E3.33447
G1 X62.349 Y89.243 E3.49409
G1 X61.075 Y88.540 F12000.000
G1 X57.651 Y85.116 E3.62013 F1200.000
G1 X57.289 Y85.325 E3.63101
G1 X59.801 Y87.837 E3.72347
G1 X58.526 Y87.133 F12000.000
G1 X56.928 Y85.535 E3.78231 F1200.000
G1 X56.736 Y85.914 E3.79337
G1 X57.252 Y86.430 E3.81236
G1 E1.81236 F1680.000
G92 E0
G1 X69.335 Y109.363 F12000.000
G1 E2.00000 F1680.000
G1 X69.482 Y109.510 E2.00541 F1200.000
G1 X70.017 Y109.474 E2.01937
G1 X69.266 Y108.723 E2.04701
G1 X69.272 Y108.158 E2.06172
G1 X70.379 Y109.265 E2.10246
G1 X70.741 Y109.056 E2.11334
G1 X69.278 Y107.593 E2.16719
G1 X69.284 Y107.028 E2.18189
G1 X71.103 Y108.847 E2.24884
G1 X71.465 Y108.638 E2.25972
G1 X69.290 Y106.463 E2.33977
G1 X69.296 Y105.898 E2.35448
G1 X71.827 Y108.429 E2.44763
G1 X72.189 Y108.220 E2.45851
G1 X69.303 Y105.333 E2.56476
G1 X69.309 Y104.768 E2.57947
G1 X72.551 Y108.011 E2.69882
G1 X72.913 Y107.802 E2.70971
G1 X69.315 Y104.204 E2.84217
G1 X69.321 Y103.639 E2.85687
G1 X73.275 Y107.593 E3.00243
G1 X73.637 Y107.384 E3.01331
G1 X69.327 Y103.074 E3.17198
G1 X69.333 Y102.509 E3.18668
G1 X73.999 Y107.175 E3.35845
G1 X74.361 Y106.966 E3.36933
G1 X69.339 Y101.944 E3.55420
G1 X69.345 Y101.379 E3.56891
G1 X74.723 Y106.757 E3.76688
G1 X75.085 Y106.548 E3.77776
G1 X69.351 Y100.814 E3.98883
G1 X69.357 Y100.249 E4.00354
G1 X75.447 Y106.339 E4.22772
G1 X75.809 Y106.130 E4.23860
G1 X69.364 Y99.684 E4.47588
G1 X69.370 Y99.119 E4.49058
G1 X76.172 Y105.921 E4.74096
G1 X76.534 Y105.712 E4.75184
G1 X69.376 Y98.554 E5.01533
G1 X69.382 Y97.989 E5.03003
G1 X76.896 Y105.503 E5.30662
G1 X77.258 Y105.294 E5.31750
G1 X69.388 Y97.424 E5.60719
G1 X69.394 Y96.859 E5.62190
G1 X77.620 Y105.085 E5.92469
G1 X77.982 Y104.876 E5.93557
G1 X69.400 Y96.294 E6.25146
G1 X69.406 Y95.729 E6.26617
G1 X78.344 Y104.667 E6.59516
G1 X78.706 Y104.458 E6.60605
G1 X69.412 Y95.164 E6.94814
G1 X69.418 Y94.599 E6.96285
G1 X79.068 Y104.248 E7.31805
G1 X79.430 Y104.039 E7.32893
G1 X69.425 Y94.034 E7.69724
G1 X69.431 Y93.469 E7.71194
G1 X79.792 Y103.830 E8.09335
G1 X80.154 Y103.621 E8.10423
G1 X60.185 Y83.653 E8.83928
G1 X60.547 Y83.444 E8.85016
G1 X80.516 Y103.412 E9.58522
G1 X80.878 Y103.203 E9.59610
G1 X60.909 Y83.235 E10.33115
G1 X61.272 Y83.026 E10.34203
G1 X81.240 Y102.994 E11.07709
G1 X81.602 Y102.785 E11.08797
G1 X61.634 Y82.817 E11.82302
G1 X61.996 Y82.608 E11.83391
G1 X81.964 Y102.576 E12.56896
G1 X82.326 Y102.367 E12.57984
G1 X62.358 Y82.399 E13.31489
G1 X62.720 Y82.190 E13.32578
G1 X82.688 Y102.158 E14.06083
G1 X83.050 Y101.949 E14.07171
G1 X63.082 Y81.981 E14.80677
G1 X63.444 Y81.772 E14.81765
G1 X83.412 Y101.740 E15.55270
G1 X83.774 Y101.531 E15.56358
G1 X63.806 Y81.563 E16.29864
G1 X64.168 Y81.354 E16.30952
G1 X84.136 Y101.322 E17.04457
G1 X84.498 Y101.113 E17.05545
G1 X64.530 Y81.145 E17.79051
G1 X64.892 Y80.936 E17.80139
G1 X85.530 Y101.573 E18.56108
G1 X86.845 Y102.318 F12000.000
G1 X65.254 Y80.726 E19.35587 F1200.000
G1 X65.616 Y80.517 E19.36675
G1 X88.161 Y103.062 E20.19662
G1 X89.476 Y103.806 F12000.000
G1 X65.978 Y80.308 E21.06159 F1200.000
G1 X66.340 Y80.099 E21.07247
G1 X90.791 Y104.551 E21.97253
G1 X92.107 Y105.295 F12000.000
G1 X66.702 Y79.890 E22.90769 F1200.000
G1 X67.064 Y79.681 E22.91857
G1 X93.422 Y106.039 E23.88881
G1 X94.737 Y106.783 F12000.000
G1 X67.426 Y79.472 E24.89415 F1200.000
G1 X67.788 Y79.263 E24.90503
G1 X96.053 Y107.528 E25.94546
G1 X97.368 Y108.272 F12000.000
G1 X68.150 Y79.054 E27.02098 F1200.000
G1 X68.512 Y78.845 E27.03186
G1 X97.978 Y108.311 E28.11650
G1 X98.254 Y108.015 E28.12702
G1 X68.874 Y78.636 E29.20848
G1 X69.236 Y78.427 E29.21936
G1 X98.329 Y107.520 E30.29028
G1 X98.355 Y106.974 E30.30449
G1 X69.598 Y78.218 E31.36302
G1 X69.810 Y77.859 E31.37388
G1 X98.380 Y106.429 E32.42556
G1 X98.406 Y105.884 E32.43977
G1 X69.814 Y77.291 E33.49228
G1 X69.817 Y76.723 E33.50706
G1 X98.432 Y105.338 E34.56039
G1 X98.458 Y104.793 E34.57460
G1 X69.820 Y76.156 E35.62876
G1 X69.823 Y75.588 E35.64354
G1 X98.483 Y104.248 E36.69853
G1 X98.509 Y103.702 E36.71274
G1 X69.827 Y75.020 E37.76855
G1 X69.830 Y74.452 E37.78333
G1 X98.535 Y103.157 E38.83997
G1 X98.560 Y102.612 E38.85418
G1 X69.833 Y73.884 E39.91164
G1 X69.837 Y73.317 E39.92642
G1 X98.586 Y102.066 E40.98471
G1 X98.612 Y101.521 E40.99892
G1 X69.840 Y72.749 E42.05804
G1 X69.843 Y72.181 E42.07282
G1 X98.638 Y100.976 E43.13276
G1 X98.663 Y100.430 E43.14697
G1 X69.846 Y71.613 E44.20774
G1 X69.850 Y71.046 E44.22252
G1 X98.689 Y99.885 E45.28411
G1 X98.715 Y99.340 E45.29832
G1 X69.853 Y70.478 E46.36074
G1 X69.856 Y69.910 E46.37552
G1 X98.741 Y98.794 E47.43876
G1 X98.766 Y98.249 E47.45297
G1 X69.860 Y69.342 E48.51704
G1 X69.863 Y68.774 E48.53182
G1 X98.792 Y97.704 E49.59672
G1 X98.818 Y97.158 E49.61093
G1 X69.866 Y68.207 E50.67665
G1 X69.869 Y67.639 E50.69143
G1 X98.843 Y96.613 E51.75798
G1 X98.869 Y96.067 E51.77219
G1 X69.873 Y67.071 E52.83956
G1 X69.876 Y66.503 E52.85434
G1 X98.895 Y95.522 E53.92254
G1 X98.921 Y94.977 E53.93675
G1 X69.879 Y65.935 E55.00578
G1 X69.883 Y65.368 E55.02056
G1 X98.946 Y94.431 E56.09041
G1 X98.972 Y93.886 E56.10462
G1 X69.886 Y64.800 E57.17529
G1 X69.889 Y64.232 E57.19007
G1 X98.998 Y93.341 E58.26158
G1 X99.023 Y92.795 E58.27579
G1 X69.892 Y63.664 E59.34812
G1 X69.896 Y63.097 E59.36289
G1 X99.286 Y92.487 E60.44478
G1 X99.648 Y92.278 E60.45566
G1 X69.899 Y62.529 E61.55076
G1 X69.902 Y61.961 E61.56554
G1 X100.010 Y92.069 E62.67384
G1 X100.372 Y91.860 E62.68472
G1 X69.906 Y61.393 E63.80622
G1 X69.956 Y60.873 E63.81984
G1 X100.735 Y91.651 E64.95282
G1 X101.097 Y91.442 E64.96370
G1 X70.254 Y60.599 E66.09904
G1 X71.190 Y60.965 F12000.000
G1 X101.459 Y91.233 E67.21323 F1200.000
G1 X101.821 Y91.024 E67.22411
G1 X72.547 Y61.750 E68.30170
G1 X73.903 Y62.535 F12000.000
G1 X102.183 Y90.815 E69.34268 F1200.000
G1 X102.545 Y90.606 E69.35356
G1 X75.259 Y63.321 E70.35795
