; generated by Slic3r 1.2.1 on 2014-12-08 at 01:02:32

; external perimeters extrusion width = 0.50mm
; perimeters extrusion width = 0.50mm
; infill extrusion width = 0.50mm
; solid infill extrusion width = 0.50mm
; top infill extrusion width = 0.50mm

M104 S190 ; set temperature
G28 ; home all axes
G1 Z15 F120 ; lift nozzle
M109 S190 ; wait for temperature to be reached
G21 ; set units to millimeters
G90 ; use absolute coordinates
M82 ; use absolute distances for extrusion
G92 E0
M106 S255
G1 E-2.00000 F1680.000
G92 E0
G1 Z0.400 F12000.000
G1 X75.433 Y75.313 F12000.000
G1 E2.00000 F1680.000
G1 X75.986 Y74.796 E2.02267 F655.851
G1 X76.567 Y74.311 E2.04533
G1 X77.505 Y73.633 E2.07998
G1 X78.470 Y73.052 E2.11373
G1 X79.132 Y72.714 E2.13599
G1 X79.824 Y72.406 E2.15866
G1 X80.532 Y72.138 E2.18133
G1 X81.253 Y71.910 E2.20399
G1 X82.379 Y71.639 E2.23865
G1 X83.485 Y71.468 E2.27216
G1 X84.149 Y71.409 E2.29213
G1 X84.968 Y71.383 E2.31667
G1 X85.629 Y71.397 E2.33645 F655.851
G1 X86.148 Y71.432 E2.35203
G1 X87.250 Y71.571 E2.38530
G1 X87.746 Y71.662 E2.40038
G1 X88.384 Y71.811 E2.42002
G1 X89.450 Y72.131 E2.45333
G1 X90.527 Y72.555 E2.48799
G1 X91.525 Y73.048 E2.52133
G1 X92.516 Y73.645 E2.55598
G1 X93.419 Y74.297 E2.58933
G1 X94.297 Y75.050 E2.62398
G1 X95.079 Y75.843 E2.65732
G1 X95.820 Y76.732 E2.69197
G1 X96.467 Y77.655 E2.72571
G1 X96.851 Y78.292 E2.74798
G1 X97.205 Y78.961 E2.77065
G1 X97.674 Y80.019 E2.80530
G1 X98.039 Y81.071 E2.83865
G1 X98.325 Y82.192 E2.87330
G1 X98.510 Y83.290 E2.90662
G1 X98.606 Y84.443 E2.94129
G1 X98.606 Y85.557 E2.97464
G1 X98.510 Y86.710 E3.00928
G1 X98.325 Y87.808 E3.04263
G1 X98.039 Y88.929 E3.07728
G1 X97.674 Y89.981 E3.11062
G1 X97.378 Y90.678 E3.13329
G1 X97.043 Y91.357 E3.15596
G1 X96.460 Y92.356 E3.19061
G1 X95.820 Y93.268 E3.22395
G1 X95.079 Y94.157 E3.25860
G1 X94.555 Y94.703 E3.28127
G1 X94.001 Y95.218 E3.30394
G1 X93.136 Y95.920 E3.33727
G1 X92.179 Y96.571 E3.37193
G1 X91.210 Y97.119 E3.40528
G1 X90.158 Y97.602 E3.43993
G1 X89.111 Y97.981 E3.47327
G1 X87.994 Y98.283 E3.50792
G1 X87.007 Y98.469 E3.53801
G1 X86.271 Y98.558 E3.56019
G1 X85.631 Y98.603 E3.57941
G1 X84.628 Y98.611 E3.60944
G1 X83.963 Y98.578 E3.62938
G1 X83.386 Y98.521 E3.64675
G1 X82.379 Y98.361 E3.67728
G1 X81.254 Y98.091 E3.71193
G1 X80.197 Y97.741 E3.74527
G1 X79.132 Y97.287 E3.77992
G1 X78.148 Y96.766 E3.81327
G1 X77.174 Y96.142 E3.84792
G1 X76.290 Y95.465 E3.88126
G1 X75.433 Y94.687 E3.91591
G1 X74.664 Y93.863 E3.94966
G1 X74.196 Y93.285 E3.97193
G1 X73.752 Y92.672 E3.99458
G1 X73.141 Y91.689 E4.02924
G1 X72.634 Y90.698 E4.06259
G1 X72.195 Y89.627 E4.09724
G1 X71.860 Y88.565 E4.13058
G1 X71.605 Y87.437 E4.16523
G1 X71.490 Y86.688 E4.18790
G1 X71.417 Y85.935 E4.21056
G1 X71.386 Y84.822 E4.24390
G1 X71.450 Y83.666 E4.27856
G1 X71.605 Y82.563 E4.31191
G1 X71.860 Y81.435 E4.34655
G1 X72.195 Y80.373 E4.37990
G1 X72.634 Y79.302 E4.41455
G1 X73.141 Y78.311 E4.44788
G1 X73.752 Y77.328 E4.48255
G1 X74.417 Y76.435 E4.51588
G1 X74.909 Y75.859 E4.53856
G1 X75.380 Y75.366 E4.55898
G1 E2.55898 F1680.000
G92 E0
G1 X79.352 Y83.357 F12000.000
G1 E2.00000 F1680.000
G1 X85.062 Y83.360 E2.16075 F819.814
G1 X85.246 Y83.374 E2.16596 F819.814
G1 X85.486 Y83.429 E2.17288
G1 X85.715 Y83.518 E2.17980
G1 X85.928 Y83.641 E2.18672
G1 X86.120 Y83.795 E2.19364
G1 X86.287 Y83.975 E2.20056
G1 X86.426 Y84.178 E2.20748
G1 X86.532 Y84.399 E2.21440
G1 X86.587 Y84.576 E2.21960
G1 X86.641 Y84.877 E2.22822
G1 X86.641 Y85.123 E2.23514
G1 X86.605 Y85.366 E2.24206
G1 X86.532 Y85.601 E2.24898
G1 X86.426 Y85.822 E2.25590
G1 X86.287 Y86.025 E2.26282
G1 X86.120 Y86.205 E2.26973
G1 X85.928 Y86.359 E2.27665
G1 X85.715 Y86.482 E2.28357
G1 X85.486 Y86.571 E2.29049
G1 X85.246 Y86.626 E2.29741
G1 X85.017 Y86.643 E2.30388
G1 X79.352 Y86.643 E2.46337
G1 X79.207 Y85.752 E2.48879
G1 X79.158 Y85.000 E2.50999
G1 X79.207 Y84.248 E2.53120
G1 X79.340 Y83.431 E2.55450
G1 X79.686 Y83.750 F12000.000
G1 X85.011 Y83.750 E2.70441 F655.851
G1 X85.188 Y83.763 E2.70941
G1 X85.370 Y83.805 E2.71467
G1 X85.544 Y83.873 E2.71993
G1 X85.706 Y83.967 E2.72519
G1 X85.852 Y84.083 E2.73046
G1 X85.979 Y84.220 E2.73572
G1 X86.085 Y84.375 E2.74098
G1 X86.166 Y84.543 E2.74624
G1 X86.221 Y84.722 E2.75150
G1 X86.249 Y84.907 E2.75677
G1 X86.249 Y85.093 E2.76203
G1 X86.221 Y85.278 E2.76729
G1 X86.166 Y85.457 E2.77255
G1 X86.085 Y85.625 E2.77782
G1 X85.979 Y85.780 E2.78308
G1 X85.852 Y85.917 E2.78834
G1 X85.706 Y86.033 E2.79360
G1 X85.544 Y86.127 E2.79887
G1 X85.370 Y86.195 E2.80413
G1 X85.188 Y86.237 E2.80939
G1 X85.008 Y86.250 E2.81448
G1 X79.686 Y86.250 E2.96430
G1 X79.597 Y85.701 E2.97995
G1 X79.563 Y85.351 E2.98984
G1 X79.551 Y85.000 E2.99974
G1 X79.592 Y84.349 E3.01811
G1 X79.704 Y83.250 F12000.000
G1 X81.107 Y79.727 F12000.000
G1 X81.463 Y79.479 E3.03033 F819.814
G1 X81.776 Y79.291 E3.04059
G1 X82.429 Y78.969 E3.06111
G1 X82.768 Y78.835 E3.07137
G1 X83.466 Y78.625 E3.09189
G1 X83.823 Y78.550 E3.10215
G1 X84.546 Y78.459 E3.12267
G1 X85.273 Y78.449 E3.14315 F819.814
G1 X86.000 Y78.519 E3.16370
G1 X86.359 Y78.585 E3.17397
G1 X87.062 Y78.775 E3.19448
G1 X87.740 Y79.042 E3.21500
G1 X88.067 Y79.204 E3.22526
G1 X88.692 Y79.580 E3.24578
G1 X88.987 Y79.793 E3.25604
G1 X89.540 Y80.268 E3.27656
G1 X89.796 Y80.527 E3.28682
G1 X90.263 Y81.087 E3.30734
G1 X90.472 Y81.386 E3.31760
G1 X90.840 Y82.015 E3.33812
G1 X90.996 Y82.344 E3.34838
G1 X91.135 Y82.681 E3.35865
G1 X91.354 Y83.376 E3.37916
G1 X91.495 Y84.091 E3.39968
G1 X91.556 Y84.818 E3.42020
G1 X91.556 Y85.182 E3.43046
G1 X91.495 Y85.909 E3.45098
G1 X91.354 Y86.624 E3.47150
G1 X91.254 Y86.974 E3.48176
G1 X91.135 Y87.319 E3.49202
G1 X90.840 Y87.985 E3.51254
G1 X90.472 Y88.614 E3.53306
G1 X90.263 Y88.913 E3.54332
G1 X89.796 Y89.473 E3.56384
G1 X89.270 Y89.977 E3.58436
G1 X88.987 Y90.207 E3.59462
G1 X88.385 Y90.617 E3.61513
G1 X88.067 Y90.796 E3.62540
G1 X87.405 Y91.101 E3.64591
G1 X87.062 Y91.225 E3.65618
G1 X86.359 Y91.415 E3.67669
G1 X85.999 Y91.481 E3.68699
G1 X85.275 Y91.551 E3.70748
G1 X84.546 Y91.541 E3.72799
G1 X83.823 Y91.450 E3.74851
G1 X83.466 Y91.375 E3.75877
G1 X82.768 Y91.165 E3.77929
G1 X82.429 Y91.031 E3.78955
G1 X81.776 Y90.709 E3.81007
G1 X81.463 Y90.521 E3.82033
G1 X80.873 Y90.094 E3.84085
G1 X80.596 Y89.857 E3.85111
G1 X80.084 Y89.338 E3.87163
G1 X79.633 Y88.765 E3.89215
G1 X79.248 Y88.146 E3.91267
G1 X78.935 Y87.488 E3.93319
G1 X78.806 Y87.147 E3.94345
G1 X78.606 Y86.446 E3.96396
G1 X78.535 Y86.089 E3.97423
G1 X78.454 Y85.364 E3.99474
G1 X78.444 Y85.000 E4.00501
G1 X78.485 Y84.272 E4.02553
G1 X78.606 Y83.554 E4.04604
G1 X78.696 Y83.200 E4.05630
G1 X78.935 Y82.512 E4.07682
G1 X79.248 Y81.854 E4.09734
G1 X79.432 Y81.539 E4.10760
G1 X79.851 Y80.942 E4.12812
G1 X80.084 Y80.662 E4.13838
G1 X80.596 Y80.143 E4.15890
G1 X81.047 Y79.772 E4.17535
G1 X80.809 Y79.461 F12000.000
G1 X81.251 Y79.149 E4.19060 F655.851
G1 X81.924 Y78.769 E4.21235
G1 X82.275 Y78.607 E4.22322
G1 X83.001 Y78.344 E4.24497
G1 X83.752 Y78.163 E4.26672
G1 X84.136 Y78.104 E4.27764
G1 X84.905 Y78.051 E4.29934
G1 X85.291 Y78.056 E4.31020
G1 X85.677 Y78.083 E4.32110 F655.851
G1 X86.439 Y78.200 E4.34283
G1 X86.816 Y78.291 E4.35372
G1 X87.549 Y78.534 E4.37547
G1 X88.251 Y78.857 E4.39722
G1 X88.587 Y79.047 E4.40809
G1 X89.226 Y79.481 E4.42984
G1 X89.526 Y79.725 E4.44072
G1 X90.084 Y80.259 E4.46246
G1 X90.578 Y80.853 E4.48421
G1 X91.004 Y81.497 E4.50596
G1 X91.189 Y81.836 E4.51684
G1 X91.502 Y82.542 E4.53858
G1 X91.629 Y82.908 E4.54946
G1 X91.735 Y83.279 E4.56034
G1 X91.884 Y84.037 E4.58208
G1 X91.949 Y84.807 E4.60383
G1 X91.949 Y85.193 E4.61471
G1 X91.884 Y85.963 E4.63645
G1 X91.820 Y86.344 E4.64733
G1 X91.629 Y87.092 E4.66908
G1 X91.500 Y87.463 E4.68014
G1 X91.189 Y88.164 E4.70170
G1 X90.800 Y88.831 E4.72345
G1 X90.574 Y89.152 E4.73451
G1 X90.083 Y89.741 E4.75607
G1 X89.526 Y90.275 E4.77782
G1 X89.226 Y90.519 E4.78870
G1 X88.913 Y90.745 E4.79958
G1 X88.251 Y91.143 E4.82132
G1 X87.904 Y91.315 E4.83220
G1 X87.186 Y91.598 E4.85395
G1 X86.440 Y91.799 E4.87569
G1 X86.059 Y91.869 E4.88661
G1 X85.291 Y91.944 E4.90832
G1 X84.519 Y91.933 E4.93006
G1 X84.135 Y91.896 E4.94093
G1 X83.374 Y91.757 E4.96269
G1 X82.634 Y91.534 E4.98444
G1 X82.275 Y91.393 E4.99531
G1 X81.918 Y91.228 E5.00637
G1 X81.251 Y90.851 E5.02794
G1 X80.932 Y90.634 E5.03882
G1 X80.332 Y90.148 E5.06056
G1 X79.789 Y89.598 E5.08231
G1 X79.542 Y89.301 E5.09319
G1 X79.098 Y88.668 E5.11493
G1 X78.904 Y88.335 E5.12581
G1 X78.571 Y87.637 E5.14756
G1 X78.435 Y87.276 E5.15843
G1 X78.318 Y86.907 E5.16931
G1 X78.148 Y86.154 E5.19106
G1 X78.062 Y85.386 E5.21281
G1 X78.052 Y84.994 E5.22386
G1 X78.094 Y84.229 E5.24543
G1 X78.223 Y83.467 E5.26718
G1 X78.318 Y83.093 E5.27805
G1 X78.571 Y82.363 E5.29980
G1 X78.904 Y81.665 E5.32155
G1 X79.098 Y81.332 E5.33243
G1 X79.542 Y80.699 E5.35417
G1 X79.789 Y80.402 E5.36505
G1 X80.332 Y79.852 E5.38680
G1 X80.749 Y79.506 E5.40206
G1 X85.507 Y78.377 F12000.000
G1 X80.518 Y83.093 F12000.000
G1 X79.457 Y82.031 E5.44432 F1311.702
G1 X79.665 Y81.667 E5.45612
G1 X81.091 Y83.093 E5.51286
G1 X81.663 Y83.093 E5.52897
G1 X79.901 Y81.331 E5.59910
G1 X80.148 Y81.005 E5.61060
G1 X82.235 Y83.093 E5.69370
G1 X82.807 Y83.093 E5.70981
G1 X80.423 Y80.708 E5.80473
G1 X80.709 Y80.422 E5.81612
G1 X83.379 Y83.093 E5.92243
G1 X83.952 Y83.093 E5.93854
G1 X81.009 Y80.150 E6.05571
G1 X81.325 Y79.894 E6.06717
G1 X84.524 Y83.093 E6.19451
G1 X85.101 Y83.098 E6.21075
G1 X81.674 Y79.671 E6.34718
G1 X82.034 Y79.459 E6.35895
G1 X85.889 Y83.313 E6.51240
G1 X87.549 Y79.252 F12000.000
G1 X90.739 Y82.442 E6.63940 F1311.702
G1 X89.725 Y80.855 F12000.000
G1 X89.161 Y80.291 E6.66188 F1311.702
G1 X86.668 Y78.943 F12000.000
G1 X91.065 Y83.340 E6.83693 F1311.702
G1 X91.213 Y84.060 E6.85763
G1 X85.942 Y78.789 E7.06751
G1 X85.296 Y78.715 E7.08579
G1 X91.278 Y84.697 E7.32392
G1 X91.283 Y85.274 E7.34017
G1 X84.730 Y78.721 E7.60105
G1 X84.197 Y78.761 E7.61609
G1 X91.238 Y85.802 E7.89642
G1 X91.151 Y86.287 E7.91028
G1 X83.713 Y78.849 E8.20638
G1 X83.257 Y78.965 E8.21965
G1 X91.038 Y86.746 E8.52944
G1 X90.901 Y87.181 E8.54228
G1 X82.819 Y79.099 E8.86403
G1 X82.417 Y79.270 E8.87632
G1 X90.735 Y87.587 E9.20745
G1 X90.541 Y87.965 E9.21942
G1 X86.688 Y84.112 E9.37283
G1 X86.906 Y84.903 E9.39591
G1 X90.332 Y88.328 E9.53230
G1 X90.104 Y88.673 E9.54393
G1 X86.862 Y85.431 E9.67302
G1 X86.707 Y85.848 E9.68556
G1 X89.852 Y88.993 E9.81076
G1 X89.578 Y89.291 E9.82216
G1 X86.486 Y86.200 E9.94525
G1 X86.197 Y86.482 E9.95665
G1 X89.292 Y89.578 E10.07987
G1 X88.996 Y89.854 E10.09127
G1 X85.851 Y86.709 E10.21648
G1 X85.427 Y86.856 E10.22913
G1 X88.672 Y90.102 E10.35833
G1 X88.328 Y90.330 E10.36995
G1 X84.905 Y86.907 E10.50622
G1 X84.333 Y86.907 E10.52232
G1 X87.971 Y90.545 E10.66715
G1 X87.582 Y90.728 E10.67926
G1 X83.761 Y86.907 E10.83137
G1 X83.189 Y86.907 E10.84748
G1 X87.182 Y90.900 E11.00644
G1 X86.746 Y91.036 E11.01930
G1 X82.617 Y86.907 E11.18368
G1 X82.044 Y86.907 E11.19979
G1 X86.294 Y91.157 E11.36898
G1 X85.799 Y91.234 E11.38310
G1 X81.472 Y86.907 E11.55534
G1 X80.900 Y86.907 E11.57145
G1 X85.269 Y91.277 E11.74540
G1 X84.697 Y91.276 E11.76152
G1 X80.328 Y86.907 E11.93546
G1 X79.756 Y86.907 E11.95156
G1 X84.063 Y91.215 E12.12305
G1 X83.335 Y91.059 E12.14401
G1 X79.327 Y87.051 E12.30357
G1 X79.261 Y87.557 E12.31793
G1 X82.451 Y90.747 E12.44495
G1 X80.827 Y89.695 F12000.000
G1 X80.310 Y89.178 E12.46553 F1311.702
G1 E10.46553 F1680.000
G92 E0
G1 X79.946 Y83.093 F12000.000
G1 E2.00000 F1680.000
G1 X79.272 Y82.419 E2.02683 F1311.702
G1 X79.263 Y82.981 E2.04266
G1 X79.374 Y83.093 E2.04711
G1 X78.913 Y83.166 F12000.000
G1 X79.019 Y83.302 E2.04887 F600.000
G1 X78.841 Y84.312 E2.05936
G1 X78.801 Y84.995 E2.06636
G1 X78.812 Y85.345 E2.06993
G1 X78.889 Y86.029 E2.07698
G1 X79.048 Y86.839 E2.08543
M104 S188 ; set temperature
G1 E0.08543 F1680.000
G92 E0
G1 Z0.700 F12000.000
G1 X79.315 Y86.686 F12000.000
G1 E2.00000 F1680.000
G1 X79.164 Y85.757 E2.01762 F600.000
G1 X79.115 Y85.000 E2.03184
G1 X79.164 Y84.243 E2.04606
G1 X79.315 Y83.314 E2.06368
G1 X85.085 Y83.319 E2.17180
G1 X85.253 Y83.331 E2.17495 F600.000
G1 X85.499 Y83.387 E2.17968
G1 X85.734 Y83.480 E2.18440
G1 X85.952 Y83.606 E2.18913
G1 X86.149 Y83.763 E2.19385
G1 X86.321 Y83.948 E2.19858
G1 X86.463 Y84.156 E2.20330
G1 X86.572 Y84.383 E2.20803
G1 X86.647 Y84.624 E2.21275
G1 X86.684 Y84.874 E2.21748
G1 X86.684 Y85.126 E2.22221
G1 X86.647 Y85.376 E2.22693
G1 X86.572 Y85.617 E2.23166
G1 X86.463 Y85.844 E2.23638
G1 X86.321 Y86.052 E2.24111
G1 X86.149 Y86.237 E2.24583
G1 X85.952 Y86.394 E2.25056
G1 X85.734 Y86.520 E2.25529
G1 X85.499 Y86.613 E2.26001
G1 X85.253 Y86.669 E2.26474
G1 X85.018 Y86.686 E2.26914
G1 X79.390 Y86.686 E2.37460
G1 X79.686 Y86.250 F12000.000
G1 X79.597 Y85.701 E2.38502 F600.000
G1 X79.551 Y85.000 E2.39818
G1 X79.597 Y84.299 E2.41135
G1 X79.686 Y83.750 E2.42177
G1 X85.011 Y83.750 E2.52154 F600.000
G1 X85.188 Y83.763 E2.52487
G1 X85.370 Y83.805 E2.52837
G1 X85.661 Y83.941 E2.53439
G1 X85.852 Y84.083 E2.53885
G1 X85.979 Y84.220 E2.54236
G1 X86.085 Y84.375 E2.54586
G1 X86.166 Y84.543 E2.54936
G1 X86.221 Y84.722 E2.55286
G1 X86.249 Y84.907 E2.55637
G1 X86.249 Y85.093 E2.55987
G1 X86.221 Y85.278 E2.56337
G1 X86.166 Y85.457 E2.56687
G1 X86.085 Y85.625 E2.57038
G1 X85.979 Y85.780 E2.57388
G1 X85.852 Y85.917 E2.57738
G1 X85.661 Y86.059 E2.58184
G1 X85.370 Y86.195 E2.58786
G1 X85.188 Y86.237 E2.59137
G1 X85.008 Y86.250 E2.59475
G1 X79.761 Y86.250 E2.69306
G1 X79.502 Y83.285 F12000.000
G1 E0.69306 F1680.000
G92 E0
G1 X91.327 Y83.452 F12000.000
G1 E2.00000 F1680.000
G1 X91.453 Y84.097 E2.01232 F600.000
G1 X91.493 Y84.457 E2.01911
G1 X91.513 Y84.819 E2.02589
G1 X91.493 Y85.543 E2.03946
G1 X91.389 Y86.275 E2.05332
G1 X91.213 Y86.961 E2.06659
G1 X91.095 Y87.303 E2.07338
G1 X90.801 Y87.965 E2.08694
G1 X90.436 Y88.591 E2.10051
G1 X90.229 Y88.887 E2.10730
G1 X89.765 Y89.443 E2.12086
G1 X89.511 Y89.701 E2.12765
G1 X88.961 Y90.173 E2.14122
G1 X88.667 Y90.385 E2.14800
G1 X88.033 Y90.765 E2.16186
G1 X87.389 Y91.061 E2.17513
G1 X87.049 Y91.184 E2.18192
G1 X86.348 Y91.373 E2.19552
G1 X85.990 Y91.439 E2.20233
G1 X85.273 Y91.509 E2.21584
G1 X84.911 Y91.514 E2.22263
G1 X84.190 Y91.464 E2.23616
G1 X83.831 Y91.408 E2.24298
G1 X83.476 Y91.333 E2.24976
G1 X82.783 Y91.125 E2.26333
G1 X82.117 Y90.841 E2.27690
G1 X81.797 Y90.671 E2.28368
G1 X81.187 Y90.281 E2.29725
G1 X80.613 Y89.814 E2.31111
G1 X80.116 Y89.309 E2.32438
G1 X79.884 Y89.031 E2.33117
G1 X79.469 Y88.438 E2.34473
G1 X79.286 Y88.125 E2.35152
G1 X78.975 Y87.472 E2.36509
G1 X78.846 Y87.133 E2.37187
G1 X78.737 Y86.788 E2.37866
G1 X78.578 Y86.082 E2.39222
G1 X78.497 Y85.362 E2.40579
G1 X78.487 Y85.000 E2.41258
G1 X78.499 Y84.622 E2.41966
G1 X78.578 Y83.918 E2.43293
G1 X78.737 Y83.212 E2.44650
G1 X78.974 Y82.528 E2.46006
G1 X79.121 Y82.197 E2.46685
G1 X79.477 Y81.549 E2.48071
G1 X79.884 Y80.969 E2.49398
G1 X80.116 Y80.691 E2.50077
G1 X80.625 Y80.175 E2.51433
G1 X80.900 Y79.939 E2.52112
G1 X81.487 Y79.516 E2.53468
G1 X81.811 Y79.321 E2.54176
G1 X82.446 Y79.008 E2.55504
G1 X82.798 Y78.870 E2.56212
G1 X83.476 Y78.667 E2.57539
G1 X83.833 Y78.592 E2.58221
G1 X84.549 Y78.501 E2.59574
G1 X85.271 Y78.491 E2.60928 F600.000
G1 X85.636 Y78.517 E2.61613
G1 X86.348 Y78.627 E2.62963
G1 X86.702 Y78.712 E2.63645
G1 X87.049 Y78.816 E2.64323
G1 X87.722 Y79.081 E2.65680
G1 X88.047 Y79.242 E2.66359
G1 X88.667 Y79.615 E2.67715
G1 X88.961 Y79.827 E2.68394
G1 X89.511 Y80.299 E2.69750
G1 X89.765 Y80.557 E2.70429
G1 X90.229 Y81.113 E2.71786
G1 X90.628 Y81.717 E2.73142
G1 X90.801 Y82.035 E2.73821
G1 X91.095 Y82.697 E2.75178
