; generated by Slic3r 1.2.6 on 2015-05-02 at 01:09:34

; external perimeters extrusion width = 0.50mm
; perimeters extrusion width = 0.50mm
; infill extrusion width = 0.50mm
; solid infill extrusion width = 0.50mm
; top infill extrusion width = 0.50mm

M104 S190 ; set temperature
G28 ; home all axes
G1 Z15 F120 ; lift nozzle
M109 S190 ; wait for temperature to be reached
G21 ; set units to millimeters
G90 ; use absolute coordinates
M82 ; use absolute distances for extrusion
G92 E0
M106 S102
G1 E-2.00000 F1680.00000
G92 E0
G1 Z0.350 F12000.000
G1 X43.139 Y65.410 F12000.000
G1 E2.00000 F1680.00000
G1 X44.528 Y64.566 E2.04574 F1200.000
G1 X45.971 Y63.820 E2.09148
G1 X47.463 Y63.176 E2.13722
G1 X48.995 Y62.637 E2.18295
G1 X50.562 Y62.206 E2.22869
G1 X52.154 Y61.884 E2.27443
G1 X53.765 Y61.673 E2.32017
G1 X55.387 Y61.574 E2.36591
G1 X114.480 Y61.571 E4.02949
G1 X116.109 Y61.661 E4.07543 F1200.000
G1 X117.629 Y61.849 E4.11855
G1 X119.232 Y62.157 E4.16449
G1 X120.904 Y62.606 E4.21324
G1 X122.446 Y63.141 E4.25918
G1 X123.856 Y63.739 E4.30230
G1 X125.399 Y64.525 E4.35105
G1 X126.712 Y65.313 E4.39417
G1 X127.981 Y66.196 E4.43768
G1 X129.323 Y67.269 E4.48604
G1 X130.590 Y68.449 E4.53479
G1 X131.636 Y69.568 E4.57791
G1 X132.667 Y70.833 E4.62385
G1 X133.662 Y72.250 E4.67260
G1 X134.454 Y73.561 E4.71572
G1 X135.200 Y75.012 E4.76166
G1 X135.851 Y76.530 E4.80814
G1 X137.054 Y79.456 E4.89719
G1 X137.159 Y79.913 E4.91039
G1 X137.354 Y83.055 E4.99904
G1 X137.435 Y84.940 E5.05213
G1 X137.386 Y86.531 E5.09696
G1 X137.158 Y90.093 E5.19744
G1 X137.053 Y90.548 E5.21058
G1 X135.282 Y94.815 E5.34066
G1 X134.515 Y96.331 E5.38847
G1 X133.747 Y97.622 E5.43076
G1 X132.840 Y98.940 E5.47581
G1 X131.845 Y100.193 E5.52086
G1 X130.766 Y101.376 E5.56591
G1 X129.536 Y102.547 E5.61372
G1 X128.380 Y103.506 E5.65602
G1 X127.153 Y104.395 E5.69869
G1 X125.727 Y105.292 E5.74611
G1 X124.226 Y106.088 E5.79392
G1 X122.854 Y106.700 E5.83622
G1 X121.353 Y107.254 E5.88127
G1 X119.817 Y107.704 E5.92632
G1 X118.158 Y108.065 E5.97413
G1 X116.672 Y108.284 E6.01642
G1 X115.076 Y108.412 E6.06147
G1 X113.462 Y108.431 E6.10692
G1 X56.538 Y108.431 E7.70945
G1 X54.924 Y108.412 E7.75489
G1 X53.426 Y108.295 E7.79719
G1 X51.842 Y108.065 E7.84224
G1 X50.278 Y107.728 E7.88729
G1 X48.740 Y107.284 E7.93234
G1 X47.069 Y106.666 E7.98252
G1 X45.685 Y106.045 E8.02520
G1 X44.273 Y105.292 E8.07025
G1 X42.916 Y104.445 E8.11530
G1 X41.697 Y103.566 E8.15759
G1 X40.464 Y102.547 E8.20264
G1 X39.302 Y101.446 E8.24769
G1 X38.219 Y100.268 E8.29274
G1 X37.219 Y99.019 E8.33780
G1 X36.306 Y97.704 E8.38285
G1 X35.485 Y96.331 E8.42790
G1 X34.718 Y94.815 E8.47571
G1 X32.947 Y90.548 E8.60578
G1 X32.841 Y90.088 E8.61906
G1 X32.658 Y87.065 E8.70432
G1 X32.565 Y84.994 E8.76270
G1 X32.669 Y82.834 E8.82355
G1 X32.841 Y79.917 E8.90583
G1 X32.947 Y79.455 E8.91916
G1 X34.144 Y76.542 E9.00784
G1 X34.749 Y75.122 E9.05129
G1 X35.484 Y73.673 E9.09703
G1 X36.373 Y72.195 E9.14557
G1 X37.307 Y70.866 E9.19131
G1 X38.331 Y69.605 E9.23705
G1 X39.370 Y68.488 E9.27998
G1 X40.554 Y67.376 E9.32572
G1 X41.813 Y66.348 E9.37146
G1 X43.078 Y65.453 E9.41509
G1 E7.41509 F1680.00000
G92 E0
G1 X45.093 Y68.660 F12000.000
G1 E2.00000 F1680.00000
G1 X46.173 Y67.981 E2.03321 F900.000
G1 X47.472 Y67.294 E2.07147
G1 X48.820 Y66.706 E2.10973
G1 X50.130 Y66.248 E2.14587
G1 X51.625 Y65.841 E2.18620
G1 X53.071 Y65.567 E2.22449
G1 X54.531 Y65.403 E2.26275
G1 X55.919 Y65.351 E2.29889 F900.000
G1 X57.467 Y65.402 E2.33922
G1 X58.929 Y65.567 E2.37751
G1 X60.373 Y65.840 E2.41577
G1 X61.793 Y66.221 E2.45402
G1 X63.180 Y66.706 E2.49228
G1 X64.527 Y67.294 E2.53054
G1 X65.827 Y67.981 E2.56879
G1 X66.925 Y68.671 E2.60255
G1 X68.252 Y69.634 E2.64523
G1 X69.368 Y70.594 E2.68355
G1 X70.407 Y71.633 E2.72181
G1 X71.366 Y72.747 E2.76006
G1 X72.239 Y73.930 E2.79832
G1 X73.021 Y75.174 E2.83658
G1 X73.708 Y76.474 E2.87483
G1 X74.295 Y77.821 E2.91309
G1 X74.754 Y79.132 E2.94923
G1 X75.161 Y80.627 E2.98956
G1 X75.434 Y82.072 E3.02785
G1 X75.599 Y83.533 E3.06611
G1 X75.654 Y85.001 E3.10437
G1 X75.599 Y86.470 E3.14262
G1 X75.434 Y87.931 E3.18088
G1 X75.161 Y89.375 E3.21914
G1 X74.781 Y90.795 E3.25739
G1 X74.295 Y92.182 E3.29565
G1 X73.708 Y93.529 E3.33391
G1 X73.021 Y94.828 E3.37216
G1 X72.239 Y96.073 E3.41042
G1 X71.366 Y97.255 E3.44868
G1 X70.407 Y98.369 E3.48693
G1 X69.368 Y99.409 E3.52519
G1 X68.254 Y100.367 E3.56345
G1 X67.137 Y101.192 E3.59959
G1 X65.828 Y102.022 E3.63992
G1 X64.527 Y102.709 E3.67821
G1 X63.180 Y103.297 E3.71647
G1 X61.793 Y103.782 E3.75472
G1 X60.373 Y104.163 E3.79298
G1 X58.929 Y104.436 E3.83124
G1 X57.469 Y104.600 E3.86949
G1 X56.000 Y104.655 E3.90775
G1 X54.531 Y104.600 E3.94601
G1 X53.071 Y104.436 E3.98426
G1 X51.706 Y104.178 E4.02040
G1 X50.208 Y103.783 E4.06074
G1 X48.820 Y103.297 E4.09903
G1 X47.472 Y102.709 E4.13728
G1 X46.173 Y102.022 E4.17554
G1 X44.929 Y101.240 E4.21380
G1 X43.746 Y100.367 E4.25205
G1 X42.632 Y99.409 E4.29031
G1 X41.593 Y98.369 E4.32856
G1 X40.634 Y97.255 E4.36682
G1 X39.761 Y96.073 E4.40508
G1 X38.979 Y94.828 E4.44333
G1 X38.292 Y93.529 E4.48159
G1 X37.705 Y92.182 E4.51985
G1 X37.219 Y90.795 E4.55810
G1 X36.839 Y89.375 E4.59636
G1 X36.566 Y87.931 E4.63462
G1 X36.401 Y86.470 E4.67287
G1 X36.346 Y85.001 E4.71113
G1 X36.401 Y83.533 E4.74939
G1 X36.566 Y82.072 E4.78764
G1 X36.839 Y80.628 E4.82590
G1 X37.198 Y79.287 E4.86204
G1 X37.704 Y77.822 E4.90237
G1 X38.292 Y76.474 E4.94066
G1 X38.941 Y75.246 E4.97681
G1 X39.760 Y73.931 E5.01714
G1 X40.634 Y72.747 E5.05543
G1 X41.593 Y71.633 E5.09368
G1 X42.632 Y70.594 E5.13194
G1 X43.746 Y69.635 E5.17020
G1 X45.029 Y68.699 E5.21154
G1 X45.244 Y69.041 F12000.000
G1 X46.375 Y68.330 E5.24631 F720.000
G1 X47.648 Y67.658 E5.28378
G1 X48.967 Y67.082 E5.32125
G1 X50.250 Y66.633 E5.35663
G1 X51.716 Y66.234 E5.39617
G1 X53.131 Y65.966 E5.43366
G1 X54.561 Y65.805 E5.47113
G1 X55.920 Y65.754 E5.50650 F720.000
G1 X57.438 Y65.805 E5.54605
G1 X58.869 Y65.966 E5.58353
G1 X60.284 Y66.234 E5.62100
G1 X61.674 Y66.606 E5.65847
G1 X63.033 Y67.082 E5.69595
G1 X64.352 Y67.658 E5.73342
G1 X65.625 Y68.330 E5.77089
G1 X66.699 Y69.005 E5.80390
G1 X68.002 Y69.950 E5.84579
G1 X69.093 Y70.890 E5.88329
G1 X70.111 Y71.908 E5.92076
G1 X71.050 Y72.999 E5.95823
G1 X71.905 Y74.157 E5.99570
G1 X72.671 Y75.376 E6.03317
G1 X73.344 Y76.649 E6.07064
G1 X73.919 Y77.969 E6.10811
G1 X74.368 Y79.251 E6.14349
G1 X74.767 Y80.717 E6.18303
G1 X75.035 Y82.132 E6.22052
G1 X75.196 Y83.563 E6.25799
G1 X75.250 Y85.001 E6.29546
G1 X75.196 Y86.440 E6.33293
G1 X75.035 Y87.871 E6.37040
G1 X74.768 Y89.285 E6.40787
G1 X74.395 Y90.676 E6.44534
G1 X73.919 Y92.034 E6.48281
G1 X73.344 Y93.354 E6.52028
G1 X72.671 Y94.627 E6.55775
G1 X71.905 Y95.845 E6.59523
G1 X71.050 Y97.004 E6.63270
G1 X70.111 Y98.095 E6.67017
G1 X69.093 Y99.113 E6.70764
G1 X68.002 Y100.052 E6.74511
G1 X66.909 Y100.859 E6.78049
G1 X65.626 Y101.672 E6.82003
G1 X64.352 Y102.345 E6.85751
G1 X63.033 Y102.921 E6.89498
G1 X61.674 Y103.396 E6.93246
G1 X60.284 Y103.769 E6.96993
G1 X58.869 Y104.037 E7.00740
G1 X57.439 Y104.198 E7.04487
G1 X56.000 Y104.252 E7.08234
G1 X54.561 Y104.198 E7.11981
G1 X53.131 Y104.037 E7.15728
G1 X51.795 Y103.784 E7.19266
G1 X50.326 Y103.397 E7.23220
G1 X48.967 Y102.921 E7.26969
G1 X47.648 Y102.345 E7.30716
G1 X46.375 Y101.673 E7.34463
G1 X45.156 Y100.907 E7.38210
G1 X43.998 Y100.052 E7.41957
G1 X42.907 Y99.113 E7.45704
G1 X41.889 Y98.095 E7.49451
G1 X40.950 Y97.004 E7.53198
G1 X40.095 Y95.845 E7.56945
G1 X39.329 Y94.627 E7.60692
G1 X38.656 Y93.354 E7.64439
G1 X38.081 Y92.034 E7.68186
G1 X37.605 Y90.676 E7.71933
G1 X37.232 Y89.285 E7.75680
G1 X36.965 Y87.871 E7.79428
G1 X36.804 Y86.440 E7.83175
G1 X36.750 Y85.001 E7.86922
G1 X36.804 Y83.563 E7.90669
G1 X36.965 Y82.132 E7.94416
G1 X37.232 Y80.718 E7.98163
G1 X37.584 Y79.405 E8.01701
G1 X38.080 Y77.969 E8.05655
G1 X38.656 Y76.649 E8.09404
G1 X39.291 Y75.447 E8.12941
G1 X40.094 Y74.158 E8.16896
G1 X40.950 Y72.999 E8.20644
G1 X41.889 Y71.908 E8.24391
G1 X42.907 Y70.890 E8.28138
G1 X43.998 Y69.951 E8.31885
G1 X45.180 Y69.081 E8.35707
G1 X45.213 Y68.542 F12000.000
G1 E6.35707 F1680.00000
G92 E0
G1 X94.816 Y80.728 F12000.000
G1 E2.00000 F1680.00000
G1 X95.179 Y79.339 E2.03737 F900.000
G1 X95.643 Y77.980 E2.07473
G1 X96.204 Y76.659 E2.11210
G1 X96.861 Y75.382 E2.14947
G1 X97.609 Y74.157 E2.18684
G1 X98.444 Y72.990 E2.22420
G1 X99.362 Y71.886 E2.26157
G1 X100.359 Y70.853 E2.29894
G1 X101.369 Y69.947 E2.33424
G1 X102.563 Y69.018 E2.37363
G1 X103.762 Y68.225 E2.41103
G1 X105.013 Y67.522 E2.44840
G1 X106.241 Y66.947 E2.48370
G1 X107.653 Y66.401 E2.52310
G1 X109.030 Y65.986 E2.56053
G1 X110.509 Y65.663 E2.59992
G1 X111.850 Y65.465 E2.63523
G1 X113.282 Y65.361 E2.67259
G1 X114.718 Y65.361 E2.70996 F900.000
G1 X116.070 Y65.460 E2.74526
G1 X117.569 Y65.674 E2.78466
G1 X118.971 Y65.987 E2.82206
G1 X120.346 Y66.400 E2.85942
G1 X121.613 Y66.885 E2.89473
G1 X122.985 Y67.522 E2.93412
G1 X124.240 Y68.226 E2.97155
G1 X125.499 Y69.066 E3.01095
G1 X126.572 Y69.895 E3.04625
G1 X127.641 Y70.853 E3.08362
G1 X128.638 Y71.886 E3.12098
G1 X129.556 Y72.990 E3.15835
G1 X130.391 Y74.157 E3.19572
G1 X131.140 Y75.384 E3.23312
G1 X131.827 Y76.732 E3.27251
G1 X132.357 Y77.980 E3.30782
G1 X132.821 Y79.339 E3.34518
G1 X133.184 Y80.728 E3.38255
G1 X133.444 Y82.140 E3.41992
G1 X133.593 Y83.488 E3.45522
G1 X133.654 Y85.000 E3.49461
G1 X133.601 Y86.436 E3.53201
G1 X133.444 Y87.863 E3.56938
G1 X133.184 Y89.275 E3.60675
G1 X132.821 Y90.664 E3.64411
G1 X132.357 Y92.022 E3.68148
G1 X131.796 Y93.344 E3.71885
G1 X131.175 Y94.550 E3.75415
G1 X130.392 Y95.845 E3.79354
G1 X129.556 Y97.013 E3.83095
G1 X128.638 Y98.117 E3.86831
G1 X127.641 Y99.150 E3.90568
G1 X126.572 Y100.108 E3.94305
G1 X125.436 Y100.986 E3.98041
G1 X124.238 Y101.778 E4.01778
G1 X122.987 Y102.480 E4.05515
G1 X121.687 Y103.090 E4.09252
G1 X120.346 Y103.603 E4.12988
G1 X118.971 Y104.016 E4.16725
G1 X117.570 Y104.328 E4.20462
G1 X116.150 Y104.537 E4.24198
G1 X114.718 Y104.642 E4.27935
G1 X113.282 Y104.642 E4.31672
G1 X111.850 Y104.537 E4.35409
G1 X110.430 Y104.328 E4.39145
G1 X109.029 Y104.016 E4.42882
G1 X107.654 Y103.603 E4.46619
G1 X106.387 Y103.118 E4.50149
G1 X105.015 Y102.481 E4.54088
G1 X103.760 Y101.777 E4.57832
G1 X102.501 Y100.937 E4.61771
G1 X101.428 Y100.108 E4.65301
G1 X100.359 Y99.150 E4.69038
G1 X99.362 Y98.117 E4.72775
G1 X98.444 Y97.013 E4.76511
G1 X97.609 Y95.846 E4.80248
G1 X96.861 Y94.620 E4.83985
G1 X96.204 Y93.344 E4.87722
G1 X95.643 Y92.022 E4.91458
G1 X95.179 Y90.664 E4.95195
G1 X94.816 Y89.275 E4.98932
G1 X94.555 Y87.862 E5.02672
G1 X94.396 Y86.357 E5.06611
G1 X94.346 Y85.001 E5.10141
G1 X94.399 Y83.567 E5.13878
G1 X94.556 Y82.140 E5.17615
G1 X94.803 Y80.802 E5.21156
G1 X95.199 Y80.875 F12000.000
G1 X95.566 Y79.455 E5.24973 F720.000
G1 X96.020 Y78.125 E5.28633
G1 X96.570 Y76.831 E5.32293
G1 X97.213 Y75.580 E5.35953
G1 X97.945 Y74.380 E5.39613
G1 X98.764 Y73.236 E5.43273
G1 X99.663 Y72.155 E5.46932
G1 X100.639 Y71.143 E5.50592
G1 X101.628 Y70.257 E5.54048
G1 X102.799 Y69.346 E5.57911
G1 X103.972 Y68.570 E5.61572
G1 X105.198 Y67.881 E5.65232
G1 X106.400 Y67.318 E5.68687
G1 X107.784 Y66.782 E5.72550
G1 X109.131 Y66.377 E5.76212
G1 X110.581 Y66.060 E5.80075
G1 X111.895 Y65.867 E5.83531
G1 X113.297 Y65.764 E5.87191
G1 X114.703 Y65.764 E5.90851 F720.000
G1 X116.027 Y65.861 E5.94306
G1 X117.496 Y66.071 E5.98169
G1 X118.869 Y66.377 E6.01830
G1 X120.216 Y66.782 E6.05490
G1 X121.455 Y67.257 E6.08945
G1 X122.802 Y67.881 E6.12808
G1 X124.029 Y68.570 E6.16470
G1 X125.263 Y69.393 E6.20333
G1 X126.314 Y70.205 E6.23789
G1 X127.361 Y71.143 E6.27449
G1 X128.337 Y72.155 E6.31109
G1 X129.236 Y73.236 E6.34769
G1 X130.055 Y74.380 E6.38428
G1 X130.787 Y75.580 E6.42090
G1 X131.461 Y76.903 E6.45952
G1 X131.980 Y78.125 E6.49408
G1 X132.434 Y79.455 E6.53068
G1 X132.790 Y80.816 E6.56728
G1 X133.045 Y82.199 E6.60388
G1 X133.190 Y83.518 E6.63843
G1 X133.250 Y85.001 E6.67706
G1 X133.199 Y86.407 E6.71367
G1 X133.045 Y87.804 E6.75027
G1 X132.790 Y89.187 E6.78687
G1 X132.434 Y90.547 E6.82347
G1 X131.980 Y91.878 E6.86007
G1 X131.430 Y93.172 E6.89667
G1 X130.823 Y94.353 E6.93122
G1 X130.055 Y95.623 E6.96985
G1 X129.236 Y96.767 E7.00646
G1 X128.337 Y97.847 E7.04306
G1 X127.361 Y98.860 E7.07966
G1 X126.314 Y99.798 E7.11626
G1 X125.201 Y100.657 E7.15286
G1 X124.028 Y101.433 E7.18946
G1 X122.802 Y102.121 E7.22606
G1 X121.529 Y102.718 E7.26266
G1 X120.216 Y103.221 E7.29926
G1 X118.869 Y103.626 E7.33586
G1 X117.497 Y103.931 E7.37246
G1 X116.105 Y104.136 E7.40906
G1 X114.703 Y104.239 E7.44566
G1 X113.297 Y104.239 E7.48226
G1 X111.895 Y104.136 E7.51886
G1 X110.503 Y103.931 E7.55546
G1 X109.131 Y103.626 E7.59206
G1 X107.784 Y103.221 E7.62866
G1 X106.545 Y102.746 E7.66321
G1 X105.198 Y102.122 E7.70184
G1 X103.971 Y101.433 E7.73846
G1 X102.737 Y100.609 E7.77709
G1 X101.686 Y99.798 E7.81164
G1 X100.639 Y98.860 E7.84824
G1 X99.663 Y97.847 E7.88484
G1 X98.764 Y96.767 E7.92144
G1 X97.945 Y95.623 E7.95804
G1 X97.213 Y94.423 E7.99464
G1 X96.570 Y93.172 E8.03124
G1 X96.020 Y91.878 E8.06784
G1 X95.566 Y90.547 E8.10444
G1 X95.210 Y89.187 E8.14104
G1 X94.955 Y87.804 E8.17765
G1 X94.798 Y86.328 E8.21628
G1 X94.750 Y85.001 E8.25084
G1 X94.801 Y83.596 E8.28743
G1 X94.955 Y82.199 E8.32403
G1 X95.186 Y80.949 E8.35711
G1 X94.835 Y80.533 F12000.000
G1 E6.35711 F1680.00000
G92 E0
G1 X45.825 Y66.245 F12000.000
G1 E2.00000 F1680.00000
G1 X46.906 Y65.689 E2.03165 F900.000
G1 X48.188 Y65.139 E2.06797
G1 X49.664 Y64.617 E2.10872
G1 X51.091 Y64.227 E2.14720
G1 X52.542 Y63.937 E2.18572
G1 X54.009 Y63.748 E2.22424
G1 X55.487 Y63.661 E2.26276
G1 X56.967 Y63.677 E2.30128
G1 X58.442 Y63.795 E2.33980
G1 X59.905 Y64.016 E2.37832
G1 X61.350 Y64.337 E2.41684
G1 X62.769 Y64.757 E2.45536
G1 X64.155 Y65.274 E2.49388
G1 X65.425 Y65.852 E2.53020
G1 X66.805 Y66.592 E2.57094
G1 X68.053 Y67.384 E2.60943
G1 X69.245 Y68.261 E2.64795
G1 X70.373 Y69.219 E2.68647
G1 X71.432 Y70.253 E2.72499
G1 X72.417 Y71.358 E2.76351
G1 X73.323 Y72.528 E2.80203
G1 X74.145 Y73.758 E2.84055
G1 X74.881 Y75.042 E2.87907
G1 X75.525 Y76.374 E2.91759
G1 X76.076 Y77.748 E2.95611
G1 X76.530 Y79.156 E2.99463
G1 X76.886 Y80.593 E3.03314
G1 X77.141 Y82.051 E3.07166
G1 X77.295 Y83.522 E3.11018
G1 X77.346 Y85.004 E3.14878
G1 X77.319 Y86.082 E3.17683
G1 X77.237 Y87.159 E3.20495
G1 X77.063 Y88.528 E3.24089
G1 X77.941 Y89.588 E3.27669
G1 X78.759 Y90.367 E3.30611
G1 X79.663 Y91.046 E3.33554
G1 X80.640 Y91.615 E3.36496
G1 X81.676 Y92.066 E3.39438
G1 X82.759 Y92.392 E3.42381
G1 X83.872 Y92.590 E3.45323
G1 X85.000 Y92.656 E3.48265
G1 X86.128 Y92.590 E3.51208
G1 X87.241 Y92.392 E3.54150
G1 X88.324 Y92.066 E3.57092
G1 X89.360 Y91.615 E3.60035
G1 X90.337 Y91.046 E3.62977
G1 X91.241 Y90.367 E3.65919
G1 X92.059 Y89.588 E3.68862
G1 X92.935 Y88.531 E3.72433
G1 X92.726 Y86.755 E3.77089
G1 X92.656 Y85.270 E3.80957
G1 X92.689 Y83.784 E3.84826
G1 X92.825 Y82.304 E3.88695
G1 X93.064 Y80.837 E3.92563
G1 X93.404 Y79.391 E3.96432
G1 X93.845 Y77.971 E4.00300
G1 X94.383 Y76.586 E4.04169
G1 X95.016 Y75.241 E4.08038
G1 X95.741 Y73.944 E4.11906
G1 X96.555 Y72.700 E4.15775
G1 X97.453 Y71.516 E4.19643
G1 X98.432 Y70.397 E4.23512
G1 X99.486 Y69.349 E4.27380
G1 X100.610 Y68.377 E4.31249
G1 X101.799 Y67.486 E4.35118
G1 X103.048 Y66.679 E4.38986
G1 X104.349 Y65.962 E4.42855
G1 X105.697 Y65.336 E4.46723
G1 X107.086 Y64.806 E4.50592
G1 X108.508 Y64.374 E4.54461
G1 X109.957 Y64.042 E4.58329
G1 X111.425 Y63.811 E4.62198
G1 X112.906 Y63.683 E4.66066
G1 X114.392 Y63.659 E4.69935
G1 X115.791 Y63.733 E4.73582
G1 X117.352 Y63.920 E4.77675 F900.000
G1 X118.810 Y64.204 E4.81540
G1 X120.245 Y64.589 E4.85409
G1 X121.650 Y65.073 E4.89277
G1 X123.019 Y65.654 E4.93146
G1 X124.343 Y66.328 E4.97014
G1 X125.617 Y67.093 E5.00883
G1 X126.766 Y67.896 E5.04531
G1 X127.992 Y68.880 E5.08623
G1 X129.079 Y69.892 E5.12488
G1 X130.094 Y70.978 E5.16357
G1 X131.030 Y72.132 E5.20225
G1 X131.885 Y73.348 E5.24094
G1 X132.652 Y74.621 E5.27963
G1 X133.329 Y75.944 E5.31831
G1 X133.913 Y77.311 E5.35700
G1 X134.400 Y78.715 E5.39568
G1 X134.924 Y80.655 E5.44798
G1 X135.072 Y80.655 E5.45182
G1 X135.072 Y81.587 E5.47608
