; generated by Slic3r 1.2.6 on 2015-05-01 at 19:20:21

; external perimeters extrusion width = 0.50mm
; perimeters extrusion width = 0.50mm
; infill extrusion width = 0.50mm
; solid infill extrusion width = 0.50mm
; top infill extrusion width = 0.50mm

M104 S190 ; set temperature
G28 ; home all axes
G1 Z15 F120 ; lift nozzle
M109 S190 ; wait for temperature to be reached
G21 ; set units to millimeters
G90 ; use absolute coordinates
M82 ; use absolute distances for extrusion
G92 E0
M106 S102
G1 E-2.00000 F1680.00000
G92 E0
G1 Z0.200 F12000.000
G1 X22.489 Y30.000 F12000.000
G1 E2.00000 F1680.00000
G1 X24.643 Y29.200 E2.06471 F1200.000
G1 X25.849 Y29.089 E2.09879
G1 X39.760 Y29.097 E2.49042
G1 X124.760 Y33.097 E4.88597 F1200.000
G1 X127.003 Y33.600 E4.95068
G1 X129.153 Y35.039 E5.02351
G1 X149.659 Y55.545 E5.83991
G1 X150.233 Y56.199 E5.86442
G1 X150.570 Y56.639 E5.88001
G1 X151.438 Y58.143 E5.92891
G1 X151.651 Y58.656 E5.94454
G1 X152.100 Y60.332 E5.99340
G1 X152.172 Y60.881 E6.00899
G1 X152.229 Y61.750 E6.03350
G1 X152.229 Y108.250 E7.34256
G1 X152.172 Y109.119 E7.36707
G1 X152.100 Y109.668 E7.38266
G1 X151.650 Y111.345 E7.43156
G1 X151.439 Y111.857 E7.44715
G1 X150.570 Y113.362 E7.49605
G1 X150.233 Y113.801 E7.51164
G1 X149.659 Y114.455 E7.53615
G1 X129.153 Y134.961 E8.35255
G1 X127.271 Y136.282 E8.41726
G1 X124.760 Y136.903 E8.49008
G1 X39.760 Y140.903 E10.88564
G1 X25.849 Y140.911 E11.27727
G1 X23.585 Y140.514 E11.34198
G1 X21.591 Y139.370 E11.40669
G1 X20.105 Y137.616 E11.47140
G1 X19.304 Y135.461 E11.53611
G1 X19.194 Y134.256 E11.57019
G1 X19.194 Y35.744 E14.34349
G1 X19.591 Y33.480 E14.40820
G1 X20.735 Y31.486 E14.47291
G1 X22.431 Y30.049 E14.53551
G1 E12.53551 F1680.00000
G92 E0
G1 X124.163 Y129.570 F12000.000
G1 E2.00000 F1680.00000
G1 X64.393 Y129.570 E3.11994 F900.000
G1 X39.393 Y133.570 E3.59433
G1 X26.534 Y133.570 E3.83526
G1 X26.534 Y132.942 E3.84704
G1 X35.133 Y132.942 E4.00815
G1 X35.133 Y121.570 E4.22122
G1 X26.860 Y121.570 E4.37623
G1 X26.860 Y120.942 E4.38801
G1 X39.393 Y120.942 E4.62285
G1 X64.393 Y124.942 E5.09724
G1 X124.731 Y124.942 E6.22781
G1 X142.406 Y107.267 E6.69618
G1 X142.739 Y107.012 E6.70402
G1 X143.083 Y106.869 E6.71101
G1 X143.453 Y106.820 E6.71801
G1 X143.809 Y106.867 E6.72472
G1 X144.171 Y107.013 E6.73204 F900.000
G1 X144.464 Y107.239 E6.73898
G1 X144.692 Y107.535 E6.74597
G1 X144.834 Y107.880 E6.75297
G1 X144.883 Y108.250 E6.75996
G1 X144.834 Y108.620 E6.76695
G1 X144.692 Y108.965 E6.77395
G1 X144.437 Y109.297 E6.78179
G1 X124.216 Y129.517 E7.31760
G1 X124.524 Y129.825 F12000.000
G1 X124.344 Y130.006 E7.32239 F720.000
G1 X64.427 Y130.006 E8.44505
G1 X39.427 Y134.006 E8.91944
G1 X26.099 Y134.006 E9.16919
G1 X26.099 Y132.506 E9.19729
G1 X34.697 Y132.506 E9.35841
G1 X34.697 Y122.006 E9.55515
G1 X26.424 Y122.006 E9.71016
G1 X26.424 Y120.506 E9.73827
G1 X39.427 Y120.506 E9.98191
G1 X64.427 Y124.506 E10.45630
G1 X124.551 Y124.506 E11.58285
G1 X142.119 Y106.938 E12.04837
G1 X142.519 Y106.631 E12.05782
G1 X142.970 Y106.444 E12.06696
G1 X143.453 Y106.381 E12.07611
G1 X143.921 Y106.442 E12.08494
G1 X144.389 Y106.632 E12.09440 F720.000
G1 X144.775 Y106.928 E12.10352
G1 X145.072 Y107.315 E12.11267
G1 X145.259 Y107.766 E12.12181
G1 X145.323 Y108.250 E12.13095
G1 X145.259 Y108.734 E12.14010
G1 X145.072 Y109.185 E12.14924
G1 X144.765 Y109.585 E12.15869
G1 X124.577 Y129.772 E12.69363
G1 X124.278 Y129.759 F12000.000
G1 X144.408 Y107.697 F12000.000
G1 X144.006 Y107.295 E12.70428 F1200.000
G1 X143.188 Y107.094 E12.72008
G1 X144.609 Y108.515 E12.75777
G1 X144.433 Y108.955 E12.76666
G1 X142.748 Y107.270 E12.81135
G1 X142.416 Y107.554 E12.81956
G1 X144.135 Y109.274 E12.86516
G1 X143.827 Y109.582 E12.87334
G1 X142.107 Y107.863 E12.91894
G1 X141.799 Y108.171 E12.92712
G1 X143.518 Y109.890 E12.97272
G1 X143.210 Y110.199 E12.98090
G1 X141.491 Y108.479 E13.02650
G1 X141.182 Y108.788 E13.03468
G1 X142.902 Y110.507 E13.08029
G1 X142.593 Y110.815 E13.08846
G1 X140.874 Y109.096 E13.13407
G1 X140.566 Y109.404 E13.14225
G1 X142.285 Y111.124 E13.18785
G1 X141.977 Y111.432 E13.19603
G1 X140.257 Y109.713 E13.24163
G1 X139.949 Y110.021 E13.24981
G1 X141.668 Y111.740 E13.29541
G1 X141.360 Y112.049 E13.30359
G1 X139.641 Y110.329 E13.34919
G1 X139.332 Y110.638 E13.35737
G1 X141.052 Y112.357 E13.40298
G1 X140.743 Y112.665 E13.41115
G1 X139.024 Y110.946 E13.45676
G1 X138.716 Y111.254 E13.46494
G1 X140.435 Y112.974 E13.51054
G1 X140.127 Y113.282 E13.51872
G1 X138.407 Y111.562 E13.56432
G1 X138.099 Y111.871 E13.57250
G1 X139.818 Y113.590 E13.61810
G1 X139.510 Y113.898 E13.62628
G1 X137.791 Y112.179 E13.67189
G1 X137.482 Y112.487 E13.68006
G1 X139.202 Y114.207 E13.72567
G1 X138.893 Y114.515 E13.73384
G1 X137.174 Y112.796 E13.77945
G1 X136.866 Y113.104 E13.78763
G1 X138.585 Y114.823 E13.83323
G1 X138.277 Y115.132 E13.84141
G1 X136.557 Y113.412 E13.88701
G1 X136.249 Y113.721 E13.89519
G1 X137.968 Y115.440 E13.94079
G1 X137.660 Y115.748 E13.94897
G1 X135.941 Y114.029 E13.99458
G1 X135.632 Y114.337 E14.00275
G1 X137.352 Y116.057 E14.04836
G1 X137.044 Y116.365 E14.05654
G1 X135.324 Y114.646 E14.10214
G1 X135.016 Y114.954 E14.11032
G1 X136.735 Y116.673 E14.15592
G1 X136.427 Y116.982 E14.16410
G1 X134.708 Y115.262 E14.20970
G1 X134.399 Y115.571 E14.21788
G1 X136.119 Y117.290 E14.26348
G1 X135.810 Y117.598 E14.27166
G1 X134.091 Y115.879 E14.31727
G1 X133.783 Y116.187 E14.32544
G1 X135.502 Y117.907 E14.37105
G1 X135.194 Y118.215 E14.37923
G1 X133.474 Y116.496 E14.42483
G1 X133.166 Y116.804 E14.43301
G1 X134.885 Y118.523 E14.47861
G1 X134.577 Y118.832 E14.48679
G1 X132.858 Y117.112 E14.53239
G1 X132.549 Y117.421 E14.54057
G1 X134.269 Y119.140 E14.58618
G1 X133.960 Y119.448 E14.59435
G1 X132.241 Y117.729 E14.63996
G1 X131.933 Y118.037 E14.64813
G1 X133.652 Y119.757 E14.69374
G1 X133.344 Y120.065 E14.70192
G1 X131.624 Y118.346 E14.74752
G1 X131.316 Y118.654 E14.75570
G1 X133.035 Y120.373 E14.80130
G1 X132.727 Y120.682 E14.80948
G1 X131.008 Y118.962 E14.85508
G1 X130.699 Y119.270 E14.86326
G1 X132.419 Y120.990 E14.90887
G1 X132.110 Y121.298 E14.91704
G1 X130.391 Y119.579 E14.96265
G1 X130.083 Y119.887 E14.97083
G1 X131.802 Y121.606 E15.01643
G1 X131.494 Y121.915 E15.02461
G1 X129.774 Y120.195 E15.07021
G1 X129.466 Y120.504 E15.07839
G1 X131.185 Y122.223 E15.12399
G1 X130.877 Y122.531 E15.13217
G1 X129.158 Y120.812 E15.17777
G1 X128.849 Y121.120 E15.18595
G1 X130.569 Y122.840 E15.23156
G1 X130.260 Y123.148 E15.23973
G1 X128.541 Y121.429 E15.28534
G1 X128.233 Y121.737 E15.29352
G1 X129.952 Y123.456 E15.33912
G1 X129.644 Y123.765 E15.34730
G1 X127.924 Y122.045 E15.39290
G1 X127.616 Y122.354 E15.40108
G1 X129.336 Y124.073 E15.44668
G1 X129.027 Y124.381 E15.45486
G1 X127.308 Y122.662 E15.50047
G1 X126.999 Y122.970 E15.50864
G1 X128.719 Y124.690 E15.55425
G1 X128.411 Y124.998 E15.56242
G1 X126.691 Y123.279 E15.60803
G1 X126.383 Y123.587 E15.61621
G1 X128.102 Y125.306 E15.66181
G1 X127.794 Y125.615 E15.66999
G1 X126.075 Y123.895 E15.71559
G1 X125.766 Y124.204 E15.72377
G1 X127.486 Y125.923 E15.76937
G1 X127.177 Y126.231 E15.77755
G1 X125.458 Y124.512 E15.82316
G1 X125.150 Y124.820 E15.83133
G1 X126.869 Y126.540 E15.87694
G1 X126.561 Y126.848 E15.88512
G1 X124.841 Y125.129 E15.93072
G1 X124.286 Y125.190 E15.94120
G1 X126.252 Y127.156 E15.99335
G1 X125.944 Y127.465 E16.00153
G1 X123.669 Y125.190 E16.06187
G1 X123.053 Y125.190 E16.07343
G1 X125.636 Y127.773 E16.14194
G1 X125.327 Y128.081 E16.15012
G1 X122.436 Y125.190 E16.22681
G1 X121.819 Y125.190 E16.23837
G1 X125.019 Y128.390 E16.32324
G1 X124.711 Y128.698 E16.33142
G1 X121.203 Y125.190 E16.42446
G1 X120.586 Y125.190 E16.43603
G1 X124.402 Y129.006 E16.53725
G1 X124.094 Y129.315 E16.54543
G1 X119.969 Y125.190 E16.65483
G1 X119.353 Y125.190 E16.66639
G1 X123.485 Y129.322 E16.77600
G1 X122.869 Y129.322 E16.78756
G1 X118.736 Y125.190 E16.89717
G1 X118.120 Y125.190 E16.90873
G1 X122.252 Y129.322 E17.01834
G1 X121.635 Y129.322 E17.02990
G1 X117.503 Y125.190 E17.13951
G1 X116.886 Y125.190 E17.15107
G1 X121.019 Y129.322 E17.26068
G1 X120.402 Y129.322 E17.27224
G1 X116.270 Y125.190 E17.38185
G1 X115.653 Y125.190 E17.39341
G1 X119.785 Y129.322 E17.50302
G1 X119.169 Y129.322 E17.51458
G1 X115.036 Y125.190 E17.62419
G1 X114.420 Y125.190 E17.63575
G1 X118.552 Y129.322 E17.74536
G1 X117.935 Y129.322 E17.75692
G1 X113.803 Y125.190 E17.86653
G1 X113.186 Y125.190 E17.87810
G1 X117.319 Y129.322 E17.98770
G1 X116.702 Y129.322 E17.99927
G1 X112.570 Y125.190 E18.10887
G1 X111.953 Y125.190 E18.12044
G1 X116.085 Y129.322 E18.23004
G1 X115.469 Y129.322 E18.24161
G1 X111.336 Y125.190 E18.35121
G1 X110.720 Y125.190 E18.36278
G1 X114.852 Y129.322 E18.47238
G1 X114.236 Y129.322 E18.48395
G1 X110.103 Y125.190 E18.59355
G1 X109.487 Y125.190 E18.60512
G1 X113.619 Y129.322 E18.71472
G1 X113.002 Y129.322 E18.72629
G1 X108.870 Y125.190 E18.83589
G1 X108.253 Y125.190 E18.84746
G1 X112.386 Y129.322 E18.95706
G1 X111.769 Y129.322 E18.96863
G1 X107.637 Y125.190 E19.07823
G1 X107.020 Y125.190 E19.08980
G1 X111.152 Y129.322 E19.19940
G1 X110.536 Y129.322 E19.21097
G1 X106.403 Y125.190 E19.32057
G1 X105.787 Y125.190 E19.33214
G1 X109.919 Y129.322 E19.44174
G1 X109.302 Y129.322 E19.45331
G1 X105.170 Y125.190 E19.56291
G1 X104.553 Y125.190 E19.57448
G1 X108.686 Y129.322 E19.68408
G1 X108.069 Y129.322 E19.69565
G1 X103.937 Y125.190 E19.80525
G1 X103.320 Y125.190 E19.81682
G1 X107.453 Y129.322 E19.92642
G1 X106.836 Y129.322 E19.93799
G1 X102.704 Y125.190 E20.04759
G1 X102.087 Y125.190 E20.05916
G1 X106.219 Y129.322 E20.16876
G1 X105.603 Y129.322 E20.18033
G1 X101.470 Y125.190 E20.28993
G1 X100.854 Y125.190 E20.30150
G1 X104.986 Y129.322 E20.41110
G1 X104.369 Y129.322 E20.42267
G1 X100.237 Y125.190 E20.53227
G1 X99.620 Y125.190 E20.54384
G1 X103.753 Y129.322 E20.65344
G1 X103.136 Y129.322 E20.66501
G1 X99.004 Y125.190 E20.77461
G1 X98.387 Y125.190 E20.78618
G1 X102.519 Y129.322 E20.89578
G1 X101.903 Y129.322 E20.90735
G1 X97.770 Y125.190 E21.01695
G1 X97.154 Y125.190 E21.02852
G1 X101.286 Y129.322 E21.13812
G1 X100.669 Y129.322 E21.14969
G1 X96.537 Y125.190 E21.25929
G1 X95.920 Y125.190 E21.27086
G1 X100.053 Y129.322 E21.38046
G1 X99.436 Y129.322 E21.39203
G1 X95.304 Y125.190 E21.50163
G1 X94.687 Y125.190 E21.51320
G1 X98.820 Y129.322 E21.62280
G1 X98.203 Y129.322 E21.63437
G1 X94.071 Y125.190 E21.74397
G1 X93.454 Y125.190 E21.75554
G1 X97.586 Y129.322 E21.86514
G1 X96.970 Y129.322 E21.87671
G1 X92.837 Y125.190 E21.98632
G1 X92.221 Y125.190 E21.99788
G1 X96.353 Y129.322 E22.10749
G1 X95.736 Y129.322 E22.11905
G1 X91.604 Y125.190 E22.22866
G1 X90.987 Y125.190 E22.24022
G1 X95.120 Y129.322 E22.34983
G1 X94.503 Y129.322 E22.36139
G1 X90.371 Y125.190 E22.47100
G1 X89.754 Y125.190 E22.48256
G1 X93.886 Y129.322 E22.59217
G1 X93.270 Y129.322 E22.60373
G1 X89.137 Y125.190 E22.71334
G1 X88.521 Y125.190 E22.72490
G1 X92.653 Y129.322 E22.83451
G1 X92.037 Y129.322 E22.84607
G1 X87.904 Y125.190 E22.95568
G1 X87.288 Y125.190 E22.96724
G1 X91.420 Y129.322 E23.07685
G1 X90.803 Y129.322 E23.08841
G1 X86.671 Y125.190 E23.19802
G1 X86.054 Y125.190 E23.20958
G1 X90.187 Y129.322 E23.31919
G1 X89.570 Y129.322 E23.33075
G1 X85.438 Y125.190 E23.44036
G1 X84.821 Y125.190 E23.45192
G1 X88.953 Y129.322 E23.56153
G1 X88.337 Y129.322 E23.57309
G1 X84.204 Y125.190 E23.68270
G1 X83.588 Y125.190 E23.69426
G1 X87.720 Y129.322 E23.80387
G1 X87.103 Y129.322 E23.81543
G1 X82.971 Y125.190 E23.92504
G1 X82.354 Y125.190 E23.93660
G1 X86.487 Y129.322 E24.04621
G1 X85.870 Y129.322 E24.05777
G1 X81.738 Y125.190 E24.16738
G1 X81.121 Y125.190 E24.17894
G1 X85.253 Y129.322 E24.28855
G1 X84.637 Y129.322 E24.30011
G1 X80.504 Y125.190 E24.40972
G1 X79.888 Y125.190 E24.42128
G1 X84.020 Y129.322 E24.53089
G1 X83.404 Y129.322 E24.54245
G1 X79.271 Y125.190 E24.65206
G1 X78.655 Y125.190 E24.66362
G1 X82.787 Y129.322 E24.77323
G1 X82.170 Y129.322 E24.78479
G1 X78.038 Y125.190 E24.89440
G1 X77.421 Y125.190 E24.90596
G1 X81.554 Y129.322 E25.01557
G1 X80.937 Y129.322 E25.02713
G1 X76.805 Y125.190 E25.13674
G1 X76.188 Y125.190 E25.14830
G1 X80.320 Y129.322 E25.25791
G1 X79.704 Y129.322 E25.26947
G1 X75.571 Y125.190 E25.37908
G1 X74.955 Y125.190 E25.39064
G1 X79.087 Y129.322 E25.50025
G1 X78.470 Y129.322 E25.51181
G1 X74.338 Y125.190 E25.62142
G1 X73.721 Y125.190 E25.63298
G1 X77.854 Y129.322 E25.74259
G1 X77.237 Y129.322 E25.75415
G1 X73.105 Y125.190 E25.86376
G1 X72.488 Y125.190 E25.87533
G1 X76.621 Y129.322 E25.98493
G1 X76.004 Y129.322 E25.99650
G1 X71.872 Y125.190 E26.10610
G1 X71.255 Y125.190 E26.11767
G1 X75.387 Y129.322 E26.22727
G1 X74.771 Y129.322 E26.23884
G1 X70.638 Y125.190 E26.34844
G1 X70.022 Y125.190 E26.36001
G1 X74.154 Y129.322 E26.46961
G1 X73.537 Y129.322 E26.48118
G1 X69.405 Y125.190 E26.59078
G1 X68.788 Y125.190 E26.60235
G1 X72.921 Y129.322 E26.71195
G1 X72.304 Y129.322 E26.72352
G1 X68.172 Y125.190 E26.83312
G1 X67.555 Y125.190 E26.84469
G1 X71.687 Y129.322 E26.95429
G1 X71.071 Y129.322 E26.96586
G1 X66.938 Y125.190 E27.07546
G1 X66.322 Y125.190 E27.08703
G1 X70.454 Y129.322 E27.19663
G1 X69.837 Y129.322 E27.20820
G1 X65.705 Y125.190 E27.31780
G1 X65.088 Y125.190 E27.32937
G1 X69.221 Y129.322 E27.43897
G1 X68.604 Y129.322 E27.45054
G1 X64.472 Y125.190 E27.56014
G1 X63.776 Y125.110 E27.57329
G1 X67.988 Y129.322 E27.68500
G1 X67.371 Y129.322 E27.69657
G1 X63.041 Y124.993 E27.81140
G1 X62.307 Y124.875 E27.82534
G1 X66.754 Y129.322 E27.94329
G1 X66.138 Y129.322 E27.95486
G1 X61.573 Y124.758 E28.07592
G1 X60.839 Y124.640 E28.08986
G1 X65.521 Y129.322 E28.21404
G1 X64.904 Y129.322 E28.22561
G1 X60.105 Y124.523 E28.35290
G1 X59.371 Y124.405 E28.36685
G1 X64.311 Y129.346 E28.49788
G1 X63.780 Y129.431 E28.50798
G1 X58.637 Y124.288 E28.64438
G1 X57.903 Y124.171 E28.65832
G1 X63.248 Y129.516 E28.80010
G1 X62.716 Y129.601 E28.81019
G1 X57.169 Y124.053 E28.95734
G1 X56.435 Y123.936 E28.97128
G1 X62.185 Y129.686 E29.12380
G1 X61.653 Y129.771 E29.13390
G1 X55.700 Y123.818 E29.29179
G1 X54.966 Y123.701 E29.30573
G1 X61.122 Y129.856 E29.46899
G1 X60.590 Y129.941 E29.47909
G1 X54.232 Y123.583 E29.64772
G1 X53.498 Y123.466 E29.66166
G1 X60.059 Y130.026 E29.83567
G1 X59.527 Y130.111 E29.84576
G1 X52.764 Y123.348 E30.02514
G1 X52.030 Y123.231 E30.03908
G1 X58.995 Y130.196 E30.22383
G1 X58.464 Y130.281 E30.23392
G1 X51.296 Y123.113 E30.42404
G1 X50.562 Y122.996 E30.43798
G1 X57.932 Y130.366 E30.63347
G1 X57.401 Y130.451 E30.64357
G1 X49.828 Y122.879 E30.84443
G1 X49.094 Y122.761 E30.85837
G1 X56.869 Y130.536 E31.06460
G1 X56.337 Y130.622 E31.07470
G1 X48.360 Y122.644 E31.28630
G1 X47.625 Y122.526 E31.30024
G1 X55.806 Y130.707 E31.51721
G1 X55.274 Y130.792 E31.52731
G1 X46.891 Y122.409 E31.74966
G1 X46.157 Y122.291 E31.76360
G1 X54.743 Y130.877 E31.99131
G1 X54.211 Y130.962 E32.00141
G1 X45.423 Y122.174 E32.23450
G1 X44.689 Y122.056 E32.24844
G1 X53.679 Y131.047 E32.48690
G1 X53.148 Y131.132 E32.49700
G1 X43.955 Y121.939 E32.74082
G1 X43.221 Y121.821 E32.75477
G1 X52.616 Y131.217 E33.00397
G1 X52.085 Y131.302 E33.01406
G1 X42.487 Y121.704 E33.26864
G1 X41.753 Y121.587 E33.28258
G1 X51.553 Y131.387 E33.54252
G1 X51.022 Y131.472 E33.55262
G1 X41.019 Y121.469 E33.81793
G1 X40.284 Y121.352 E33.83188
G1 X50.490 Y131.557 E34.10256
G1 X49.958 Y131.642 E34.11266
G1 X39.550 Y121.234 E34.38872
G1 X38.889 Y121.190 E34.40114
G1 X49.427 Y131.727 E34.68063
G1 X48.895 Y131.812 E34.69073
G1 X38.273 Y121.190 E34.97247
G1 X37.656 Y121.190 E34.98404
G1 X48.364 Y131.897 E35.26804
G1 X47.832 Y131.982 E35.27813
G1 X37.039 Y121.190 E35.56439
G1 X36.423 Y121.190 E35.57595
G1 X47.300 Y132.067 E35.86447
G1 X46.769 Y132.153 E35.87456
G1 X35.806 Y121.190 E36.16533
G1 X35.381 Y121.381 E36.17408
G1 X46.237 Y132.238 E36.46202
G1 X45.706 Y132.323 E36.47212
G1 X35.381 Y121.998 E36.74596
G1 X35.381 Y122.615 E36.75752
G1 X45.174 Y132.408 E37.01727
G1 X44.643 Y132.493 E37.02737
G1 X35.381 Y123.231 E37.27301
G1 X35.381 Y123.848 E37.28458
G1 X44.111 Y132.578 E37.51612
G1 X43.579 Y132.663 E37.52622
G1 X35.381 Y124.465 E37.74366
G1 X35.381 Y125.081 E37.75523
G1 X43.048 Y132.748 E37.95858
