; generated by Slic3r 1.2.6 on 2015-05-01 at 21:07:04

; external perimeters extrusion width = 0.50mm
; perimeters extrusion width = 0.50mm
; infill extrusion width = 0.50mm
; solid infill extrusion width = 0.50mm
; top infill extrusion width = 0.50mm

M104 S190 ; set temperature
G28 ; home all axes
G1 Z15 F120 ; lift nozzle
M109 S190 ; wait for temperature to be reached
G21 ; set units to millimeters
G90 ; use absolute coordinates
M82 ; use absolute distances for extrusion
G92 E0
M106 S112.2
G1 E-2.00000 F1680.00000
G92 E0
G1 Z0.200 F12000.000
G1 X60.605 Y62.161 F12000.000
G1 E2.00000 F1680.00000
G1 X62.456 Y60.798 E2.06471 F1200.000
G1 X65.307 Y60.103 E2.14731
G1 X120.986 Y59.180 E3.71501
G1 X123.256 Y59.540 E3.77972
G1 X125.269 Y60.650 E3.84443 F1200.000
G1 X126.783 Y62.380 E3.90914
G1 X127.747 Y65.649 E4.00508
G1 X128.735 Y101.299 E5.00910
G1 X128.723 Y103.589 E5.07355
G1 X128.310 Y105.850 E5.13826
G1 X127.152 Y107.836 E5.20297
G1 X125.387 Y109.309 E5.26768
G1 X123.227 Y110.094 E5.33239
G1 X122.005 Y110.195 E5.36691
G1 X65.672 Y109.652 E6.95286
G1 X63.412 Y109.233 E7.01757
G1 X61.786 Y108.353 E7.06963
G1 X49.650 Y99.398 E7.49422
G1 X48.064 Y97.734 E7.55893
G1 X47.255 Y96.048 E7.61158
G1 X44.243 Y86.513 E7.89308
G1 X44.015 Y85.643 E7.91838
G1 X43.898 Y84.997 E7.93689
G1 X43.824 Y84.293 E7.95680
G1 X43.795 Y83.631 E7.97547
G1 X43.814 Y83.051 E7.99180
G1 X43.888 Y82.294 E8.01322
G1 X43.967 Y81.807 E8.02711
G1 X44.198 Y80.867 E8.05435
G1 X44.368 Y80.348 E8.06973
G1 X44.590 Y79.793 E8.08656
G1 X44.804 Y79.330 E8.10091
G1 X45.068 Y78.844 E8.11647
G1 X45.566 Y78.065 E8.14252
G1 X45.963 Y77.542 E8.16101
G1 X46.288 Y77.158 E8.17516
G1 X60.553 Y62.215 E8.75675
G1 E6.75675 F1680.00000
G92 E0
G1 X89.628 Y87.147 F12000.000
G1 E2.00000 F1680.00000
G1 X89.135 Y87.076 E2.00933 F900.000
G1 X88.824 Y86.985 E2.01540
G1 X88.518 Y86.868 E2.02154
G1 X88.238 Y86.720 E2.02746
G1 X87.790 Y86.414 E2.03765
G1 X87.547 Y86.196 E2.04376
G1 X87.329 Y85.953 E2.04988
G1 X87.027 Y85.511 E2.05991
G1 X86.831 Y85.120 E2.06810
G1 X86.727 Y84.824 E2.07398
G1 X86.626 Y84.394 E2.08225
G1 X86.584 Y83.952 E2.09058
G1 X86.584 Y83.750 E2.09435
G1 X86.609 Y83.429 E2.10040
G1 X86.666 Y83.109 E2.10648
G1 X86.758 Y82.799 E2.11255
G1 X86.875 Y82.492 E2.11869
G1 X87.022 Y82.213 E2.12461
G1 X87.203 Y81.929 E2.13091
G1 X87.547 Y81.521 E2.14091
G1 X87.962 Y81.172 E2.15107
G1 X88.328 Y80.949 E2.15911
G1 X88.733 Y80.760 E2.16748
G1 X89.140 Y80.639 E2.17544
G1 X89.335 Y80.602 E2.17915
G1 X89.790 Y80.558 E2.18771
G1 X90.006 Y80.559 E2.19176
G1 X90.314 Y80.583 E2.19755 F900.000
G1 X90.631 Y80.640 E2.20358
G1 X91.245 Y80.846 E2.21574
G1 X91.531 Y80.997 E2.22178
G1 X91.802 Y81.169 E2.22780
G1 X92.222 Y81.521 E2.23806
G1 X92.574 Y81.941 E2.24833
G1 X92.742 Y82.205 E2.25420
G1 X92.937 Y82.597 E2.26240
G1 X93.042 Y82.893 E2.26829
G1 X93.143 Y83.323 E2.27656
G1 X93.185 Y83.757 E2.28472
G1 X93.185 Y83.958 E2.28850
G1 X93.160 Y84.289 E2.29471
G1 X93.102 Y84.607 E2.30076
G1 X92.978 Y85.023 E2.30891
G1 X92.898 Y85.216 E2.31282
G1 X92.746 Y85.505 E2.31894
G1 X92.574 Y85.776 E2.32496
G1 X92.222 Y86.196 E2.33522
G1 X91.813 Y86.540 E2.34523
G1 X91.537 Y86.716 E2.35137
G1 X91.146 Y86.911 E2.35956
G1 X90.849 Y87.016 E2.36544
G1 X90.419 Y87.117 E2.37372
G1 X89.986 Y87.159 E2.38188
G1 X89.703 Y87.153 E2.38719
G1 X89.669 Y87.587 F12000.000
G1 X89.399 Y87.566 E2.39228 F900.000
G1 X89.035 Y87.501 E2.39921
G1 X88.685 Y87.398 E2.40604
G1 X88.338 Y87.265 E2.41300
G1 X88.019 Y87.097 E2.41975
G1 X87.706 Y86.897 E2.42672
G1 X87.238 Y86.504 E2.43816
G1 X86.845 Y86.037 E2.44960
G1 X86.647 Y85.726 E2.45652
G1 X86.430 Y85.290 E2.46564
G1 X86.308 Y84.946 E2.47247
G1 X86.195 Y84.465 E2.48173
G1 X86.148 Y83.973 E2.49100
G1 X86.148 Y83.733 E2.49549
G1 X86.176 Y83.373 E2.50226
G1 X86.242 Y83.009 E2.50919
G1 X86.345 Y82.659 E2.51602
G1 X86.477 Y82.312 E2.52298
G1 X86.645 Y81.994 E2.52973
G1 X86.845 Y81.680 E2.53670
G1 X87.238 Y81.213 E2.54814
G1 X87.716 Y80.812 E2.55982
G1 X88.122 Y80.564 E2.56873
G1 X88.578 Y80.352 E2.57816
G1 X89.036 Y80.215 E2.58712
G1 X89.273 Y80.170 E2.59163
G1 X89.770 Y80.122 E2.60098
G1 X90.024 Y80.123 E2.60574
G1 X90.370 Y80.150 E2.61224 F900.000
G1 X90.733 Y80.216 E2.61916
G1 X91.187 Y80.354 E2.62806
G1 X91.429 Y80.450 E2.63293
G1 X91.749 Y80.620 E2.63973
G1 X92.051 Y80.811 E2.64641
G1 X92.530 Y81.213 E2.65813
G1 X92.932 Y81.692 E2.66985
G1 X93.121 Y81.991 E2.67648
G1 X93.339 Y82.427 E2.68561
G1 X93.460 Y82.770 E2.69244
G1 X93.573 Y83.252 E2.70171
G1 X93.620 Y83.736 E2.71081
G1 X93.620 Y83.975 E2.71530
G1 X93.592 Y84.344 E2.72223
G1 X93.527 Y84.708 E2.72916
G1 X93.389 Y85.169 E2.73819
G1 X93.293 Y85.401 E2.74289
G1 X93.123 Y85.724 E2.74972
G1 X92.932 Y86.025 E2.75640
G1 X92.530 Y86.504 E2.76812
G1 X92.063 Y86.897 E2.77956
G1 X91.752 Y87.096 E2.78648
G1 X91.316 Y87.313 E2.79560
G1 X90.972 Y87.434 E2.80243
G1 X90.491 Y87.547 E2.81170
G1 X90.007 Y87.595 E2.82080
G1 X89.744 Y87.593 E2.82573
G1 X89.548 Y87.344 F12000.000
G1 X88.061 Y86.198 F12000.000
G1 X87.545 Y85.682 E2.83995 F1200.000
G1 X86.908 Y84.404 F12000.000
G1 X89.348 Y86.844 E2.90717 F1200.000
G1 X90.055 Y86.911 E2.92100
G1 X86.832 Y83.688 E3.00978
G1 X86.902 Y83.117 E3.02098
G1 X90.618 Y86.834 E3.12336
G1 X91.111 Y86.686 E3.13338
G1 X87.058 Y82.633 E3.24503
G1 X87.276 Y82.211 E3.25429
G1 X91.532 Y86.467 E3.37152
G1 X91.898 Y86.192 E3.38043
G1 X87.550 Y81.845 E3.50019
G1 X87.870 Y81.524 E3.50902
G1 X92.218 Y85.872 E3.62878
G1 X92.493 Y85.506 E3.63769
G1 X88.239 Y81.253 E3.75485
G1 X88.661 Y81.034 E3.76411
G1 X92.714 Y85.087 E3.87575
G1 X92.867 Y84.599 E3.88570
G1 X89.142 Y80.875 E3.98829
G1 X89.714 Y80.806 E3.99950
G1 X92.937 Y84.029 E4.08828
G1 X92.861 Y83.313 E4.10231
G1 X90.421 Y80.872 E4.16953
G1 X91.711 Y81.522 F12000.000
G1 X92.220 Y82.032 E4.18357 F1200.000
G1 E2.18357 F1680.00000
G92 E0
G1 Z0.200 F12000.000
G1 X75.038 Y82.785 F12000.000
G1 E2.00000 F1680.00000
G1 X75.075 Y83.366 E2.01091 F900.000
G1 X75.052 Y83.656 E2.01635
G1 X74.999 Y83.930 E2.02159
G1 X74.830 Y84.420 E2.03129
G1 X74.698 Y84.675 E2.03667
G1 X74.537 Y84.926 E2.04226
G1 X74.354 Y85.148 E2.04766
G1 X74.131 Y85.371 E2.05357
G1 X73.748 Y85.662 E2.06258
G1 X73.383 Y85.857 E2.07033
G1 X72.921 Y86.016 E2.07948
G1 X72.648 Y86.069 E2.08469
G1 X72.122 Y86.094 E2.09457
G1 X71.832 Y86.071 E2.10001
G1 X71.557 Y86.018 E2.10526
G1 X71.069 Y85.849 E2.11495
G1 X70.813 Y85.717 E2.12033
G1 X70.563 Y85.556 E2.12591
G1 X70.339 Y85.372 E2.13135
G1 X70.117 Y85.150 E2.13722
G1 X69.932 Y84.925 E2.14268
G1 X69.771 Y84.676 E2.14823
G1 X69.633 Y84.407 E2.15390
G1 X69.472 Y83.940 E2.16315
G1 X69.419 Y83.667 E2.16836
G1 X69.394 Y83.141 E2.17824
G1 X69.417 Y82.853 E2.18365
G1 X69.471 Y82.577 E2.18893
G1 X69.639 Y82.087 E2.19862
G1 X69.771 Y81.832 E2.20400
G1 X69.932 Y81.582 E2.20958
G1 X70.115 Y81.359 E2.21499
G1 X70.338 Y81.136 E2.22090
G1 X70.721 Y80.845 E2.22990
G1 X71.086 Y80.650 E2.23766
G1 X71.442 Y80.518 E2.24477
G1 X71.825 Y80.438 E2.25211
G1 X72.348 Y80.413 E2.26192
G1 X72.637 Y80.436 E2.26734
G1 X72.911 Y80.490 E2.27259 F900.000
G1 X73.122 Y80.562 E2.27677
G1 X73.690 Y81.084 E2.29120
G1 X73.906 Y80.962 E2.29586
G1 X74.059 Y81.072 E2.29938
G1 X74.356 Y81.361 E2.30714
G1 X74.537 Y81.582 E2.31249
G1 X74.698 Y81.831 E2.31805
G1 X74.909 Y82.285 E2.32743
G1 X74.970 Y82.461 E2.33092
G1 X75.022 Y82.712 E2.33572
G1 X75.449 Y82.623 F12000.000
G1 X75.483 Y82.789 E2.33890 F900.000
G1 X75.512 Y83.373 E2.34986
G1 X75.484 Y83.715 E2.35629
G1 X75.420 Y84.043 E2.36255
G1 X75.232 Y84.591 E2.37341
G1 X75.076 Y84.893 E2.37978
G1 X74.889 Y85.183 E2.38623
G1 X74.677 Y85.441 E2.39250
G1 X74.424 Y85.694 E2.39920
G1 X74.163 Y85.909 E2.40554
G1 X73.972 Y86.036 E2.40983
G1 X73.566 Y86.253 E2.41847
G1 X73.029 Y86.439 E2.42912
G1 X72.701 Y86.502 E2.43537
G1 X72.115 Y86.531 E2.44636
G1 X71.773 Y86.503 E2.45279
G1 X71.444 Y86.439 E2.45906
G1 X70.897 Y86.251 E2.46991
G1 X70.595 Y86.095 E2.47628
G1 X70.305 Y85.908 E2.48273
G1 X70.046 Y85.695 E2.48903
G1 X69.794 Y85.443 E2.49570
G1 X69.580 Y85.183 E2.50203
G1 X69.394 Y84.895 E2.50845
G1 X69.235 Y84.587 E2.51493
G1 X69.050 Y84.048 E2.52562
G1 X68.986 Y83.720 E2.53188
G1 X68.957 Y83.134 E2.54287
G1 X68.985 Y82.794 E2.54927
G1 X69.049 Y82.463 E2.55557
G1 X69.238 Y81.916 E2.56642
G1 X69.393 Y81.614 E2.57279
G1 X69.580 Y81.325 E2.57924
G1 X69.792 Y81.066 E2.58551
G1 X70.045 Y80.813 E2.59222
G1 X70.306 Y80.598 E2.59854
G1 X70.497 Y80.471 E2.60284
G1 X70.903 Y80.254 E2.61147
G1 X71.326 Y80.097 E2.61991
G1 X71.770 Y80.005 E2.62842
G1 X72.355 Y79.976 E2.63940
G1 X72.696 Y80.004 E2.64580
G1 X73.025 Y80.068 E2.65208 F900.000
G1 X73.516 Y80.237 E2.66181
G1 X73.485 Y80.304 E2.66319
G1 X73.752 Y80.549 E2.66998
G1 X73.936 Y80.446 E2.67394
G1 X74.340 Y80.738 E2.68327
G1 X74.677 Y81.066 E2.69207
G1 X74.889 Y81.325 E2.69835
G1 X75.075 Y81.613 E2.70478
G1 X75.233 Y81.919 E2.71124
G1 X75.317 Y82.134 E2.71556
G1 X75.391 Y82.345 E2.71974
G1 X75.433 Y82.549 E2.72366
G1 X75.322 Y82.736 F12000.000
G1 X74.327 Y81.843 F12000.000
G1 X73.769 Y81.285 E2.73893 F1200.000
G1 X72.537 Y80.689 F12000.000
G1 X74.797 Y82.950 E2.80088 F1200.000
G1 X74.814 Y83.604 E2.81356
G1 X71.889 Y80.679 E2.89370
G1 X71.359 Y80.786 E2.90419
G1 X74.696 Y84.123 E2.99565
G1 X74.508 Y84.572 E3.00508
G1 X70.925 Y80.989 E3.10326
G1 X70.549 Y81.250 E3.11213
G1 X74.238 Y84.939 E3.21322
G1 X73.920 Y85.258 E3.22195
G1 X70.230 Y81.569 E3.32305
G1 X69.960 Y81.936 E3.33188
G1 X73.543 Y85.518 E3.43005
G1 X73.105 Y85.717 E3.43937
G1 X69.773 Y82.385 E3.53067
G1 X69.655 Y82.904 E3.54099
G1 X72.579 Y85.828 E3.62111
G1 X71.931 Y85.818 E3.63366
G1 X69.670 Y83.557 E3.69561
G1 X70.147 Y84.671 F12000.000
G1 X70.818 Y85.341 E3.71399 F1200.000
G1 E1.71399 F1680.00000
G92 E0
G1 Z0.200 F12000.000
G1 X95.359 Y67.243 F12000.000
G1 E2.00000 F1680.00000
G1 X90.083 Y67.304 E2.09887 F900.000
G1 X90.079 Y67.043 E2.10375
G1 X102.100 Y66.840 E2.32902
G1 X102.106 Y67.163 E2.33506
G1 X95.434 Y67.242 E2.46008 F900.000
G1 X95.439 Y67.677 F12000.000
G1 X65.685 Y68.005 E3.01762 F720.000
G1 X65.671 Y67.020 E3.03607
G1 X102.528 Y66.398 E3.72676
G1 X102.533 Y66.708 E3.73259
G1 X120.853 Y66.399 E4.07589 F720.000
G1 X120.867 Y67.377 E4.09422
G1 X95.514 Y67.676 E4.56929
G1 X95.184 Y67.247 F12000.000
G1 X102.775 Y66.249 F12000.000
G1 X121.096 Y65.924 E4.91262 F720.000
G1 X120.642 Y66.891 F12000.000
G1 X112.260 Y67.011 E5.15985 F600.000
G1 X112.260 Y67.011 F12000.000
G1 X102.324 Y67.154 E5.23919 F600.000
G1 X89.863 Y67.177 F12000.000
G1 X65.896 Y67.509 E5.94605 F600.000
G1 E3.94605 F1680.00000
G92 E0
G1 Z0.200 F12000.000
G1 X51.551 Y82.319 F12000.000
G1 E2.00000 F1680.00000
G1 X51.766 Y82.045 E2.00652 F900.000
G1 X52.161 Y81.707 E2.01626
G1 X52.364 Y81.580 E2.02075
G1 X52.802 Y81.387 E2.02971
G1 X53.014 Y81.330 E2.03383
G1 X53.297 Y81.284 E2.03920
G1 X53.895 Y81.299 E2.05041
G1 X54.105 Y81.341 E2.05443 F900.000
G1 X54.499 Y81.481 E2.06226
G1 X54.636 Y81.547 E2.06511
G1 X54.938 Y81.738 E2.07180
G1 X55.285 Y82.044 E2.08046
G1 X55.462 Y82.259 E2.08569
G1 X55.651 Y82.558 E2.09231
G1 X55.791 Y82.880 E2.09889
G1 X55.878 Y83.198 E2.10507
G1 X55.918 Y83.478 E2.11036
G1 X55.918 Y83.818 E2.11673
G1 X55.861 Y84.195 E2.12389
G1 X55.806 Y84.397 E2.12780
G1 X55.716 Y84.633 E2.13254
G1 X55.613 Y84.835 E2.13679
G1 X55.461 Y85.071 E2.14204
G1 X55.289 Y85.287 E2.14722
G1 X54.945 Y85.586 E2.15576
G1 X54.721 Y85.731 E2.16077
G1 X54.323 Y85.916 E2.16898
G1 X53.746 Y86.047 E2.18007
G1 X53.449 Y86.056 E2.18563
G1 X53.168 Y86.028 E2.19094
G1 X52.960 Y85.985 E2.19490
G1 X52.558 Y85.840 E2.20292
G1 X52.298 Y85.700 E2.20845
G1 X52.125 Y85.583 E2.21236
G1 X51.792 Y85.287 E2.22071
G1 X51.619 Y85.069 E2.22592
G1 X51.499 Y84.885 E2.23004
G1 X51.313 Y84.509 E2.23790
G1 X51.248 Y84.317 E2.24169
G1 X51.172 Y84.007 E2.24768
G1 X51.137 Y83.585 E2.25561
G1 X51.188 Y83.129 E2.26422
G1 X51.246 Y82.917 E2.26834
G1 X51.369 Y82.615 E2.27444
G1 X51.506 Y82.379 E2.27955
G1 X51.156 Y82.120 F12000.000
G1 X51.450 Y81.745 E2.28848 F900.000
G1 X51.670 Y81.538 E2.29414
G1 X51.910 Y81.350 E2.29985
G1 X52.159 Y81.194 E2.30536
G1 X52.656 Y80.975 E2.31553
G1 X52.922 Y80.904 E2.32069
G1 X53.260 Y80.849 E2.32711
G1 X53.702 Y80.845 E2.33538
G1 X53.957 Y80.867 E2.34017
G1 X54.222 Y80.920 E2.34524 F900.000
G1 X54.668 Y81.079 E2.35411
G1 X54.848 Y81.166 E2.35787
G1 X55.200 Y81.388 E2.36566
G1 X55.599 Y81.740 E2.37562
G1 X55.816 Y82.003 E2.38202
G1 X56.037 Y82.353 E2.38978
G1 X56.202 Y82.735 E2.39757
G1 X56.303 Y83.103 E2.40472
G1 X56.353 Y83.454 E2.41137
G1 X56.353 Y83.850 E2.41878
G1 X56.288 Y84.285 E2.42702
G1 X56.221 Y84.532 E2.43182
G1 X56.115 Y84.810 E2.43740
G1 X55.991 Y85.053 E2.44250
G1 X55.816 Y85.325 E2.44857
G1 X55.614 Y85.577 E2.45462
G1 X55.452 Y85.740 E2.45892
G1 X55.200 Y85.941 E2.46497
G1 X54.931 Y86.113 E2.47094
G1 X54.470 Y86.328 E2.48047
G1 X53.982 Y86.453 E2.48992
G1 X53.784 Y86.482 E2.49367
G1 X53.434 Y86.492 E2.50022
G1 X53.102 Y86.459 E2.50648
G1 X52.842 Y86.405 E2.51146
G1 X52.380 Y86.238 E2.52066
G1 X52.072 Y86.073 E2.52721
G1 X51.630 Y85.741 E2.53756
G1 X51.467 Y85.577 E2.54190
G1 X51.265 Y85.324 E2.54796
G1 X51.120 Y85.101 E2.55295
G1 X50.909 Y84.676 E2.56184
G1 X50.829 Y84.439 E2.56653
G1 X50.741 Y84.077 E2.57351
G1 X50.700 Y83.589 E2.58269
G1 X50.761 Y83.037 E2.59308
G1 X50.833 Y82.776 E2.59816
G1 X50.977 Y82.424 E2.60529
G1 X51.116 Y82.183 E2.61050
G1 X51.630 Y82.166 F12000.000
G1 X51.409 Y83.758 F12000.000
G1 X53.447 Y85.797 E2.66616 F1200.000
G1 X54.039 Y85.753 E2.67761
G1 X51.427 Y83.141 E2.74894
G1 X51.587 Y82.667 E2.75861
G1 X54.509 Y85.589 E2.83841
G1 X54.901 Y85.346 E2.84732
G1 X51.847 Y82.292 E2.93072
G1 X52.168 Y81.978 E2.93938
G1 X55.219 Y85.029 E3.02271
G1 X55.468 Y84.643 E3.03158
G1 X52.558 Y81.733 E3.11104
G1 X53.026 Y81.566 E3.12062
G1 X55.627 Y84.167 E3.19167
G1 X55.666 Y83.572 E3.20320
G1 X53.638 Y81.543 E3.25859
G1 X54.709 Y81.979 F12000.000
G1 X55.265 Y82.535 E3.27378 F1200.000
G1 X52.355 Y85.339 F12000.000
G1 X51.843 Y84.828 E3.28775 F1200.000
G1 E1.28775 F1680.00000
G92 E0
G1 Z0.200 F12000.000
G1 Z0.200 F12000.000
G1 X108.683 Y102.105 F12000.000
G1 E2.00000 F1680.00000
G1 X121.393 Y102.166 E2.23814 F900.000
G1 X121.388 Y102.849 E2.25093 F900.000
G1 X107.754 Y102.717 E2.50641
G1 X107.758 Y102.100 E2.51797
G1 X108.608 Y102.104 E2.53390
G1 X108.611 Y101.669 F12000.000
G1 X121.832 Y101.733 E2.78163 F900.000
G1 X121.820 Y103.288 E2.81078 F900.000
G1 X107.315 Y103.149 E3.08259
G1 X107.326 Y101.662 E3.11044
G1 X108.536 Y101.668 E3.13311
G1 X108.858 Y102.103 F12000.000
G1 X107.064 Y103.285 F12000.000
G1 X90.775 Y102.994 E3.43836 F720.000
G1 X89.130 Y102.868 E3.46929
G1 X89.635 Y101.390 F12000.000
G1 X65.749 Y101.298 E3.91685 F720.000
G1 X65.995 Y101.770 F12000.000
G1 X82.826 Y101.845 E4.23222 F720.000
G1 X88.890 Y102.727 E4.34703 F720.000
G1 X88.871 Y102.971 E4.35161
G1 X65.988 Y102.750 E4.78038
G1 X65.995 Y101.845 E4.79735
G1 X66.427 Y102.022 F12000.000
G1 X66.210 Y102.262 F12000.000
G1 X82.786 Y102.379 E5.28622 F600.000
G1 X84.009 Y102.473 E5.32238
G1 X84.009 Y102.473 F12000.000
G1 X85.735 Y102.606 E5.33620 F600.000
M106 S255
M104 S188 ; set temperature
G1 E3.33620 F1680.00000
G92 E0
G1 Z0.400 F12000.000
G1 X92.682 Y81.817 F12000.000
G1 E2.00000 F1680.00000
G1 X92.828 Y82.024 E2.00332 F1748.820
G1 X92.994 Y82.322 E2.00779
G1 X93.170 Y82.741 E2.01375
G1 X93.287 Y83.185 E2.01976
G1 X93.336 Y83.520 E2.02420
G1 X93.353 Y83.854 E2.02858
G1 X93.336 Y84.198 E2.03309
G1 X93.287 Y84.532 E2.03752
G1 X93.170 Y84.975 E2.04354
G1 X92.994 Y85.395 E2.04949
G1 X92.711 Y85.874 E2.05679
G1 X92.410 Y86.234 E2.06294
G1 X92.175 Y86.461 E2.06723
G1 X91.899 Y86.678 E2.07182
G1 X91.621 Y86.858 E2.07616
G1 X91.201 Y87.064 E2.08229
G1 X90.893 Y87.178 E2.08659
G1 X90.562 Y87.260 E2.09107
G1 X90.223 Y87.310 E2.09556
G1 X89.889 Y87.327 E2.09995
G1 X89.545 Y87.310 E2.10446
G1 X89.206 Y87.260 E2.10895
G1 X88.880 Y87.179 E2.11336
G1 X88.567 Y87.064 E2.11773
G1 X88.143 Y86.856 E2.12391
G1 X87.860 Y86.679 E2.12829
G1 X87.598 Y86.465 E2.13273
G1 X87.358 Y86.234 E2.13709
G1 X87.058 Y85.874 E2.14323
G1 X86.775 Y85.395 E2.15053
G1 X86.599 Y84.975 E2.15649
