; generated by Slic3r 1.2.6 on 2015-05-02 at 15:58:27

; external perimeters extrusion width = 0.50mm
; perimeters extrusion width = 0.50mm
; infill extrusion width = 0.50mm
; solid infill extrusion width = 0.50mm
; top infill extrusion width = 0.50mm
; support material extrusion width = 0.50mm

M104 S190 ; set temperature
G28 ; home all axes
G1 Z15 F120 ; lift nozzle
M109 S190 ; wait for temperature to be reached
G21 ; set units to millimeters
G90 ; use absolute coordinates
M82 ; use absolute distances for extrusion
G92 E0
M106 S226.95
G1 E-2.00000 F1680.00000
G92 E0
G1 Z0.350 F12000.000
G1 X82.372 Y27.454 F12000.000
G1 E2.00000 F1680.00000
G1 X82.789 Y26.487 E2.02965 F1200.000
G1 X83.807 Y26.064 E2.06070
G1 X86.197 Y26.064 E2.12796
G1 X87.176 Y26.450 E2.15761
G1 X87.632 Y27.453 E2.18861 F1200.000
G1 X89.222 Y75.510 E3.54227
G1 X89.024 Y128.458 E5.03285
G1 X88.530 Y143.097 E5.44521
G1 X88.378 Y143.692 E5.46250
G1 X87.833 Y144.780 E5.49677
G1 X86.549 Y145.573 E5.53925
G1 X83.625 Y145.573 E5.62156
G1 X82.701 Y145.236 E5.64924
G1 X82.015 Y144.660 E5.67446
G1 X81.505 Y143.630 E5.70683
G1 X81.418 Y141.839 E5.75731
G1 X80.964 Y129.133 E6.11524
G1 X80.794 Y76.925 E7.58499
G1 X82.369 Y27.529 E8.97629
G1 E6.97629 F1680.00000
G92 E0
G1 X84.685 Y30.646 F12000.000
G1 E2.00000 F1680.00000
G1 X84.626 Y29.127 E2.03957 F900.000
G1 X84.471 Y28.153 E2.06523
G1 X85.464 Y28.153 E2.09108
G1 X85.407 Y28.657 E2.10428
G1 X85.346 Y29.137 E2.11687 F900.000
G1 X85.104 Y35.349 E2.27867
G1 X84.869 Y35.349 E2.28479
G1 X84.688 Y30.721 E2.40533
G1 X84.285 Y30.737 F12000.000
G1 X84.223 Y29.167 E2.44623 F900.000
G1 X84.081 Y28.266 E2.46995
G1 X84.065 Y27.750 E2.48340
G1 X85.916 Y27.750 E2.53159
G1 X85.808 Y28.706 E2.55662
G1 X85.749 Y29.171 E2.56882 F900.000
G1 X85.492 Y35.752 E2.74026
G1 X84.481 Y35.752 E2.76658
G1 X84.288 Y30.812 E2.89527
G1 X84.708 Y30.470 F12000.000
G1 X84.986 Y30.114 F12000.000
G1 X84.974 Y28.355 E2.91268 F600.000
G1 E0.91268 F1680.00000
G92 E0
G1 Z0.350 F12000.000
G1 X83.105 Y75.176 F12000.000
G1 E2.00000 F1680.00000
G1 X82.230 Y76.921 E2.05080 F1200.000
G1 X82.301 Y78.724 E2.09778
G1 X83.961 Y75.411 E2.19425
G1 X84.553 Y76.176 F12000.000
G1 X82.371 Y80.528 E2.32096 F1200.000
G1 X82.442 Y82.332 E2.36795
G1 X85.527 Y76.176 E2.54718
G1 X87.003 Y75.176 F12000.000
G1 X82.512 Y84.136 E2.80805 F1200.000
G1 X82.583 Y85.939 E2.85504
G1 X87.786 Y75.558 E3.15730
G1 X87.704 Y77.667 F12000.000
G1 X82.653 Y87.743 E3.45068 F1200.000
G1 X82.724 Y89.547 E3.49767
G1 X87.621 Y79.775 E3.78217
G1 X87.539 Y81.884 F12000.000
G1 X82.794 Y91.351 E4.05779 F1200.000
G1 E2.05779 F1680.00000
G92 E0
G1 X82.287 Y94.308 F12000.000
G1 E2.00000 F1680.00000
G1 X87.456 Y83.993 E2.30031 F1200.000
G1 X87.374 Y86.102 F12000.000
G1 X82.357 Y96.111 E2.59173 F1200.000
G1 X82.428 Y97.915 E2.63872
G1 X87.292 Y88.211 E2.92126
G1 X87.209 Y90.320 F12000.000
G1 X82.498 Y99.719 E3.19492 F1200.000
G1 X82.569 Y101.523 E3.24191
G1 X87.127 Y92.428 E3.50669
G1 X87.720 Y93.189 F12000.000
G1 X82.639 Y103.326 E3.80183 F1200.000
G1 X82.710 Y105.130 E3.84882
G1 X87.638 Y95.298 E4.13508
G1 X87.555 Y97.407 F12000.000
G1 X82.780 Y106.934 E4.41246 F1200.000
G1 X82.851 Y108.738 E4.45945
G1 X87.473 Y99.516 E4.72795
G1 X87.390 Y101.625 F12000.000
G1 X82.343 Y111.695 E5.02114 F1200.000
G1 X82.414 Y113.498 E5.06812
G1 X87.308 Y103.733 E5.35243
G1 X87.226 Y105.842 F12000.000
G1 X82.484 Y115.302 E5.62786 F1200.000
G1 X82.555 Y117.106 E5.67484
G1 X87.143 Y107.951 E5.94139
G1 X87.061 Y110.060 F12000.000
G1 X82.625 Y118.910 E6.19905 F1200.000
G1 X82.696 Y120.713 E6.24603
G1 X87.654 Y110.821 E6.53406
G1 X87.572 Y112.930 F12000.000
G1 X82.766 Y122.517 E6.81320 F1200.000
G1 X82.837 Y124.321 E6.86019
G1 X87.489 Y115.038 E7.13045
G1 X87.407 Y117.147 F12000.000
G1 X82.907 Y126.125 E7.39184 F1200.000
G1 E5.39184 F1680.00000
G92 E0
G1 X82.400 Y129.081 F12000.000
G1 E2.00000 F1680.00000
G1 X87.324 Y119.256 E2.28607 F1200.000
G1 X87.242 Y121.365 F12000.000
G1 X82.470 Y130.885 E2.56326 F1200.000
G1 X82.541 Y132.689 E2.61025
G1 X87.160 Y123.474 E2.87855
G1 X87.077 Y125.583 F12000.000
G1 X82.611 Y134.493 E3.13798 F1200.000
G1 X82.682 Y136.297 E3.18496
G1 X86.995 Y127.691 E3.43551
G1 X87.588 Y128.452 F12000.000
G1 X82.752 Y138.100 E3.71641 F1200.000
G1 X82.823 Y139.904 E3.76340
G1 X87.506 Y130.561 E4.03543
G1 X87.423 Y132.670 F12000.000
G1 X82.853 Y141.788 E4.30089 F1200.000
G1 X82.939 Y143.561 E4.34710
G1 X87.341 Y134.779 E4.60278
G1 X87.258 Y136.888 F12000.000
G1 X83.625 Y144.137 E4.81385 F1200.000
G1 X84.600 Y144.137 E4.83922
G1 X87.176 Y138.996 E4.98888
G1 X87.108 Y141.077 F12000.000
G1 X85.574 Y144.137 E5.07798 F1200.000
G1 X87.094 Y143.049 E5.12664
G1 X86.549 Y144.137 E5.15833
M106 S255
M104 S188 ; set temperature
G1 E3.15833 F1680.00000
G92 E0
G1 Z0.550 F12000.000
G1 X83.269 Y142.611 F12000.000
G1 E2.00000 F1680.00000
G1 X86.714 Y142.611 E2.04514 F983.976
G1 X86.769 Y139.676 E2.08363
G1 X83.204 Y139.676 E2.13035
G1 X83.089 Y136.740 E2.16886
G1 X86.883 Y136.740 E2.21859
G1 X86.998 Y133.804 E2.25710
G1 X82.974 Y133.804 E2.30984
G1 X82.860 Y130.869 E2.34834
G1 X87.113 Y130.869 E2.40409
G1 E0.40409 F1680.00000
G92 E0
G1 X86.605 Y127.933 F12000.000
G1 E2.00000 F1680.00000
G1 X83.368 Y127.933 E2.04242 F983.976
G1 X83.253 Y124.998 E2.08093
G1 X86.719 Y124.998 E2.12636
G1 X86.834 Y122.062 E2.16487
G1 X83.138 Y122.062 E2.21331
G1 X83.024 Y119.126 E2.25181
G1 X86.949 Y119.126 E2.30326
G1 X87.063 Y116.191 E2.34176
G1 X82.909 Y116.191 E2.39622
G1 X82.794 Y113.255 E2.43472
G1 X87.178 Y113.255 E2.49218
G1 E0.49218 F1680.00000
G92 E0
G1 X86.670 Y110.319 F12000.000
G1 E2.00000 F1680.00000
G1 X83.302 Y110.319 E2.04414 F983.976
G1 X83.188 Y107.384 E2.08264
G1 X86.785 Y107.384 E2.12979
G1 X86.899 Y104.448 E2.16829
G1 X83.073 Y104.448 E2.21845
G1 X82.958 Y101.513 E2.25695
G1 X87.014 Y101.513 E2.31011
G1 X87.129 Y98.577 E2.34862
G1 X82.844 Y98.577 E2.40478
G1 X82.729 Y95.641 E2.44329
G1 X87.244 Y95.641 E2.50246
G1 E0.50246 F1680.00000
G92 E0
G1 X86.735 Y92.706 F12000.000
G1 E2.00000 F1680.00000
G1 X83.237 Y92.706 E2.04585 F983.976
G1 X83.122 Y89.770 E2.08436
G1 X86.850 Y89.770 E2.13321
G1 X86.965 Y86.834 E2.17172
G1 X83.008 Y86.834 E2.22358
G1 X82.893 Y83.899 E2.26209
G1 X87.079 Y83.899 E2.31696
G1 X87.194 Y80.963 E2.35547
G1 X82.778 Y80.963 E2.41335
G1 X82.664 Y78.028 E2.45185
G1 X87.309 Y78.028 E2.51274
G1 X83.913 Y76.313 F12000.000
G1 X83.874 Y75.313 E2.52586 F983.976
G1 X82.251 Y75.313 E2.54714
G1 X82.942 Y93.006 E2.77922
G1 X82.319 Y93.006 E2.78739
G1 X83.011 Y110.700 E3.01947
G1 X82.388 Y110.700 E3.02764
G1 X83.079 Y128.394 E3.25972
G1 X82.456 Y128.394 E3.26789
G1 X82.942 Y140.829 E3.43100
G1 X82.927 Y142.088 E3.44751
G1 X83.055 Y144.000 E3.47262
G1 X87.009 Y144.000 E3.52444
G1 X87.030 Y140.839 E3.56587
G1 X87.516 Y128.394 E3.72912
G1 X86.893 Y128.394 E3.73728
G1 X87.585 Y110.700 E3.96937
G1 X86.962 Y110.700 E3.97753
G1 X87.653 Y93.006 E4.20962
G1 X87.030 Y93.006 E4.21778
G1 X87.722 Y75.313 E4.44987
G1 X86.098 Y75.313 E4.47115
G1 X86.059 Y76.313 E4.48427
G1 X83.913 Y76.313 E4.51239
G1 E2.51239 F1680.00000
G92 E0
G1 Z0.650 F12000.000
G1 X85.789 Y36.910 F12000.000
G1 E2.00000 F1680.00000
M106 S255
G1 X85.112 Y54.242 E2.48831 F2400.000
G1 X84.861 Y54.242 E2.49539
G1 X84.157 Y36.252 E3.00224
M106 S255
G1 X83.879 Y29.124 E3.13590 F737.982
G1 X83.774 Y28.459 E3.14852
G1 X83.767 Y28.186 E3.15364
G1 X86.213 Y28.186 E3.19947
G1 X86.093 Y29.135 E3.21740
G1 X85.815 Y36.252 E3.35086
M106 S255
G1 X85.792 Y36.835 E3.36728 F2400.000
M106 S255
G1 X86.227 Y36.852 F12000.000
M106 S255
G1 X85.406 Y57.869 E3.95940 F2400.000
G1 X84.566 Y57.869 E3.98304
G1 X83.445 Y29.167 E4.79169
G1 X83.339 Y28.498 E4.81073
G1 X83.321 Y27.750 E4.83181
G1 X83.565 Y27.750 E4.83868
M106 S255
G1 X86.420 Y27.750 E4.89218 F600.000
M106 S255
G1 X86.686 Y27.750 E4.89967 F2400.000
G1 X86.686 Y27.918 E4.90441
G1 X86.528 Y29.171 E4.93995
G1 X86.230 Y36.777 E5.15425
M106 S255
G1 E3.15425 F1680.00000
G92 E0
G1 X85.419 Y34.397 F12000.000
G1 E2.00000 F1680.00000
G1 X85.644 Y34.171 E2.00628 F983.976
G1 X85.670 Y33.498 E2.01954
G1 X84.772 Y34.397 E2.04455
G1 X84.322 Y34.199 E2.05421
G1 X85.697 Y32.824 E2.09246
G1 X85.723 Y32.151 E2.10572
G1 X84.298 Y33.577 E2.14538
G1 X84.273 Y32.954 E2.15764
G1 X85.749 Y31.478 E2.19872
G1 X85.776 Y30.805 E2.21197
G1 X84.249 Y32.331 E2.25445
G1 X84.225 Y31.709 E2.26672
G1 X85.802 Y30.131 E2.31061
G1 X85.828 Y29.458 E2.32386
G1 X84.200 Y31.086 E2.36916
G1 X84.176 Y30.463 E2.38142
G1 X85.878 Y28.762 E2.42877
G1 X85.559 Y28.434 E2.43777
G1 X84.152 Y29.841 E2.47692
G1 X84.127 Y29.218 E2.48918
G1 X84.912 Y28.434 E2.51101
G1 X84.265 Y28.434 E2.52374
G1 X84.043 Y28.656 E2.52993
G1 X84.595 Y34.583 F12000.000
M106 S255
G1 X84.323 Y34.856 E2.54193 F2400.000
G1 X84.353 Y35.640 E2.56635
G1 X85.410 Y34.583 E2.61286
G1 X85.628 Y35.179 E2.63262
G1 X84.384 Y36.423 E2.68741
G1 X84.414 Y37.207 E2.71183
G1 X85.595 Y36.026 E2.76382
G1 X85.562 Y36.874 E2.79022
G1 X84.445 Y37.991 E2.83940
G1 X84.476 Y38.774 E2.86382
G1 X85.529 Y37.721 E2.91019
G1 X85.496 Y38.569 E2.93659
G1 X84.506 Y39.558 E2.98016
G1 X84.537 Y40.342 E3.00458
G1 X85.463 Y39.416 E3.04533
G1 X85.429 Y40.264 E3.07174
G1 X84.568 Y41.126 E3.10969
G1 X85.396 Y41.111 E3.13549
G1 X84.598 Y41.909 E3.17064
G1 X85.363 Y41.959 E3.19450
G1 X84.629 Y42.693 E3.22684
G1 X85.330 Y42.806 E3.24895
G1 X85.056 Y43.080 E3.26103
M106 S255
G1 X84.986 Y43.304 F12000.000
G1 X84.986 Y45.728 E3.33251 F600.000
G1 X84.986 Y45.728 F12000.000
G1 X84.986 Y48.804 E3.35707 F600.000
G1 X84.986 Y54.460 F12000.000
G1 X84.986 Y56.884 E3.42855 F600.000
G1 E1.42855 F1680.00000
G92 E0
G1 Z0.850 F12000.000
G1 X83.961 Y93.472 F12000.000
G1 E2.00000 F1680.00000
G1 X83.943 Y93.006 E2.00873 F1226.162
G1 X82.319 Y93.006 E2.03916
G1 X83.011 Y110.700 E2.37094
G1 X82.388 Y110.700 E2.38261
G1 X83.079 Y128.394 E2.71440
G1 X82.456 Y128.394 E2.72607
G1 X82.942 Y140.829 E2.95925
G1 X82.927 Y142.088 E2.98285
G1 X83.055 Y144.000 E3.01875
G1 X87.009 Y144.000 E3.09283
G1 X87.030 Y140.839 E3.15205
G1 X87.516 Y128.394 E3.38543
G1 X86.893 Y128.394 E3.39710
G1 X87.585 Y110.700 E3.72889
G1 X86.962 Y110.700 E3.74056
G1 X87.653 Y93.006 E4.07234
G1 X86.030 Y93.006 E4.10277
G1 X85.990 Y94.006 E4.12152
G1 X83.982 Y94.006 E4.15915
G1 X83.961 Y93.472 E4.16917
G1 E2.16917 F1680.00000
G92 E0
G1 X87.265 Y95.641 F12000.000
G1 E2.00000 F1680.00000
G1 X82.707 Y95.641 E2.08540 F1226.162
G1 X82.822 Y98.577 E2.14044
G1 X87.150 Y98.577 E2.22154
G1 X87.036 Y101.513 E2.27659
G1 X82.937 Y101.513 E2.35339
G1 X83.052 Y104.448 E2.40844
G1 X86.921 Y104.448 E2.48094
G1 X86.806 Y107.384 E2.53598
G1 X83.166 Y107.384 E2.60418
G1 X83.281 Y110.319 E2.65923
G1 X86.691 Y110.319 E2.72313
G1 E0.72313 F1680.00000
G92 E0
G1 X87.200 Y113.255 F12000.000
G1 E2.00000 F1680.00000
G1 X82.773 Y113.255 E2.08295 F1226.162
G1 X82.887 Y116.191 E2.13800
G1 X87.085 Y116.191 E2.21664
G1 X86.970 Y119.126 E2.27169
G1 X83.002 Y119.126 E2.34604
G1 X83.117 Y122.062 E2.40109
G1 X86.855 Y122.062 E2.47114
G1 X86.741 Y124.998 E2.52619
G1 X83.232 Y124.998 E2.59194
G1 X83.346 Y127.933 E2.64699
G1 X86.626 Y127.933 E2.70844
G1 E0.70844 F1680.00000
G92 E0
G1 X87.134 Y130.869 F12000.000
G1 E2.00000 F1680.00000
G1 X82.838 Y130.869 E2.08050 F1226.162
G1 X82.953 Y133.804 E2.13555
G1 X87.020 Y133.804 E2.21175
G1 X86.905 Y136.740 E2.26679
G1 X83.068 Y136.740 E2.33869
G1 X83.182 Y139.676 E2.39374
G1 X86.790 Y139.676 E2.46134
G1 X86.735 Y142.611 E2.51636
G1 X83.248 Y142.611 E2.58170
G1 E0.58170 F1680.00000
G92 E0
G1 Z0.950 F12000.000
G1 X86.097 Y44.962 F12000.000
G1 E2.00000 F1680.00000
G1 X85.574 Y58.369 E2.25140 F919.621
M106 S255
G1 X85.112 Y70.184 E2.58427 F2400.000
G1 X84.861 Y70.184 E2.59134
G1 X84.399 Y58.369 E2.92420
M106 S255
G1 X83.604 Y38.019 E3.30579 F919.621
G1 X83.411 Y29.155 E3.47193
G1 X83.365 Y28.186 E3.49011
G1 X86.612 Y28.186 E3.55096
G1 X86.611 Y28.522 E3.55727
G1 X86.561 Y29.157 E3.56919
G1 X86.369 Y38.019 E3.73529
G1 X86.100 Y44.887 E3.86407
G1 X86.536 Y44.904 F12000.000
M106 S255
G1 X85.338 Y75.563 E4.72783 F2400.000
G1 X84.635 Y75.563 E4.74762
G1 X83.168 Y38.033 E5.80496
G1 X83.015 Y30.985 E6.00342
M106 S255
G1 X82.976 Y29.178 E6.03729 F735.697
G1 X82.950 Y28.867 E6.04314
G1 X82.916 Y27.750 E6.06407
G1 X87.049 Y27.750 E6.14151
G1 X87.047 Y28.540 E6.15632
G1 X86.996 Y29.179 E6.16832
G1 X86.957 Y30.985 E6.20217
M106 S255
G1 X86.804 Y38.033 E6.40063 F2400.000
G1 X86.539 Y44.829 E6.59211
M106 S255
G1 E4.59211 F1680.00000
G92 E0
G1 X84.795 Y56.514 F12000.000
G1 E2.00000 F1680.00000
G1 X84.570 Y56.288 E2.00607 F1226.162
G1 X84.544 Y55.637 E2.01849
G1 X85.392 Y56.484 E2.04130
G1 X85.426 Y55.892 E2.05259
G1 X84.519 Y54.985 E2.07701
G1 X84.493 Y54.334 E2.08942
G1 X85.449 Y55.290 E2.11516
G1 X85.473 Y54.687 E2.12663
G1 X84.468 Y53.682 E2.15369
G1 X84.442 Y53.031 E2.16610
G1 X85.496 Y54.085 E2.19448
G1 X85.520 Y53.482 E2.20595
G1 X84.417 Y52.380 E2.23565
G1 X84.391 Y51.728 E2.24806
G1 X85.543 Y52.880 E2.27907
G1 X85.567 Y52.278 E2.29055
G1 X84.366 Y51.077 E2.32288
G1 X84.340 Y50.425 E2.33529
G1 X85.590 Y51.675 E2.36894
G1 X85.614 Y51.073 E2.38042
G1 X84.315 Y49.774 E2.41539
G1 X84.290 Y49.123 E2.42780
G1 X85.637 Y50.470 E2.46409
G1 X85.661 Y49.868 E2.47557
G1 X84.264 Y48.471 E2.51318
G1 X84.239 Y47.820 E2.52559
G1 X85.684 Y49.266 E2.56452
G1 X85.708 Y48.663 E2.57600
G1 X84.213 Y47.168 E2.61624
G1 X84.188 Y46.517 E2.62865
G1 X85.732 Y48.061 E2.67022
G1 X85.755 Y47.458 E2.68170
G1 X84.162 Y45.865 E2.72458
G1 X84.137 Y45.214 E2.73700
G1 X85.779 Y46.856 E2.78120
G1 X85.802 Y46.253 E2.79268
G1 X84.111 Y44.563 E2.83820
G1 X84.086 Y43.911 E2.85061
G1 X85.826 Y45.651 E2.89746
G1 X85.849 Y45.049 E2.90893
G1 X84.060 Y43.260 E2.95710
G1 X84.035 Y42.608 E2.96951
G1 X85.873 Y44.446 E3.01899
G1 X85.896 Y43.844 E3.03047
G1 X84.010 Y41.957 E3.08127
G1 X83.984 Y41.306 E3.09368
G1 X85.920 Y43.241 E3.14580
G1 X85.943 Y42.639 E3.15728
G1 X83.959 Y40.654 E3.21072
G1 X83.933 Y40.003 E3.22313
G1 X85.967 Y42.037 E3.27789
G1 X85.991 Y41.434 E3.28937
G1 X83.908 Y39.351 E3.34544
G1 X83.882 Y38.700 E3.35785
G1 X86.014 Y40.832 E3.41525
G1 X86.038 Y40.229 E3.42673
G1 X83.857 Y38.048 E3.48545
G1 X83.841 Y37.406 E3.49767
G1 X86.061 Y39.627 E3.55746
G1 X86.085 Y39.024 E3.56894
G1 X83.827 Y36.766 E3.62973
G1 X83.813 Y36.127 E3.64192
G1 X86.108 Y38.422 E3.70372
G1 X86.127 Y37.815 E3.71529
G1 X83.799 Y35.487 E3.77796
G1 X83.785 Y34.847 E3.79015
G1 X86.140 Y37.202 E3.85356
G1 X86.154 Y36.589 E3.86523
G1 X83.771 Y34.207 E3.92937
G1 X83.757 Y33.567 E3.94155
G1 X86.167 Y35.977 E4.00643
G1 X86.180 Y35.364 E4.01809
G1 X83.743 Y32.927 E4.08370
G1 X83.730 Y32.288 E4.09588
G1 X86.193 Y34.751 E4.16222
G1 X86.207 Y34.139 E4.17389
G1 X83.716 Y31.648 E4.24096
G1 X83.702 Y31.008 E4.25314
G1 X86.220 Y33.526 E4.32094
G1 X86.233 Y32.913 E4.33261
G1 X83.688 Y30.368 E4.40114
G1 X83.674 Y29.728 E4.41332
G1 X86.247 Y32.301 E4.48258
G1 X86.260 Y31.688 E4.49425
G1 X83.660 Y29.088 E4.56424
G1 X83.651 Y28.453 E4.57633
G1 X86.273 Y31.075 E4.64693
G1 X86.286 Y30.463 E4.65860
G1 X84.257 Y28.434 E4.71323
G1 X84.883 Y28.434 E4.72514
G1 X86.300 Y29.850 E4.76327
G1 X86.313 Y29.237 E4.77494
G1 X85.509 Y28.434 E4.79658
G1 X86.135 Y28.434 E4.80850
G1 X86.359 Y28.657 E4.81451
G1 X85.409 Y56.973 F12000.000
M106 S255
G1 X85.136 Y56.700 E4.82759 F2400.000
G1 X84.573 Y56.985 E4.84897
G1 X85.377 Y57.788 E4.88751
G1 X84.608 Y57.866 E4.91372
G1 X85.345 Y58.603 E4.94908
G1 X84.917 Y59.022 E4.96940
G1 X84.642 Y58.748 E4.98255
M106 S255
G1 X84.986 Y59.246 F12000.000
G1 X84.986 Y61.670 E5.05404 F613.081
G1 X84.986 Y61.670 F12000.000
G1 X84.986 Y64.746 E5.07860 F613.081
G1 X84.986 Y70.402 F12000.000
G1 X84.986 Y72.826 E5.15008 F613.081
G1 X84.986 Y72.826 F12000.000
G1 X84.986 Y75.345 E5.17019 F613.081
G1 E3.17019 F1680.00000
G92 E0
G1 Z1.150 F12000.000
G1 X84.050 Y111.700 F12000.000
G1 E2.00000 F1680.00000
G1 X84.011 Y110.700 E2.01875 F1558.901
G1 X82.388 Y110.700 E2.04918
G1 X83.079 Y128.394 E2.38096
G1 X82.456 Y128.394 E2.39263
G1 X82.942 Y140.829 E2.62582
G1 X82.927 Y142.088 E2.64941
G1 X83.055 Y144.000 E2.68531
G1 X87.009 Y144.000 E2.75939
G1 X87.030 Y140.839 E2.81861
