; generated by Slic3r 1.2.6 on 2015-05-02 at 15:51:19

; external perimeters extrusion width = 0.50mm
; perimeters extrusion width = 0.50mm
; infill extrusion width = 0.50mm
; solid infill extrusion width = 0.50mm
; top infill extrusion width = 0.50mm

M104 S190 ; set temperature
G28 ; home all axes
G1 Z15 F120 ; lift nozzle
M109 S190 ; wait for temperature to be reached
G21 ; set units to millimeters
G90 ; use absolute coordinates
M82 ; use absolute distances for extrusion
G92 E0
M106 S255
G1 E-2.00000 F1680.00000
G92 E0
G1 Z0.350 F12000.000
G1 X81.717 Y81.318 F12000.000
G1 E2.00000 F1680.00000
G1 X81.995 Y81.088 E2.01014 F600.000
G1 X82.783 Y80.599 E2.03626
G1 X83.148 Y80.438 E2.04748
G1 X83.871 Y80.203 E2.06889
G1 X84.225 Y80.136 E2.07902
G1 X84.984 Y80.088 E2.10044
G1 X85.279 Y80.085 E2.10876
G1 X85.549 Y80.111 E2.11637
G1 X86.296 Y80.253 E2.13778 F600.000
G1 X86.638 Y80.364 E2.14792
G1 X87.523 Y80.783 E2.17548
G1 X87.816 Y80.970 E2.18526
G1 X88.402 Y81.455 E2.20667
G1 X88.609 Y81.666 E2.21500
G1 X89.223 Y82.494 E2.24401
G1 X89.397 Y82.809 E2.25415
G1 X89.677 Y83.516 E2.27556
G1 X89.762 Y83.835 E2.28484
G1 X89.908 Y84.828 E2.31311
G1 X89.910 Y85.161 E2.32247
G1 X89.762 Y86.165 E2.35106
G1 X89.677 Y86.484 E2.36033
G1 X89.397 Y87.191 E2.38175
G1 X89.223 Y87.506 E2.39188
G1 X88.609 Y88.334 E2.42089
G1 X88.402 Y88.545 E2.42922
G1 X87.816 Y89.030 E2.45064
G1 X87.523 Y89.217 E2.46041
G1 X86.638 Y89.636 E2.48797
G1 X86.296 Y89.747 E2.49811
G1 X85.549 Y89.889 E2.51952
G1 X85.074 Y89.915 E2.53290
G1 X84.225 Y89.864 E2.55685
G1 X83.871 Y89.797 E2.56699
G1 X83.148 Y89.562 E2.58840
G1 X82.637 Y89.319 E2.60432
G1 X81.995 Y88.912 E2.62573
G1 X81.717 Y88.682 E2.63587
G1 X81.196 Y88.128 E2.65728
G1 X80.992 Y87.879 E2.66633
G1 X80.857 Y87.676 E2.67322
G1 X80.490 Y87.009 E2.69463
G1 X80.358 Y86.675 E2.70477
G1 X80.114 Y85.700 E2.73305
G1 X80.078 Y85.380 E2.74211
G1 X80.078 Y84.620 E2.76352
G1 X80.114 Y84.300 E2.77257
G1 X80.358 Y83.325 E2.80086
G1 X80.490 Y82.991 E2.81100
G1 X80.857 Y82.324 E2.83241
G1 X80.992 Y82.121 E2.83930
G1 X81.196 Y81.872 E2.84834
G1 X81.666 Y81.372 E2.86765
G1 E0.86765 F1680.00000
G92 E0
G1 X87.696 Y84.191 F12000.000
G1 E2.00000 F1680.00000
G1 X87.812 Y85.000 E2.02128 F600.000
G1 X87.703 Y85.791 E2.04206
G1 X87.484 Y86.345 E2.05756
G1 X87.094 Y86.882 E2.07483
G1 X87.017 Y86.978 E2.07804
G1 X86.547 Y87.367 E2.09394
G1 X85.822 Y87.710 E2.11479
G1 X85.234 Y87.822 E2.13039
G1 X84.434 Y87.782 E2.15123
G1 X83.835 Y87.588 E2.16762
G1 X83.184 Y87.192 E2.18746
G1 X82.661 Y86.620 E2.20762
G1 X82.362 Y86.077 E2.22377
G1 X82.167 Y85.300 E2.24462
G1 X82.167 Y84.693 E2.26040
G1 X82.361 Y83.925 E2.28102
G1 X82.661 Y83.380 E2.29722
G1 X83.184 Y82.808 E2.31738
G1 X83.835 Y82.412 E2.33723
G1 X84.434 Y82.218 E2.35361
G1 X85.234 Y82.178 E2.37445
G1 X85.822 Y82.290 E2.39005
G1 X86.547 Y82.633 E2.41090 F600.000
G1 X87.008 Y83.015 E2.42650
G1 X87.485 Y83.658 E2.44735
G1 X87.669 Y84.121 E2.46031
G1 X88.044 Y83.973 F12000.000
G1 X88.097 Y84.108 E2.46409 F600.000
G1 X88.190 Y84.843 E2.48339
G1 X88.226 Y85.000 E2.48757
G1 X88.190 Y85.157 E2.49176
G1 X88.097 Y85.892 E2.51106
G1 X87.840 Y86.541 E2.52921
G1 X87.415 Y87.126 E2.54804
G1 X87.307 Y87.262 E2.55257
G1 X86.765 Y87.710 E2.57088
G1 X85.949 Y88.096 E2.59438
G1 X85.262 Y88.227 E2.61257
G1 X84.360 Y88.183 E2.63606
G1 X83.685 Y87.963 E2.65456
G1 X83.528 Y87.888 E2.65909
G1 X82.925 Y87.505 E2.67768
G1 X82.324 Y86.845 E2.70091
G1 X81.984 Y86.225 E2.71931
G1 X81.764 Y85.349 E2.74282
G1 X81.764 Y84.648 E2.76108
G1 X81.983 Y83.775 E2.78449
G1 X82.324 Y83.155 E2.80291
G1 X82.925 Y82.495 E2.82614
G1 X83.528 Y82.112 E2.84474
G1 X83.685 Y82.037 E2.84927
G1 X84.360 Y81.817 E2.86776
G1 X85.262 Y81.773 E2.89125
G1 X85.949 Y81.904 E2.90945
G1 X86.765 Y82.290 E2.93295 F600.000
G1 X87.303 Y82.735 E2.95114
G1 X87.841 Y83.460 E2.97464
G1 X88.016 Y83.903 E2.98703
G1 X87.953 Y84.086 F12000.000
G1 X86.950 Y83.424 F12000.000
G1 X86.532 Y83.006 E3.00289 F600.000
G1 X85.389 Y82.452 F12000.000
G1 X87.517 Y84.580 E3.08372 F600.000
G1 X87.568 Y85.220 E3.10097
G1 X84.768 Y82.420 E3.20734
G1 X84.248 Y82.489 E3.22144
G1 X87.497 Y85.737 E3.34486
G1 X87.341 Y86.170 E3.35723
G1 X83.810 Y82.640 E3.49138
G1 X83.448 Y82.866 E3.50286
G1 X87.114 Y86.533 E3.64215
G1 X86.846 Y86.853 E3.65339
G1 X83.140 Y83.148 E3.79418
G1 X82.852 Y83.449 E3.80537
G1 X86.536 Y87.132 E3.94533
G1 X86.153 Y87.338 E3.95701
G1 X82.637 Y83.822 E4.09060
G1 X82.486 Y84.260 E4.10304
G1 X85.739 Y87.513 E4.22665
G1 X85.232 Y87.594 E4.24047
G1 X82.390 Y84.753 E4.34842
G1 X82.446 Y85.398 E4.36580
G1 X84.612 Y87.564 E4.44810
G1 X83.540 Y87.081 F12000.000
G1 X82.989 Y86.530 E4.46902 F600.000
M104 S188 ; set temperature
G1 E2.46902 F1680.00000
G92 E0
G1 Z0.650 F12000.000
G1 X85.989 Y82.426 F12000.000
G1 E2.00000 F1680.00000
G1 X86.592 Y82.713 E2.01252 F600.000
G1 X86.902 Y82.969 E2.02005
G1 X87.472 Y83.718 E2.03767
G1 X87.614 Y84.076 E2.04489
G1 X87.678 Y84.585 E2.05451
G1 X87.773 Y85.000 E2.06248
G1 X87.678 Y85.415 E2.07045
G1 X87.614 Y85.924 E2.08007
G1 X87.469 Y86.289 E2.08743
G1 X86.908 Y87.026 E2.10477
G1 X86.592 Y87.287 E2.11245
G1 X85.743 Y87.691 E2.13008
G1 X85.337 Y87.769 E2.13782
G1 X84.876 Y87.769 E2.14647
G1 X84.419 Y87.740 E2.15505
G1 X84.007 Y87.606 E2.16316
G1 X83.591 Y87.406 E2.17182
G1 X83.220 Y87.170 E2.18005
G1 X82.910 Y86.841 E2.18851
G1 X82.622 Y86.480 E2.19716
G1 X82.422 Y86.115 E2.20496
G1 X82.200 Y85.201 E2.22259
G1 X82.200 Y84.794 E2.23021
G1 X82.420 Y83.889 E2.24767
G1 X82.622 Y83.520 E2.25555
G1 X82.910 Y83.159 E2.26420
G1 X83.220 Y82.830 E2.27267
G1 X83.591 Y82.594 E2.28090
G1 X84.007 Y82.394 E2.28955
G1 X84.419 Y82.260 E2.29767
G1 X84.876 Y82.231 E2.30625
G1 X85.337 Y82.231 E2.31490
G1 X85.743 Y82.309 E2.32264
G1 X85.922 Y82.394 E2.32635 F600.000
G1 X86.109 Y82.000 F12000.000
G1 X86.828 Y82.343 E2.34128 F600.000
G1 X87.219 Y82.666 E2.35077
G1 X87.855 Y83.502 E2.37045
G1 X88.039 Y83.967 E2.37982
G1 X88.107 Y84.509 E2.39007
G1 X88.219 Y85.000 E2.39950
G1 X88.107 Y85.491 E2.40893
G1 X88.039 Y86.033 E2.41918
G1 X87.854 Y86.501 E2.42860
G1 X87.221 Y87.332 E2.44818
G1 X86.828 Y87.657 E2.45772
G1 X85.880 Y88.109 E2.47741
G1 X85.378 Y88.204 E2.48697
G1 X84.862 Y88.204 E2.49665
G1 X84.336 Y88.171 E2.50652
G1 X83.844 Y88.011 E2.51622
G1 X83.379 Y87.787 E2.52590
G1 X82.940 Y87.509 E2.53564
G1 X82.581 Y87.126 E2.54546
G1 X82.259 Y86.722 E2.55514
G1 X82.012 Y86.274 E2.56472
G1 X81.764 Y85.253 E2.58441
G1 X81.764 Y84.745 E2.59393
G1 X82.011 Y83.727 E2.61356
G1 X82.259 Y83.278 E2.62317
G1 X82.581 Y82.874 E2.63285
G1 X82.940 Y82.491 E2.64268
G1 X83.379 Y82.213 E2.65242
G1 X83.844 Y81.989 E2.66210
G1 X84.336 Y81.829 E2.67179
G1 X84.862 Y81.796 E2.68166
G1 X85.378 Y81.796 E2.69134
G1 X85.880 Y81.891 E2.70090
G1 X86.041 Y81.968 E2.70425 F600.000
G1 X86.148 Y82.499 F12000.000
G1 X84.687 Y82.498 F12000.000
G1 X82.504 Y84.681 E2.76280 F600.000
G1 X82.469 Y85.339 E2.77531
G1 X85.329 Y82.480 E2.85202
G1 X85.837 Y82.595 E2.86191
G1 X82.591 Y85.841 E2.94900
G1 X82.764 Y86.291 E2.95815
G1 X86.260 Y82.796 E3.05192
G1 X86.642 Y83.037 E3.06050
G1 X83.028 Y86.651 E3.15743
G1 X83.340 Y86.963 E3.16580
G1 X86.938 Y83.365 E3.26232
G1 X87.207 Y83.719 E3.27076
G1 X83.706 Y87.220 E3.36468
G1 X84.137 Y87.413 E3.37364
G1 X87.386 Y84.165 E3.46077
G1 X87.469 Y84.705 E3.47113
G1 X84.662 Y87.512 E3.54644
G1 X85.292 Y87.505 E3.55840
G1 X87.420 Y85.378 E3.61548
G1 X86.868 Y86.553 F12000.000
G1 X86.407 Y87.014 E3.62785 F600.000
G1 X83.033 Y83.528 F12000.000
G1 X83.608 Y82.953 E3.64329 F600.000
G1 E1.64329 F1680.00000
G92 E0
G1 Z0.950 F12000.000
G1 X87.747 Y85.087 F12000.000
G1 E2.00000 F1680.00000
G1 X87.612 Y85.682 E2.01143 F600.000
G1 X87.567 Y86.037 E2.01813
G1 X87.480 Y86.257 E2.02258
G1 X87.298 Y86.507 E2.02836
G1 X86.840 Y87.082 E2.04214
G1 X86.643 Y87.244 E2.04692
G1 X85.688 Y87.701 E2.06676
G1 X85.435 Y87.749 E2.07158
G1 X84.700 Y87.749 E2.08536
G1 X84.398 Y87.730 E2.09102
G1 X84.134 Y87.644 E2.09623
G1 X83.471 Y87.325 E2.11001
G1 X83.231 Y87.173 E2.11533
G1 X83.029 Y86.957 E2.12088
G1 X82.570 Y86.382 E2.13466
G1 X82.445 Y86.155 E2.13951
G1 X82.200 Y85.125 E2.15936
G1 X82.200 Y84.872 E2.16409
G1 X82.364 Y84.155 E2.17788
G1 X82.442 Y83.850 E2.18377
G1 X82.570 Y83.618 E2.18874
G1 X83.029 Y83.043 E2.20252
G1 X83.231 Y82.827 E2.20807
G1 X83.471 Y82.675 E2.21339
G1 X84.134 Y82.356 E2.22717
G1 X84.398 Y82.270 E2.23238
G1 X84.700 Y82.251 E2.23804
G1 X85.435 Y82.251 E2.25182
G1 X85.688 Y82.299 E2.25664
G1 X86.643 Y82.756 E2.27648 F600.000
G1 X86.836 Y82.915 E2.28116
G1 X87.483 Y83.752 E2.30100
G1 X87.567 Y83.963 E2.30525
G1 X87.612 Y84.318 E2.31195
G1 X87.764 Y85.014 E2.32530
G1 X88.189 Y85.111 F12000.000
G1 X88.041 Y85.758 E2.33773 F600.000
G1 X87.992 Y86.146 E2.34506
G1 X87.864 Y86.469 E2.35157
G1 X87.645 Y86.771 E2.35856
G1 X87.152 Y87.389 E2.37337
G1 X86.880 Y87.614 E2.38000
G1 X85.825 Y88.118 E2.40191
G1 X85.476 Y88.185 E2.40855
G1 X84.686 Y88.185 E2.42336
G1 X84.316 Y88.162 E2.43032
G1 X83.971 Y88.050 E2.43710
G1 X83.259 Y87.707 E2.45191
G1 X82.952 Y87.511 E2.45874
G1 X82.699 Y87.243 E2.46564
G1 X82.206 Y86.625 E2.48046
G1 X82.035 Y86.313 E2.48711
G1 X81.765 Y85.176 E2.50902
G1 X81.765 Y84.823 E2.51563
G1 X81.941 Y84.052 E2.53044
G1 X82.034 Y83.689 E2.53748
G1 X82.206 Y83.375 E2.54418
G1 X82.699 Y82.757 E2.55899
G1 X82.952 Y82.489 E2.56590
G1 X83.259 Y82.293 E2.57272
G1 X83.971 Y81.950 E2.58754
G1 X84.316 Y81.838 E2.59432
G1 X84.686 Y81.815 E2.60127
G1 X85.476 Y81.815 E2.61608
G1 X85.825 Y81.882 E2.62272
G1 X86.880 Y82.386 E2.64463 F600.000
G1 X87.151 Y82.610 E2.65122
G1 X87.866 Y83.535 E2.67313
G1 X87.992 Y83.854 E2.67956
G1 X88.041 Y84.242 E2.68689
G1 X88.214 Y85.000 E2.70146
G1 X88.206 Y85.038 E2.70218
G1 X87.711 Y85.258 F12000.000
G1 X86.779 Y83.371 F12000.000
G1 X86.355 Y82.947 E2.71352 F600.000
G1 X85.285 Y82.499 F12000.000
G1 X87.401 Y84.615 E2.77010 F600.000
G1 X87.463 Y85.299 E2.78307
G1 X84.664 Y82.499 E2.85793
G1 X84.138 Y82.595 E2.86803
G1 X87.356 Y85.813 E2.95408
G1 X87.201 Y86.280 E2.96338
G1 X83.718 Y82.797 E3.05651
G1 X83.342 Y83.043 E3.06500
G1 X86.930 Y86.630 E3.16093
G1 X86.636 Y86.958 E3.16925
G1 X83.042 Y83.364 E3.26534
G1 X82.766 Y83.710 E3.27370
G1 X86.249 Y87.192 E3.36681
G1 X85.828 Y87.393 E3.37562
G1 X82.598 Y84.163 E3.46198
G1 X82.483 Y84.669 E3.47179
G1 X85.314 Y87.501 E3.54750
G1 X84.685 Y87.494 E3.55940
G1 X82.531 Y85.339 E3.61699
G1 X83.124 Y86.554 F12000.000
G1 X83.620 Y87.050 E3.63026 F600.000
G1 E1.63026 F1680.00000
G92 E0
G1 Z1.250 F12000.000
G1 X82.606 Y86.395 F12000.000
G1 E2.00000 F1680.00000
G1 X82.469 Y86.195 E2.00454 F600.000
G1 X82.201 Y85.048 E2.02660
G1 X82.201 Y84.950 E2.02845
G1 X82.425 Y83.966 E2.04736
G1 X82.465 Y83.812 E2.05034
G1 X82.518 Y83.716 E2.05239
G1 X83.243 Y82.824 E2.07394
G1 X83.352 Y82.755 E2.07634
G1 X84.261 Y82.317 E2.09526
G1 X84.377 Y82.279 E2.09754
G1 X84.524 Y82.270 E2.10029
G1 X85.533 Y82.270 E2.11921
G1 X85.632 Y82.289 E2.12110
G1 X86.694 Y82.798 E2.14316 F600.000
G1 X86.769 Y82.860 E2.14497
G1 X87.495 Y83.787 E2.16703
G1 X87.762 Y85.000 E2.19031
G1 X87.545 Y85.949 E2.20855
G1 X87.520 Y86.149 E2.21234
G1 X87.490 Y86.225 E2.21387
G1 X86.771 Y87.138 E2.23564
G1 X86.694 Y87.202 E2.23751
G1 X85.632 Y87.711 E2.25957
G1 X85.533 Y87.730 E2.26146
G1 X84.524 Y87.730 E2.28038
G1 X84.377 Y87.721 E2.28313
G1 X84.261 Y87.683 E2.28541
G1 X83.352 Y87.245 E2.30433
G1 X83.243 Y87.176 E2.30673
G1 X82.652 Y86.453 E2.32423
G1 X82.312 Y86.725 F12000.000
G1 X82.154 Y86.527 E2.32898 F600.000
G1 X82.058 Y86.352 E2.33271
G1 X81.765 Y85.099 E2.35683
G1 X81.765 Y84.901 E2.36054
G1 X82.002 Y83.863 E2.38048
G1 X82.057 Y83.650 E2.38460
G1 X82.154 Y83.473 E2.38838
G1 X82.818 Y82.641 E2.40833
G1 X82.963 Y82.486 E2.41232
G1 X83.140 Y82.374 E2.41623
G1 X84.099 Y81.912 E2.43618
G1 X84.295 Y81.848 E2.44004
G1 X84.510 Y81.835 E2.44408
G1 X85.574 Y81.835 E2.46403
G1 X85.770 Y81.872 E2.46775
G1 X86.931 Y82.429 E2.49187 F600.000
G1 X87.082 Y82.554 E2.49557
G1 X87.877 Y83.568 E2.51969
G1 X87.945 Y83.741 E2.52319
G1 X87.975 Y83.975 E2.52761
G1 X88.209 Y85.000 E2.54731
G1 X87.975 Y86.025 E2.56700
G1 X87.945 Y86.259 E2.57142
G1 X87.875 Y86.437 E2.57501
G1 X87.083 Y87.445 E2.59903
G1 X86.931 Y87.571 E2.60274
G1 X85.770 Y88.128 E2.62687
G1 X85.574 Y88.165 E2.63059
G1 X84.510 Y88.165 E2.65054
G1 X84.295 Y88.152 E2.65457
G1 X84.099 Y88.088 E2.65844
G1 X83.140 Y87.626 E2.67838
G1 X82.963 Y87.514 E2.68229
G1 X82.818 Y87.359 E2.68629
G1 X82.359 Y86.783 E2.70008
G1 X82.404 Y86.489 F12000.000
G1 X83.215 Y83.364 F12000.000
G1 X83.626 Y82.953 E2.71102 F600.000
G1 X84.673 Y82.526 F12000.000
G1 X82.547 Y84.652 E2.76769 F600.000
G1 X82.500 Y85.319 E2.78029
G1 X85.297 Y82.521 E2.85487
G1 X85.819 Y82.620 E2.86487
G1 X82.617 Y85.821 E2.95022
G1 X82.782 Y86.276 E2.95934
G1 X86.238 Y82.820 E3.05145
G1 X86.629 Y83.049 E3.06000
G1 X83.060 Y86.617 E3.15514
G1 X83.348 Y86.950 E3.16342
G1 X86.912 Y83.385 E3.25844
G1 X87.185 Y83.733 E3.26676
G1 X83.731 Y87.186 E3.35883
G1 X84.149 Y87.388 E3.36758
G1 X87.348 Y84.190 E3.45284
G1 X87.459 Y84.697 E3.46264
G1 X84.681 Y87.475 E3.53670
G1 X85.296 Y87.480 E3.54829
G1 X87.397 Y85.379 E3.60431
G1 X86.731 Y86.665 F12000.000
G1 X86.368 Y87.029 E3.61399 F600.000
G1 E1.61399 F1680.00000
G92 E0
G1 Z1.550 F12000.000
G1 X87.283 Y86.466 F12000.000
G1 E2.00000 F1680.00000
G1 X86.721 Y87.170 E2.01689 F600.000
G1 X85.599 Y87.710 E2.04022
G1 X84.356 Y87.705 E2.06353
G1 X83.253 Y87.163 E2.08654
G1 X82.487 Y86.212 E2.10942
G1 X82.207 Y85.000 E2.13274
G1 X82.493 Y83.779 E2.15622
G1 X83.269 Y82.819 E2.17936
G1 X84.382 Y82.295 E2.20241
G1 X85.599 Y82.290 E2.22522
G1 X86.721 Y82.829 E2.24854
G1 X87.493 Y83.804 E2.27184 F600.000
G1 X87.758 Y85.000 E2.29479
G1 X87.495 Y86.190 E2.31763
G1 X87.330 Y86.407 E2.32273
G1 X87.671 Y86.678 F12000.000
G1 X86.982 Y87.529 E2.34324 F600.000
G1 X85.715 Y88.138 E2.36958
G1 X84.267 Y88.140 E2.39670
G1 X82.975 Y87.512 E2.42363
G1 X82.081 Y86.391 E2.45048
G1 X81.765 Y84.979 E2.47760
G1 X82.060 Y83.689 E2.50239
G1 X82.111 Y83.559 E2.50502
G1 X82.926 Y82.537 E2.52950
G1 X83.033 Y82.448 E2.53211
G1 X84.283 Y81.860 E2.55800
G1 X85.715 Y81.862 E2.58481
G1 X86.982 Y82.471 E2.61115 F600.000
G1 X87.887 Y83.600 E2.63827
G1 X88.204 Y85.000 E2.66516
G1 X87.906 Y86.345 E2.69098
G1 X87.839 Y86.467 E2.69359
G1 X87.718 Y86.620 E2.69725
G1 X87.177 Y86.601 F12000.000
G1 X84.743 Y87.458 F12000.000
G1 X82.546 Y85.260 E2.76116 F600.000
G1 X82.541 Y84.580 E2.77516
G1 X85.422 Y87.461 E2.85895
G1 X85.942 Y87.304 E2.87011
G1 X82.669 Y84.032 E2.96530
G1 X82.909 Y83.595 E2.97554
G1 X86.399 Y87.085 E3.07704
G1 X86.765 Y86.775 E3.08691
G1 X83.209 Y83.219 E3.19033
G1 X83.585 Y82.919 E3.20023
G1 X87.063 Y86.397 E3.30139
G1 X87.308 Y85.966 E3.31159
G1 X84.042 Y82.699 E3.40659
G1 X84.561 Y82.542 E3.41775
G1 X87.431 Y85.412 E3.50121
G1 X87.420 Y84.725 E3.51534
G1 X85.235 Y82.539 E3.57891
G1 X86.354 Y82.983 F12000.000
G1 X86.705 Y83.334 E3.58911 F600.000
G1 X83.259 Y86.649 F12000.000
G1 X83.620 Y87.011 E3.59961 F600.000
G1 E1.59961 F1680.00000
G92 E0
G1 Z1.850 F12000.000
G1 X86.729 Y87.139 F12000.000
G1 E2.00000 F1680.00000
G1 X86.710 Y87.162 E2.00056 F600.000
G1 X85.602 Y87.696 E2.02362
G1 X84.371 Y87.696 E2.04668
G1 X83.262 Y87.162 E2.06974
G1 X82.495 Y86.200 E2.09280
G1 X82.221 Y85.000 E2.11586
G1 X82.495 Y83.800 E2.13893
G1 X83.262 Y82.838 E2.16199
G1 X84.371 Y82.304 E2.18505
G1 X85.602 Y82.304 E2.20811
G1 X86.710 Y82.838 E2.23117
G1 X87.478 Y83.800 E2.25423 F600.000
G1 X87.752 Y85.000 E2.27729
G1 X87.478 Y86.200 E2.30035
G1 X86.776 Y87.080 E2.32144
G1 X87.116 Y87.352 F12000.000
G1 X86.989 Y87.511 E2.32527 F600.000
G1 X85.701 Y88.132 E2.35206
G1 X84.271 Y88.132 E2.37885
G1 X82.983 Y87.511 E2.40563
G1 X82.092 Y86.394 E2.43242
G1 X81.774 Y85.000 E2.45921
G1 X82.092 Y83.606 E2.48599
G1 X82.983 Y82.489 E2.51278
G1 X84.271 Y81.868 E2.53957
G1 X85.701 Y81.868 E2.56635
G1 X86.952 Y82.471 E2.59236
G1 X86.989 Y82.489 E2.59314 F600.000
G1 X87.880 Y83.606 E2.61993
G1 X88.198 Y85.000 E2.64671
G1 X87.880 Y86.394 E2.67350
G1 X87.163 Y87.293 E2.69505
G1 X86.914 Y87.321 F12000.000
G1 X86.699 Y86.654 F12000.000
