; generated by Slic3r 0.9.10b on 2013-11-11 at 11:58:57

; layer_height = 0.3
; perimeters = 1
; top_solid_layers = 2
; bottom_solid_layers = 2
; fill_density = 0.2
; perimeter_speed = 30
; infill_speed = 30
; travel_speed = 200
; nozzle_diameter = 0.5
; filament_diameter = 2.98
; extrusion_multiplier = 0.9
; perimeters extrusion width = 0.70mm
; infill extrusion width = 0.70mm
; solid infill extrusion width = 0.70mm
; top infill extrusion width = 0.70mm

G21 ; set units to millimeters
M107
M104 S190 ; set temperature
G28 ; home all axes
G1 Z15 F120 ; lift nozzle
M109 S190 ; wait for temperature to be reached
G90 ; use absolute coordinates
G92 E0
M82 ; use absolute distances for extrusion
G1 F1680.000 E-2.00000
G92 E0
G1 Z0.450 F12000.000
G1 X22.740 Y28.040
G1 F1680.000 E2.00000
G1 X23.750 Y27.220 F900.000 E2.04944
G1 X24.900 Y26.600 E2.09910
G1 X26.150 Y26.220 E2.14875
G1 X27.450 Y26.100 E2.19837
G1 X126.990 Y26.100 E5.98139
G1 X127.850 Y26.150 E6.01413
G1 X131.360 Y26.610 E6.14867
G1 X132.220 Y26.780 E6.18198
G1 X133.040 Y27.060 E6.21491
G1 X136.310 Y28.410 E6.34936
G1 X137.090 Y28.790 E6.38234
G1 X137.810 Y29.280 E6.41544
G1 X140.620 Y31.430 E6.54991
G1 X141.290 Y32.000 E6.58334
G1 X141.860 Y32.670 E6.61677
G1 X144.010 Y35.480 E6.75124
G1 X144.500 Y36.200 E6.78434
G1 X144.880 Y36.980 E6.81731
G1 X146.230 Y40.250 E6.95176
G1 X146.510 Y41.070 E6.98469
G1 X146.680 Y41.930 E7.01801
G1 X147.140 Y45.440 E7.15255
G1 X147.190 Y46.300 E7.18529
G1 X147.140 Y47.170 E7.21841
G1 X146.680 Y50.670 E7.35257
G1 X146.550 Y51.340 E7.37851
G1 X146.360 Y52.010 E7.40497
G1 X133.730 Y87.950 E8.85276
G1 X133.080 Y89.280 E8.90902
G1 X132.160 Y90.450 E8.96559
G1 X129.150 Y93.460 E9.12737
G1 X128.270 Y94.190 E9.17082
G1 X96.600 Y116.470 E10.64245
G1 X96.050 Y116.820 E10.66723
G1 X95.480 Y117.110 E10.69153
G1 X36.560 Y143.330 E13.14250
G1 X35.230 Y143.760 E13.19563
G1 X33.850 Y143.900 E13.24834
G1 X28.220 Y143.900 E13.46231
G1 X26.960 Y143.780 E13.51042
G1 X25.740 Y143.420 E13.55876
G1 X24.610 Y142.840 E13.60703
G1 X23.620 Y142.050 E13.65517
G1 X22.790 Y141.090 E13.70340
G1 X22.160 Y139.990 E13.75157
G1 X21.750 Y138.790 E13.79977
G1 X21.570 Y137.530 E13.84814
G1 X20.800 Y119.430 E14.53665
G1 X20.800 Y32.750 E17.83093
G1 X20.920 Y31.450 E17.88055
G1 X21.300 Y30.200 E17.93020
G1 X21.920 Y29.050 E17.97985
G1 X22.678 Y28.116 E18.02557
G1 F1680.000 E16.02557
G92 E0
G1 X124.878 Y46.112 F12000.000
G1 F1680.000 E2.00000
G1 X124.998 Y45.582 F900.000 E2.02064
G1 X125.250 Y45.101 E2.04127
G1 X125.618 Y44.702 E2.06191
G1 X126.077 Y44.412 E2.08255
G1 X126.489 Y44.283 E2.09894
G1 X126.596 Y44.250 E2.10319
G1 X127.138 Y44.228 E2.12382
G1 X127.668 Y44.348 E2.14446
G1 X128.149 Y44.600 E2.16510
G1 X128.548 Y44.968 E2.18573
G1 X128.838 Y45.427 E2.20637
G1 X129.000 Y45.946 E2.22701
G1 X129.022 Y46.488 E2.24764
G1 X128.902 Y47.018 E2.26828
G1 X128.650 Y47.499 E2.28892
G1 X128.282 Y47.898 E2.30955
G1 X127.823 Y48.188 E2.33019
G1 X127.716 Y48.221 E2.33443
G1 X127.304 Y48.350 E2.35083
G1 X126.762 Y48.371 E2.37147
G1 X126.232 Y48.252 E2.39210
G1 X126.133 Y48.200 E2.39634
G1 X125.751 Y48.000 E2.41274
G1 X125.352 Y47.632 E2.43338
G1 X125.062 Y47.173 E2.45401
G1 X124.900 Y46.654 E2.47465
G1 X124.882 Y46.210 E2.49156
G1 F1680.000 E0.49156
G92 E0
G1 X37.365 Y69.236 F12000.000
G1 F1680.000 E2.00000
G1 X37.432 Y69.750 F900.000 E2.01971
G1 X37.365 Y70.261 E2.03931
G1 X37.166 Y70.741 E2.05906
G1 X36.852 Y71.149 E2.07860
G1 X36.443 Y71.466 E2.09826
G1 X35.964 Y71.661 E2.11792
G1 X35.450 Y71.728 E2.13763
G1 X34.939 Y71.661 E2.15720
G1 X34.464 Y71.466 E2.17673
G1 X34.051 Y71.150 E2.19650
G1 X33.736 Y70.741 E2.21609
G1 X33.537 Y70.261 E2.23584
G1 X33.470 Y69.750 E2.25544
G1 X33.537 Y69.236 E2.27514
G1 X33.736 Y68.761 E2.29472
G1 X34.051 Y68.348 E2.31445
G1 X34.464 Y68.036 E2.33411
G1 X34.938 Y67.837 E2.35366
G1 X35.450 Y67.770 E2.37328
G1 X35.966 Y67.837 E2.39305
G1 X36.443 Y68.036 E2.41271
G1 X36.852 Y68.349 E2.43226
G1 X37.166 Y68.761 E2.45195
G1 X37.327 Y69.145 E2.46780
G1 F1680.000 E0.46780
G92 E0
G1 X43.209 Y92.490 F12000.000
G1 F1680.000 E2.00000
G1 X43.874 Y92.402 F900.000 E2.02550
G1 X44.539 Y92.490 E2.05100
G1 X45.159 Y92.747 E2.07650
G1 X45.691 Y93.155 E2.10199
G1 X46.045 Y93.616 E2.12406
G1 X46.100 Y93.687 E2.12749
G1 X46.357 Y94.307 E2.15299
G1 X46.444 Y94.972 E2.17849
G1 X46.357 Y95.638 E2.20399
G1 X46.100 Y96.258 E2.22949
G1 X45.691 Y96.790 E2.25499
G1 X45.159 Y97.198 E2.28048
G1 X44.539 Y97.455 E2.30599
G1 X43.874 Y97.542 E2.33148
G1 X43.209 Y97.455 E2.35697
G1 X42.589 Y97.198 E2.38248
G1 X42.057 Y96.790 E2.40797
G1 X41.648 Y96.258 E2.43347
G1 X41.391 Y95.638 E2.45897
G1 X41.304 Y94.972 E2.48447
G1 X41.391 Y94.307 E2.50997
G1 X41.648 Y93.687 E2.53547
G1 X42.057 Y93.155 E2.56096
G1 X42.589 Y92.747 E2.58646
G1 X43.118 Y92.528 E2.60823
G1 F1680.000 E0.60823
G92 E0
G1 X46.936 Y94.216 F12000.000
G1 F1680.000 E2.00000
G1 X47.158 Y93.680 F900.000 E2.02206
G1 X47.567 Y93.148 E2.04756
G1 X48.099 Y92.739 E2.07306
G1 X48.719 Y92.483 E2.09856
G1 X49.384 Y92.395 E2.12406
G1 X50.049 Y92.483 E2.14955
G1 X50.669 Y92.739 E2.17505
G1 X51.201 Y93.148 E2.20055
G1 X51.610 Y93.680 E2.22605
G1 X51.866 Y94.300 E2.25155
G1 X51.954 Y94.965 E2.27705
G1 X51.866 Y95.630 E2.30255
G1 X51.610 Y96.250 E2.32804
G1 X51.201 Y96.783 E2.35354
G1 X50.669 Y97.191 E2.37904
G1 X50.049 Y97.448 E2.40454
G1 X49.384 Y97.535 E2.43004
G1 X48.719 Y97.448 E2.45553
G1 X48.099 Y97.191 E2.48103
G1 X47.567 Y96.783 E2.50653
G1 X47.158 Y96.250 E2.53203
G1 X46.901 Y95.630 E2.55753
G1 X46.814 Y94.965 E2.58303
G1 X46.900 Y94.308 E2.60823
G1 F1680.000 E0.60823
G92 E0
G1 X83.920 Y99.300 F12000.000
G1 F1680.000 E2.00000
G1 X83.991 Y98.762 F900.000 E2.02064
G1 X84.199 Y98.260 E2.04127
G1 X84.529 Y97.829 E2.06191
G1 X84.960 Y97.499 E2.08255
G1 X85.462 Y97.291 E2.10318
G1 X86.000 Y97.220 E2.12382
G1 X86.538 Y97.291 E2.14446
G1 X87.040 Y97.499 E2.16510
G1 X87.471 Y97.829 E2.18573
G1 X87.801 Y98.260 E2.20637
G1 X88.009 Y98.762 E2.22701
G1 X88.080 Y99.300 E2.24764
G1 X88.009 Y99.838 E2.26828
G1 X87.801 Y100.340 E2.28892
G1 X87.471 Y100.771 E2.30956
G1 X87.040 Y101.101 E2.33019
G1 X86.538 Y101.309 E2.35083
G1 X86.000 Y101.380 E2.37147
G1 X85.462 Y101.309 E2.39210
G1 X85.095 Y101.157 E2.40720
G1 X84.960 Y101.101 E2.41274
G1 X84.529 Y100.771 E2.43338
G1 X84.199 Y100.340 E2.45401
G1 X83.991 Y99.838 E2.47465
G1 X83.933 Y99.397 E2.49156
G1 F1680.000 E0.49156
G92 E0
G1 X33.523 Y128.077 F12000.000
G1 F1680.000 E2.00000
G1 X33.523 Y136.923 F900.000 E2.33617
G1 X28.552 Y136.923 E2.52508
G1 X28.552 Y135.577 E2.57622
G1 X32.677 Y135.577 E2.73299
G1 X32.677 Y129.423 E2.96689
G1 X28.552 Y129.423 E3.12366
G1 X28.552 Y128.077 E3.17480
G1 X33.425 Y128.077 E3.35997
G1 F1680.000 E1.35997
G92 E0
G1 X27.777 Y110.063 F12000.000
G1 F1680.000 E2.00000
G1 X27.777 Y86.077 F720.000 E2.91157
G1 X65.203 Y86.077 E4.33393
G1 X65.203 Y110.063 E5.24550
G1 X27.875 Y110.063 E6.66413
G1 F1680.000 E4.66413
G92 E0
G1 X73.231 Y102.721 F12000.000
G1 F1680.000 E2.00000
G1 X72.780 Y99.300 F720.000 E2.13116
G1 X73.231 Y95.878 E2.26232
G1 X74.551 Y92.690 E2.39348
G1 X76.652 Y89.952 E2.52464
G1 X79.390 Y87.851 E2.65579
G1 X82.578 Y86.530 E2.78695
G1 X86.000 Y86.080 E2.91811
G1 X89.422 Y86.530 E3.04927
G1 X92.610 Y87.851 E3.18043
G1 X95.348 Y89.952 E3.31159
G1 X97.449 Y92.690 E3.44275
G1 X98.769 Y95.878 E3.57391
G1 X99.220 Y99.300 E3.70507
G1 X98.833 Y102.238 E3.81770
G1 X98.769 Y102.721 E3.83623
G1 X97.449 Y105.910 E3.96738
G1 X95.348 Y108.648 E4.09854
G1 X92.610 Y110.749 E4.22970
G1 X89.422 Y112.069 E4.36086
G1 X86.000 Y112.520 E4.49202
G1 X82.578 Y112.069 E4.62318
G1 X79.390 Y110.749 E4.75434
G1 X76.652 Y108.648 E4.88550
G1 X74.551 Y105.910 E5.01666
G1 X73.268 Y102.812 E5.14408
G1 F1680.000 E3.14408
G92 E0
G1 X90.677 Y71.923 F12000.000
G1 F1680.000 E2.00000
G1 X90.677 Y64.077 F900.000 E2.29817
G1 X99.423 Y64.077 E2.63054
G1 X99.423 Y71.923 E2.92871
G1 X90.775 Y71.923 E3.25735
G1 F1680.000 E1.25735
G92 E0
G1 X106.777 Y71.977 F12000.000
G1 F1680.000 E2.00000
G1 X108.527 Y71.977 F900.000 E2.06651
G1 X108.527 Y67.852 E2.22328
G1 X112.873 Y67.852 E2.38843
G1 X112.873 Y71.977 E2.54520
G1 X114.623 Y71.977 E2.61171
G1 X114.623 Y73.823 E2.68185
G1 X106.777 Y73.823 E2.98002
G1 X106.777 Y72.075 E3.04642
G1 F1680.000 E1.04642
G92 E0
G1 X121.777 Y67.077 F12000.000
G1 F1680.000 E2.00000
G1 X127.123 Y67.077 F720.000 E2.20316
G1 X127.123 Y85.614 E2.90766
G1 X124.314 Y88.423 E3.05860
G1 X123.712 Y88.423 E3.08149
G1 X124.102 Y87.915 E3.10581
G1 X124.235 Y87.594 E3.11901
G1 X124.280 Y87.250 E3.13220
G1 X124.235 Y86.906 E3.14540
G1 X124.102 Y86.585 E3.15859
G1 X123.891 Y86.309 E3.17179
G1 X123.615 Y86.098 E3.18499
G1 X123.294 Y85.965 E3.19818
G1 X122.950 Y85.920 E3.21138
G1 X122.606 Y85.965 E3.22457
G1 X122.285 Y86.098 E3.23777
G1 X121.777 Y86.488 E3.26209
G1 X121.777 Y67.175 E3.99606
G1 F1680.000 E1.99606
G92 E0
G1 X123.578 Y59.069 F12000.000
G1 F1680.000 E2.00000
G1 X120.390 Y57.749 F720.000 E2.13116
G1 X117.652 Y55.648 E2.26232
G1 X115.551 Y52.910 E2.39348
G1 X114.231 Y49.721 E2.52464
G1 X113.780 Y46.300 E2.65580
G1 X114.231 Y42.878 E2.78695
G1 X115.551 Y39.690 E2.91811
G1 X117.652 Y36.952 E3.04927
G1 X120.390 Y34.851 E3.18043
G1 X123.578 Y33.530 E3.31159
G1 X127.000 Y33.080 E3.44275
G1 X130.422 Y33.530 E3.57391
G1 X133.610 Y34.851 E3.70507
G1 X136.348 Y36.952 E3.83623
G1 X138.449 Y39.690 E3.96738
G1 X139.769 Y42.878 E4.09854
G1 X140.220 Y46.300 E4.22970
G1 X139.769 Y49.721 E4.36086
G1 X138.449 Y52.910 E4.49202
G1 X136.348 Y55.648 E4.62318
G1 X133.610 Y57.749 E4.75434
G1 X130.422 Y59.069 E4.88550
G1 X127.000 Y59.520 E5.01666
G1 X123.676 Y59.082 E5.14408
G1 F1680.000 E3.14408
G92 E0
G1 X106.623 Y39.823 F12000.000
G1 F1680.000 E2.00000
G1 X98.777 Y39.823 F900.000 E2.29817
G1 X98.777 Y37.977 E2.36831
G1 X100.527 Y37.977 E2.43482
G1 X100.527 Y33.852 E2.59159
G1 X104.873 Y33.852 E2.75674
G1 X104.873 Y37.977 E2.91351
G1 X106.623 Y37.977 E2.98002
G1 X106.623 Y39.725 E3.04642
G1 F1680.000 E1.04642
G92 E0
G1 X91.423 Y40.923 F12000.000
G1 F1680.000 E2.00000
G1 X82.677 Y40.923 F900.000 E2.33237
G1 X82.677 Y33.077 E2.63054
G1 X91.423 Y33.077 E2.96292
G1 X91.423 Y40.825 E3.25735
G1 F1680.000 E1.25735
G92 E0
G1 X83.523 Y48.077 F12000.000
G1 F1680.000 E2.00000
G1 X83.523 Y56.923 F900.000 E2.33617
G1 X78.552 Y56.923 E2.52508
G1 X78.552 Y55.577 E2.57622
G1 X82.677 Y55.577 E2.73299
G1 X82.677 Y49.423 E2.96689
G1 X78.552 Y49.423 E3.12366
G1 X78.552 Y48.077 E3.17480
G1 X83.425 Y48.077 E3.35997
G1 F1680.000 E1.35997
G92 E0
G1 X68.757 Y45.495 F12000.000
G1 F1680.000 E2.00000
G1 X68.610 Y45.500 F900.000 E2.00558
G1 X68.087 Y43.513 E2.08364
G1 X67.584 Y41.022 E2.18025
G1 X66.954 Y38.644 E2.27375
G1 X66.559 Y36.686 E2.34966
G1 X66.689 Y36.627 E2.35506
G1 X67.775 Y38.039 E2.42278
G1 X67.930 Y38.302 E2.43437
G1 X68.773 Y40.741 E2.53246
G1 X69.118 Y43.299 E2.63056
G1 X69.093 Y43.705 E2.64602
G1 X68.775 Y45.398 E2.71149
G1 F1680.000 E0.71149
G92 E0
G1 X57.123 Y39.825 F12000.000
G1 F1680.000 E2.00000
G1 X39.777 Y39.823 F720.000 E2.65922
G1 X39.777 Y34.077 E2.87758
G1 X41.123 Y34.077 E2.92871
G1 X41.123 Y37.977 E3.07693
G1 X47.277 Y37.977 E3.31083
G1 X47.277 Y34.077 E3.45905
G1 X49.623 Y34.077 E3.54819
G1 X49.623 Y37.977 E3.69641
G1 X55.777 Y37.977 E3.93031
G1 X55.777 Y34.077 E4.07853
G1 X57.123 Y34.077 E4.12967
G1 X57.123 Y39.727 E4.34437
G1 F1680.000 E2.34437
G92 E0
G1 X33.123 Y33.077 F12000.000
G1 F1680.000 E2.00000
G1 X33.123 Y51.614 F720.000 E2.70451
G1 X30.314 Y54.423 E2.85545
G1 X29.712 Y54.423 E2.87833
G1 X30.102 Y53.915 E2.90265
G1 X30.235 Y53.594 E2.91585
G1 X30.280 Y53.250 E2.92905
G1 X30.214 Y52.855 E2.94426
G1 X30.102 Y52.585 E2.95538
G1 X29.891 Y52.309 E2.96857
G1 X29.615 Y52.098 E2.98177
G1 X29.294 Y51.965 E2.99497
G1 X28.950 Y51.920 E3.00816
G1 X28.606 Y51.965 E3.02136
G1 X28.285 Y52.098 E3.03455
G1 X27.777 Y52.488 E3.05887
G1 X27.777 Y33.077 E3.79657
G1 X33.025 Y33.077 E3.99599
G1 F1680.000 E1.99599
G92 E0
G1 X27.777 Y64.077 F12000.000
G1 F1680.000 E2.00000
G1 X43.123 Y64.077 F720.000 E2.58321
G1 X43.123 Y75.423 E3.01439
G1 X27.777 Y75.423 E3.59760
G1 X27.777 Y64.175 E4.02505
G1 F1680.000 E2.02505
G92 E0
G1 X31.594 Y118.009 F12000.000
G1 F1680.000 E2.00000
G1 X31.894 Y118.714 F900.000 E2.02911
G1 X31.849 Y119.776 E2.06950
G1 X31.412 Y120.540 E2.10296
G1 X30.820 Y121.004 E2.13154
G1 X29.996 Y121.228 E2.16398
G1 X29.225 Y121.147 E2.19347
G1 X28.486 Y120.720 E2.22590
G1 X27.986 Y120.101 E2.25614
G1 X27.770 Y119.270 E2.28877
G1 X27.864 Y118.497 E2.31838
G1 X28.438 Y117.602 E2.35878
G1 X28.906 Y117.281 E2.38037
G1 X29.742 Y117.062 E2.41320
G1 X30.504 Y117.161 E2.44240
G1 X30.997 Y117.398 E2.46317
G1 X31.594 Y118.009 E2.49564
G1 F1680.000 E0.49564
G92 E0
G1 X51.178 Y65.628 F12000.000
G1 F1680.000 E2.00000
G1 X51.173 Y65.626 F900.000 E2.00019
G1 X51.178 Y65.628 F12000.000
G1 X51.405 Y65.628 F900.000 E2.00881
G1 X51.405 Y65.628 F12000.000
G1 X51.596 Y65.599 F900.000 E2.01615
G1 X51.888 Y64.856 E2.04648
G1 X51.596 Y65.599 F12000.000
G1 X51.688 Y65.726 F900.000 E2.05244
G1 F1680.000 E0.05244
G92 E0
G1 X29.620 Y54.108 F12000.000
G1 F1680.000 E2.00000
G1 X29.454 Y54.434 F900.000 E2.01390
G1 X28.601 Y54.482 E2.04636
G1 X28.601 Y54.482 F12000.000
G1 X28.060 Y54.315 F900.000 E2.06790
G1 X28.060 Y54.315 F12000.000
G1 X27.920 Y54.278 F900.000 E2.07338
G1 X27.920 Y54.278 F12000.000
G1 X27.775 Y53.937 F900.000 E2.08750
G1 X27.775 Y53.937 F12000.000
G1 X27.761 Y53.692 F900.000 E2.09679
G1 X27.761 Y53.692 F12000.000
G1 X27.721 Y53.611 F900.000 E2.10023
G1 X27.721 Y53.611 F12000.000
G1 X27.718 Y52.993 F900.000 E2.12375
G1 X28.131 Y52.614 E2.14503
G1 F1680.000 E0.14503
G92 E0
G1 X77.481 Y73.883 F12000.000
G1 F1680.000 E2.00000
G1 X77.450 Y74.178 F900.000 E2.01126
G1 X77.450 Y74.178 F12000.000
G1 X77.338 Y74.774 F900.000 E2.03434
G1 X77.429 Y74.749 F12000.000
G1 X77.435 Y74.754 F900.000 E2.03461
G1 X77.435 Y74.754 F12000.000
G1 X77.706 Y74.973 F900.000 E2.04786
G1 F1680.000 E0.04786
G92 E0
G1 X121.721 Y87.611 F12000.000
G1 F1680.000 E2.00000
G1 X121.761 Y87.692 F900.000 E2.00344
G1 X121.761 Y87.692 F12000.000
G1 X121.775 Y87.937 F900.000 E2.01274
G1 X121.775 Y87.937 F12000.000
G1 X121.920 Y88.278 F900.000 E2.02685
G1 X121.920 Y88.278 F12000.000
G1 X122.060 Y88.315 F900.000 E2.03233
G1 X122.060 Y88.315 F12000.000
G1 X122.601 Y88.482 F900.000 E2.05388
G1 X122.601 Y88.482 F12000.000
G1 X123.454 Y88.434 F900.000 E2.08633
G1 X123.620 Y88.108 E2.10023
G1 X121.721 Y87.611 F12000.000
G1 X121.718 Y86.993 F900.000 E2.12375
G1 X122.131 Y86.614 E2.14503
G1 F1680.000 E0.14503
G92 E0
G1 X94.019 Y89.531 F12000.000
G1 F1680.000 E2.00000
G1 X95.769 Y91.280 F1200.000 E2.09418
G1 X97.419 Y93.857 E2.21060
G1 X91.443 Y87.881 E2.53221
G1 X89.861 Y87.226 E2.59739
G1 X98.074 Y95.439 E3.03944
G1 X98.398 Y96.690 E3.08861
G1 X88.610 Y86.902 E3.61541
G1 X87.543 Y86.762 E3.65639
G1 X98.538 Y97.757 E4.24820
G1 X98.679 Y98.825 E4.28917
G1 X86.475 Y86.621 E4.94600
G1 X85.546 Y86.618 E4.98139
G1 X98.682 Y99.754 E5.68840
G1 X98.574 Y100.573 E5.71985
G1 X84.727 Y86.726 E6.46515
G1 X83.908 Y86.834 E6.49659
G1 X98.466 Y101.392 E7.28017
G1 X98.358 Y102.211 E7.31161
G1 X83.088 Y86.942 E8.13347
G1 X82.356 Y87.136 E8.16232
G1 X98.164 Y102.944 E9.01315
G1 X97.892 Y103.599 E9.04015
G1 X81.700 Y87.408 E9.91165
G1 X81.045 Y87.679 E9.93864
G1 X97.621 Y104.255 E10.83081
G1 X97.349 Y104.910 E10.85781
G1 X80.390 Y87.951 E11.77063
G1 X79.734 Y88.222 E11.79763
G1 X97.078 Y105.566 E12.73112
G1 X96.696 Y106.111 E12.75646
G1 X79.189 Y88.604 E13.69877
G1 X78.664 Y89.006 E13.72393
G1 X86.460 Y96.802 E14.14354
G1 X85.534 Y96.803 F12000.000
G1 X78.140 Y89.408 F1200.000 E14.54152
G1 X77.615 Y89.811 E14.56668
G1 X84.839 Y97.035 E14.95550
G1 X84.291 Y97.414 E14.98086
G1 X77.091 Y90.213 E15.36841
G1 X76.665 Y90.714 E15.39344
G1 X83.865 Y97.915 E15.78098
G1 X83.568 Y98.544 E15.80747
G1 X76.263 Y91.239 E16.20064
G1 X75.860 Y91.763 E16.22580
G1 X83.448 Y99.351 E16.63421
G1 X83.900 Y100.730 F12000.000
G1 X75.458 Y92.288 F1200.000 E17.08860
G1 X75.055 Y92.812 E17.11376
G1 X92.488 Y110.245 E18.05202
G1 X91.861 Y110.545 E18.07846
G1 X74.755 Y93.438 E18.99920
