; generated by Slic3r 1.2.1 on 2015-01-10 at 19:17:22

; external perimeters extrusion width = 0.50mm
; perimeters extrusion width = 0.50mm
; infill extrusion width = 0.50mm
; solid infill extrusion width = 0.50mm
; top infill extrusion width = 0.50mm

M104 S190 ; set temperature
G28 ; home all axes
G1 Z15 F120 ; lift nozzle
M109 S190 ; wait for temperature to be reached
G21 ; set units to millimeters
G90 ; use absolute coordinates
M82 ; use absolute distances for extrusion
G92 E0
M106 S102
G1 E-2.00000 F1680.000
G92 E0
G1 Z0.350 F12000.000
G1 X23.449 Y24.729 F12000.000
G1 E2.00000 F1680.000
G1 X23.716 Y24.485 E2.01018 F1200.000
G1 X24.654 Y23.828 E2.04241
G1 X24.974 Y23.659 E2.05260
G1 X26.045 Y23.257 E2.08482
G1 X26.397 Y23.173 E2.09501
G1 X27.678 Y23.043 E2.13126
G1 X142.396 Y22.244 E5.36084
G1 X143.542 Y22.354 E5.39325 F1200.000
G1 X143.897 Y22.434 E5.40350
G1 X144.978 Y22.829 E5.43591
G1 X145.302 Y22.996 E5.44615
G1 X145.672 Y23.251 E5.45881
G1 X146.250 Y23.649 E5.47857
G1 X146.520 Y23.892 E5.48881
G1 X147.274 Y24.763 E5.52122
G1 X147.475 Y25.066 E5.53146
G1 X147.985 Y26.098 E5.56388
G1 X148.104 Y26.442 E5.57412
G1 X148.339 Y27.569 E5.60653
G1 X148.369 Y27.862 E5.61481
G1 X148.370 Y126.409 E8.38911
G1 X148.341 Y126.697 E8.39725
G1 X148.111 Y127.819 E8.42948
G1 X147.995 Y128.161 E8.43966
G1 X147.493 Y129.190 E8.47189
G1 X139.416 Y144.696 E8.96408
G1 X138.762 Y145.644 E8.99650
G1 X138.519 Y145.915 E9.00674
G1 X137.649 Y146.668 E9.03915
G1 X137.346 Y146.869 E9.04940
G1 X136.314 Y147.380 E9.08181
G1 X135.970 Y147.498 E9.09205
G1 X134.842 Y147.733 E9.12446
G1 X134.550 Y147.763 E9.13275
G1 X36.002 Y147.764 E11.90704
G1 X35.715 Y147.735 E11.91518
G1 X34.593 Y147.506 E11.94741
G1 X34.250 Y147.389 E11.95760
G1 X33.222 Y146.887 E11.98982
G1 X32.919 Y146.689 E12.00001
G1 X32.049 Y145.945 E12.03224
G1 X31.805 Y145.678 E12.04242
G1 X31.084 Y144.642 E12.07795
G1 X22.573 Y130.115 E12.55192
G1 X22.015 Y128.994 E12.58719
G1 X21.896 Y128.650 E12.59744
G1 X21.661 Y127.523 E12.62985
G1 X21.631 Y127.230 E12.63813
G1 X21.630 Y28.682 E15.41243
G1 X21.659 Y28.395 E15.42057
G1 X21.888 Y27.273 E15.45280
G1 X22.005 Y26.931 E15.46298
G1 X22.507 Y25.902 E15.49521
G1 X22.706 Y25.599 E15.50539
G1 X23.400 Y24.786 E15.53551
G1 E13.53551 F1680.000
G92 E0
G1 X27.982 Y121.204 F12000.000
G1 E2.00000 F1680.000
G1 X28.756 Y121.978 E2.02847 F720.000
G1 X29.153 Y122.375 E2.04310 F720.000
G1 X28.921 Y122.774 E2.05512
G1 X28.504 Y122.665 E2.06635
G1 X28.213 Y122.613 E2.07404
G1 X27.868 Y122.580 E2.08306
G1 X26.583 Y122.685 E2.11662
G1 X27.200 Y122.057 E2.13953
G1 X27.931 Y121.259 E2.16770
G1 X29.185 Y121.720 F12000.000
G1 E0.16770 F1680.000
G92 E0
G1 X27.982 Y34.695 F12000.000
G1 E2.00000 F1680.000
G1 X27.571 Y34.255 E2.01567 F720.000
G1 X26.716 Y33.279 E2.04945
G1 X27.745 Y33.326 E2.07627
G1 X28.007 Y33.309 E2.08310
G1 X28.431 Y33.247 E2.09427
G1 X28.924 Y33.137 E2.10740
G1 X29.144 Y33.533 E2.11919
G1 X28.035 Y34.642 E2.16004 F720.000
G1 X28.894 Y33.966 F12000.000
G1 X27.174 Y35.350 F12000.000
G1 X28.698 Y37.203 E2.22249 F720.000
G1 X30.253 Y39.266 E2.28973
G1 X31.725 Y41.389 E2.35697
G1 X33.114 Y43.567 E2.42420
G1 X34.416 Y45.798 E2.49144
G1 X35.630 Y48.078 E2.55867
G1 X36.754 Y50.403 E2.62591
G1 X37.122 Y51.249 E2.64990
G1 X37.785 Y52.771 E2.69314
G1 X38.724 Y55.178 E2.76038
G1 X39.568 Y57.620 E2.82761
G1 X40.315 Y60.092 E2.89485
G1 X40.965 Y62.592 E2.96208
G1 X41.320 Y64.215 E3.00532
G1 X41.517 Y65.116 E3.02932
G1 X41.969 Y67.659 E3.09655
G1 X42.322 Y70.218 E3.16379
G1 X42.574 Y72.788 E3.23102
G1 X42.726 Y75.367 E3.29826
G1 X42.777 Y77.950 E3.36549
G1 X42.726 Y80.532 E3.43273
G1 X42.574 Y83.111 E3.49996
G1 X42.322 Y85.681 E3.56720
G1 X41.969 Y88.240 E3.63443
G1 X41.517 Y90.783 E3.70167
G1 X41.320 Y91.684 E3.72566
G1 X40.965 Y93.307 E3.76890
G1 X40.315 Y95.807 E3.83614
G1 X39.568 Y98.279 E3.90337
G1 X38.724 Y100.721 E3.97061
G1 X37.785 Y103.128 E4.03784
G1 X36.754 Y105.496 E4.10508
G1 X35.630 Y107.821 E4.17231
G1 X34.416 Y110.101 E4.23955
G1 X33.114 Y112.332 E4.30678
G1 X31.725 Y114.510 E4.37402
G1 X30.253 Y116.633 E4.44125
G1 X28.698 Y118.695 E4.50849
G1 X26.662 Y121.165 E4.59180
G1 X24.772 Y123.267 E4.66538
G1 X24.762 Y32.609 E7.02512
G1 X26.250 Y34.246 E7.08270
G1 X27.127 Y35.292 E7.11821 F720.000
G1 X26.525 Y33.829 F12000.000
G1 E5.11821 F1680.000
G92 E0
G1 X24.376 Y125.418 F12000.000
G1 E2.00000 F1680.000
G1 X24.376 Y125.746 E2.00855 F900.000
G1 X23.863 Y125.746 E2.02189
G1 X24.114 Y125.123 E2.03938
G1 X24.174 Y125.134 E2.04096
G1 X24.155 Y124.549 E2.05621
G1 X25.385 Y123.191 E2.10389
G1 X26.279 Y123.115 E2.12725 F900.000
G1 X26.350 Y123.375 E2.13425
G1 X25.732 Y123.672 E2.15210
G1 X25.352 Y123.927 E2.16400
G1 X25.098 Y124.139 E2.17262
G1 X24.630 Y124.651 E2.19068
G1 X24.528 Y124.822 E2.19586
G1 X24.264 Y125.152 E2.20685
G1 X24.375 Y125.173 E2.20980
G1 X24.376 Y125.343 E2.21421
G1 E0.21421 F1680.000
G92 E0
G1 X56.264 Y76.676 F12000.000
G1 E2.00000 F1680.000
G1 X56.017 Y76.416 E2.00935 F900.000
G1 X56.585 Y76.418 E2.02413
G1 X56.647 Y76.167 E2.03086
G1 X56.885 Y76.154 E2.03709 F900.000
G1 X56.993 Y76.491 E2.04630
G1 X56.967 Y76.639 E2.05022
G1 X56.721 Y76.941 E2.06036
G1 X56.607 Y76.951 E2.06332
G1 X56.504 Y76.929 E2.06606
G1 X56.316 Y76.730 E2.07319
G1 E0.07319 F1680.000
G92 E0
G1 X42.477 Y87.516 F12000.000
G1 E2.00000 F1680.000
G1 X42.723 Y85.729 E2.04695 F900.000
G1 X42.977 Y83.142 E2.11460
G1 X43.129 Y80.548 E2.18224
G1 X43.180 Y77.950 E2.24989
G1 X43.129 Y75.351 E2.31753
G1 X42.977 Y72.757 E2.38518
G1 X42.723 Y70.170 E2.45283
G1 X42.368 Y67.596 E2.52047
G1 X41.913 Y65.037 E2.58812
G1 X41.357 Y62.498 E2.65576
G1 X40.703 Y59.983 E2.72341
G1 X39.951 Y57.495 E2.79106
G1 X39.103 Y55.039 E2.85870
G1 X38.765 Y54.173 E2.88290
G1 X38.158 Y52.618 E2.92635
G1 X37.120 Y50.235 E2.99400
G1 X35.990 Y47.895 E3.06164
G1 X35.205 Y46.422 E3.10509
G1 X34.768 Y45.601 E3.12929
G1 X33.458 Y43.357 E3.19693
G1 X32.061 Y41.165 E3.26458
G1 X30.579 Y39.030 E3.33223
G1 X29.015 Y36.954 E3.39990
G1 X27.788 Y35.460 E3.45021
G1 X29.645 Y33.603 E3.51859
G1 X29.014 Y32.469 E3.55236
G1 X29.750 Y32.046 E3.57446
G1 X30.319 Y31.546 E3.59419
G1 X30.779 Y30.937 E3.61405
G1 X31.022 Y30.376 E3.62997 F900.000
G1 X33.287 Y32.738 E3.71516
G1 X35.025 Y34.695 E3.78327
G1 X36.684 Y36.716 E3.85133
G1 X38.262 Y38.801 E3.91940
G1 X38.753 Y39.487 E3.94136
G1 X39.757 Y40.946 E3.98747
G1 X40.284 Y41.747 E4.01242
G1 X41.241 Y43.267 E4.05918
G1 X42.489 Y45.405 E4.12360
G1 X43.060 Y46.446 E4.15451
G1 X43.721 Y47.711 E4.19166
G1 X44.301 Y48.877 E4.22556
G1 X44.863 Y50.064 E4.25973
G1 X45.442 Y51.356 E4.29660
G1 X45.911 Y52.459 E4.32780
G1 X46.864 Y54.894 E4.39586
G1 X47.414 Y56.445 E4.43869
G1 X47.720 Y57.365 E4.46393
G1 X48.480 Y59.867 E4.53199
G1 X49.140 Y62.398 E4.60006
G1 X49.575 Y64.338 E4.65182
G1 X50.078 Y67.021 E4.72286
G1 X50.470 Y69.716 E4.79376
G1 X50.752 Y72.431 E4.86482
G1 X50.933 Y75.305 E4.93976
G1 X50.940 Y76.418 E4.96872
G1 X50.984 Y77.488 E4.99661
G1 X50.930 Y80.546 E5.07621
G1 X50.779 Y83.136 E5.14375
G1 X50.526 Y85.719 E5.21131
G1 X50.173 Y88.291 E5.27887
G1 X49.670 Y91.078 E5.35259
G1 X49.168 Y93.383 E5.41400
G1 X48.518 Y95.896 E5.48156
G1 X47.693 Y98.605 E5.55527
G1 X46.925 Y100.836 E5.61668
G1 X45.986 Y103.256 E5.68424
G1 X44.953 Y105.637 E5.75181
G1 X43.829 Y107.977 E5.81937
G1 X42.614 Y110.270 E5.88693
G1 X41.310 Y112.515 E5.95450
G1 X39.920 Y114.707 E6.02206
G1 X38.446 Y116.843 E6.08962
G1 X36.889 Y118.921 E6.15719
G1 X35.253 Y120.936 E6.22475
G1 X33.539 Y122.886 E6.29233
G1 X31.029 Y125.514 E6.38692
G1 X30.775 Y124.957 E6.40285
G1 X30.319 Y124.353 E6.42255
G1 X29.750 Y123.853 E6.44227
G1 X29.009 Y123.427 E6.46452
G1 X29.658 Y122.309 E6.49816
G1 X27.792 Y120.443 E6.56687
G1 X29.015 Y118.945 E6.61723
G1 X30.579 Y116.869 E6.68487
G1 X32.061 Y114.734 E6.75252
G1 X33.458 Y112.542 E6.82017
G1 X34.768 Y110.298 E6.88781
G1 X35.990 Y108.004 E6.95546
G1 X37.120 Y105.664 E7.02310
G1 X38.158 Y103.281 E7.09075
G1 X39.103 Y100.860 E7.15840
G1 X39.951 Y98.404 E7.22604
G1 X40.703 Y95.916 E7.29369
G1 X41.357 Y93.401 E7.36133
G1 X41.913 Y90.862 E7.42898
G1 X42.368 Y88.303 E7.49663
G1 X42.466 Y87.590 E7.51537
G1 E5.51537 F1680.000
G92 E0
G1 X25.617 Y32.821 F12000.000
G1 E2.00000 F1680.000
G1 X25.494 Y32.815 E2.00320 F900.000
G1 X24.195 Y31.386 E2.05345
G1 X24.300 Y30.788 E2.06924
G1 X24.123 Y30.824 E2.07393
G1 X23.955 Y30.391 E2.08604
G1 X23.887 Y30.153 E2.09247
G1 X24.380 Y30.153 E2.10531 F900.000
G1 X24.383 Y30.772 E2.12141
G1 X24.355 Y30.777 E2.12215
G1 X24.628 Y31.245 E2.13624
G1 X25.098 Y31.760 E2.15440
G1 X25.352 Y31.972 E2.16302
G1 X25.734 Y32.229 E2.17500
G1 X26.345 Y32.515 E2.19257
G1 X26.597 Y32.577 E2.19932
G1 X26.555 Y32.867 E2.20695
G1 X25.692 Y32.824 E2.22944
G1 X26.099 Y31.954 F12000.000
G1 X26.480 Y32.133 E2.24039 F720.000
G1 X27.158 Y32.298 E2.25855
G1 X27.706 Y32.326 E2.27283
G1 X27.916 Y32.312 E2.27832
G1 X28.482 Y32.207 E2.29329
G1 X28.962 Y32.033 E2.30660
G1 X29.514 Y31.717 E2.32315
G1 X30.022 Y31.270 E2.34075
G1 X30.428 Y30.733 E2.35829
G1 X30.765 Y29.953 E2.38040
G1 X31.748 Y30.162 E2.40655
G1 X31.680 Y30.479 E2.41498
G1 X33.582 Y32.464 E2.48652
G1 X35.330 Y34.431 E2.55503
G1 X36.999 Y36.465 E2.62351
G1 X38.587 Y38.563 E2.69200
G1 X40.092 Y40.721 E2.76048
G1 X40.623 Y41.529 E2.78565
G1 X41.510 Y42.937 E2.82897
G1 X42.068 Y43.864 E2.85712
G1 X42.841 Y45.207 E2.89746
G1 X43.415 Y46.256 E2.92858
G1 X44.081 Y47.528 E2.96595
G1 X44.664 Y48.701 E3.00005
G1 X45.229 Y49.895 E3.03444
G1 X45.812 Y51.195 E3.07152
G1 X46.284 Y52.305 E3.10292
G1 X46.856 Y53.734 E3.14298
G1 X47.242 Y54.756 E3.17141
G1 X47.796 Y56.314 E3.21445
G1 X48.105 Y57.241 E3.23990
G1 X48.868 Y59.759 E3.30839
G1 X49.533 Y62.305 E3.37687
G1 X49.970 Y64.253 E3.42885
G1 X50.559 Y67.465 E3.51384
G1 X50.871 Y69.667 E3.57171
G1 X51.154 Y72.398 E3.64318
G1 X51.336 Y75.282 E3.71841
G1 X51.347 Y76.014 E3.73745
G1 X56.269 Y76.013 E3.86555
G1 X56.434 Y75.380 E3.88257
G1 X56.715 Y74.572 E3.90485
G1 X57.062 Y73.813 E3.92657
G1 X57.477 Y73.089 E3.94829
G1 X57.956 Y72.406 E3.97002
G1 X58.497 Y71.770 E3.99174
G1 X59.093 Y71.186 E4.01346
G1 X59.741 Y70.660 E4.03519
G1 X60.435 Y70.196 E4.05691
G1 X61.168 Y69.797 E4.07864
G1 X61.935 Y69.468 E4.10036
G1 X62.729 Y69.210 E4.12209
G1 X63.543 Y69.027 E4.14381
G1 X64.371 Y68.919 E4.16553
G1 X65.205 Y68.888 E4.18726
G1 X66.038 Y68.934 E4.20898
G1 X66.864 Y69.056 E4.23071
G1 X67.675 Y69.254 E4.25243
G1 X68.464 Y69.526 E4.27416
G1 X69.225 Y69.869 E4.29588
G1 X69.951 Y70.280 E4.31761
G1 X70.636 Y70.757 E4.33933
G1 X71.274 Y71.295 E4.36105
G1 X71.861 Y71.889 E4.38278
G1 X72.320 Y72.450 E4.40166
G1 X72.857 Y73.226 E4.42622
G1 X73.259 Y73.957 E4.44794
G1 X73.592 Y74.723 E4.46967
G1 X73.853 Y75.515 E4.49139
G1 X74.040 Y76.329 E4.51311
G1 X74.151 Y77.156 E4.53484
G1 X74.186 Y77.990 E4.55656
G1 X74.149 Y78.714 E4.57544
G1 X74.025 Y79.649 E4.60000
G1 X73.831 Y80.461 E4.62173
G1 X73.563 Y81.252 E4.64345
G1 X73.223 Y82.014 E4.66517
G1 X72.753 Y82.832 E4.68973
G1 X72.341 Y83.429 E4.70861
G1 X71.806 Y84.070 E4.73034
G1 X71.215 Y84.659 E4.75206
G1 X70.572 Y85.191 E4.77379
G1 X69.882 Y85.661 E4.79551
G1 X69.248 Y86.013 E4.81439
G1 X68.389 Y86.403 E4.83895
G1 X67.597 Y86.667 E4.86067
G1 X66.785 Y86.858 E4.88240
G1 X65.957 Y86.973 E4.90415
G1 X65.374 Y87.005 E4.91934
G1 X65.374 Y85.990 E4.94576
G1 X65.864 Y85.971 E4.95853
G1 X66.600 Y85.869 E4.97786
G1 X67.323 Y85.699 E4.99718
G1 X68.026 Y85.464 E5.01649
G1 X68.705 Y85.165 E5.03580
G1 X69.354 Y84.805 E5.05511
G1 X69.967 Y84.387 E5.07443
G1 X70.539 Y83.914 E5.09374
G1 X71.065 Y83.390 E5.11305
G1 X71.540 Y82.821 E5.13236
G1 X71.961 Y82.210 E5.15168
G1 X72.324 Y81.563 E5.17099
G1 X72.626 Y80.885 E5.19030
G1 X72.864 Y80.182 E5.20961
G1 X73.037 Y79.461 E5.22893
G1 X73.142 Y78.726 E5.24824
G1 X73.180 Y77.985 E5.26755
G1 X73.149 Y77.244 E5.28686
G1 X73.050 Y76.509 E5.30618
G1 X72.884 Y75.786 E5.32549
G1 X72.652 Y75.081 E5.34480
G1 X72.356 Y74.400 E5.36411
G1 X71.999 Y73.750 E5.38343
G1 X71.583 Y73.135 E5.40274
G1 X71.113 Y72.562 E5.42205
G1 X70.592 Y72.033 E5.44136
G1 X70.024 Y71.555 E5.46068
G1 X69.415 Y71.132 E5.47999
G1 X68.769 Y70.766 E5.49930
G1 X68.093 Y70.461 E5.51861
G1 X67.391 Y70.220 E5.53793
G1 X66.671 Y70.044 E5.55724
G1 X65.937 Y69.935 E5.57655
G1 X65.196 Y69.894 E5.59586
G1 X64.454 Y69.922 E5.61518
G1 X63.719 Y70.018 E5.63449
G1 X62.995 Y70.181 E5.65380
G1 X62.289 Y70.409 E5.67311
G1 X61.607 Y70.702 E5.69243
G1 X60.955 Y71.057 E5.71174
G1 X60.339 Y71.469 E5.73105
G1 X59.763 Y71.937 E5.75036
G1 X59.233 Y72.456 E5.76968
G1 X58.752 Y73.021 E5.78899
G1 X58.326 Y73.629 E5.80830
G1 X57.957 Y74.272 E5.82761
G1 X57.649 Y74.948 E5.84693
G1 X57.398 Y75.667 E5.86677
G1 X57.300 Y76.112 E5.87863
G1 X57.359 Y76.273 E5.88309
G1 X57.395 Y76.482 E5.88862
G1 X57.349 Y76.784 E5.89656
G1 X57.138 Y77.067 E5.90576
G1 X57.067 Y77.192 E5.90948
G1 X56.920 Y77.295 E5.91417
G1 X56.760 Y77.344 E5.91852
G1 X56.612 Y77.356 E5.92238
G1 X56.405 Y77.321 E5.92785
G1 X56.262 Y77.254 E5.93197
G1 X56.055 Y77.041 E5.93969
G1 X51.373 Y77.034 E6.06154
G1 X51.388 Y77.504 E6.07378
G1 X51.334 Y80.561 E6.15335
G1 X51.181 Y83.167 E6.22131
G1 X50.927 Y85.766 E6.28928
G1 X50.572 Y88.354 E6.35725
G1 X50.159 Y90.684 E6.41886
G1 X49.561 Y93.477 E6.49319
G1 X48.906 Y96.005 E6.56117
G1 X48.154 Y98.505 E6.62914
G1 X47.304 Y100.975 E6.69711
G1 X46.360 Y103.409 E6.76508
G1 X45.320 Y105.805 E6.83306
G1 X44.189 Y108.158 E6.90103
G1 X42.966 Y110.466 E6.96900
G1 X41.655 Y112.724 E7.03697
G1 X40.257 Y114.930 E7.10495
G1 X38.773 Y117.079 E7.17292
G1 X37.207 Y119.169 E7.24089
G1 X35.561 Y121.196 E7.30886
G1 X33.837 Y123.158 E7.37684
G1 X31.667 Y125.430 E7.45862
G1 X31.735 Y125.663 E7.46495
G1 X30.756 Y125.889 E7.49110
G1 X30.426 Y125.165 E7.51183
G1 X30.022 Y124.629 E7.52930
G1 X29.514 Y124.182 E7.54690
G1 X28.965 Y123.867 E7.56337
G1 X28.649 Y123.743 E7.57222
G1 X28.296 Y123.646 E7.58176
G1 X27.869 Y123.583 E7.59299
G1 X27.596 Y123.572 E7.60008
G1 X27.037 Y123.619 E7.61469
G1 X26.420 Y123.789 E7.63134
G1 X25.932 Y124.023 E7.64543
G1 X25.594 Y124.250 E7.65603
G1 X25.377 Y124.431 E7.66339
G1 X24.956 Y124.893 E7.67967
G1 X24.779 Y125.154 E7.68787
G1 X24.780 Y126.149 E7.71378
G1 X24.371 Y126.149 E7.72443
G1 X24.326 Y126.449 E7.73230
G1 X24.307 Y127.135 E7.75018
G1 X24.477 Y127.952 E7.77188
G1 X24.848 Y128.701 E7.79366
G1 X25.395 Y129.334 E7.81543
G1 X26.084 Y129.809 E7.83720
G1 X26.541 Y129.976 E7.84987
G1 X26.870 Y130.095 E7.85897
G1 X27.703 Y130.175 E7.88075
G1 X28.529 Y130.043 E7.90252
G1 X29.295 Y129.708 E7.92429
G1 X29.954 Y129.190 E7.94610
G1 X30.306 Y128.726 E7.96127
G1 X31.180 Y129.231 E7.98756
G1 X30.661 Y129.885 E8.00930
G1 X29.804 Y130.559 E8.03768
G1 X28.808 Y130.995 E8.06599
G1 X27.734 Y131.166 E8.09429
G1 X26.651 Y131.062 E8.12260
G1 X25.629 Y130.689 E8.15091
G1 X24.734 Y130.072 E8.17922
G1 X24.022 Y129.250 E8.20752
G1 X23.540 Y128.275 E8.23583
G1 X23.318 Y127.207 E8.26421
G1 X23.343 Y126.295 E8.28796
G1 X23.387 Y126.032 E8.29491
G1 X23.543 Y125.461 E8.31033
G1 X23.763 Y124.900 E8.32600
G1 X23.752 Y124.574 E8.33448
G1 X23.630 Y124.452 E8.33898
G1 X23.770 Y124.263 E8.34509
G1 X23.764 Y31.686 E10.75477
G1 X23.745 Y31.618 E10.75660
G1 X23.784 Y31.396 E10.76249
G1 X23.750 Y31.383 E10.76342
G1 X23.763 Y30.999 E10.77344
G1 X23.571 Y30.517 E10.78694
G1 X23.390 Y29.878 E10.80422
G1 X23.348 Y29.635 E10.81065
G1 X23.317 Y28.704 E10.83489
G1 X23.534 Y27.642 E10.86310
G1 X24.009 Y26.670 E10.89125
G1 X24.711 Y25.848 E10.91939
G1 X25.596 Y25.227 E10.94754
G1 X26.608 Y24.847 E10.97569
G1 X27.684 Y24.732 E11.00383
G1 X28.095 Y24.792 E11.01464
