; generated by Slic3r 1.2.1 on 2015-01-10 at 15:20:27

; external perimeters extrusion width = 0.50mm
; perimeters extrusion width = 0.50mm
; infill extrusion width = 0.50mm
; solid infill extrusion width = 0.50mm
; top infill extrusion width = 0.50mm

M104 S190 ; set temperature
G28 ; home all axes
G1 Z15 F120 ; lift nozzle
M109 S190 ; wait for temperature to be reached
G21 ; set units to millimeters
G90 ; use absolute coordinates
M82 ; use absolute distances for extrusion
G92 E0
M106 S102
G1 E-2.00000 F1680.000
G92 E0
G1 Z0.350 F12000.000
G1 X30.227 Y57.485 F12000.000
G1 E2.00000 F1680.000
G1 X31.309 Y56.951 E2.03398 F1200.000
G1 X31.652 Y56.832 E2.04422
G1 X32.834 Y56.586 E2.07819
G1 X33.127 Y56.556 E2.08648
G1 X136.858 Y56.555 E5.00670
G1 X137.145 Y56.584 E5.01484
G1 X138.321 Y56.824 E5.04862 F1200.000
G1 X138.664 Y56.941 E5.05881
G1 X139.742 Y57.467 E5.09259
G1 X140.044 Y57.665 E5.10277
G1 X140.957 Y58.444 E5.13655
G1 X141.200 Y58.712 E5.14674
G1 X141.889 Y59.695 E5.18052
G1 X142.058 Y60.015 E5.19070
G1 X142.480 Y61.138 E5.22448
G1 X142.563 Y61.490 E5.23467
G1 X142.691 Y62.683 E5.26845
G1 X142.684 Y63.045 E5.27863
G1 X142.510 Y64.232 E5.31242
G1 X142.412 Y64.580 E5.32260
G1 X141.947 Y65.686 E5.35638
G1 X141.766 Y66.000 E5.36656
G1 X141.038 Y66.954 E5.40035
G1 X140.856 Y67.152 E5.40794
G1 X92.451 Y110.623 E7.23949
G1 X91.648 Y111.274 E7.26857
G1 X90.789 Y111.847 E7.29765
G1 X89.881 Y112.339 E7.32673
G1 X88.931 Y112.745 E7.35581
G1 X87.948 Y113.063 E7.38489
G1 X86.940 Y113.288 E7.41397
G1 X86.047 Y113.408 E7.43932
G1 X85.015 Y113.457 E7.46840
G1 X83.984 Y113.411 E7.49748
G1 X82.960 Y113.270 E7.52656
G1 X81.954 Y113.036 E7.55564
G1 X81.163 Y112.774 E7.57910
G1 X80.851 Y112.662 E7.58844
G1 X79.910 Y112.236 E7.61752
G1 X79.012 Y111.725 E7.64660
G1 X78.165 Y111.134 E7.67568
G1 X77.434 Y110.523 E7.70251
G1 X29.197 Y67.206 E9.52764
G1 X29.027 Y67.025 E9.53462
G1 X28.281 Y66.077 E9.56859
G1 X28.095 Y65.764 E9.57884
G1 X27.611 Y64.659 E9.61281
G1 X27.509 Y64.310 E9.62305
G1 X27.318 Y63.118 E9.65703
G1 X27.307 Y62.754 E9.66727
G1 X27.422 Y61.553 E9.70125
G1 X27.503 Y61.198 E9.71149
G1 X27.731 Y60.573 E9.73023
G1 X27.916 Y60.064 E9.74546
G1 X28.083 Y59.741 E9.75570
G1 X28.768 Y58.747 E9.78968
G1 X29.011 Y58.476 E9.79992
G1 X29.924 Y57.687 E9.83390
G1 X30.164 Y57.527 E9.84203
G1 E7.84203 F1680.000
G92 E0
G1 X37.905 Y61.664 F12000.000
G1 E2.00000 F1680.000
G1 X38.552 Y62.301 E2.02365 F720.000
G1 X39.175 Y62.866 E2.04552 F720.000
G1 X39.484 Y63.111 E2.05579
G1 X38.197 Y64.398 E2.10315
G1 X37.798 Y64.166 E2.11516
G1 X37.923 Y63.693 E2.12788
G1 X38.009 Y63.114 E2.14312
G1 X38.003 Y62.827 E2.15060
G1 X37.911 Y61.739 E2.17902
G1 X38.897 Y61.939 F12000.000
G1 E0.17902 F1680.000
G92 E0
G1 X130.509 Y63.106 F12000.000
G1 E2.00000 F1680.000
G1 X130.789 Y62.896 E2.00911 F720.000
G1 X132.028 Y61.799 E2.05217
G1 X131.976 Y62.842 E2.07936
G1 X131.995 Y63.171 E2.08793 F720.000
G1 X132.060 Y63.617 E2.09965
G1 X132.183 Y64.163 E2.11424
G1 X131.787 Y64.384 E2.12603
G1 X130.562 Y63.159 E2.17113
G1 X132.262 Y62.678 F12000.000
G1 X129.851 Y62.293 F12000.000
G1 X127.893 Y63.902 E2.23709 F720.000
G1 X125.721 Y65.539 E2.30788
G1 X123.487 Y67.089 E2.37866
G1 X121.194 Y68.551 E2.44944
G1 X118.845 Y69.921 E2.52022
G1 X116.445 Y71.199 E2.59099
G1 X113.997 Y72.382 E2.66177
G1 X111.504 Y73.469 E2.73255
G1 X108.971 Y74.457 E2.80333
G1 X106.400 Y75.345 E2.87411
G1 X103.798 Y76.131 E2.94489
G1 X101.166 Y76.816 E3.01566
G1 X98.509 Y77.397 E3.08644
G1 X95.832 Y77.873 E3.15722
G1 X94.675 Y78.032 E3.18762
G1 X93.139 Y78.244 E3.22800
G1 X90.432 Y78.510 E3.29878
G1 X87.718 Y78.670 E3.36955
G1 X84.999 Y78.723 E3.44033
G1 X82.280 Y78.670 E3.51111
G1 X79.566 Y78.510 E3.58189
G1 X76.860 Y78.244 E3.65267
G1 X76.385 Y78.179 E3.66515
G1 X74.166 Y77.873 E3.72345
G1 X71.489 Y77.397 E3.79422
G1 X68.832 Y76.816 E3.86500
G1 X66.201 Y76.131 E3.93578
G1 X63.598 Y75.345 E4.00656
G1 X61.028 Y74.457 E4.07734
G1 X58.494 Y73.469 E4.14812
G1 X56.002 Y72.382 E4.21889
G1 X53.553 Y71.199 E4.28967
G1 X51.153 Y69.921 E4.36045
G1 X48.805 Y68.551 E4.43123
G1 X46.512 Y67.089 E4.50201
G1 X44.278 Y65.539 E4.57278
G1 X42.106 Y63.902 E4.64356
G1 X40.002 Y62.183 E4.71429
G1 X39.507 Y61.759 E4.73127
G1 X37.286 Y59.762 E4.80901
G1 X132.731 Y59.754 E7.29335
G1 X130.979 Y61.346 E7.35497
G1 X129.909 Y62.245 E7.39136 F720.000
G1 X130.705 Y61.764 F12000.000
G1 E5.39136 F1680.000
G92 E0
G1 X86.499 Y93.698 F12000.000
G1 E2.00000 F1680.000
G1 X86.374 Y93.674 E2.00329 F900.000
G1 X86.311 Y93.623 E2.00543
G1 X86.245 Y93.525 E2.00849
G1 X86.044 Y93.443 E2.01414
G1 X86.030 Y93.275 E2.01854
G1 X86.054 Y93.166 E2.02146
G1 X86.092 Y93.126 E2.02287
G1 X86.626 Y92.624 E2.04196 F900.000
G1 X86.624 Y93.244 E2.05811
G1 X86.953 Y93.325 E2.06693
G1 X86.966 Y93.564 E2.07316
G1 X86.573 Y93.696 E2.08397
G1 X85.745 Y87.366 F12000.000
G1 X82.266 Y87.321 E2.17454 F900.000
G1 X79.538 Y87.161 E2.24566
G1 X76.818 Y86.895 E2.31680
G1 X74.110 Y86.524 E2.38794
G1 X71.419 Y86.047 E2.45907
G1 X68.749 Y85.465 E2.53021
G1 X66.103 Y84.781 E2.60135
G1 X63.486 Y83.993 E2.67249
G1 X60.790 Y83.061 E2.74674
G1 X58.353 Y82.115 E2.81477
G1 X55.846 Y81.028 E2.88591
G1 X53.383 Y79.843 E2.95704
G1 X50.968 Y78.564 E3.02818
G1 X48.604 Y77.191 E3.09932
G1 X46.296 Y75.728 E3.17046
G1 X44.047 Y74.175 E3.24160
G1 X41.860 Y72.537 E3.31274
G1 X39.738 Y70.814 E3.38388
G1 X37.685 Y69.009 E3.45503
G1 X34.901 Y66.349 E3.55526
G1 X35.510 Y66.071 E3.57267
G1 X36.143 Y65.594 E3.59332
G1 X36.667 Y64.997 E3.61400
G1 X37.107 Y64.231 E3.63699
G1 X38.263 Y64.903 E3.67179
G1 X40.255 Y62.911 E3.74510
G1 X41.857 Y64.220 E3.79895
G1 X44.041 Y65.866 E3.87014
G1 X46.288 Y67.425 E3.94133
G1 X48.594 Y68.895 E4.01252
G1 X50.956 Y70.274 E4.08371
G1 X53.371 Y71.559 E4.15490
G1 X55.833 Y72.749 E4.22609
G1 X58.340 Y73.842 E4.29728
G1 X60.889 Y74.835 E4.36847
G1 X63.474 Y75.728 E4.43966
G1 X66.092 Y76.520 E4.51085
G1 X68.739 Y77.208 E4.58204
G1 X71.410 Y77.792 E4.65322
G1 X74.103 Y78.272 E4.72441
G1 X76.812 Y78.645 E4.79560
G1 X79.534 Y78.912 E4.86679
G1 X82.265 Y79.073 E4.93798
G1 X84.999 Y79.126 E5.00917
G1 X87.734 Y79.073 E5.08036
G1 X90.464 Y78.912 E5.15155
G1 X93.186 Y78.645 E5.22274
G1 X95.895 Y78.272 E5.29393
G1 X97.769 Y77.938 E5.34347
G1 X98.588 Y77.792 E5.36512
G1 X101.260 Y77.208 E5.43631
G1 X103.907 Y76.520 E5.50750
G1 X106.525 Y75.728 E5.57868
G1 X109.110 Y74.835 E5.64987
G1 X111.658 Y73.842 E5.72106
G1 X114.165 Y72.749 E5.79225
G1 X116.628 Y71.559 E5.86344
G1 X119.042 Y70.274 E5.93463
G1 X121.404 Y68.895 E6.00582
G1 X123.710 Y67.425 E6.07701
G1 X125.957 Y65.866 E6.14820
G1 X128.142 Y64.219 E6.21941
G1 X128.882 Y63.611 E6.24433
G1 X129.739 Y62.907 E6.27322 F900.000
G1 X131.718 Y64.885 E6.34604
G1 X132.891 Y64.231 E6.38101
G1 X133.331 Y64.997 E6.40401
G1 X133.855 Y65.594 E6.42468
G1 X134.494 Y66.075 E6.44549
G1 X135.070 Y66.325 E6.46183
G1 X135.005 Y66.628 E6.46990
G1 X134.843 Y66.593 E6.47422
G1 X132.603 Y68.743 E6.55503
G1 X130.544 Y70.573 E6.62675
G1 X128.415 Y72.320 E6.69841
G1 X127.809 Y72.793 E6.71843
G1 X126.220 Y73.982 E6.77008
G1 X123.961 Y75.556 E6.84175
G1 X123.117 Y76.111 E6.86803
G1 X121.642 Y77.040 E6.91342
G1 X120.674 Y77.623 E6.94284
G1 X119.266 Y78.433 E6.98509
G1 X118.170 Y79.034 E7.01764
G1 X116.838 Y79.730 E7.05676
G1 X115.611 Y80.341 E7.09245
G1 X114.361 Y80.932 E7.12843
G1 X113.000 Y81.542 E7.16725
G1 X111.838 Y82.035 E7.20010
G1 X110.342 Y82.635 E7.24206
G1 X109.274 Y83.039 E7.27177
G1 X107.642 Y83.619 E7.31686
G1 X106.673 Y83.941 E7.34344
G1 X104.038 Y84.741 E7.41511
G1 X101.374 Y85.436 E7.48678
G1 X99.331 Y85.894 E7.54127
G1 X98.685 Y86.026 E7.55844
G1 X95.974 Y86.510 E7.63011
G1 X93.668 Y86.836 E7.69073
G1 X90.809 Y87.133 E7.76555
G1 X87.858 Y87.318 E7.84253
G1 X87.392 Y87.336 E7.85466
G1 X86.628 Y87.328 E7.87455
G1 X85.820 Y87.364 E7.89560
G1 E5.89560 F1680.000
G92 E0
G1 X135.172 Y59.372 F12000.000
G1 E2.00000 F1680.000
G1 X134.566 Y59.374 E2.01576 F900.000
G1 X134.171 Y59.627 E2.02797
G1 X133.630 Y60.120 E2.04703
G1 X133.409 Y60.386 E2.05603
G1 X133.140 Y60.787 E2.06859
G1 X132.840 Y61.428 E2.08701
G1 X132.718 Y61.927 E2.10040
G1 X132.427 Y61.885 E2.10804
G1 X132.495 Y60.513 E2.14378
G1 X134.011 Y59.135 E2.19711
G1 X134.269 Y59.180 E2.20391
G1 X134.296 Y59.108 E2.20593
G1 X134.508 Y59.114 E2.21146
G1 X135.057 Y58.892 E2.22688
G1 X135.346 Y58.810 E2.23468 F900.000
G1 X135.346 Y59.371 E2.24929
G1 X135.247 Y59.372 E2.25186
G1 X36.114 Y59.889 F12000.000
G1 X35.830 Y59.630 E2.26186 F900.000
G1 X35.634 Y59.512 E2.26782
G1 X35.441 Y59.358 E2.27426
G1 X34.653 Y59.367 E2.29477
G1 X34.653 Y58.781 E2.31004 F900.000
G1 X35.271 Y59.029 E2.32739
G1 X35.478 Y59.089 E2.33300
G1 X35.475 Y59.115 E2.33368
G1 X35.720 Y59.107 E2.34008
G1 X35.985 Y59.128 E2.34700
G1 X37.392 Y60.403 E2.39643
G1 X37.490 Y61.556 E2.42653
G1 X37.201 Y61.607 E2.43419
G1 X37.132 Y61.357 E2.44094
G1 X36.857 Y60.784 E2.45750
G1 X36.589 Y60.386 E2.46997
G1 X36.368 Y60.120 E2.47898
G1 X36.169 Y59.939 E2.48597
G1 X35.898 Y60.237 F12000.000
G1 X35.588 Y59.955 E2.49688 F720.000
G1 X35.310 Y59.770 E2.50556
G1 X34.249 Y59.771 E2.53318
G1 X34.249 Y59.335 E2.54454
G1 X33.949 Y59.290 E2.55244
G1 X33.224 Y59.270 E2.57131
G1 X32.363 Y59.450 E2.59420
G1 X31.572 Y59.841 E2.61717
G1 X30.905 Y60.418 E2.64013
G1 X30.404 Y61.144 E2.66309
G1 X30.246 Y61.577 E2.67508
G1 X30.102 Y61.973 E2.68606
G1 X30.018 Y62.851 E2.70902
G1 X30.157 Y63.722 E2.73199
G1 X30.510 Y64.531 E2.75495
G1 X31.056 Y65.226 E2.77795
G1 X31.558 Y65.604 E2.79431
G1 X31.033 Y66.514 E2.82166
G1 X30.335 Y65.960 E2.84486
G1 X29.627 Y65.059 E2.87467
G1 X29.169 Y64.012 E2.90443
G1 X28.989 Y62.883 E2.93418
G1 X29.098 Y61.746 E2.96393
G1 X29.490 Y60.672 E2.99368
G1 X29.779 Y60.253 E3.00694
G1 X30.138 Y59.731 E3.02343
G1 X31.003 Y58.983 E3.05318
G1 X32.027 Y58.476 E3.08294
G1 X33.149 Y58.243 E3.11276
G1 X34.107 Y58.269 E3.13771
G1 X34.385 Y58.316 E3.14503
G1 X34.985 Y58.480 E3.16123
G1 X35.577 Y58.708 E3.17773
G1 X35.880 Y58.715 E3.18563
G1 X36.036 Y58.559 E3.19137
G1 X36.246 Y58.714 E3.19817
G1 X133.703 Y58.710 E5.73486
G1 X133.786 Y58.686 E5.73712
G1 X134.008 Y58.725 E5.74297
G1 X134.423 Y58.708 E5.75378
G1 X134.931 Y58.509 E5.76801
G1 X135.602 Y58.318 E5.78615
G1 X135.859 Y58.274 E5.79293
G1 X136.837 Y58.242 E5.81840
G1 X137.335 Y58.344 E5.83165
G1 X137.952 Y58.470 E5.84805 F720.000
G1 X138.974 Y58.968 E5.87763
G1 X139.838 Y59.706 E5.90721
G1 X140.491 Y60.637 E5.93679
G1 X140.890 Y61.701 E5.96638
G1 X141.011 Y62.831 E5.99596
G1 X140.846 Y63.955 E6.02554
G1 X140.405 Y65.003 E6.05512
G1 X139.715 Y65.909 E6.08477
G1 X139.031 Y66.470 E6.10780
G1 X138.490 Y65.570 E6.13515
G1 X138.981 Y65.186 E6.15138
G1 X139.514 Y64.487 E6.17425
G1 X139.854 Y63.679 E6.19708
G1 X139.982 Y62.811 E6.21991
G1 X139.888 Y61.938 E6.24275
G1 X139.727 Y61.510 E6.25467
G1 X139.580 Y61.117 E6.26558
G1 X139.076 Y60.399 E6.28841
G1 X138.409 Y59.829 E6.31125
G1 X137.621 Y59.445 E6.33408
G1 X136.764 Y59.269 E6.35685
G1 X136.025 Y59.293 E6.37608
G1 X135.749 Y59.333 E6.38334
G1 X135.749 Y59.773 E6.39479
G1 X134.697 Y59.777 E6.42219
G1 X134.412 Y59.954 E6.43092
G1 X133.923 Y60.400 E6.44814
G1 X133.732 Y60.628 E6.45589
G1 X133.492 Y60.986 E6.46709
G1 X133.222 Y61.562 E6.48366
G1 X133.048 Y62.277 E6.50281
G1 X133.019 Y62.855 E6.51788
G1 X133.033 Y63.076 E6.52365
G1 X133.082 Y63.410 E6.53243
G1 X133.144 Y63.673 E6.53945
G1 X133.327 Y64.179 E6.55348
G1 X133.661 Y64.761 E6.57094
G1 X134.131 Y65.297 E6.58949
G1 X134.698 Y65.724 E6.60797
G1 X135.533 Y66.086 E6.63165
G1 X135.316 Y67.107 E6.65882
G1 X134.968 Y67.033 E6.66807
G1 X132.878 Y69.039 E6.74348
G1 X130.807 Y70.879 E6.81559
G1 X128.666 Y72.636 E6.88768
G1 X128.054 Y73.113 E6.90790
G1 X126.458 Y74.307 E6.95977
G1 X124.186 Y75.891 E7.03186
G1 X123.336 Y76.450 E7.05835
G1 X121.853 Y77.384 E7.10395
G1 X120.878 Y77.971 E7.13357
G1 X119.464 Y78.784 E7.17604
G1 X118.360 Y79.390 E7.20880
G1 X117.022 Y80.090 E7.24813
G1 X115.787 Y80.704 E7.28403
G1 X114.530 Y81.299 E7.32022
G1 X113.161 Y81.912 E7.35925
G1 X111.992 Y82.408 E7.39231
G1 X110.489 Y83.011 E7.43448
G1 X109.413 Y83.418 E7.46440
G1 X107.773 Y84.000 E7.50971
G1 X106.797 Y84.325 E7.53650
G1 X104.146 Y85.129 E7.60858
G1 X101.466 Y85.829 E7.68067
G1 X99.416 Y86.289 E7.73538
G1 X98.761 Y86.422 E7.75276
G1 X96.035 Y86.909 E7.82485
G1 X93.718 Y87.237 E7.88577
G1 X90.843 Y87.535 E7.96100
G1 X87.880 Y87.721 E8.03826
G1 X87.032 Y87.736 E8.06035
G1 X87.028 Y92.928 E8.19549
G1 X87.701 Y93.103 E8.21358
G1 X88.551 Y93.399 E8.23700
G1 X89.349 Y93.763 E8.25984
G1 X90.111 Y94.200 E8.28269
G1 X90.829 Y94.704 E8.30554
G1 X91.498 Y95.272 E8.32838
G1 X92.112 Y95.900 E8.35123
G1 X92.665 Y96.581 E8.37408
G1 X93.153 Y97.311 E8.39692
G1 X93.573 Y98.082 E8.41977
G1 X93.919 Y98.888 E8.44262
G1 X94.190 Y99.723 E8.46546
G1 X94.383 Y100.579 E8.48831
G1 X94.496 Y101.450 E8.51116
G1 X94.528 Y102.327 E8.53400
G1 X94.480 Y103.203 E8.55685
G1 X94.352 Y104.072 E8.57970
G1 X94.144 Y104.924 E8.60254
G1 X93.858 Y105.754 E8.62539
G1 X93.497 Y106.555 E8.64824
G1 X93.065 Y107.318 E8.67108
G1 X92.563 Y108.039 E8.69393
G1 X91.998 Y108.710 E8.71678
G1 X91.373 Y109.327 E8.73962
G1 X90.694 Y109.883 E8.76247
G1 X89.967 Y110.375 E8.78532
G1 X89.198 Y110.797 E8.80816
G1 X88.393 Y111.147 E8.83101
G1 X87.559 Y111.422 E8.85386
G1 X86.704 Y111.618 E8.87670
G1 X85.834 Y111.735 E8.89955
G1 X84.957 Y111.772 E8.92240
G1 X84.080 Y111.727 E8.94524
G1 X83.211 Y111.603 E8.96809
G1 X82.358 Y111.399 E8.99093
G1 X81.526 Y111.117 E9.01378
G1 X80.725 Y110.759 E9.03663
G1 X79.959 Y110.330 E9.05947
G1 X79.236 Y109.832 E9.08232
G1 X78.563 Y109.270 E9.10517
G1 X77.943 Y108.648 E9.12801
G1 X77.384 Y107.971 E9.15086
G1 X76.889 Y107.246 E9.17371
G1 X76.463 Y106.479 E9.19655
G1 X76.109 Y105.675 E9.21940
G1 X75.831 Y104.843 E9.24225
G1 X75.631 Y103.988 E9.26509
G1 X75.510 Y103.118 E9.28797
G1 X75.475 Y102.492 E9.30428
G1 X76.529 Y102.492 E9.33171
G1 X76.550 Y103.022 E9.34551
G1 X76.657 Y103.797 E9.36588
G1 X76.836 Y104.558 E9.38622
G1 X77.078 Y105.286 E9.40618
G1 X77.398 Y106.015 E9.42691
G1 X77.778 Y106.698 E9.44725
G1 X78.218 Y107.343 E9.46760
G1 X78.716 Y107.946 E9.48794
G1 X79.268 Y108.500 E9.50828
G1 X79.868 Y109.000 E9.52863
G1 X80.511 Y109.444 E9.54897
G1 X81.193 Y109.826 E9.56931
G1 X81.907 Y110.144 E9.58965
G1 X82.647 Y110.395 E9.61000
G1 X83.407 Y110.577 E9.63034
G1 X84.181 Y110.688 E9.65068
G1 X84.961 Y110.728 E9.67103
G1 X85.742 Y110.695 E9.69137
G1 X86.517 Y110.591 E9.71171
G1 X87.279 Y110.416 E9.73206
G1 X88.021 Y110.171 E9.75240
G1 X88.738 Y109.860 E9.77274
G1 X89.423 Y109.483 E9.79308
G1 X90.070 Y109.046 E9.81343
G1 X90.675 Y108.550 E9.83377
G1 X91.231 Y108.001 E9.85411
G1 X91.734 Y107.404 E9.87446
G1 X92.181 Y106.762 E9.89480
G1 X92.400 Y106.375 E9.90637
G1 X92.566 Y106.082 E9.91514
G1 X92.887 Y105.369 E9.93548
G1 X93.142 Y104.630 E9.95583
G1 X93.327 Y103.871 E9.97617
G1 X93.441 Y103.098 E9.99651
G1 X93.484 Y102.318 E10.01686
G1 X93.455 Y101.537 E10.03720
G1 X93.412 Y101.203 E10.04597
G1 X93.354 Y100.762 E10.05754
G1 X93.183 Y99.999 E10.07789
G1 X92.942 Y99.256 E10.09823
G1 X92.633 Y98.538 E10.11857
G1 X92.260 Y97.851 E10.13891
G1 X92.012 Y97.481 E10.15049
G1 X91.825 Y97.202 E10.15926
G1 X91.332 Y96.595 E10.17960
G1 X90.786 Y96.036 E10.19994
G1 X90.190 Y95.530 E10.22029
G1 X89.551 Y95.081 E10.24063
G1 X88.873 Y94.693 E10.26097
G1 X88.161 Y94.368 E10.28132
G1 X87.403 Y94.104 E10.30221
G1 X86.927 Y94.008 E10.31487
G1 X86.739 Y94.074 E10.32005
G1 X86.510 Y94.108 E10.32608
G1 X86.218 Y94.055 E10.33380
G1 X86.010 Y93.898 E10.34059
G1 X85.979 Y93.853 E10.34201
G1 X85.797 Y93.757 E10.34737
G1 X85.729 Y93.667 E10.35029
G1 X85.677 Y93.577 E10.35300
G1 X85.639 Y93.442 E10.35665
G1 X85.630 Y93.216 E10.36254
G1 X85.664 Y93.058 E10.36674
G1 X85.699 Y92.964 E10.36935
G1 X85.750 Y92.900 E10.37148
G1 X85.961 Y92.696 E10.37912
G1 X85.968 Y87.763 E10.50752
G1 X85.445 Y87.779 E10.52113
G1 X82.251 Y87.724 E10.60429
G1 X79.507 Y87.564 E10.67583
G1 X76.771 Y87.296 E10.74738
G1 X74.048 Y86.922 E10.81892
G1 X71.341 Y86.443 E10.89047
G1 X68.655 Y85.858 E10.96202
G1 X65.994 Y85.169 E11.03357
G1 X63.362 Y84.377 E11.10512
