; generated by Slic3r 1.2.1 on 2014-12-15 at 22:59:35

; external perimeters extrusion width = 0.50mm
; perimeters extrusion width = 0.50mm
; infill extrusion width = 0.50mm
; solid infill extrusion width = 0.50mm
; top infill extrusion width = 0.50mm

M107
M104 S190 ; set temperature
G28 ; home all axes
G1 Z5 F150 ; lift nozzle
M109 S190 ; wait for temperature to be reached
G21 ; set units to millimeters
G90 ; use absolute coordinates
M82 ; use absolute distances for extrusion
G92 E0
G1 E-2.00000 F1800.000
G92 E0
G1 Z0.500 F12000.000
G1 X80.121 Y90.831 F12000.000
G1 E2.00000 F1800.000
G1 X81.866 Y89.400 E2.06083 F1200.000
G1 X85.000 Y88.582 E2.14812
G1 X115.000 Y88.582 E2.95661
G1 X117.222 Y88.979 E3.01743
G1 X119.169 Y90.121 E3.07826 F1200.000
G1 X120.600 Y91.866 E3.13909
G1 X121.418 Y95.000 E3.22638
G1 X121.418 Y105.000 E3.49587
G1 X121.021 Y107.222 E3.55670
G1 X119.879 Y109.169 E3.61753
G1 X118.134 Y110.600 E3.67835
G1 X115.000 Y111.418 E3.76564
G1 X85.000 Y111.418 E4.57413
G1 X82.778 Y111.021 E4.63496
G1 X80.831 Y109.879 E4.69579
G1 X79.400 Y108.134 E4.75661
G1 X78.582 Y105.000 E4.84390
G1 X78.582 Y95.000 E5.11340
G1 X78.979 Y92.778 E5.17422
G1 X80.083 Y90.896 E5.23303
G1 E3.23303 F1800.000
G92 E0
G1 X85.643 Y95.643 F12000.000
G1 E2.00000 F1800.000
G1 X114.357 Y95.643 E2.72753 F900.000
G1 X114.357 Y104.357 E2.94833
G1 X85.643 Y104.357 E3.67587
G1 X85.643 Y95.718 E3.89476
G1 X85.250 Y95.250 F12000.000
G1 X114.750 Y95.250 E4.64220 F720.000
G1 X114.750 Y104.750 E4.88290
G1 X85.250 Y104.750 E5.63033
G1 X85.250 Y95.325 E5.86913
G1 X85.683 Y95.500 F12000.000
G1 X85.907 Y104.053 F12000.000
G1 X85.947 Y104.093 E5.87056 F1200.000
G1 X86.506 Y104.093 E5.88471
G1 X85.907 Y103.494 E5.90614
G1 X85.907 Y102.936 E5.92029
G1 X87.064 Y104.093 E5.96173
G1 X87.622 Y104.093 E5.97588
G1 X85.907 Y102.378 E6.03733
G1 X85.907 Y101.819 E6.05148
G1 X88.181 Y104.093 E6.13293
G1 X88.739 Y104.093 E6.14708
G1 X85.907 Y101.261 E6.24854
G1 X85.907 Y100.703 E6.26268
G1 X89.297 Y104.093 E6.38415
G1 X89.856 Y104.093 E6.39829
G1 X85.907 Y100.144 E6.53976
G1 X85.907 Y99.586 E6.55391
G1 X90.414 Y104.093 E6.71538
G1 X90.972 Y104.093 E6.72953
G1 X85.907 Y99.028 E6.91101
G1 X85.907 Y98.469 E6.92516
G1 X91.531 Y104.093 E7.12664
G1 X92.089 Y104.093 E7.14079
G1 X85.907 Y97.911 E7.36228
G1 X85.907 Y97.353 E7.37643
G1 X92.647 Y104.093 E7.61792
G1 X93.205 Y104.093 E7.63207
G1 X85.907 Y96.795 E7.89357
G1 X85.907 Y96.236 E7.90772
G1 X93.764 Y104.093 E8.18923
G1 X94.322 Y104.093 E8.20337
G1 X86.137 Y95.907 E8.49666
G1 X86.695 Y95.907 E8.51081
G1 X94.880 Y104.093 E8.80410
G1 X95.439 Y104.093 E8.81825
G1 X87.253 Y95.907 E9.11154
G1 X87.812 Y95.907 E9.12568
G1 X95.997 Y104.093 E9.41897
G1 X96.555 Y104.093 E9.43312
G1 X88.370 Y95.907 E9.72641
G1 X88.928 Y95.907 E9.74056
G1 X97.114 Y104.093 E10.03385
G1 X97.672 Y104.093 E10.04799
G1 X89.487 Y95.907 E10.34129
G1 X90.045 Y95.907 E10.35543
G1 X98.230 Y104.093 E10.64872
G1 X98.789 Y104.093 E10.66287
G1 X90.603 Y95.907 E10.95616
G1 X91.162 Y95.907 E10.97031
G1 X99.347 Y104.093 E11.26360
G1 X99.905 Y104.093 E11.27774
G1 X91.720 Y95.907 E11.57103
G1 X92.278 Y95.907 E11.58518
G1 X100.464 Y104.093 E11.87847
G1 X101.022 Y104.093 E11.89262
G1 X92.837 Y95.907 E12.18591
G1 X93.395 Y95.907 E12.20005
G1 X101.580 Y104.093 E12.49334
G1 X102.139 Y104.093 E12.50749
G1 X93.953 Y95.907 E12.80078
G1 X94.512 Y95.907 E12.81493
G1 X102.697 Y104.093 E13.10822
G1 X103.255 Y104.093 E13.12236
G1 X95.070 Y95.907 E13.41566
G1 X95.628 Y95.907 E13.42980
G1 X103.813 Y104.093 E13.72309
G1 X104.372 Y104.093 E13.73724
G1 X96.187 Y95.907 E14.03053
G1 X96.745 Y95.907 E14.04468
G1 X104.930 Y104.093 E14.33797
G1 X105.488 Y104.093 E14.35211
G1 X97.303 Y95.907 E14.64540
G1 X97.861 Y95.907 E14.65955
G1 X106.047 Y104.093 E14.95284
G1 X106.605 Y104.093 E14.96699
G1 X98.420 Y95.907 E15.26028
G1 X98.978 Y95.907 E15.27442
G1 X107.163 Y104.093 E15.56771
G1 X107.722 Y104.093 E15.58186
G1 X99.536 Y95.907 E15.87515
G1 X100.095 Y95.907 E15.88930
G1 X108.280 Y104.093 E16.18259
G1 X108.838 Y104.093 E16.19673
G1 X100.653 Y95.907 E16.49003
G1 X101.211 Y95.907 E16.50417
G1 X109.397 Y104.093 E16.79746
G1 X109.955 Y104.093 E16.81161
G1 X101.770 Y95.907 E17.10490
G1 X102.328 Y95.907 E17.11905
G1 X110.513 Y104.093 E17.41234
G1 X111.072 Y104.093 E17.42648
G1 X102.886 Y95.907 E17.71977
G1 X103.445 Y95.907 E17.73392
G1 X111.630 Y104.093 E18.02721
G1 X112.188 Y104.093 E18.04136
G1 X104.003 Y95.907 E18.33465
G1 X104.561 Y95.907 E18.34879
G1 X112.747 Y104.093 E18.64208
G1 X113.305 Y104.093 E18.65623
G1 X105.120 Y95.907 E18.94952
G1 X105.678 Y95.907 E18.96367
G1 X113.863 Y104.093 E19.25696
G1 X114.093 Y103.764 E19.26712
G1 X106.236 Y95.907 E19.54863
G1 X106.795 Y95.907 E19.56277
G1 X114.093 Y103.205 E19.82427
G1 X114.093 Y102.647 E19.83842
G1 X107.353 Y95.907 E20.07992
G1 X107.911 Y95.907 E20.09406
G1 X114.093 Y102.089 E20.31556
G1 X114.093 Y101.531 E20.32970
G1 X108.469 Y95.907 E20.53119
G1 X109.028 Y95.907 E20.54533
G1 X114.093 Y100.972 E20.72681
G1 X114.093 Y100.414 E20.74096
G1 X109.586 Y95.907 E20.90244
G1 X110.144 Y95.907 E20.91658
G1 X114.093 Y99.856 E21.05805
G1 X114.093 Y99.297 E21.07220
G1 X110.703 Y95.907 E21.19366
G1 X111.261 Y95.907 E21.20781
G1 X114.093 Y98.739 E21.30927
G1 X114.093 Y98.181 E21.32342
G1 X111.819 Y95.907 E21.40487
G1 X112.378 Y95.907 E21.41902
G1 X114.093 Y97.622 E21.48047
G1 X114.093 Y97.064 E21.49461
G1 X112.936 Y95.907 E21.53606
G1 X113.494 Y95.907 E21.55020
G1 X114.093 Y96.506 E21.57164
G1 X114.093 Y95.947 E21.58579
G1 X114.053 Y95.907 E21.58722
M106 S255
M104 S188 ; set temperature
G1 E19.58722 F1800.000
G92 E0
G1 Z1.000 F12000.000
G1 X114.357 Y95.643 F12000.000
G1 E2.00000 F1800.000
G1 X114.357 Y104.357 E2.22080 F692.063
G1 X85.643 Y104.357 E2.94833
G1 X85.643 Y95.643 E3.16913
G1 X114.282 Y95.643 E3.89476
G1 X114.750 Y95.250 F12000.000
G1 X114.750 Y104.750 E4.13546 F600.000
G1 X85.250 Y104.750 E4.88290
G1 X85.250 Y95.250 E5.12359
G1 X114.675 Y95.250 E5.86913
G1 X114.500 Y95.683 F12000.000
G1 X113.295 Y95.927 F12000.000
G1 X113.247 Y95.975 E5.87085 F692.063
G1 X113.892 Y98.384 E5.93404
G1 X114.073 Y98.433 E5.93877
G1 X114.073 Y102.498 F12000.000
G1 X112.876 Y102.178 E5.97017 F692.063
G1 X112.230 Y99.769 E6.03336
G1 X113.513 Y98.486 E6.07932
G1 X112.867 Y96.077 E6.14251
G1 X112.309 Y95.927 E6.15716
G1 X110.518 Y95.927 E6.20253
G1 X109.453 Y96.992 E6.24067
G1 X110.099 Y99.401 E6.30386
G1 X111.851 Y99.870 E6.34982
G1 X112.496 Y102.279 E6.41301
G1 X111.214 Y103.562 E6.45896
G1 X111.351 Y104.073 E6.47236
G1 X110.944 Y104.073 E6.48266
G1 X110.834 Y103.663 E6.49339
G1 X109.082 Y103.194 E6.53935
G1 X108.437 Y100.785 E6.60254
G1 X109.719 Y99.502 E6.64849
G1 X109.074 Y97.093 E6.71168
G1 X107.322 Y96.624 E6.75764
G1 X107.135 Y95.927 E6.77591
G1 X106.729 Y95.927 E6.78621
G1 X106.943 Y96.726 E6.80715
G1 X105.660 Y98.008 E6.85311
G1 X106.306 Y100.417 E6.91630
G1 X108.058 Y100.887 E6.96225
G1 X108.703 Y103.296 E7.02544
G1 X107.926 Y104.073 E7.05328
G1 X105.252 Y104.073 E7.12103
G1 X104.644 Y101.801 E7.18060
G1 X105.926 Y100.519 E7.22656
G1 X105.281 Y98.110 E7.28975
G1 X103.529 Y97.640 E7.33570
G1 X103.070 Y95.927 E7.38063
G1 X102.663 Y95.927 E7.39093
G1 X103.150 Y97.742 E7.43853
G1 X101.867 Y99.025 E7.48449
G1 X102.512 Y101.434 E7.54768
G1 X104.264 Y101.903 E7.59363
G1 X104.846 Y104.073 E7.65054
G1 X101.187 Y104.073 E7.74325
G1 X100.851 Y102.818 E7.77616
G1 X102.133 Y101.535 E7.82212
G1 X101.488 Y99.126 E7.88531
G1 X99.736 Y98.657 E7.93126
G1 X99.090 Y96.248 E7.99445
G1 X99.411 Y95.927 E8.00593
G1 X97.136 Y95.927 E8.06357
G1 X98.711 Y96.349 E8.10488
G1 X99.356 Y98.758 E8.16807
G1 X98.074 Y100.041 E8.21403
G1 X98.719 Y102.450 E8.27722
G1 X100.471 Y102.919 E8.32317
G1 X100.780 Y104.073 E8.35342
G1 X97.121 Y104.073 E8.44613
G1 X97.057 Y103.834 E8.45238
G1 X98.340 Y102.552 E8.49834
G1 X97.694 Y100.143 E8.56153
G1 X95.942 Y99.673 E8.60748
G1 X95.297 Y97.264 E8.67067
G1 X96.580 Y95.982 E8.71663
G1 X96.565 Y95.927 E8.71805
G1 X92.906 Y95.927 E8.81075
G1 X93.166 Y96.896 E8.83617
G1 X94.918 Y97.366 E8.88213
G1 X95.563 Y99.775 E8.94532
G1 X94.281 Y101.057 E8.99127
G1 X94.926 Y103.466 E9.05446
G1 X96.678 Y103.936 E9.10042
G1 X96.715 Y104.073 E9.10400
G1 X94.042 Y104.073 E9.17172
G1 X94.547 Y103.568 E9.18980
G1 X93.901 Y101.159 E9.25299
G1 X92.149 Y100.690 E9.29895
G1 X91.504 Y98.281 E9.36213
G1 X92.786 Y96.998 E9.40809
G1 X92.499 Y95.927 E9.43617
G1 X88.841 Y95.927 E9.52888
G1 X89.372 Y97.913 E9.58096
G1 X91.124 Y98.382 E9.62691
G1 X91.770 Y100.791 E9.69010
G1 X90.487 Y102.074 E9.73606
G1 X91.023 Y104.073 E9.78849
G1 X90.616 Y104.073 E9.79879
G1 X90.108 Y102.175 E9.84855
G1 X88.356 Y101.706 E9.89451
G1 X87.711 Y99.297 E9.95770
G1 X88.993 Y98.014 E10.00365
G1 X88.434 Y95.927 E10.05840
G1 X85.927 Y99.022 F12000.000
G1 X87.331 Y99.399 E10.09522 F692.063
G1 X87.977 Y101.808 E10.15841
G1 X86.694 Y103.090 E10.20437
G1 X86.958 Y104.073 E10.23014
G1 X86.551 Y104.073 E10.24044
G1 X86.315 Y103.192 E10.26354
G1 X85.927 Y103.088 E10.27371
G1 E8.27371 F1800.000
G92 E0
G1 Z1.500 F12000.000
G1 X85.643 Y104.357 F12000.000
G1 E2.00000 F1800.000
G1 X85.643 Y95.643 E2.22080 F681.034
G1 X114.357 Y95.643 E2.94833
G1 X114.357 Y104.357 E3.16913
G1 X85.718 Y104.357 E3.89476
G1 X85.250 Y104.750 F12000.000
G1 X85.250 Y95.250 E4.13546 F600.000
G1 X114.750 Y95.250 E4.88290
G1 X114.750 Y104.750 E5.12359
G1 X85.325 Y104.750 E5.86913
G1 X85.500 Y104.317 F12000.000
G1 X85.927 Y103.291 F12000.000
G1 X86.593 Y103.469 E5.88658 F681.034
G1 X86.754 Y104.073 E5.90240
G1 X85.927 Y102.885 E5.93907
G1 X86.694 Y103.090 E5.95918
G1 X87.977 Y101.808 E6.00514
G1 X90.386 Y102.453 E6.06833
G1 X90.820 Y104.073 E6.11081
G1 X94.042 Y104.073 E6.19246
G1 X94.547 Y103.568 E6.21054
G1 X96.430 Y104.073 E6.25994
G1 X100.984 Y104.073 F12000.000
G1 X100.749 Y103.197 E6.28290 F681.034
G1 X98.340 Y102.552 E6.34609
G1 X97.057 Y103.834 E6.39205
G1 X94.648 Y103.189 E6.45524
G1 X94.179 Y101.437 E6.50119
G1 X91.770 Y100.791 E6.56438
G1 X90.487 Y102.074 E6.61034
G1 X88.078 Y101.428 E6.67353
G1 X87.609 Y99.676 E6.71948
G1 X85.927 Y99.226 E6.76359
G1 X85.927 Y98.819 E6.77389
G1 X87.711 Y99.297 E6.82067
G1 X88.993 Y98.014 E6.86662
G1 X91.402 Y98.660 E6.92981
G1 X91.872 Y100.412 E6.97577
G1 X94.281 Y101.057 E7.03895
G1 X95.563 Y99.775 E7.08491
G1 X97.972 Y100.420 E7.14810
G1 X98.442 Y102.172 E7.19405
G1 X100.851 Y102.818 E7.25724
G1 X102.133 Y101.535 E7.30320
G1 X104.542 Y102.181 E7.36639
G1 X105.012 Y103.933 E7.41234
G1 X105.534 Y104.073 E7.42604
G1 X107.926 Y104.073 E7.48666
G1 X108.703 Y103.296 E7.51450
G1 X111.112 Y103.941 E7.57769
G1 X111.147 Y104.073 E7.58113
G1 X114.073 Y102.702 E7.66299
G1 X112.496 Y102.279 E7.70433
G1 X111.214 Y103.562 E7.75029
G1 X108.805 Y102.916 E7.81348
G1 X108.335 Y101.164 E7.85943
G1 X105.926 Y100.519 E7.92262
G1 X104.644 Y101.801 E7.96858
G1 X102.235 Y101.156 E8.03177
G1 X101.765 Y99.404 E8.07772
G1 X99.356 Y98.758 E8.14091
G1 X98.074 Y100.041 E8.18687
G1 X95.665 Y99.395 E8.25006
G1 X95.195 Y97.643 E8.29601
G1 X92.786 Y96.998 E8.35920
G1 X91.504 Y98.281 E8.40516
G1 X89.095 Y97.635 E8.46835
G1 X88.637 Y95.927 E8.51314
G1 X92.703 Y95.927 F12000.000
G1 X92.888 Y96.619 E8.53127 F681.034
G1 X95.297 Y97.264 E8.59446
G1 X96.580 Y95.982 E8.64042
G1 X98.989 Y96.627 E8.70361
G1 X99.458 Y98.379 E8.74956
G1 X101.867 Y99.025 E8.81275
G1 X103.150 Y97.742 E8.85871
G1 X105.559 Y98.388 E8.92190
G1 X106.028 Y100.140 E8.96785
G1 X108.437 Y100.785 E9.03104
G1 X109.719 Y99.502 E9.07700
G1 X112.128 Y100.148 E9.14019
G1 X112.598 Y101.900 E9.18614
G1 X114.073 Y102.295 E9.22482
G1 X114.073 Y98.636 E9.31753
G1 X113.513 Y98.486 E9.33222
G1 X112.230 Y99.769 E9.37817
G1 X109.821 Y99.123 E9.44136
G1 X109.352 Y97.371 E9.48732
G1 X106.943 Y96.726 E9.55051
G1 X105.660 Y98.008 E9.59646
G1 X103.251 Y97.363 E9.65965
G1 X102.867 Y95.927 E9.69730
G1 X99.411 Y95.927 E9.78486
G1 X99.090 Y96.248 E9.79634
G1 X97.894 Y95.927 E9.82771
G1 X106.932 Y95.927 F12000.000
G1 X107.044 Y96.346 E9.83870 F681.034
G1 X109.453 Y96.992 E9.90189
G1 X110.518 Y95.927 E9.94003
G1 X111.550 Y95.927 E9.96618
G1 X113.145 Y96.355 E10.00801
G1 X113.614 Y98.107 E10.05397
G1 X114.073 Y98.230 E10.06599
G1 X113.295 Y95.927 E10.12756
G1 X113.247 Y95.975 E10.12928
G1 X113.067 Y95.927 E10.13399
G1 E8.13399 F1800.000
G92 E0
G1 Z2.000 F12000.000
G1 X114.357 Y95.643 F12000.000
G1 E2.00000 F1800.000
G1 X114.357 Y104.357 E2.22080 F677.078
G1 X85.643 Y104.357 E2.94833
G1 X85.643 Y95.643 E3.16913
G1 X114.282 Y95.643 E3.89476
G1 X114.750 Y95.250 F12000.000
G1 X114.750 Y104.750 E4.13546 F600.000
G1 X85.250 Y104.750 E4.88290
G1 X85.250 Y95.250 E5.12359
G1 X114.675 Y95.250 E5.86913
G1 X114.500 Y95.683 F12000.000
G1 X114.073 Y102.498 F12000.000
G1 X112.876 Y102.178 E5.90052 F677.078
G1 X111.112 Y103.941 E5.96371
G1 X111.147 Y104.073 E5.96716
G1 X108.204 Y104.073 E6.04174
G1 X109.082 Y103.194 E6.07322
G1 X110.834 Y103.663 E6.11918
G1 X112.598 Y101.900 E6.18237
G1 X112.128 Y100.148 E6.22832
G1 X113.892 Y98.384 E6.29151
G1 X114.073 Y98.433 E6.29625
G1 X112.309 Y95.927 E6.37389
G1 X112.867 Y96.077 E6.38854
G1 X113.017 Y95.927 E6.39390
G1 X113.572 Y95.927 E6.40797
G1 X113.145 Y96.355 E6.42329
G1 X113.614 Y98.107 E6.46924
G1 X111.851 Y99.870 E6.53243
G1 X110.099 Y99.401 E6.57839
G1 X108.335 Y101.164 E6.64158
G1 X108.805 Y102.916 E6.68753
G1 X107.648 Y104.073 E6.72896
G1 X104.872 Y104.073 E6.79932
G1 X105.012 Y103.933 E6.80433
G1 X104.542 Y102.181 E6.85029
G1 X106.306 Y100.417 E6.91348
G1 X108.058 Y100.887 E6.95943
G1 X109.821 Y99.123 E7.02262
G1 X109.352 Y97.371 E7.06858
G1 X110.795 Y95.927 E7.12031
G1 X110.240 Y95.927 E7.13438
G1 X109.074 Y97.093 E7.17616
G1 X107.322 Y96.624 E7.22212
G1 X105.559 Y98.388 E7.28531
G1 X106.028 Y100.140 E7.33126
G1 X104.264 Y101.903 E7.39445
G1 X102.512 Y101.434 E7.44041
G1 X100.749 Y103.197 E7.50359
G1 X100.984 Y104.073 E7.52656
G1 X97.097 Y104.073 E7.62504
G1 X98.719 Y102.450 E7.68318
G1 X100.471 Y102.919 E7.72914
G1 X102.235 Y101.156 E7.79233
G1 X101.765 Y99.404 E7.83828
G1 X103.529 Y97.640 E7.90147
G1 X105.281 Y98.110 E7.94743
G1 X107.044 Y96.346 E8.01062
G1 X106.932 Y95.927 E8.02161
G1 X102.867 Y95.927 F12000.000
G1 X103.251 Y97.363 E8.05926 F677.078
G1 X101.488 Y99.126 E8.12244
G1 X99.736 Y98.657 E8.16840
G1 X97.972 Y100.420 E8.23159
G1 X98.442 Y102.172 E8.27755
G1 X96.678 Y103.936 E8.34073
G1 X94.926 Y103.466 E8.38669
G1 X94.320 Y104.073 E8.40841
G1 X93.764 Y104.073 E8.42248
G1 X94.648 Y103.189 E8.45416
G1 X94.179 Y101.437 E8.50011
G1 X95.942 Y99.673 E8.56330
G1 X97.694 Y100.143 E8.60926
G1 X99.458 Y98.379 E8.67245
G1 X98.989 Y96.627 E8.71840
G1 X99.688 Y95.927 E8.74347
G1 X99.133 Y95.927 E8.75755
G1 X98.711 Y96.349 E8.77267
G1 X97.136 Y95.927 E8.81398
G1 X96.911 Y95.927 E8.81967
G1 X95.195 Y97.643 E8.88116
G1 X95.665 Y99.395 E8.92711
G1 X93.901 Y101.159 E8.99030
G1 X92.149 Y100.690 E9.03626
G1 X90.386 Y102.453 E9.09945
G1 X90.820 Y104.073 E9.14193
G1 X86.754 Y104.073 F12000.000
G1 X86.593 Y103.469 E9.15775 F677.078
G1 X88.356 Y101.706 E9.22094
G1 X90.108 Y102.175 E9.26689
G1 X91.872 Y100.412 E9.33008
G1 X91.402 Y98.660 E9.37604
G1 X93.166 Y96.896 E9.43923
G1 X94.918 Y97.366 E9.48518
G1 X96.356 Y95.927 E9.53672
G1 X92.703 Y95.927 E9.62929
G1 X92.888 Y96.619 E9.64742
G1 X91.124 Y98.382 E9.71061
G1 X89.372 Y97.913 E9.75656
G1 X87.609 Y99.676 E9.81975
G1 X88.078 Y101.428 E9.86571
G1 X86.315 Y103.192 E9.92890
G1 X85.927 Y103.088 E9.93906
G1 X85.927 Y99.022 F12000.000
G1 X87.331 Y99.399 E9.97589 F677.078
G1 X89.095 Y97.635 E10.03908
G1 X88.637 Y95.927 E10.08387
G1 E8.08387 F1800.000
G92 E0
G1 Z2.500 F12000.000
G1 X85.643 Y95.643 F12000.000
G1 E2.00000 F1800.000
G1 X114.357 Y95.643 E2.72753 F692.063
G1 X114.357 Y104.357 E2.94833
G1 X85.643 Y104.357 E3.67587
G1 X85.643 Y95.718 E3.89476
G1 X85.250 Y95.250 F12000.000
G1 X114.750 Y95.250 E4.64220 F600.000
G1 X114.750 Y104.750 E4.88290
G1 X85.250 Y104.750 E5.63033
G1 X85.250 Y95.325 E5.86913
G1 X85.683 Y95.500 F12000.000
G1 X88.434 Y95.927 F12000.000
G1 X88.993 Y98.014 E5.92387 F692.063
G1 X87.711 Y99.297 E5.96982
G1 X88.356 Y101.706 E6.03301
G1 X90.108 Y102.175 E6.07897
G1 X90.616 Y104.073 E6.12874
