; generated by Slic3r 1.2.1 on 2014-12-15 at 22:56:06

; external perimeters extrusion width = 0.50mm
; perimeters extrusion width = 0.58mm
; infill extrusion width = 0.58mm
; solid infill extrusion width = 0.58mm
; top infill extrusion width = 0.58mm

M107
M104 S190 ; set temperature
G28 ; home all axes
G1 Z5 F150 ; lift nozzle
M109 S190 ; wait for temperature to be reached
G21 ; set units to millimeters
G90 ; use absolute coordinates
M82 ; use absolute distances for extrusion
G92 E0
G1 E-2.00000 F1800.000
G92 E0
G1 Z0.500 F7800.000
G1 X79.650 Y90.654 F7800.000
G1 E2.00000 F1800.000
G1 X81.412 Y89.115 E2.13476 F1080.000
G1 X83.587 Y88.254 E2.26952
G1 X85.000 Y88.107 E2.35131
G1 X115.000 Y88.107 E4.07921
G1 X117.306 Y88.504 E4.21396
G1 X119.346 Y89.650 E4.34872 F1080.000
G1 X120.885 Y91.412 E4.48348
G1 X121.746 Y93.587 E4.61824
G1 X121.893 Y95.000 E4.70004
G1 X121.893 Y105.000 E5.27600
G1 X121.496 Y107.306 E5.41076
G1 X120.350 Y109.346 E5.54552
G1 X118.588 Y110.885 E5.68027
G1 X116.413 Y111.746 E5.81503
G1 X115.000 Y111.893 E5.89683
G1 X85.000 Y111.893 E7.62472
G1 X82.694 Y111.496 E7.75948
G1 X80.654 Y110.350 E7.89424
G1 X79.115 Y108.588 E8.02899
G1 X78.254 Y106.413 E8.16375
G1 X78.107 Y105.000 E8.24555
G1 X78.107 Y95.000 E8.82152
G1 X78.504 Y92.694 E8.95627
G1 X79.613 Y90.720 E9.08671
G1 E7.08671 F1800.000
G92 E0
G1 X86.393 Y96.393 F7800.000
G1 E2.00000 F1800.000
G1 X113.607 Y96.393 E3.56746 F540.000
G1 X113.607 Y103.607 E3.98300
G1 X86.393 Y103.607 E5.55046
G1 X86.393 Y96.468 E5.96168
G1 X85.500 Y95.500 F7800.000
G1 X114.500 Y95.500 E7.63197 F378.000
G1 X114.500 Y104.500 E8.15034
G1 X85.500 Y104.500 E9.82063
G1 X85.500 Y95.575 E10.33468
G1 X85.933 Y95.750 F7800.000
G1 X87.020 Y102.940 F7800.000
G1 X87.060 Y102.980 E10.33794 F1080.000
G1 X88.334 Y102.980 E10.41129
G1 X87.020 Y101.666 E10.51829
G1 X87.020 Y100.393 E10.59165
G1 X89.607 Y102.980 E10.80239
G1 X90.881 Y102.980 E10.87574
G1 X87.020 Y99.119 E11.19022
G1 X87.020 Y97.846 E11.26358
G1 X92.154 Y102.980 E11.68180
G1 X93.428 Y102.980 E11.75516
G1 X87.468 Y97.020 E12.24064
G1 X88.741 Y97.020 E12.31400
G1 X94.702 Y102.980 E12.79948
G1 X95.975 Y102.980 E12.87283
G1 X90.015 Y97.020 E13.35831
G1 X91.289 Y97.020 E13.43167
G1 X97.249 Y102.980 E13.91715
G1 X98.522 Y102.980 E13.99051
G1 X92.562 Y97.020 E14.47599
G1 X93.836 Y97.020 E14.54935
G1 X99.796 Y102.980 E15.03483
G1 X101.070 Y102.980 E15.10818
G1 X95.109 Y97.020 E15.59367
G1 X96.383 Y97.020 E15.66702
G1 X102.343 Y102.980 E16.15250
G1 X103.617 Y102.980 E16.22586
G1 X97.657 Y97.020 E16.71134
G1 X98.930 Y97.020 E16.78470
G1 X104.891 Y102.980 E17.27018
G1 X106.164 Y102.980 E17.34353
G1 X100.204 Y97.020 E17.82902
G1 X101.478 Y97.020 E17.90237
G1 X107.438 Y102.980 E18.38785
G1 X108.711 Y102.980 E18.46121
G1 X102.751 Y97.020 E18.94669
G1 X104.025 Y97.020 E19.02005
G1 X109.985 Y102.980 E19.50553
G1 X111.259 Y102.980 E19.57888
G1 X105.298 Y97.020 E20.06437
G1 X106.572 Y97.020 E20.13772
G1 X112.532 Y102.980 E20.62320
G1 X112.980 Y102.154 E20.67731
G1 X107.846 Y97.020 E21.09553
G1 X109.119 Y97.020 E21.16889
G1 X112.980 Y100.881 E21.48337
G1 X112.980 Y99.607 E21.55672
G1 X110.393 Y97.020 E21.76746
G1 X111.666 Y97.020 E21.84082
G1 X112.980 Y98.334 E21.94782
G1 X112.980 Y97.060 E22.02117
G1 X112.940 Y97.020 E22.02443
M106 S255
M104 S188 ; set temperature
G1 E20.02443 F1800.000
G92 E0
G1 Z0.900 F7800.000
G1 X114.297 Y95.703 F7800.000
G1 E2.00000 F1800.000
G1 X114.297 Y104.297 E2.21777 F852.895
G1 X85.703 Y104.297 E2.94227
G1 X85.703 Y95.703 E3.16004
G1 X114.222 Y95.703 E3.88264
G1 X114.750 Y95.250 F7800.000
G1 X114.750 Y104.750 E4.08572 F600.000
G1 X85.250 Y104.750 E4.71634
G1 X85.250 Y95.250 E4.91943
G1 X114.675 Y95.250 E5.54845
G1 X114.500 Y95.683 F7800.000
G1 X113.962 Y103.922 F7800.000
G1 X113.922 Y103.962 E5.54988 F1705.790
G1 X113.220 Y103.962 E5.56765
G1 X113.962 Y103.220 E5.59421
G1 X113.962 Y102.519 E5.61198
G1 X112.519 Y103.962 E5.66367
G1 X111.818 Y103.962 E5.68144
G1 X113.962 Y101.818 E5.75826
G1 X113.962 Y101.116 E5.77603
G1 X111.116 Y103.962 E5.87797
G1 X110.415 Y103.962 E5.89574
G1 X113.962 Y100.415 E6.02282
G1 X113.962 Y99.714 E6.04059
G1 X109.714 Y103.962 E6.19279
G1 X109.012 Y103.962 E6.21056
G1 X113.962 Y99.012 E6.38790
G1 X113.962 Y98.311 E6.40567
G1 X108.311 Y103.962 E6.60813
G1 X107.610 Y103.962 E6.62590
G1 X113.962 Y97.610 E6.85349
G1 X113.962 Y96.909 E6.87126
G1 X106.909 Y103.962 E7.12398
G1 X106.207 Y103.962 E7.14175
G1 X113.962 Y96.207 E7.41960
G1 X113.429 Y96.038 E7.43375
G1 X105.506 Y103.962 E7.71765
G1 X104.805 Y103.962 E7.73542
G1 X112.728 Y96.038 E8.01932
G1 X112.027 Y96.038 E8.03709
G1 X104.103 Y103.962 E8.32099
G1 X103.402 Y103.962 E8.33876
G1 X111.325 Y96.038 E8.62266
G1 X110.624 Y96.038 E8.64043
G1 X102.701 Y103.962 E8.92433
G1 X101.999 Y103.962 E8.94210
G1 X109.923 Y96.038 E9.22600
G1 X109.221 Y96.038 E9.24377
G1 X101.298 Y103.962 E9.52767
G1 X100.597 Y103.962 E9.54544
G1 X108.520 Y96.038 E9.82934
G1 X107.819 Y96.038 E9.84711
G1 X99.896 Y103.962 E10.13101
G1 X99.194 Y103.962 E10.14878
G1 X107.117 Y96.038 E10.43269
G1 X106.416 Y96.038 E10.45045
G1 X98.493 Y103.962 E10.73436
G1 X97.792 Y103.962 E10.75212
G1 X105.715 Y96.038 E11.03603
G1 X105.014 Y96.038 E11.05379
G1 X97.090 Y103.962 E11.33770
G1 X96.389 Y103.962 E11.35546
G1 X104.312 Y96.038 E11.63937
G1 X103.611 Y96.038 E11.65714
G1 X95.688 Y103.962 E11.94104
G1 X94.986 Y103.962 E11.95881
G1 X102.910 Y96.038 E12.24271
G1 X102.208 Y96.038 E12.26048
G1 X94.285 Y103.962 E12.54438
G1 X93.584 Y103.962 E12.56215
G1 X101.507 Y96.038 E12.84605
G1 X100.806 Y96.038 E12.86382
G1 X92.883 Y103.962 E13.14772
G1 X92.181 Y103.962 E13.16549
G1 X100.104 Y96.038 E13.44939
G1 X99.403 Y96.038 E13.46716
G1 X91.480 Y103.962 E13.75106
G1 X90.779 Y103.962 E13.76883
G1 X98.702 Y96.038 E14.05273
G1 X98.001 Y96.038 E14.07050
G1 X90.077 Y103.962 E14.35440
G1 X89.376 Y103.962 E14.37217
G1 X97.299 Y96.038 E14.65607
G1 X96.598 Y96.038 E14.67384
G1 X88.675 Y103.962 E14.95774
G1 X87.973 Y103.962 E14.97551
G1 X95.897 Y96.038 E15.25941
G1 X95.195 Y96.038 E15.27718
G1 X87.272 Y103.962 E15.56108
G1 X86.571 Y103.962 E15.57885
G1 X94.494 Y96.038 E15.86275
G1 X93.793 Y96.038 E15.88052
G1 X86.038 Y103.793 E16.15837
G1 X86.038 Y103.091 E16.17614
G1 X93.091 Y96.038 E16.42886
G1 X92.390 Y96.038 E16.44663
G1 X86.038 Y102.390 E16.67422
G1 X86.038 Y101.689 E16.69199
G1 X91.689 Y96.038 E16.89445
G1 X90.988 Y96.038 E16.91222
G1 X86.038 Y100.988 E17.08955
G1 X86.038 Y100.286 E17.10732
G1 X90.286 Y96.038 E17.25953
G1 X89.585 Y96.038 E17.27730
G1 X86.038 Y99.585 E17.40438
G1 X86.038 Y98.884 E17.42214
G1 X88.884 Y96.038 E17.52409
G1 X88.182 Y96.038 E17.54186
G1 X86.038 Y98.182 E17.61868
G1 X86.038 Y97.481 E17.63645
G1 X87.481 Y96.038 E17.68814
G1 X86.780 Y96.038 E17.70591
G1 X86.038 Y96.780 E17.73247
G1 X86.038 Y96.078 E17.75024
G1 X86.078 Y96.038 E17.75167
G1 E15.75167 F1800.000
G92 E0
G1 Z1.300 F7800.000
G1 X85.703 Y95.703 F7800.000
G1 E2.00000 F1800.000
G1 X114.297 Y95.703 E2.72450 F600.000
G1 X114.297 Y104.297 E2.94227
G1 X85.703 Y104.297 E3.66677
G1 X85.703 Y95.778 E3.88264
G1 X85.250 Y95.250 F7800.000
G1 X114.750 Y95.250 E4.51326 F600.000
G1 X114.750 Y104.750 E4.71634
G1 X85.250 Y104.750 E5.34697
G1 X85.250 Y95.325 E5.54845
G1 X85.683 Y95.500 F7800.000
G1 X89.362 Y96.058 F7800.000
G1 X89.532 Y96.104 E5.55289 F987.069
G1 X90.118 Y98.294 E5.61034
G1 X93.130 Y99.101 E5.68932
G1 X94.733 Y97.497 E5.74677
G1 X97.744 Y98.304 E5.82575
G1 X98.331 Y100.494 E5.88320
G1 X101.342 Y101.301 E5.96219
G1 X102.945 Y99.698 E6.01963
G1 X105.957 Y100.505 E6.09862
G1 X106.543 Y102.695 E6.15606
G1 X109.555 Y103.502 E6.23505
G1 X111.158 Y101.899 E6.29249
G1 X113.942 Y102.644 E6.36551
G1 X113.942 Y102.136 E6.37839
G1 X111.285 Y101.424 E6.44807
G1 X110.698 Y99.234 E6.50552
G1 X107.687 Y98.428 E6.58450
G1 X106.084 Y100.031 E6.64195
G1 X103.072 Y99.224 E6.72093
G1 X102.486 Y97.034 E6.77838
G1 X99.474 Y96.227 E6.85737
G1 X97.871 Y97.830 E6.91481
G1 X94.860 Y97.023 E6.99380
G1 X94.601 Y96.058 E7.01911
G1 X100.742 Y96.058 F7800.000
G1 X102.613 Y96.560 E7.06818 F987.069
G1 X103.114 Y96.058 E7.08615
G1 X107.306 Y96.058 E7.19236
G1 X107.814 Y97.953 E7.24207
G1 X110.825 Y98.760 E7.32106
G1 X112.428 Y97.157 E7.37850
G1 X113.942 Y97.563 E7.41819
G1 X113.942 Y97.054 E7.43107
G1 X112.555 Y96.683 E7.46743
G1 X112.388 Y96.058 E7.48381
G1 X109.300 Y103.942 F7800.000
G1 X106.416 Y103.169 E7.55945 F987.069
G1 X105.644 Y103.942 E7.58713
G1 X101.796 Y103.942 F7800.000
G1 X101.215 Y101.775 E7.64395 F987.069
G1 X98.204 Y100.968 E7.72294
G1 X96.601 Y102.572 E7.78038
G1 X93.589 Y101.765 E7.85937
G1 X93.003 Y99.575 E7.91681
G1 X89.991 Y98.768 E7.99580
G1 X88.388 Y100.371 E8.05324
G1 X86.058 Y99.747 E8.11436
G1 X88.289 Y103.942 E8.23473
G1 X88.721 Y103.509 E8.25021
G1 X90.334 Y103.942 E8.29252
G1 X86.058 Y100.255 F7800.000
G1 X88.261 Y100.845 E8.35030 F987.069
G1 X88.848 Y103.035 E8.40775
G1 X91.859 Y103.842 E8.48673
G1 X93.462 Y102.239 E8.54418
G1 X96.474 Y103.046 E8.62317
G1 X96.714 Y103.942 E8.64666
G1 E6.64666 F1800.000
G92 E0
G1 Z1.700 F7800.000
G1 X85.703 Y104.297 F7800.000
G1 E2.00000 F1800.000
G1 X85.703 Y95.703 E2.21777 F600.000
G1 X114.297 Y95.703 E2.94227
G1 X114.297 Y104.297 E3.16004
G1 X85.778 Y104.297 E3.88264
G1 X85.250 Y104.750 F7800.000
G1 X85.250 Y95.250 E4.08572 F600.000
G1 X114.750 Y95.250 E4.71634
G1 X114.750 Y104.750 E4.91943
G1 X85.325 Y104.750 E5.54845
G1 X85.500 Y104.317 F7800.000
G1 X87.942 Y103.942 F7800.000
G1 X88.848 Y103.035 E5.58092 F990.722
G1 X88.261 Y100.845 E5.63836
G1 X90.466 Y98.641 E5.71735
G1 X92.656 Y99.228 E5.77480
G1 X94.860 Y97.023 E5.85378
G1 X94.601 Y96.058 E5.87909
G1 X99.296 Y96.058 E5.99804
G1 X97.397 Y97.957 E6.06608
G1 X95.207 Y97.370 E6.12352
G1 X93.003 Y99.575 E6.20251
G1 X93.590 Y101.765 E6.25995
G1 X91.413 Y103.942 E6.33795
G1 X91.282 Y103.942 E6.34126
G1 X89.195 Y103.382 E6.39600
G1 X88.636 Y103.942 E6.41604
G1 X92.107 Y103.942 E6.50398
G1 X93.937 Y102.112 E6.56954
G1 X96.127 Y102.699 E6.62699
G1 X98.331 Y100.494 E6.70597
G1 X97.744 Y98.304 E6.76342
G1 X99.949 Y96.100 E6.84240
G1 X102.139 Y96.687 E6.89985
G1 X102.767 Y96.058 E6.92236
G1 X103.461 Y96.058 E6.93995
G1 X102.486 Y97.034 E6.97491
G1 X103.072 Y99.224 E7.03235
G1 X100.868 Y101.428 E7.11134
G1 X98.678 Y100.841 E7.16878
G1 X96.474 Y103.046 E7.24777
G1 X96.714 Y103.942 E7.27126
G1 X101.796 Y103.942 F7800.000
G1 X101.215 Y101.775 E7.32809 F990.722
G1 X103.420 Y99.571 E7.40707
G1 X105.610 Y100.158 E7.46452
G1 X107.814 Y97.953 E7.54350
G1 X107.306 Y96.058 E7.59321
G1 X112.388 Y96.058 F7800.000
G1 X112.555 Y96.683 E7.60959 F990.722
G1 X110.351 Y98.887 E7.68858
G1 X108.161 Y98.300 E7.74602
G1 X105.957 Y100.505 E7.82501
G1 X106.543 Y102.695 E7.88245
G1 X105.297 Y103.942 E7.92713
G1 X105.991 Y103.942 E7.94471
G1 X106.891 Y103.042 E7.97695
G1 X109.081 Y103.629 E8.03440
G1 X111.285 Y101.424 E8.11338
G1 X110.698 Y99.234 E8.17083
G1 X112.902 Y97.030 E8.24981
G1 X113.942 Y97.308 E8.27707
G1 X113.942 Y102.239 F7800.000
G1 X113.822 Y102.358 E8.28135 F990.722
G1 X111.632 Y101.771 E8.33880
G1 X109.462 Y103.942 E8.41656
G1 X86.058 Y100.001 F7800.000
G1 X87.914 Y100.498 E8.46524 F990.722
G1 X90.119 Y98.294 E8.54422
G1 X89.532 Y96.104 E8.60167
G1 X89.577 Y96.058 E8.60329
G1 X86.106 Y96.058 E8.69124
G1 X86.058 Y96.106 E8.69295
G1 E6.69295 F1800.000
G92 E0
G1 Z2.100 F7800.000
G1 X85.703 Y95.703 F7800.000
G1 E2.00000 F1800.000
G1 X114.297 Y95.703 E2.72450 F600.000
G1 X114.297 Y104.297 E2.94227
G1 X85.703 Y104.297 E3.66677
G1 X85.703 Y95.778 E3.88264
G1 X85.250 Y95.250 F7800.000
G1 X114.750 Y95.250 E4.51326 F600.000
G1 X114.750 Y104.750 E4.71634
G1 X85.250 Y104.750 E5.34697
G1 X85.250 Y95.325 E5.54845
G1 X85.683 Y95.500 F7800.000
G1 X86.058 Y100.001 F7800.000
G1 X87.914 Y100.498 E5.59712 F1016.339
G1 X88.721 Y103.509 E5.67611
G1 X88.289 Y103.942 E5.69159
G1 X91.282 Y103.942 E5.76744
G1 X89.195 Y103.382 E5.82218
G1 X88.388 Y100.371 E5.90117
G1 X89.991 Y98.768 E5.95861
G1 X89.265 Y96.058 E6.02969
G1 X89.774 Y96.058 E6.04256
G1 X90.466 Y98.641 E6.11030
G1 X92.656 Y99.228 E6.16775
G1 X93.462 Y102.239 E6.24673
G1 X91.859 Y103.842 E6.30418
G1 X91.886 Y103.942 E6.30679
G1 X96.460 Y103.942 E6.42267
G1 X96.127 Y102.699 E6.45527
G1 X93.937 Y102.112 E6.51272
G1 X93.130 Y99.101 E6.59170
G1 X94.733 Y97.497 E6.64915
G1 X94.347 Y96.058 E6.68689
G1 X94.856 Y96.058 E6.69977
G1 X95.207 Y97.370 E6.73419
G1 X97.397 Y97.957 E6.79163
G1 X98.204 Y100.968 E6.87062
G1 X96.601 Y102.572 E6.92806
G1 X96.968 Y103.942 E6.96400
G1 X101.542 Y103.942 E7.07988
G1 X100.868 Y101.428 E7.14580
G1 X98.678 Y100.841 E7.20325
G1 X97.871 Y97.830 E7.28224
G1 X99.474 Y96.227 E7.33968
G1 X99.429 Y96.058 E7.34410
G1 X99.937 Y96.058 E7.35698
G1 X99.949 Y96.100 E7.35807
G1 X102.139 Y96.687 E7.41551
G1 X102.945 Y99.698 E7.49450
G1 X101.342 Y101.301 E7.55194
G1 X102.050 Y103.942 E7.62120
G1 X105.644 Y103.942 E7.71227
G1 X106.416 Y103.169 E7.73995
G1 X105.610 Y100.158 E7.81894
G1 X103.420 Y99.571 E7.87638
G1 X102.613 Y96.560 E7.95537
G1 X103.114 Y96.058 E7.97333
G1 X107.052 Y96.058 E8.07311
G1 X107.687 Y98.428 E8.13525
G1 X106.084 Y100.031 E8.19270
G1 X106.891 Y103.042 E8.27168
G1 X109.081 Y103.629 E8.32913
G1 X109.164 Y103.942 E8.33733
G1 X109.673 Y103.942 E8.35021
G1 X109.555 Y103.502 E8.36175
G1 X111.158 Y101.899 E8.41919
G1 X110.351 Y98.887 E8.49818
G1 X108.161 Y98.300 E8.55562
G1 X107.560 Y96.058 E8.61443
G1 X112.134 Y96.058 E8.73032
G1 X112.428 Y97.157 E8.75913
G1 X110.825 Y98.760 E8.81658
G1 X111.632 Y101.771 E8.89556
G1 X113.822 Y102.358 E8.95301
G1 X113.942 Y102.805 E8.96472
G1 X113.942 Y97.308 F7800.000
G1 X112.902 Y97.030 E8.99198 F1016.339
G1 X112.642 Y96.058 E9.01746
G1 E7.01746 F1800.000
G92 E0
G1 Z2.500 F7800.000
G1 X114.297 Y95.703 F7800.000
G1 E2.00000 F1800.000
G1 X114.297 Y104.297 E2.21777 F600.000
G1 X85.703 Y104.297 E2.94227
G1 X85.703 Y95.703 E3.16004
G1 X114.222 Y95.703 E3.88264
G1 X114.750 Y95.250 F7800.000
G1 X114.750 Y104.750 E4.08572 F600.000
G1 X85.250 Y104.750 E4.71634
G1 X85.250 Y95.250 E4.91943
G1 X114.675 Y95.250 E5.54845
G1 X114.500 Y95.683 F7800.000
G1 X112.388 Y96.058 F7800.000
G1 X112.555 Y96.683 E5.56483 F987.069
G1 X113.942 Y97.054 E5.60119
G1 X113.942 Y97.563 E5.61406
G1 X112.428 Y97.157 E5.65376
G1 X110.825 Y98.760 E5.71120
G1 X107.814 Y97.953 E5.79019
G1 X107.306 Y96.058 E5.83990
G1 X103.114 Y96.058 E5.94611
G1 X102.613 Y96.560 E5.96407
G1 X100.742 Y96.058 E6.01315
G1 X94.601 Y96.058 F7800.000
G1 X94.860 Y97.023 E6.03846 F987.069
G1 X97.871 Y97.830 E6.11745
G1 X99.474 Y96.227 E6.17489
G1 X102.486 Y97.034 E6.25388
G1 X103.072 Y99.224 E6.31132
G1 X106.084 Y100.031 E6.39031
G1 X107.687 Y98.428 E6.44776
G1 X110.698 Y99.234 E6.52674
G1 X111.285 Y101.424 E6.58419
G1 X113.942 Y102.136 E6.65387
G1 X113.942 Y102.644 E6.66675
G1 X111.158 Y101.899 E6.73977
G1 X109.555 Y103.502 E6.79721
G1 X106.543 Y102.695 E6.87620
G1 X105.957 Y100.505 E6.93364
G1 X102.945 Y99.698 E7.01263
G1 X101.342 Y101.301 E7.07007
G1 X98.331 Y100.494 E7.14906
G1 X97.744 Y98.304 E7.20650
G1 X94.733 Y97.497 E7.28549
G1 X93.130 Y99.101 E7.34294
G1 X90.118 Y98.294 E7.42192
G1 X89.532 Y96.104 E7.47937
G1 X89.362 Y96.058 E7.48381
G1 X86.058 Y100.255 F7800.000
G1 X88.261 Y100.845 E7.54160 F987.069
G1 X88.848 Y103.035 E7.59904
G1 X91.859 Y103.842 E7.67803
G1 X93.462 Y102.239 E7.73547
G1 X96.474 Y103.046 E7.81446
G1 X96.714 Y103.942 E7.83795
G1 X101.796 Y103.942 F7800.000
G1 X101.215 Y101.775 E7.89478 F987.069
G1 X98.204 Y100.968 E7.97376
G1 X96.601 Y102.572 E8.03121
G1 X93.589 Y101.765 E8.11019
G1 X93.003 Y99.575 E8.16764
G1 X89.991 Y98.768 E8.24662
