; generated by Slic3r 1.0.0RC2 on 2014-12-15 at 22:56:16

; layer_height = 0.4
; perimeters = 3
; top_solid_layers = 3
; bottom_solid_layers = 3
; fill_density = 0.4
; perimeter_speed = 30
; infill_speed = 60
; travel_speed = 130
; nozzle_diameter = 0.5
; filament_diameter = 3
; extrusion_multiplier = 1
; perimeters extrusion width = 0.50mm
; infill extrusion width = 0.53mm
; solid infill extrusion width = 0.53mm
; top infill extrusion width = 0.53mm
; first layer extrusion width = 0.70mm

G21 ; set units to millimeters
M107
M104 S200 ; set temperature
G28 ; home all axes
G1 Z5 F5000 ; lift nozzle

M109 S200 ; wait for temperature to be reached
G90 ; use absolute coordinates
G92 E0
M82 ; use absolute distances for extrusion
G1 F1800.000 E-1.00000
G92 E0
G1 Z0.350 F7800.000
G1 X80.290 Y90.290 F7800.000
G1 E1.00000 F1800.000
G1 X81.300 Y89.460 E1.04253 F540.000
G1 X82.450 Y88.850 E1.08489
G1 X83.700 Y88.470 E1.12739
G1 X85.000 Y88.340 E1.16990
G1 X115.000 Y88.340 E2.14596
G1 X116.300 Y88.470 E2.18846
G1 X117.550 Y88.850 E2.23097
G1 X118.700 Y89.460 E2.27332
G1 X119.710 Y90.290 E2.31586
G1 X120.540 Y91.300 E2.35839
G1 X121.150 Y92.450 E2.40074
G1 X121.530 Y93.700 E2.44325
G1 X121.660 Y95.000 E2.48576
G1 X121.660 Y105.000 E2.81111
G1 X121.530 Y106.300 E2.85361
G1 X121.150 Y107.550 E2.89612
G1 X120.540 Y108.700 E2.93847
G1 X119.710 Y109.710 E2.98101
G1 X118.700 Y110.540 E3.02354
G1 X117.550 Y111.150 E3.06589
G1 X116.300 Y111.530 E3.10840
G1 X115.000 Y111.660 E3.15091
G1 X85.000 Y111.660 E4.12696
G1 X83.700 Y111.530 E4.16947
G1 X82.450 Y111.150 E4.21198
G1 X81.300 Y110.540 E4.25433
G1 X80.290 Y109.710 E4.29686
G1 X79.460 Y108.700 E4.33940
G1 X78.850 Y107.550 E4.38175
G1 X78.470 Y106.300 E4.42426
G1 X78.340 Y105.000 E4.46676
G1 X78.340 Y95.000 E4.79211
G1 X78.470 Y93.700 E4.83462
G1 X78.850 Y92.450 E4.87713
G1 X79.460 Y91.300 E4.91948
G1 X80.227 Y90.366 E4.95881
G1 F1800.000 E3.95881
G92 E0
G1 X86.664 Y96.664 F7800.000
G1 E1.00000 F1800.000
G1 X113.336 Y96.664 E1.86777 F540.000
G1 X113.336 Y103.336 E2.08483
G1 X86.664 Y103.336 E2.95260
G1 X86.664 Y96.763 E3.16646
G1 X86.007 Y96.007 F7800.000
G1 X113.993 Y96.007 E4.07699 F540.000
G1 X113.993 Y103.993 E4.33681
G1 X86.007 Y103.993 E5.24733
G1 X86.007 Y96.106 E5.50395
G1 X85.350 Y95.350 F7800.000
G1 X114.650 Y95.350 E6.45723 F378.000
G1 X114.650 Y104.650 E6.75981
G1 X85.350 Y104.650 E7.71309
G1 X85.350 Y95.449 E8.01246
G1 X85.919 Y95.679 F7800.000
G1 X87.174 Y102.893 F7800.000
G1 X87.107 Y102.826 E8.01564 F1080.000
G1 X87.107 Y101.873 E8.04741
G1 X88.127 Y102.893 E8.09553
G1 X89.080 Y102.893 E8.12730
G1 X87.107 Y100.920 E8.22036
G1 X87.107 Y99.968 E8.25213
G1 X90.032 Y102.893 E8.39013
G1 X90.985 Y102.893 E8.42190
G1 X87.107 Y99.015 E8.60483
G1 X87.107 Y98.062 E8.63661
G1 X91.938 Y102.893 E8.86448
G1 X92.890 Y102.893 E8.89625
G1 X87.139 Y97.142 E9.16754
G1 X88.057 Y97.107 E9.19817
G1 X93.843 Y102.893 E9.47112
G1 X94.796 Y102.893 E9.50289
G1 X89.009 Y97.107 E9.77584
G1 X89.962 Y97.107 E9.80761
G1 X95.748 Y102.893 E10.08056
G1 X96.701 Y102.893 E10.11234
G1 X90.915 Y97.107 E10.38529
G1 X91.867 Y97.107 E10.41706
G1 X97.654 Y102.893 E10.69001
G1 X98.606 Y102.893 E10.72178
G1 X92.820 Y97.107 E10.99473
G1 X93.773 Y97.107 E11.02651
G1 X99.559 Y102.893 E11.29945
G1 X100.512 Y102.893 E11.33123
G1 X94.725 Y97.107 E11.60418
G1 X95.678 Y97.107 E11.63595
G1 X101.464 Y102.893 E11.90890
G1 X102.417 Y102.893 E11.94068
G1 X96.631 Y97.107 E12.21362
G1 X97.583 Y97.107 E12.24540
G1 X103.370 Y102.893 E12.51835
G1 X104.322 Y102.893 E12.55012
G1 X98.536 Y97.107 E12.82307
G1 X99.489 Y97.107 E12.85485
G1 X105.275 Y102.893 E13.12779
G1 X106.228 Y102.893 E13.15957
G1 X100.441 Y97.107 E13.43252
G1 X101.394 Y97.107 E13.46429
G1 X107.180 Y102.893 E13.73724
G1 X108.133 Y102.893 E13.76902
G1 X102.347 Y97.107 E14.04196
G1 X103.299 Y97.107 E14.07374
G1 X109.085 Y102.893 E14.34669
G1 X110.038 Y102.893 E14.37846
G1 X104.252 Y97.107 E14.65141
G1 X105.205 Y97.107 E14.68319
G1 X110.991 Y102.893 E14.95613
G1 X111.943 Y102.893 E14.98791
G1 X106.157 Y97.107 E15.26086
G1 X107.110 Y97.107 E15.29263
G1 X112.861 Y102.858 E15.56392
G1 X112.893 Y101.937 E15.59464
G1 X108.062 Y97.107 E15.82251
G1 X109.015 Y97.107 E15.85429
G1 X112.893 Y100.985 E16.03721
G1 X112.893 Y100.032 E16.06899
G1 X109.968 Y97.107 E16.20698
G1 X110.920 Y97.107 E16.23876
G1 X112.893 Y99.080 E16.33181
G1 X112.893 Y98.127 E16.36359
G1 X111.873 Y97.107 E16.41170
G1 X112.826 Y97.107 E16.44348
G1 X112.893 Y97.174 E16.44665
M106 S255
G1 F1800.000 E15.44665
G92 E0
G1 Z0.750 F7800.000
G1 X113.750 Y96.250 F7800.000
G1 E1.00000 F1800.000
G1 X113.750 Y103.750 E1.21221 F890.880
G1 X86.250 Y103.750 E1.99030
G1 X86.250 Y96.250 E2.20250
G1 X113.675 Y96.250 E2.97847
G1 X114.250 Y95.750 F7800.000
G1 X114.250 Y104.250 E3.21897 F890.880
G1 X85.750 Y104.250 E4.02536
G1 X85.750 Y95.750 E4.26586
G1 X114.175 Y95.750 E5.07012
G1 X114.750 Y95.250 F7800.000
G1 X114.750 Y104.750 E5.33892 F623.616
G1 X85.250 Y104.750 E6.17360
G1 X85.250 Y95.250 E6.44239
G1 X114.675 Y95.250 E7.27495
G1 X114.500 Y95.683 F7800.000
G1 X113.409 Y103.357 F7800.000
G1 X113.357 Y103.409 E7.27717 F1781.759
G1 X112.612 Y103.409 E7.29939
G1 X113.409 Y102.612 E7.33303
G1 X113.409 Y101.866 E7.35525
G1 X111.866 Y103.409 E7.42032
G1 X111.121 Y103.409 E7.44254
G1 X113.409 Y101.121 E7.53902
G1 X113.409 Y100.376 E7.56124
G1 X110.376 Y103.409 E7.68915
G1 X109.631 Y103.409 E7.71137
G1 X113.409 Y99.631 E7.87070
G1 X113.409 Y98.886 E7.89292
G1 X108.886 Y103.409 E8.08368
G1 X108.141 Y103.409 E8.10590
G1 X113.409 Y98.141 E8.32807
G1 X113.409 Y97.395 E8.35029
G1 X107.395 Y103.409 E8.60389
G1 X106.650 Y103.409 E8.62611
G1 X113.409 Y96.650 E8.91113
G1 X112.724 Y96.591 E8.93164
G1 X105.905 Y103.409 E9.21918
G1 X105.160 Y103.409 E9.24140
G1 X111.979 Y96.591 E9.52894
G1 X111.234 Y96.591 E9.55115
G1 X104.415 Y103.409 E9.83869
G1 X103.670 Y103.409 E9.86091
G1 X110.488 Y96.591 E10.14845
G1 X109.743 Y96.591 E10.17067
G1 X102.924 Y103.409 E10.45820
G1 X102.179 Y103.409 E10.48042
G1 X108.998 Y96.591 E10.76796
G1 X108.253 Y96.591 E10.79018
G1 X101.434 Y103.409 E11.07772
G1 X100.689 Y103.409 E11.09994
G1 X107.508 Y96.591 E11.38747
G1 X106.763 Y96.591 E11.40969
G1 X99.944 Y103.409 E11.69723
G1 X99.199 Y103.409 E11.71945
G1 X106.017 Y96.591 E12.00699
G1 X105.272 Y96.591 E12.02921
G1 X98.453 Y103.409 E12.31674
G1 X97.708 Y103.409 E12.33896
G1 X104.527 Y96.591 E12.62650
G1 X103.782 Y96.591 E12.64872
G1 X96.963 Y103.409 E12.93626
G1 X96.218 Y103.409 E12.95848
G1 X103.037 Y96.591 E13.24601
G1 X102.292 Y96.591 E13.26823
G1 X95.473 Y103.409 E13.55577
G1 X94.728 Y103.409 E13.57799
G1 X101.547 Y96.591 E13.86553
G1 X100.801 Y96.591 E13.88774
G1 X93.982 Y103.409 E14.17528
G1 X93.237 Y103.409 E14.19750
G1 X100.056 Y96.591 E14.48504
G1 X99.311 Y96.591 E14.50726
G1 X92.492 Y103.409 E14.79479
G1 X91.747 Y103.409 E14.81701
G1 X98.566 Y96.591 E15.10455
G1 X97.821 Y96.591 E15.12677
G1 X91.002 Y103.409 E15.41431
G1 X90.257 Y103.409 E15.43653
G1 X97.076 Y96.591 E15.72406
G1 X96.330 Y96.591 E15.74628
G1 X89.511 Y103.409 E16.03382
G1 X88.766 Y103.409 E16.05604
G1 X95.585 Y96.591 E16.34358
G1 X94.840 Y96.591 E16.36580
G1 X88.021 Y103.409 E16.65333
G1 X87.276 Y103.409 E16.67555
G1 X94.095 Y96.591 E16.96309
G1 X93.350 Y96.591 E16.98531
G1 X86.591 Y103.350 E17.27033
G1 X86.591 Y102.605 E17.29254
G1 X92.605 Y96.591 E17.54614
G1 X91.859 Y96.591 E17.56836
G1 X86.591 Y101.859 E17.79053
G1 X86.591 Y101.114 E17.81275
G1 X91.114 Y96.591 E18.00350
G1 X90.369 Y96.591 E18.02572
G1 X86.591 Y100.369 E18.18505
G1 X86.591 Y99.624 E18.20727
G1 X89.624 Y96.591 E18.33518
G1 X88.879 Y96.591 E18.35739
G1 X86.591 Y98.879 E18.45388
G1 X86.591 Y98.134 E18.47610
G1 X88.134 Y96.591 E18.54116
G1 X87.388 Y96.591 E18.56338
G1 X86.591 Y97.388 E18.59702
G1 X86.591 Y96.643 E18.61924
G1 X86.643 Y96.591 E18.62146
G1 F1800.000 E17.62146
G92 E0
G1 Z1.150 F7800.000
G1 X86.250 Y96.250 F7800.000
G1 E1.00000 F1800.000
G1 X113.750 Y96.250 E1.77809 F890.880
G1 X113.750 Y103.750 E1.99030
G1 X86.250 Y103.750 E2.76839
G1 X86.250 Y96.325 E2.97847
G1 X85.750 Y95.750 F7800.000
G1 X114.250 Y95.750 E3.78486 F890.880
G1 X114.250 Y104.250 E4.02536
G1 X85.750 Y104.250 E4.83174
G1 X85.750 Y95.825 E5.07012
G1 X85.250 Y95.250 F7800.000
G1 X114.750 Y95.250 E5.90480 F623.616
G1 X114.750 Y104.750 E6.17360
G1 X85.250 Y104.750 E7.00828
G1 X85.250 Y95.325 E7.27495
G1 X85.683 Y95.500 F7800.000
G1 X86.643 Y103.409 F7800.000
G1 X86.591 Y103.357 E7.27717 F1781.759
G1 X86.591 Y102.612 E7.29939
G1 X87.388 Y103.409 E7.33303
G1 X88.134 Y103.409 E7.35525
G1 X86.591 Y101.866 E7.42032
G1 X86.591 Y101.121 E7.44254
G1 X88.879 Y103.409 E7.53902
G1 X89.624 Y103.409 E7.56124
G1 X86.591 Y100.376 E7.68915
G1 X86.591 Y99.631 E7.71137
G1 X90.369 Y103.409 E7.87070
G1 X91.114 Y103.409 E7.89292
G1 X86.591 Y98.886 E8.08368
G1 X86.591 Y98.141 E8.10590
G1 X91.859 Y103.409 E8.32807
G1 X92.605 Y103.409 E8.35029
G1 X86.591 Y97.395 E8.60389
G1 X86.591 Y96.650 E8.62611
G1 X93.350 Y103.409 E8.91113
G1 X94.095 Y103.409 E8.93334
G1 X87.276 Y96.591 E9.22088
G1 X88.021 Y96.591 E9.24310
G1 X94.840 Y103.409 E9.53064
G1 X95.585 Y103.409 E9.55286
G1 X88.766 Y96.591 E9.84040
G1 X89.512 Y96.591 E9.86261
G1 X96.330 Y103.409 E10.15015
G1 X97.076 Y103.409 E10.17237
G1 X90.257 Y96.591 E10.45991
G1 X91.002 Y96.591 E10.48213
G1 X97.821 Y103.409 E10.76966
G1 X98.566 Y103.409 E10.79188
G1 X91.747 Y96.591 E11.07942
G1 X92.492 Y96.591 E11.10164
G1 X99.311 Y103.409 E11.38918
G1 X100.056 Y103.409 E11.41140
G1 X93.237 Y96.591 E11.69893
G1 X93.983 Y96.591 E11.72115
G1 X100.801 Y103.409 E12.00869
G1 X101.547 Y103.409 E12.03091
G1 X94.728 Y96.591 E12.31845
G1 X95.473 Y96.591 E12.34067
G1 X102.292 Y103.409 E12.62820
G1 X103.037 Y103.409 E12.65042
G1 X96.218 Y96.591 E12.93796
G1 X96.963 Y96.591 E12.96018
G1 X103.782 Y103.409 E13.24772
G1 X104.527 Y103.409 E13.26993
G1 X97.708 Y96.591 E13.55747
G1 X98.453 Y96.591 E13.57969
G1 X105.272 Y103.409 E13.86723
G1 X106.018 Y103.409 E13.88945
G1 X99.199 Y96.591 E14.17698
G1 X99.944 Y96.591 E14.19920
G1 X106.763 Y103.409 E14.48674
G1 X107.508 Y103.409 E14.50896
G1 X100.689 Y96.591 E14.79650
G1 X101.434 Y96.591 E14.81872
G1 X108.253 Y103.409 E15.10625
G1 X108.998 Y103.409 E15.12847
G1 X102.179 Y96.591 E15.41601
G1 X102.924 Y96.591 E15.43823
G1 X109.743 Y103.409 E15.72577
G1 X110.489 Y103.409 E15.74799
G1 X103.670 Y96.591 E16.03552
G1 X104.415 Y96.591 E16.05774
G1 X111.234 Y103.409 E16.34528
G1 X111.979 Y103.409 E16.36750
G1 X105.160 Y96.591 E16.65504
G1 X105.905 Y96.591 E16.67725
G1 X112.724 Y103.409 E16.96479
G1 X113.409 Y103.350 E16.98531
G1 X106.650 Y96.591 E17.27032
G1 X107.395 Y96.591 E17.29254
G1 X113.409 Y102.605 E17.54614
G1 X113.409 Y101.859 E17.56836
G1 X108.141 Y96.591 E17.79053
G1 X108.886 Y96.591 E17.81275
G1 X113.409 Y101.114 E18.00350
G1 X113.409 Y100.369 E18.02572
G1 X109.631 Y96.591 E18.18505
G1 X110.376 Y96.591 E18.20727
G1 X113.409 Y99.624 E18.33517
G1 X113.409 Y98.879 E18.35739
G1 X111.121 Y96.591 E18.45388
G1 X111.866 Y96.591 E18.47610
G1 X113.409 Y98.134 E18.54116
G1 X113.409 Y97.388 E18.56338
G1 X112.612 Y96.591 E18.59702
G1 X113.357 Y96.591 E18.61924
G1 X113.409 Y96.643 E18.62146
G1 F1800.000 E17.62146
G92 E0
G1 Z1.550 F7800.000
G1 X113.750 Y96.250 F7800.000
G1 E1.00000 F1800.000
G1 X113.750 Y103.750 E1.21221 F700.897
G1 X86.250 Y103.750 E1.99030
G1 X86.250 Y96.250 E2.20250
G1 X113.675 Y96.250 E2.97847
G1 X114.250 Y95.750 F7800.000
G1 X114.250 Y104.250 E3.21897 F700.897
G1 X85.750 Y104.250 E4.02536
G1 X85.750 Y95.750 E4.26586
G1 X114.175 Y95.750 E5.07012
G1 X114.750 Y95.250 F7800.000
G1 X114.750 Y104.750 E5.33892 F600.000
G1 X85.250 Y104.750 E6.17360
G1 X85.250 Y95.250 E6.44239
G1 X114.675 Y95.250 E7.27495
G1 X114.500 Y95.683 F7800.000
G1 X113.166 Y96.617 F7800.000
G1 X113.026 Y97.139 E7.29084 F1401.795
G1 X113.383 Y97.496 E7.30569
G1 X113.383 Y98.231 E7.32730
G1 X112.659 Y97.507 E7.35742
G1 X111.789 Y97.739 E7.38389
G1 X110.667 Y96.617 E7.43057
G1 X108.830 Y96.617 E7.48459
G1 X109.280 Y97.067 E7.50331
G1 X110.149 Y96.834 E7.52977
G1 X111.422 Y98.107 E7.58271
G1 X111.189 Y98.976 E7.60917
G1 X112.462 Y100.249 E7.66210
G1 X113.331 Y100.016 E7.68857
G1 X113.383 Y100.068 E7.69073
G1 X113.383 Y102.692 F7800.000
G1 X113.134 Y102.759 E7.69830 F1401.795
G1 X111.861 Y101.486 E7.75123
G1 X112.094 Y100.617 E7.77770
G1 X110.822 Y99.344 E7.83063
G1 X109.952 Y99.577 E7.85710
G1 X108.679 Y98.304 E7.91003
G1 X108.912 Y97.434 E7.93649
G1 X108.095 Y96.617 E7.97049
G1 X106.258 Y96.617 E8.02451
G1 X106.403 Y96.762 E8.03055
G1 X106.170 Y97.631 E8.05701
G1 X107.443 Y98.904 E8.10994
G1 X108.312 Y98.671 E8.13641
G1 X109.585 Y99.944 E8.18934
G1 X109.352 Y100.813 E8.21581
G1 X110.625 Y102.086 E8.26874
G1 X111.494 Y101.853 E8.29521
G1 X112.767 Y103.126 E8.34814
G1 X112.698 Y103.383 E8.35596
G1 X110.084 Y103.383 F7800.000
G1 X110.024 Y103.323 E8.35845 F1401.795
G1 X110.257 Y102.454 E8.38492
G1 X108.984 Y101.181 E8.43785
G1 X108.115 Y101.414 E8.46432
G1 X106.842 Y100.141 E8.51725
G1 X107.075 Y99.272 E8.54371
G1 X105.802 Y97.999 E8.59665
G1 X104.933 Y98.232 E8.62311
G1 X103.660 Y96.959 E8.67604
G1 X103.752 Y96.617 E8.68645
G1 X101.481 Y96.617 E8.75323
G1 X102.423 Y97.559 E8.79242
G1 X103.293 Y97.326 E8.81888
G1 X104.565 Y98.599 E8.87181
G1 X104.332 Y99.469 E8.89828
G1 X105.605 Y100.741 E8.95121
G1 X106.475 Y100.508 E8.97768
G1 X107.748 Y101.781 E9.03061
G1 X107.515 Y102.651 E9.05707
G1 X108.247 Y103.383 E9.08753
G1 X107.512 Y103.383 E9.10914
G1 X107.147 Y103.018 E9.12432
G1 X106.278 Y103.251 E9.15079
G1 X105.005 Y101.978 E9.20372
G1 X105.238 Y101.109 E9.23019
G1 X103.965 Y99.836 E9.28312
G1 X103.096 Y100.069 E9.30958
G1 X101.823 Y98.796 E9.36251
G1 X102.056 Y97.927 E9.38898
G1 X100.783 Y96.654 E9.44191
G1 X99.914 Y96.887 E9.46838
G1 X99.644 Y96.617 E9.47960
G1 X98.909 Y96.617 E9.50121
G1 X99.546 Y97.254 E9.52771
G1 X99.313 Y98.124 E9.55418
G1 X100.586 Y99.396 E9.60711
G1 X101.455 Y99.164 E9.63358
G1 X102.728 Y100.436 E9.68651
G1 X102.495 Y101.306 E9.71298
G1 X103.768 Y102.579 E9.76591
G1 X104.638 Y102.346 E9.79237
G1 X105.675 Y103.383 E9.83552
G1 X103.284 Y103.383 E9.90584
G1 X103.401 Y102.946 E9.91914
G1 X102.128 Y101.673 E9.97208
G1 X101.258 Y101.906 E9.99854
G1 X99.986 Y100.633 E10.05147
G1 X100.219 Y99.764 E10.07794
G1 X98.946 Y98.491 E10.13087
G1 X98.076 Y98.724 E10.15734
G1 X96.804 Y97.451 E10.21027
G1 X97.027 Y96.617 E10.23566
G1 X94.337 Y96.617 F7800.000
G1 X94.294 Y96.779 E10.24059 F1401.795
G1 X95.567 Y98.052 E10.29352
G1 X96.436 Y97.819 E10.31999
G1 X97.709 Y99.091 E10.37292
G1 X97.476 Y99.961 E10.39938
G1 X98.749 Y101.234 E10.45232
G1 X99.618 Y101.001 E10.47878
G1 X100.891 Y102.274 E10.53171
G1 X100.658 Y103.143 E10.55818
G1 X100.898 Y103.383 E10.56817
G1 X99.061 Y103.383 E10.62219
G1 X98.148 Y102.470 E10.66014
G1 X98.381 Y101.601 E10.68661
G1 X97.109 Y100.328 E10.73954
G1 X96.239 Y100.561 E10.76601
G1 X94.966 Y99.288 E10.81894
G1 X95.199 Y98.419 E10.84540
G1 X93.926 Y97.146 E10.89834
G1 X93.057 Y97.379 E10.92480
G1 X92.295 Y96.617 E10.95650
G1 X90.458 Y96.617 E11.01052
G1 X90.547 Y96.707 E11.01425
G1 X90.882 Y96.617 E11.02444
G1 X91.560 Y96.617 E11.04437
G1 X92.690 Y97.747 E11.09135
G1 X92.457 Y98.616 E11.11782
G1 X93.730 Y99.889 E11.17075
G1 X94.599 Y99.656 E11.19721
G1 X95.872 Y100.929 E11.25014
G1 X95.639 Y101.798 E11.27661
G1 X96.912 Y103.071 E11.32954
G1 X97.781 Y102.838 E11.35601
G1 X98.326 Y103.383 E11.37868
G1 X96.489 Y103.383 E11.43270
G1 X95.271 Y102.165 E11.48334
G1 X94.402 Y102.398 E11.50981
G1 X93.129 Y101.126 E11.56274
G1 X93.362 Y100.256 E11.58920
G1 X92.089 Y98.983 E11.64214
G1 X91.220 Y99.216 E11.66860
G1 X89.947 Y97.943 E11.72153
G1 X90.180 Y97.074 E11.74800
G1 X89.723 Y96.617 E11.76701
G1 X87.613 Y96.617 E11.82906
G1 X87.437 Y97.271 E11.84897
G1 X88.710 Y98.544 E11.90190
G1 X89.580 Y98.311 E11.92837
G1 X90.852 Y99.584 E11.98130
G1 X90.620 Y100.453 E12.00777
G1 X91.892 Y101.726 E12.06070
G1 X92.762 Y101.493 E12.08716
G1 X94.035 Y102.766 E12.14010
G1 X93.869 Y103.383 E12.15889
G1 X90.727 Y103.383 F7800.000
G1 X90.925 Y103.330 E12.16490 F1401.795
G1 X90.978 Y103.383 E12.16710
