; generated by Slic3r 0.9.10b on 2013-10-24 at 14:17:15

; layer_height = 0.3
; perimeters = 1
; top_solid_layers = 2
; bottom_solid_layers = 2
; fill_density = 0.2
; perimeter_speed = 30
; infill_speed = 30
; travel_speed = 200
; nozzle_diameter = 0.5
; filament_diameter = 2.98
; extrusion_multiplier = 0.9
; perimeters extrusion width = 0.70mm
; infill extrusion width = 0.70mm
; solid infill extrusion width = 0.70mm
; top infill extrusion width = 0.70mm

G21 ; set units to millimeters
M107
M104 S190 ; set temperature
G28 ; home all axes
G1 Z15 F120 ; lift nozzle
M109 S190 ; wait for temperature to be reached
G90 ; use absolute coordinates
G92 E0
M82 ; use absolute distances for extrusion
G1 F1680.000 E-2.00000
G92 E0
G1 Z0.450 F12000.000
G1 X50.290 Y50.301
G1 F1680.000 E2.00000
G1 X51.300 Y49.481 F900.000 E2.04944
G1 X52.450 Y48.861 E2.09910
G1 X53.700 Y48.481 E2.14875
G1 X55.000 Y48.361 E2.19837
G1 X115.000 Y48.361 E4.47867
G1 X116.300 Y48.481 E4.52828
G1 X117.550 Y48.861 E4.57794
G1 X118.700 Y49.481 E4.62759
G1 X119.710 Y50.301 E4.67703
G1 X120.530 Y51.311 E4.72648
G1 X121.150 Y52.461 E4.77613
G1 X121.530 Y53.711 E4.82578
G1 X121.650 Y55.011 E4.87540
G1 X121.650 Y115.011 E7.15570
G1 X121.530 Y116.311 E7.20532
G1 X121.150 Y117.561 E7.25497
G1 X120.530 Y118.711 E7.30462
G1 X119.710 Y119.721 E7.35407
G1 X118.700 Y120.541 E7.40351
G1 X117.550 Y121.161 E7.45316
G1 X116.300 Y121.541 E7.50282
G1 X115.000 Y121.661 E7.55243
G1 X55.000 Y121.661 E9.83274
G1 X53.700 Y121.541 E9.88235
G1 X52.450 Y121.161 E9.93201
G1 X51.300 Y120.541 E9.98166
G1 X50.290 Y119.721 E10.03110
G1 X49.470 Y118.711 E10.08054
G1 X48.850 Y117.561 E10.13020
G1 X48.470 Y116.311 E10.17985
G1 X48.350 Y115.011 E10.22947
G1 X48.350 Y55.011 E12.50977
G1 X48.470 Y53.711 E12.55939
G1 X48.850 Y52.461 E12.60904
G1 X49.470 Y51.311 E12.65869
G1 X50.228 Y50.377 E12.70440
G1 F1680.000 E10.70440
G92 E0
G1 X74.373 Y74.392 F12000.000
G1 F1680.000 E2.00000
G1 X93.627 Y74.392 F720.000 E2.73177
G1 X93.627 Y93.647 E3.46354
G1 X74.373 Y93.647 E4.19530
G1 X74.373 Y74.490 E4.92334
G1 X55.327 Y55.347 F12000.000
G1 X114.673 Y55.347 F720.000 E7.17877
G1 X114.673 Y114.692 E9.43420
G1 X55.327 Y114.692 E11.68963
G1 X55.327 Y55.445 E13.94132
G1 X73.898 Y92.923 F12000.000
G1 X55.802 Y74.827 F1200.000 E14.91613
G1 X55.802 Y73.899 E14.95146
G1 X73.898 Y91.996 E15.92627
G1 X73.898 Y91.068 E15.96161
G1 X55.802 Y72.971 E16.93641
G1 X55.802 Y72.044 E16.97175
G1 X73.898 Y90.140 E17.94655
G1 X73.898 Y89.213 E17.98189
G1 X55.802 Y71.116 E18.95669
G1 X55.802 Y70.188 E18.99203
G1 X73.898 Y88.285 E19.96683
G1 X73.898 Y87.357 E20.00217
G1 X55.802 Y69.261 E20.97697
G1 X55.802 Y68.333 E21.01231
G1 X73.898 Y86.430 E21.98712
G1 X73.898 Y85.502 E22.02245
G1 X55.802 Y67.405 E22.99726
G1 X55.802 Y66.478 E23.03259
G1 X73.898 Y84.574 E24.00740
G1 X73.898 Y83.647 E24.04273
G1 X55.802 Y65.550 E25.01754
G1 X55.802 Y64.622 E25.05287
G1 X73.898 Y82.719 E26.02768
G1 X73.898 Y81.791 E26.06301
G1 X55.802 Y63.695 E27.03782
G1 X55.802 Y62.767 E27.07315
G1 X73.898 Y80.864 E28.04796
G1 X73.898 Y79.936 E28.08329
G1 X55.802 Y61.839 E29.05810
G1 X55.802 Y60.912 E29.09343
G1 X73.898 Y79.008 E30.06824
G1 X73.898 Y78.081 E30.10358
G1 X55.802 Y59.984 E31.07838
G1 X55.802 Y59.056 E31.11372
G1 X73.898 Y77.153 E32.08852
G1 X73.898 Y76.225 E32.12386
G1 X55.802 Y58.129 E33.09866
G1 X55.802 Y57.201 E33.13400
G1 X73.898 Y75.298 E34.10880
G1 X73.898 Y74.370 E34.14414
G1 X55.802 Y56.273 E35.11895
G1 X56.277 Y55.821 E35.14394
G1 X74.374 Y73.918 E36.11874
G1 X75.301 Y73.918 E36.15408
G1 X57.205 Y55.821 E37.12889
G1 X58.132 Y55.821 E37.16422
G1 X76.229 Y73.918 E38.13903
G1 X77.157 Y73.918 E38.17436
G1 X59.060 Y55.821 E39.14917
G1 X59.988 Y55.821 E39.18450
G1 X78.084 Y73.918 E40.15931
G1 X79.012 Y73.918 E40.19464
G1 X60.915 Y55.821 E41.16945
G1 X61.843 Y55.821 E41.20478
G1 X79.940 Y73.918 E42.17959
G1 X80.867 Y73.918 E42.21492
G1 X62.771 Y55.821 E43.18973
G1 X63.698 Y55.821 E43.22506
G1 X81.795 Y73.918 E44.19987
G1 X82.723 Y73.918 E44.23520
G1 X64.626 Y55.821 E45.21001
G1 X65.553 Y55.821 E45.24535
G1 X83.650 Y73.918 E46.22015
G1 X84.578 Y73.918 E46.25549
G1 X66.481 Y55.821 E47.23029
G1 X67.409 Y55.821 E47.26563
G1 X85.505 Y73.918 E48.24043
G1 X86.433 Y73.918 E48.27577
G1 X68.336 Y55.821 E49.25057
G1 X69.264 Y55.821 E49.28591
G1 X87.361 Y73.918 E50.26072
G1 X88.288 Y73.918 E50.29605
G1 X70.192 Y55.821 E51.27086
G1 X71.119 Y55.821 E51.30619
G1 X89.216 Y73.918 E52.28100
G1 X90.144 Y73.918 E52.31633
G1 X72.047 Y55.821 E53.29114
G1 X72.975 Y55.821 E53.32647
G1 X91.071 Y73.918 E54.30128
G1 X91.999 Y73.918 E54.33661
G1 X73.902 Y55.821 E55.31142
G1 X74.830 Y55.821 E55.34675
G1 X92.927 Y73.918 E56.32156
G1 X93.854 Y73.918 F12000.000
G1 X75.758 Y55.821 F1200.000 E57.29637
G1 X76.685 Y55.821 E57.33170
G1 X114.198 Y93.334 E59.35240
G1 X114.198 Y92.406 E59.38773
G1 X77.613 Y55.821 E61.35846
G1 X78.541 Y55.821 E61.39379
G1 X114.198 Y91.479 E63.31455
G1 X114.198 Y90.551 E63.34988
G1 X79.468 Y55.821 E65.22067
G1 X80.396 Y55.821 E65.25600
G1 X114.198 Y89.624 E67.07682
G1 X114.198 Y88.696 E67.11216
G1 X81.324 Y55.821 E68.88301
G1 X82.251 Y55.821 E68.91834
G1 X114.198 Y87.768 E70.63922
G1 X114.198 Y86.841 E70.67455
G1 X83.179 Y55.821 E72.34546
G1 X84.107 Y55.821 E72.38080
G1 X114.198 Y85.913 E74.00174
G1 X114.198 Y84.985 E74.03707
G1 X85.034 Y55.821 E75.60804
G1 X85.962 Y55.821 E75.64337
G1 X114.198 Y84.058 E77.16438
G1 X114.198 Y83.130 E77.19971
G1 X86.890 Y55.821 E78.67074
G1 X87.817 Y55.821 E78.70607
G1 X114.198 Y82.202 E80.12714
G1 X114.198 Y81.275 E80.16247
G1 X88.745 Y55.821 E81.53356
G1 X89.672 Y55.821 E81.56890
G1 X114.198 Y80.347 E82.89002
G1 X114.198 Y79.419 E82.92535
G1 X90.600 Y55.821 E84.19651
G1 X91.528 Y55.821 E84.23184
G1 X114.198 Y78.492 E85.45303
G1 X114.198 Y77.564 E85.48836
G1 X92.455 Y55.821 E86.65957
G1 X93.383 Y55.821 E86.69491
G1 X114.198 Y76.636 E87.81615
G1 X114.198 Y75.709 E87.85149
G1 X94.311 Y55.821 E88.92276
G1 X95.238 Y55.821 E88.95810
G1 X114.198 Y74.781 E89.97940
G1 X114.198 Y73.853 E90.01474
G1 X96.166 Y55.821 E90.98607
G1 X97.094 Y55.821 E91.02141
G1 X114.198 Y72.926 E91.94277
G1 X114.198 Y71.998 E91.97811
G1 X98.021 Y55.821 E92.84951
G1 X98.949 Y55.821 E92.88484
G1 X114.198 Y71.070 E93.70627
G1 X114.198 Y70.143 E93.74160
G1 X99.877 Y55.821 E94.51306
G1 X100.804 Y55.821 E94.54839
G1 X114.198 Y69.215 E95.26988
G1 X114.198 Y68.287 E95.30522
G1 X101.732 Y55.821 E95.97674
G1 X102.660 Y55.821 E96.01207
G1 X114.198 Y67.360 E96.63362
G1 X114.198 Y66.432 E96.66896
G1 X103.587 Y55.821 E97.24054
G1 X104.515 Y55.821 E97.27587
G1 X114.198 Y65.504 E97.79748
G1 X114.198 Y64.577 E97.83281
G1 X105.443 Y55.821 E98.30446
G1 X106.370 Y55.821 E98.33979
G1 X114.198 Y63.649 E98.76146
G1 X114.198 Y62.722 E98.79680
G1 X107.298 Y55.821 E99.16850
G1 X108.226 Y55.821 E99.20383
G1 X114.198 Y61.794 E99.52557
G1 X114.198 Y60.866 E99.56090
G1 X109.153 Y55.821 E99.83266
G1 X110.081 Y55.821 E99.86800
G1 X114.198 Y59.939 E100.08979
G1 X114.198 Y59.011 E100.12512
G1 X111.009 Y55.821 E100.29695
G1 X111.936 Y55.821 E100.33228
G1 X114.198 Y58.083 E100.45414
G1 X114.198 Y57.156 E100.48947
G1 X112.864 Y55.821 E100.56136
G1 X113.791 Y55.821 E100.59669
G1 X114.198 Y56.228 E100.61861
G1 X94.102 Y74.165 F12000.000
G1 X114.198 Y94.262 F1200.000 E101.70115
G1 X114.198 Y95.189 E101.73648
G1 X94.102 Y75.093 E102.81902
G1 X94.102 Y76.020 E102.85435
G1 X114.198 Y96.117 E103.93689
G1 X114.198 Y97.045 E103.97223
G1 X94.102 Y76.948 E105.05477
G1 X94.102 Y77.876 E105.09010
G1 X114.198 Y97.972 E106.17264
G1 X114.198 Y98.900 E106.20798
G1 X94.102 Y78.803 E107.29052
G1 X94.102 Y79.731 E107.32585
G1 X114.198 Y99.828 E108.40839
G1 X114.198 Y100.755 E108.44372
G1 X94.102 Y80.659 E109.52626
G1 X94.102 Y81.586 E109.56160
G1 X114.198 Y101.683 E110.64414
G1 X114.198 Y102.611 E110.67947
G1 X94.102 Y82.514 E111.76201
G1 X94.102 Y83.442 E111.79734
G1 X114.198 Y103.538 E112.87988
G1 X114.198 Y104.466 E112.91522
G1 X94.102 Y84.369 E113.99776
G1 X94.102 Y85.297 E114.03309
G1 X114.198 Y105.394 E115.11563
G1 X114.198 Y106.321 E115.15097
G1 X94.102 Y86.225 E116.23351
G1 X94.102 Y87.152 E116.26884
G1 X114.198 Y107.249 E117.35138
G1 X114.198 Y108.177 E117.38671
G1 X94.102 Y88.080 E118.46925
G1 X94.102 Y89.008 E118.50459
G1 X114.198 Y109.104 E119.58713
G1 X114.198 Y110.032 E119.62246
G1 X94.102 Y89.935 E120.70500
G1 X94.102 Y90.863 E120.74033
G1 X114.198 Y110.960 E121.82287
G1 X114.198 Y111.887 E121.85821
G1 X94.102 Y91.790 E122.94075
G1 X94.102 Y92.718 E122.97608
G1 X114.198 Y112.815 E124.05862
G1 X114.198 Y113.743 E124.09396
G1 X94.102 Y93.646 E125.17650
G1 X93.649 Y94.121 E125.20149
G1 X113.746 Y114.218 E126.28403
G1 X112.818 Y114.218 E126.31936
G1 X92.722 Y94.121 E127.40190
G1 X91.794 Y94.121 E127.43724
G1 X111.891 Y114.218 E128.51978
G1 X110.963 Y114.218 E128.55511
G1 X90.866 Y94.121 E129.63765
G1 X89.939 Y94.121 E129.67298
G1 X110.035 Y114.218 E130.75552
G1 X109.108 Y114.218 E130.79086
G1 X89.011 Y94.121 E131.87340
G1 X88.083 Y94.121 E131.90873
G1 X108.180 Y114.218 E132.99127
G1 X107.252 Y114.218 E133.02661
G1 X87.156 Y94.121 E134.10915
G1 X86.228 Y94.121 E134.14448
G1 X106.325 Y114.218 E135.22702
G1 X105.397 Y114.218 E135.26235
G1 X85.300 Y94.121 E136.34489
G1 X84.373 Y94.121 E136.38023
G1 X104.469 Y114.218 E137.46277
G1 X103.542 Y114.218 E137.49810
G1 X83.445 Y94.121 E138.58064
G1 X82.517 Y94.121 E138.61597
G1 X102.614 Y114.218 E139.69851
G1 X101.686 Y114.218 E139.73385
G1 X81.590 Y94.121 E140.81639
G1 X80.662 Y94.121 E140.85172
G1 X100.759 Y114.218 E141.93426
G1 X99.831 Y114.218 E141.96960
G1 X79.734 Y94.121 E143.05214
G1 X78.807 Y94.121 E143.08747
G1 X98.904 Y114.218 E144.17001
G1 X97.976 Y114.218 E144.20534
G1 X77.879 Y94.121 E145.28788
G1 X76.951 Y94.121 E145.32322
G1 X97.048 Y114.218 E146.40576
G1 X96.121 Y114.218 E146.44109
G1 X76.024 Y94.121 E147.52363
G1 X75.096 Y94.121 E147.55896
G1 X95.193 Y114.218 E148.64150
G1 X94.265 Y114.218 E148.67684
G1 X74.169 Y94.121 E149.75938
G1 X73.898 Y93.851 F12000.000
G1 X55.802 Y75.754 F1200.000 E150.73418
G1 X55.802 Y76.682 E150.76952
G1 X93.338 Y114.218 E152.79145
G1 X92.410 Y114.218 E152.82678
G1 X55.802 Y77.610 E154.79874
G1 X55.802 Y78.537 E154.83408
G1 X91.482 Y114.218 E156.75607
G1 X90.555 Y114.218 E156.79140
G1 X55.802 Y79.465 E158.66342
G1 X55.802 Y80.392 E158.69876
G1 X89.627 Y114.218 E160.52081
G1 X88.699 Y114.218 E160.55614
G1 X55.802 Y81.320 E162.32823
G1 X55.802 Y82.248 E162.36356
G1 X87.772 Y114.218 E164.08567
G1 X86.844 Y114.218 E164.12101
G1 X55.802 Y83.175 E165.79315
G1 X55.802 Y84.103 E165.82849
G1 X85.916 Y114.218 E167.45066
G1 X84.989 Y114.218 E167.48599
G1 X55.802 Y85.031 E169.05820
G1 X55.802 Y85.958 E169.09353
G1 X84.061 Y114.218 E170.61577
G1 X83.133 Y114.218 E170.65110
G1 X55.802 Y86.886 E172.12337
G1 X55.802 Y87.814 E172.15870
G1 X82.206 Y114.218 E173.58100
G1 X81.278 Y114.218 E173.61633
G1 X55.802 Y88.741 E174.98866
G1 X55.802 Y89.669 E175.02399
G1 X80.350 Y114.218 E176.34635
G1 X79.423 Y114.218 E176.38168
G1 X55.802 Y90.597 E177.65407
G1 X55.802 Y91.524 E177.68941
G1 X78.495 Y114.218 E178.91182
G1 X77.567 Y114.218 E178.94716
G1 X55.802 Y92.452 E180.11961
G1 X55.802 Y93.380 E180.15494
G1 X76.640 Y114.218 E181.27742
G1 X75.712 Y114.218 E181.31275
G1 X55.802 Y94.307 E182.38526
G1 X55.802 Y95.235 E182.42060
G1 X74.784 Y114.218 E183.44314
G1 X73.857 Y114.218 E183.47847
G1 X55.802 Y96.163 E184.45104
G1 X55.802 Y97.090 E184.48638
G1 X72.929 Y114.218 E185.40898
G1 X72.002 Y114.218 E185.44431
G1 X55.802 Y98.018 E186.31694
G1 X55.802 Y98.946 E186.35228
G1 X71.074 Y114.218 E187.17494
G1 X70.146 Y114.218 E187.21027
G1 X55.802 Y99.873 E187.98297
G1 X55.802 Y100.801 E188.01830
G1 X69.219 Y114.218 E188.74102
G1 X68.291 Y114.218 E188.77636
G1 X55.802 Y101.729 E189.44911
G1 X55.802 Y102.656 E189.48444
G1 X67.363 Y114.218 E190.10723
G1 X66.436 Y114.218 E190.14256
G1 X55.802 Y103.584 E190.71538
G1 X55.802 Y104.511 E190.75071
G1 X65.508 Y114.218 E191.27356
G1 X64.580 Y114.218 E191.30889
G1 X55.802 Y105.439 E191.78177
G1 X55.802 Y106.367 E191.81710
G1 X63.653 Y114.218 E192.24001
G1 X62.725 Y114.218 E192.27534
G1 X55.802 Y107.294 E192.64828
G1 X55.802 Y108.222 E192.68361
G1 X61.797 Y114.218 E193.00658
G1 X60.870 Y114.218 E193.04191
G1 X55.802 Y109.150 E193.31491
G1 X55.802 Y110.077 E193.35024
G1 X59.942 Y114.218 E193.57327
G1 X59.014 Y114.218 E193.60860
G1 X55.802 Y111.005 E193.78166
G1 X55.802 Y111.933 E193.81700
G1 X58.087 Y114.218 E193.94009
G1 X57.159 Y114.218 E193.97542
G1 X55.802 Y112.860 E194.04854
G1 X55.802 Y113.788 E194.08387
G1 X56.231 Y114.218 E194.10702
M104 S185 ; set temperature
G1 F1680.000 E192.10702
G92 E0
G1 Z0.750 F12000.000
G1 X74.373 Y93.647
G1 F1680.000 E2.00000
G1 X74.373 Y74.392 F1440.000 E2.48785
G1 X93.627 Y74.392 E2.97569
G1 X93.627 Y93.647 E3.46354
G1 X74.471 Y93.647 E3.94889
G1 X55.327 Y114.692 F12000.000
G1 X55.327 Y55.347 F1440.000 E5.45251
G1 X114.673 Y55.347 E6.95613
G1 X114.673 Y114.692 E8.45975
G1 X55.425 Y114.692 E9.96088
G1 X92.855 Y94.121 F12000.000
G1 X72.758 Y114.218 F2400.000 E10.68258
G1 X71.830 Y114.218 E10.70613
G1 X91.927 Y94.121 E11.42783
G1 X90.999 Y94.121 E11.45138
G1 X70.903 Y114.218 E12.17308
G1 X69.975 Y114.218 E12.19663
G1 X90.072 Y94.121 E12.91833
G1 X89.144 Y94.121 E12.94188
G1 X69.047 Y114.218 E13.66358
G1 X68.120 Y114.218 E13.68713
G1 X88.216 Y94.121 E14.40883
G1 X87.289 Y94.121 E14.43238
G1 X67.192 Y114.218 E15.15408
G1 X66.264 Y114.218 E15.17763
G1 X86.361 Y94.121 E15.89933
G1 X85.433 Y94.121 E15.92288
G1 X65.337 Y114.218 E16.64458
G1 X64.409 Y114.218 E16.66813
G1 X84.506 Y94.121 E17.38983
G1 X83.578 Y94.121 E17.41338
G1 X63.481 Y114.218 E18.13508
G1 X62.554 Y114.218 E18.15863
G1 X82.650 Y94.121 E18.88033
G1 X81.723 Y94.121 E18.90388
G1 X61.626 Y114.218 E19.62558
G1 X60.698 Y114.218 E19.64913
G1 X80.795 Y94.121 E20.37083
G1 X79.868 Y94.121 E20.39438
G1 X59.771 Y114.218 E21.11607
G1 X58.843 Y114.218 E21.13963
G1 X78.940 Y94.121 E21.86132
G1 X78.012 Y94.121 E21.88488
G1 X57.915 Y114.218 E22.60657
G1 X56.988 Y114.218 E22.63013
G1 X77.085 Y94.121 E23.35182
G1 X76.157 Y94.121 E23.37538
G1 X56.060 Y114.218 E24.09707
G1 X55.802 Y113.549 E24.11529
G1 X75.229 Y94.121 E24.81295
G1 X74.302 Y94.121 E24.83651
G1 X55.802 Y112.621 E25.50086
G1 X55.802 Y111.693 E25.52442
G1 X73.898 Y93.597 E26.17429
G1 X73.898 Y92.669 E26.19785
G1 X55.802 Y110.766 E26.84772
G1 X55.802 Y109.838 E26.87127
G1 X73.898 Y91.741 E27.52114
G1 X73.898 Y90.814 E27.54470
G1 X55.802 Y108.910 E28.19457
G1 X55.802 Y107.983 E28.21813
G1 X73.898 Y89.886 E28.86800
G1 X73.898 Y88.958 E28.89156
G1 X55.802 Y107.055 E29.54143
G1 X55.802 Y106.127 E29.56498
G1 X73.898 Y88.031 E30.21485
G1 X73.898 Y87.103 E30.23841
G1 X55.802 Y105.200 E30.88828
G1 X55.802 Y104.272 E30.91184
G1 X73.898 Y86.175 E31.56171
G1 X73.898 Y85.248 E31.58527
G1 X55.802 Y103.344 E32.23514
G1 X55.802 Y102.417 E32.25869
G1 X73.898 Y84.320 E32.90856
G1 X73.898 Y83.392 E32.93212
G1 X55.802 Y101.489 E33.58199
G1 X55.802 Y100.562 E33.60555
G1 X73.898 Y82.465 E34.25542
G1 X73.898 Y81.537 E34.27898
G1 X55.802 Y99.634 E34.92885
G1 X55.802 Y98.706 E34.95240
G1 X73.898 Y80.609 E35.60227
G1 X73.898 Y79.682 E35.62583
G1 X55.802 Y97.779 E36.27570
G1 X55.802 Y96.851 E36.29926
G1 X73.898 Y78.754 E36.94913
G1 X73.898 Y77.827 E36.97269
G1 X55.802 Y95.923 E37.62256
G1 X55.802 Y94.996 E37.64611
G1 X73.898 Y76.899 E38.29598
G1 X73.898 Y75.971 E38.31954
G1 X55.802 Y94.068 E38.96941
G1 X55.802 Y93.140 E38.99297
G1 X73.898 Y75.044 E39.64284
G1 X73.898 Y74.116 F12000.000
G1 X55.802 Y92.213 F2400.000 E40.29271
G1 X55.802 Y91.285 E40.31627
G1 X91.266 Y55.821 E41.58981
G1 X90.338 Y55.821 E41.61337
G1 X55.802 Y90.357 E42.85360
G1 X55.802 Y89.430 E42.87715
G1 X89.410 Y55.821 E44.08407
G1 X88.483 Y55.821 E44.10763
G1 X55.802 Y88.502 E45.28123
G1 X55.802 Y87.574 E45.30479
G1 X87.555 Y55.821 E46.44508
G1 X86.627 Y55.821 E46.46864
G1 X55.802 Y86.647 E47.57562
G1 X55.802 Y85.719 E47.59917
G1 X85.700 Y55.821 E48.67284
G1 X84.772 Y55.821 E48.69639
G1 X55.802 Y84.791 E49.73675
G1 X55.802 Y83.864 E49.76030
G1 X83.844 Y55.821 E50.76734
G1 X82.917 Y55.821 E50.79090
