; generated by Slic3r 1.2.9 on 2016-09-22 at 17:48:17

; external perimeters extrusion width = 0.50mm
; perimeters extrusion width = 0.50mm
; infill extrusion width = 0.50mm
; solid infill extrusion width = 0.50mm
; top infill extrusion width = 0.50mm

M104 S190 ; set temperature
G28 ; home all axes
G1 Z15 F120 ; lift nozzle
M109 S190 ; wait for temperature to be reached
G21 ; set units to millimeters
G90 ; use absolute coordinates
M82 ; use absolute distances for extrusion
G92 E0
M106 S102
G1 E-2.00000 F1680.00000
G92 E0
G1 Z0.400 F12000.000
G1 X47.676 Y47.676 F12000.000
G1 E2.00000 F1680.00000
G1 X48.672 Y46.681 E2.04216 F1200.000
G1 X50.296 Y45.500 E2.10229
G1 X52.805 Y44.222 E2.18660
G1 X54.715 Y43.602 E2.24673
G1 X57.496 Y43.161 E2.33105
G1 X58.500 Y43.082 E2.36120
G1 X121.500 Y43.082 E4.24768
G1 X122.504 Y43.161 E4.27783
G1 X125.285 Y43.602 E4.36215 F1200.000
G1 X127.195 Y44.222 E4.42228
G1 X129.704 Y45.500 E4.50659
G1 X131.328 Y46.681 E4.56672
G1 X133.319 Y48.672 E4.65104
G1 X134.500 Y50.296 E4.71116
G1 X135.778 Y52.805 E4.79548
G1 X136.398 Y54.715 E4.85561
G1 X136.839 Y57.496 E4.93993
G1 X136.918 Y58.500 E4.97008
G1 X136.918 Y121.500 E6.85656
G1 X136.839 Y122.504 E6.88670
G1 X136.398 Y125.285 E6.97103
G1 X135.778 Y127.195 E7.03116
G1 X134.500 Y129.704 E7.11547
G1 X133.319 Y131.328 E7.17560
G1 X131.328 Y133.319 E7.25992
G1 X129.704 Y134.499 E7.32004
G1 X127.195 Y135.778 E7.40436
G1 X125.285 Y136.398 E7.46449
G1 X122.504 Y136.839 E7.54881
G1 X121.500 Y136.918 E7.57896
G1 X58.500 Y136.918 E9.46544
G1 X57.496 Y136.839 E9.49558
G1 X54.715 Y136.398 E9.57990
G1 X52.805 Y135.778 E9.64003
G1 X50.296 Y134.500 E9.72435
G1 X48.672 Y133.319 E9.78448
G1 X46.681 Y131.328 E9.86880
G1 X45.500 Y129.704 E9.92892
G1 X44.222 Y127.195 E10.01324
G1 X43.602 Y125.285 E10.07337
G1 X43.161 Y122.504 E10.15769
G1 X43.082 Y121.500 E10.18784
G1 X43.082 Y58.500 E12.07431
G1 X43.161 Y57.496 E12.10446
G1 X43.602 Y54.715 E12.18878
G1 X44.222 Y52.805 E12.24891
G1 X45.500 Y50.296 E12.33323
G1 X46.681 Y48.672 E12.39336
G1 X47.623 Y47.729 E12.43327
G1 E10.43327 F1680.00000
G92 E0
G1 X85.796 Y130.250 F12000.000
G1 E2.00000 F1680.00000
G1 X58.520 Y130.250 E2.76787 F1200.000
G1 X55.797 Y129.819 E2.84548
G1 X53.359 Y128.577 E2.92252
G1 X51.423 Y126.641 E2.99956
G1 X50.181 Y124.203 E3.07660
G1 X49.750 Y121.480 E3.15421
G1 X49.750 Y58.520 E4.92667
G1 X50.181 Y55.797 E5.00427
G1 X51.423 Y53.359 E5.08131
G1 X53.359 Y51.423 E5.15835
G1 X55.797 Y50.181 E5.23539
G1 X58.520 Y49.750 E5.31300
G1 X121.480 Y49.750 E7.08546
G1 X124.126 Y50.169 E7.16088
G1 X124.203 Y50.181 E7.16307 F1200.000
G1 X126.641 Y51.423 E7.24011
G1 X128.577 Y53.359 E7.31715
G1 X129.819 Y55.797 E7.39419
G1 X130.250 Y58.520 E7.47180
G1 X130.250 Y121.480 E9.24426
G1 X129.819 Y124.203 E9.32186
G1 X128.577 Y126.641 E9.39890
G1 X126.641 Y128.577 E9.47594
G1 X124.203 Y129.819 E9.55298
G1 X121.480 Y130.250 E9.63059
G1 X85.871 Y130.250 E10.63307
G1 X55.952 Y129.587 F12000.000
G1 X50.413 Y124.048 E10.85373 F2400.000
G1 X50.298 Y123.377 E10.87292
G1 X56.623 Y129.702 E11.12493
G1 X57.284 Y129.807 E11.14376
G1 X50.193 Y122.716 E11.42624
G1 X50.089 Y122.056 E11.44507
G1 X57.944 Y129.911 E11.75802
G1 X58.604 Y130.016 E11.77685
G1 X49.984 Y121.396 E12.12027
G1 X49.980 Y120.836 E12.13603
G1 X59.164 Y130.020 E12.50188
G1 X59.719 Y130.020 E12.51754
G1 X49.980 Y120.281 E12.90553
G1 X49.980 Y119.725 E12.92119
G1 X60.275 Y130.020 E13.33132
G1 X60.831 Y130.020 E13.34698
G1 X49.980 Y119.169 E13.77925
G1 X49.980 Y118.613 E13.79491
G1 X61.387 Y130.020 E14.24932
G1 X61.942 Y130.020 E14.26498
G1 X49.980 Y118.058 E14.74153
G1 X49.980 Y117.502 E14.75719
G1 X62.498 Y130.020 E15.25588
G1 X63.054 Y130.020 E15.27154
G1 X49.980 Y116.946 E15.79237
G1 X49.980 Y116.390 E15.80803
G1 X63.610 Y130.020 E16.35100
G1 X64.165 Y130.020 E16.36666
G1 X49.980 Y115.835 E16.93177
G1 X49.980 Y115.279 E16.94743
G1 X64.721 Y130.020 E17.53468
G1 X65.277 Y130.020 E17.55034
G1 X49.980 Y114.723 E18.15973
G1 X49.980 Y114.168 E18.17539
G1 X65.832 Y130.020 E18.80692
G1 X66.388 Y130.020 E18.82258
G1 X49.980 Y113.612 E19.47625
G1 X49.980 Y113.056 E19.49191
G1 X66.944 Y130.020 E20.16772
G1 X67.500 Y130.020 E20.18338
G1 X49.980 Y112.500 E20.88133
G1 X49.980 Y111.945 E20.89699
G1 X68.055 Y130.020 E21.61708
G1 X68.611 Y130.020 E21.63274
G1 X49.980 Y111.389 E22.37498
G1 X49.980 Y110.833 E22.39063
G1 X69.167 Y130.020 E23.15501
G1 X69.723 Y130.020 E23.17066
G1 X49.980 Y110.277 E23.95718
G1 X49.980 Y109.722 E23.97283
G1 X70.278 Y130.020 E24.78149
G1 X70.834 Y130.020 E24.79714
G1 X49.980 Y109.166 E25.62794
G1 X49.980 Y108.610 E25.64359
G1 X71.390 Y130.020 E26.49653
G1 X71.946 Y130.020 E26.51218
G1 X49.980 Y108.054 E27.38726
G1 X49.980 Y107.499 E27.40291
G1 X72.501 Y130.020 E28.30013
G1 X73.057 Y130.020 E28.31578
G1 X49.980 Y106.943 E29.23514
G1 X49.980 Y106.387 E29.25079
G1 X73.613 Y130.020 E30.19229
G1 X74.168 Y130.020 E30.20794
G1 X49.980 Y105.832 E31.17158
G1 X49.980 Y105.276 E31.18723
G1 X74.724 Y130.020 E32.17301
G1 X75.280 Y130.020 E32.18867
G1 X49.980 Y104.720 E33.19658
G1 X49.980 Y104.164 E33.21224
G1 X75.836 Y130.020 E34.24229
G1 X76.391 Y130.020 E34.25795
G1 X49.980 Y103.609 E35.31014
G1 X49.980 Y103.053 E35.32580
G1 X76.947 Y130.020 E36.40013
G1 X77.503 Y130.020 E36.41579
G1 X49.980 Y102.497 E37.51226
G1 X49.980 Y101.941 E37.52792
G1 X78.059 Y130.020 E38.64653
G1 X78.614 Y130.020 E38.66219
G1 X49.980 Y101.386 E39.80295
G1 X49.980 Y100.830 E39.81860
G1 X79.170 Y130.020 E40.98150
G1 X79.726 Y130.020 E40.99715
G1 X49.980 Y100.274 E42.18219
G1 X49.980 Y99.718 E42.19784
G1 X80.282 Y130.020 E43.40502
G1 X80.837 Y130.020 E43.42067
G1 X49.980 Y99.163 E44.64999
G1 X49.980 Y98.607 E44.66564
G1 X81.393 Y130.020 E45.91710
G1 X81.949 Y130.020 E45.93275
G1 X49.980 Y98.051 E47.20635
G1 X49.980 Y97.496 E47.22201
G1 X82.504 Y130.020 E48.51774
G1 X83.060 Y130.020 E48.53340
G1 X49.980 Y96.940 E49.85127
G1 X49.980 Y96.384 E49.86693
G1 X83.616 Y130.020 E51.20694
G1 X84.172 Y130.020 E51.22260
G1 X49.980 Y95.828 E52.58475
G1 X49.980 Y95.273 E52.60041
G1 X84.727 Y130.020 E53.98471
G1 X85.283 Y130.020 E54.00036
G1 X49.980 Y94.717 E55.40680
G1 X49.980 Y94.161 E55.42245
G1 X85.839 Y130.020 E56.85103
G1 X86.395 Y130.020 E56.86668
G1 X49.980 Y93.605 E58.31740
G1 X49.980 Y93.050 E58.33305
G1 X86.950 Y130.020 E59.80591
G1 X87.506 Y130.020 E59.82157
G1 X49.980 Y92.494 E61.31656
G1 X49.980 Y91.938 E61.33222
G1 X88.062 Y130.020 E62.84935
G1 X88.617 Y130.020 E62.86501
G1 X49.980 Y91.383 E64.40428
G1 X49.980 Y90.827 E64.41994
G1 X89.173 Y130.020 E65.98136
G1 X89.729 Y130.020 E65.99701
G1 X49.980 Y90.271 E67.58057
G1 X49.980 Y89.715 E67.59622
G1 X90.285 Y130.020 E69.20192
G1 X90.840 Y130.020 E69.21757
G1 X49.980 Y89.160 E70.84541
G1 X49.980 Y88.604 E70.86107
G1 X91.396 Y130.020 E72.51104
G1 X91.952 Y130.020 E72.52670
G1 X49.980 Y88.048 E74.19881
G1 X49.980 Y87.492 E74.21447
G1 X92.508 Y130.020 E75.90872
G1 X93.063 Y130.020 E75.92438
G1 X49.980 Y86.937 E77.64078
G1 X49.980 Y86.381 E77.65643
G1 X93.619 Y130.020 E79.39497
G1 X94.175 Y130.020 E79.41062
G1 X49.980 Y85.825 E81.17130
G1 X49.980 Y85.269 E81.18695
G1 X94.731 Y130.020 E82.96977
G1 X95.286 Y130.020 E82.98543
G1 X49.980 Y84.714 E84.79038
G1 X49.980 Y84.158 E84.80604
G1 X95.842 Y130.020 E86.63313
G1 X96.398 Y130.020 E86.64879
G1 X49.980 Y83.602 E88.49803
G1 X49.980 Y83.047 E88.51368
G1 X96.953 Y130.020 E90.38506
G1 X97.509 Y130.020 E90.40071
G1 X49.980 Y82.491 E92.29423
G1 X49.980 Y81.935 E92.30988
G1 X98.065 Y130.020 E94.22554
G1 X98.621 Y130.020 E94.24120
G1 X49.980 Y81.379 E96.17899
G1 X49.980 Y80.824 E96.19465
G1 X99.176 Y130.020 E98.15458
G1 X99.732 Y130.020 E98.17024
G1 X49.980 Y80.268 E100.15232
G1 X49.980 Y79.712 E100.16797
G1 X100.288 Y130.020 E102.17219
G1 X100.844 Y130.020 E102.18784
G1 X49.980 Y79.156 E104.21420
G1 X49.980 Y78.601 E104.22986
G1 X101.399 Y130.020 E106.27835
G1 X101.955 Y130.020 E106.29401
G1 X49.980 Y78.045 E108.36464
G1 X49.980 Y77.489 E108.38030
G1 X102.511 Y130.020 E110.47308
G1 X103.067 Y130.020 E110.48873
G1 X49.980 Y76.933 E112.60365
G1 X49.980 Y76.378 E112.61930
G1 X103.622 Y130.020 E114.75636
G1 X104.178 Y130.020 E114.77202
G1 X49.980 Y75.822 E116.93121
G1 X49.980 Y75.266 E116.94687
G1 X104.734 Y130.020 E119.12820
G1 X105.289 Y130.020 E119.14386
G1 X49.980 Y74.711 E121.34734
G1 X49.980 Y74.155 E121.36299
G1 X105.845 Y130.020 E123.58861
G1 X106.401 Y130.020 E123.60426
G1 X49.980 Y73.599 E125.85202
G1 X49.980 Y73.043 E125.86768
G1 X106.957 Y130.020 E128.13757
G1 X107.512 Y130.020 E128.15323
G1 X49.980 Y72.488 E130.44527
G1 X49.980 Y71.932 E130.46092
G1 X108.068 Y130.020 E132.77510
G1 X108.624 Y130.020 E132.79075
G1 X49.980 Y71.376 E135.12707
G1 X49.980 Y70.820 E135.14273
G1 X109.180 Y130.020 E137.50118
G1 X109.735 Y130.020 E137.51684
G1 X49.980 Y70.265 E139.89744
G1 X49.980 Y69.709 E139.91309
G1 X110.291 Y130.020 E142.31583
G1 X110.847 Y130.020 E142.33148
G1 X49.980 Y69.153 E144.75636
G1 X49.980 Y68.598 E144.77202
G1 X111.402 Y130.020 E147.21903
G1 X111.958 Y130.020 E147.23469
G1 X49.980 Y68.042 E149.70385
G1 X49.980 Y67.486 E149.71950
G1 X112.514 Y130.020 E152.21080
G1 X113.070 Y130.020 E152.22645
G1 X49.980 Y66.930 E154.73989
G1 X49.980 Y66.375 E154.75555
G1 X113.625 Y130.020 E157.29112
G1 X114.181 Y130.020 E157.30678
G1 X49.980 Y65.819 E159.86450
G1 X49.980 Y65.263 E159.88015
G1 X114.737 Y130.020 E162.46001
G1 X115.293 Y130.020 E162.47566
G1 X49.980 Y64.707 E165.07766
G1 X49.980 Y64.152 E165.09332
G1 X115.848 Y130.020 E167.71745
G1 X116.404 Y130.020 E167.73311
G1 X49.980 Y63.596 E170.37939
G1 X49.980 Y63.040 E170.39504
G1 X116.960 Y130.020 E173.06346
G1 X117.516 Y130.020 E173.07911
G1 X49.980 Y62.484 E175.76967
G1 X49.980 Y61.929 E175.78533
G1 X118.071 Y130.020 E178.49802
G1 X118.627 Y130.020 E178.51368
G1 X49.980 Y61.373 E181.24852
G1 X49.980 Y60.817 E181.26417
G1 X119.183 Y130.020 E184.02115
G1 X119.738 Y130.020 E184.03681
G1 X49.980 Y60.262 E186.81592
G1 X49.980 Y59.706 E186.83158
G1 X120.294 Y130.020 E189.63284
G1 X120.850 Y130.020 E189.64849
G1 X49.980 Y59.150 E192.47189
G1 X49.980 Y58.594 E192.48754
G1 X121.406 Y130.020 E195.33308
G1 X121.904 Y129.962 E195.34720
G1 X50.038 Y58.096 E198.21028
G1 X50.114 Y57.617 E198.22396
G1 X122.383 Y129.886 E201.10313
G1 X122.863 Y129.810 E201.11681
G1 X50.190 Y57.137 E204.01206
G1 X50.266 Y56.657 E204.02575
G1 X123.343 Y129.734 E206.93708
G1 X123.823 Y129.658 E206.95077
G1 X50.342 Y56.177 E209.87819
G1 X50.445 Y55.724 E209.89128
G1 X124.276 Y129.555 E212.83267
G1 X124.644 Y129.368 E212.84431
G1 X50.632 Y55.356 E215.79290
G1 X50.820 Y54.988 E215.80454
G1 X125.012 Y129.180 E218.76032
G1 X125.380 Y128.993 E218.77196
G1 X51.007 Y54.620 E221.73494
G1 X51.195 Y54.251 E221.74658
G1 X125.749 Y128.805 E224.71675
G1 X126.117 Y128.617 E224.72839
G1 X51.383 Y53.883 E227.70575
G1 X51.571 Y53.516 E227.71738
G1 X126.484 Y128.429 E230.70185
G1 X126.762 Y128.151 E230.71292
G1 X51.849 Y53.238 E233.69739
G1 X52.127 Y52.961 E233.70846
G1 X127.039 Y127.873 E236.69293
G1 X127.317 Y127.595 E236.70400
G1 X52.405 Y52.683 E239.68847
G1 X52.683 Y52.405 E239.69954
G1 X127.595 Y127.317 E242.68401
G1 X127.873 Y127.039 E242.69508
G1 X52.961 Y52.127 E245.67955
G1 X53.238 Y51.849 E245.69062
G1 X128.151 Y126.762 E248.67510
G1 X128.429 Y126.484 E248.68617
G1 X53.516 Y51.571 E251.67064
G1 X53.883 Y51.383 E251.68226
G1 X128.617 Y126.117 E254.65963
G1 X128.805 Y125.749 E254.67127
G1 X54.251 Y51.195 E257.64144
G1 X54.620 Y51.007 E257.65308
G1 X128.993 Y125.380 E260.61605
G1 X129.180 Y125.012 E260.62769
G1 X54.988 Y50.820 E263.58348
G1 X55.356 Y50.632 E263.59512
G1 X129.368 Y124.644 E266.54370
G1 X129.555 Y124.276 E266.55534
G1 X55.724 Y50.445 E269.49674
G1 X56.177 Y50.342 E269.50983
G1 X129.658 Y123.823 E272.43725
G1 X129.734 Y123.343 E272.45094
G1 X56.657 Y50.266 E275.36228
G1 X57.137 Y50.190 E275.37596
G1 X129.810 Y122.863 E278.27121
G1 X129.886 Y122.383 E278.28489
G1 X57.617 Y50.114 E281.16406
G1 X58.096 Y50.038 E281.17774
G1 X129.962 Y121.904 E284.04082
G1 X130.020 Y121.406 E284.05494
G1 X58.594 Y49.980 E286.90048
G1 X59.150 Y49.980 E286.91614
G1 X130.020 Y120.850 E289.73954
G1 X130.020 Y120.294 E289.75519
G1 X59.706 Y49.980 E292.55645
G1 X60.261 Y49.980 E292.57211
G1 X130.020 Y119.739 E295.35122
G1 X130.020 Y119.183 E295.36688
G1 X60.817 Y49.980 E298.12386
G1 X61.373 Y49.980 E298.13951
G1 X130.020 Y118.627 E300.87435
G1 X130.020 Y118.071 E300.89001
G1 X61.929 Y49.980 E303.60271
G1 X62.484 Y49.980 E303.61836
G1 X130.020 Y117.516 E306.30892
G1 X130.020 Y116.960 E306.32458
G1 X63.040 Y49.980 E308.99300
G1 X63.596 Y49.980 E309.00865
G1 X130.020 Y116.404 E311.65493
G1 X130.020 Y115.848 E311.67059
G1 X64.152 Y49.980 E314.29472
G1 X64.707 Y49.980 E314.31038
G1 X130.020 Y115.293 E316.91238
G1 X130.020 Y114.737 E316.92803
G1 X65.263 Y49.980 E319.50789
G1 X65.819 Y49.980 E319.52355
G1 X130.020 Y114.181 E322.08127
G1 X130.020 Y113.625 E322.09692
G1 X66.375 Y49.980 E324.63250
G1 X66.930 Y49.980 E324.64816
G1 X130.020 Y113.070 E327.16159
G1 X130.020 Y112.514 E327.17725
G1 X67.486 Y49.980 E329.66855
G1 X68.042 Y49.980 E329.68420
G1 X130.020 Y111.958 E332.15336
G1 X130.020 Y111.403 E332.16902
G1 X68.597 Y49.980 E334.61604
G1 X69.153 Y49.980 E334.63169
G1 X130.020 Y110.847 E337.05657
G1 X130.020 Y110.291 E337.07223
G1 X69.709 Y49.980 E339.47496
G1 X70.265 Y49.980 E339.49062
G1 X130.020 Y109.735 E341.87122
G1 X130.020 Y109.180 E341.88687
G1 X70.820 Y49.980 E344.24533
G1 X71.376 Y49.980 E344.26099
G1 X130.020 Y108.624 E346.59731
G1 X130.020 Y108.068 E346.61296
G1 X71.932 Y49.980 E348.92714
G1 X72.488 Y49.980 E348.94279
G1 X130.020 Y107.512 E351.23483
G1 X130.020 Y106.957 E351.25049
G1 X73.043 Y49.980 E353.52039
G1 X73.599 Y49.980 E353.53604
G1 X130.020 Y106.401 E355.78380
G1 X130.020 Y105.845 E355.79946
G1 X74.155 Y49.980 E358.02507
G1 X74.711 Y49.980 E358.04073
G1 X130.020 Y105.289 E360.24421
G1 X130.020 Y104.734 E360.25986
G1 X75.266 Y49.980 E362.44120
G1 X75.822 Y49.980 E362.45686
G1 X130.020 Y104.178 E364.61605
G1 X130.020 Y103.622 E364.63171
G1 X76.378 Y49.980 E366.76877
G1 X76.933 Y49.980 E366.78442
G1 X130.020 Y103.067 E368.89934
G1 X130.020 Y102.511 E368.91500
G1 X77.489 Y49.980 E371.00778
G1 X78.045 Y49.980 E371.02343
G1 X130.020 Y101.955 E373.09407
G1 X130.020 Y101.399 E373.10972
G1 X78.601 Y49.980 E375.15822
G1 X79.156 Y49.980 E375.17388
G1 X130.020 Y100.844 E377.20024
G1 X130.020 Y100.288 E377.21589
G1 X79.712 Y49.980 E379.22011
G1 X80.268 Y49.980 E379.23576
G1 X130.020 Y99.732 E381.21784
G1 X130.020 Y99.176 E381.23350
G1 X80.824 Y49.980 E383.19344
G1 X81.379 Y49.980 E383.20909
G1 X130.020 Y98.621 E385.14689
G1 X130.020 Y98.065 E385.16254
G1 X81.935 Y49.980 E387.07820
G1 X82.491 Y49.980 E387.09386
G1 X130.020 Y97.509 E388.98737
G1 X130.020 Y96.954 E389.00303
G1 X83.046 Y49.980 E390.87441
G1 X83.602 Y49.980 E390.89006
G1 X130.020 Y96.398 E392.73930
G1 X130.020 Y95.842 E392.75496
G1 X84.158 Y49.980 E394.58205
G1 X84.714 Y49.980 E394.59771
G1 X130.020 Y95.286 E396.40267
G1 X130.020 Y94.731 E396.41832
G1 X85.269 Y49.980 E398.20114
G1 X85.825 Y49.980 E398.21680
G1 X130.020 Y94.175 E399.97747
G1 X130.020 Y93.619 E399.99313
G1 X86.381 Y49.980 E401.73167
G1 X86.937 Y49.980 E401.74732
G1 X130.020 Y93.063 E403.46372
G1 X130.020 Y92.508 E403.47937
G1 X87.492 Y49.980 E405.17363
G1 X88.048 Y49.980 E405.18929
G1 X130.020 Y91.952 E406.86141
G1 X130.020 Y91.396 E406.87706
G1 X88.604 Y49.980 E408.52704
G1 X89.160 Y49.980 E408.54269
G1 X130.020 Y90.840 E410.17053
G1 X130.020 Y90.285 E410.18619
G1 X89.715 Y49.980 E411.79188
G1 X90.271 Y49.980 E411.80754
G1 X130.020 Y89.729 E413.39110
G1 X130.020 Y89.173 E413.40675
G1 X90.827 Y49.980 E414.96817
G1 X91.382 Y49.980 E414.98382
G1 X130.020 Y88.618 E416.52310
G1 X130.020 Y88.062 E416.53876
G1 X91.938 Y49.980 E418.05589
G1 X92.494 Y49.980 E418.07155
G1 X130.020 Y87.506 E419.56655
G1 X130.020 Y86.950 E419.58220
G1 X93.050 Y49.980 E421.05506
G1 X93.605 Y49.980 E421.07072
G1 X130.020 Y86.395 E422.52143
G1 X130.020 Y85.839 E422.53709
G1 X94.161 Y49.980 E423.96567
G1 X94.717 Y49.980 E423.98132
G1 X130.020 Y85.283 E425.38776
