; generated by Slic3r 0.9.10b on 2013-11-18 at 22:29:00

; layer_height = 0.3
; perimeters = 2
; top_solid_layers = 3
; bottom_solid_layers = 3
; fill_density = 0.3
; perimeter_speed = 30
; infill_speed = 30
; travel_speed = 200
; nozzle_diameter = 0.5
; filament_diameter = 2.98
; extrusion_multiplier = 0.9
; perimeters extrusion width = 0.50mm
; infill extrusion width = 0.50mm
; solid infill extrusion width = 0.50mm
; top infill extrusion width = 0.50mm

G21 ; set units to millimeters
M107
M104 S190 ; set temperature
G28 ; home all axes
G1 Z15 F120 ; lift nozzle
M109 S190 ; wait for temperature to be reached
G90 ; use absolute coordinates
G92 E0
M82 ; use absolute distances for extrusion
G1 F1680.000 E-2.00000
G92 E0
G1 Z0.450 F12000.000
G1 X53.400 Y53.400
G1 F1680.000 E2.00000
G1 X54.390 Y52.600 F900.000 E2.03696
G1 X55.510 Y51.990 E2.07398
G1 X56.730 Y51.620 E2.11100
G1 X58.000 Y51.500 E2.14803
G1 X108.000 Y51.500 E3.59972
G1 X109.270 Y51.620 E3.63676
G1 X110.490 Y51.990 E3.67377
G1 X111.610 Y52.600 E3.71080
G1 X112.600 Y53.400 E3.74775
G1 X113.400 Y54.390 E3.78471
G1 X114.010 Y55.510 E3.82174
G1 X114.380 Y56.730 E3.85875
G1 X114.500 Y58.000 E3.89579
G1 X114.500 Y104.000 E5.23134
G1 X114.380 Y105.270 E5.26838
G1 X114.010 Y106.490 E5.30539
G1 X113.400 Y107.610 E5.34242
G1 X112.600 Y108.600 E5.37937
G1 X111.610 Y109.400 E5.41633
G1 X110.490 Y110.010 E5.45336
G1 X109.270 Y110.380 E5.49037
G1 X108.000 Y110.500 E5.52741
G1 X58.000 Y110.500 E6.97909
G1 X56.730 Y110.380 E7.01613
G1 X55.510 Y110.010 E7.05315
G1 X54.390 Y109.400 E7.09017
G1 X53.400 Y108.600 E7.12713
G1 X52.600 Y107.610 E7.16408
G1 X51.990 Y106.490 E7.20111
G1 X51.620 Y105.270 E7.23813
G1 X51.500 Y104.000 E7.27516
G1 X51.500 Y58.000 E8.61071
G1 X51.620 Y56.730 E8.64775
G1 X51.990 Y55.510 E8.68476
G1 X52.600 Y54.390 E8.72179
G1 X53.353 Y53.458 E8.75657
G1 F1680.000 E6.75657
G92 E0
G1 X66.213 Y67.140 F12000.000
G1 F1680.000 E2.00000
G1 X67.559 Y66.067 F900.000 E2.04996
G1 X69.236 Y66.450 E2.09992
G1 X69.983 Y68.000 E2.14989
G1 X69.236 Y69.550 E2.19985
G1 X67.559 Y69.933 E2.24981
G1 X66.213 Y68.860 E2.29977
G1 X66.213 Y67.215 E2.34756
G1 X66.713 Y67.380 F12000.000
G1 X67.682 Y66.608 F900.000 E2.38354
G1 X68.890 Y66.883 E2.41952
G1 X69.428 Y68.000 E2.45550
G1 X68.890 Y69.117 E2.49148
G1 X67.682 Y69.392 E2.52746
G1 X66.713 Y68.620 E2.56344
G1 X66.713 Y67.455 E2.59724
G1 X67.212 Y67.418 F12000.000
G1 F1680.000 E0.59724
G92 E0
G1 X67.559 Y92.067 F12000.000
G1 F1680.000 E2.00000
G1 X69.236 Y92.450 F900.000 E2.04996
G1 X69.784 Y93.587 E2.08660
G1 X69.983 Y94.000 E2.09992
G1 X69.236 Y95.550 E2.14989
G1 X67.559 Y95.933 E2.19985
G1 X66.213 Y94.860 E2.24981
G1 X66.213 Y93.140 E2.29977
G1 X67.500 Y92.113 E2.34756
G1 X67.682 Y92.608 F12000.000
G1 X68.890 Y92.883 F900.000 E2.38354
G1 X69.334 Y93.804 E2.41319
G1 X69.428 Y94.000 E2.41952
G1 X68.890 Y95.117 E2.45550
G1 X67.682 Y95.392 E2.49148
G1 X66.713 Y94.620 E2.52746
G1 X66.713 Y93.380 E2.56344
G1 X67.624 Y92.654 E2.59724
G1 X67.964 Y93.021 F12000.000
G1 F1680.000 E0.59724
G92 E0
G1 X107.250 Y84.750 F12000.000
G1 F1680.000 E2.00000
G1 X107.250 Y103.250 F900.000 E2.53712
G1 X58.750 Y103.250 E3.94526
G1 X58.750 Y84.750 E4.48238
G1 X107.175 Y84.750 E5.88834
G1 X107.750 Y84.250 F12000.000
G1 X107.750 Y103.750 F720.000 E6.45450
G1 X58.250 Y103.750 E7.89167
G1 X58.250 Y84.250 E8.45782
G1 X107.675 Y84.250 E9.89282
G1 X107.500 Y84.683 F12000.000
G1 F1680.000 E7.89282
G92 E0
G1 X107.250 Y77.250 F12000.000
G1 F1680.000 E2.00000
G1 X58.750 Y77.250 F900.000 E3.40814
G1 X58.750 Y58.750 E3.94526
G1 X107.250 Y58.750 E5.35339
G1 X107.250 Y77.175 E5.88834
G1 X107.750 Y77.750 F12000.000
G1 X58.250 Y77.750 F720.000 E7.32551
G1 X58.250 Y58.250 E7.89167
G1 X107.750 Y58.250 E9.32884
G1 X107.750 Y77.675 E9.89282
G1 X107.317 Y77.500 F12000.000
G1 F1680.000 E7.89282
G92 E0
G1 X106.888 Y85.674 F12000.000
G1 F1680.000 E2.00000
G1 X106.326 Y85.112 F1200.000 E2.02308
G1 X105.618 Y85.112 E2.04361
G1 X106.888 Y86.382 E2.09572
G1 X106.888 Y87.089 E2.11625
G1 X104.911 Y85.112 E2.19739
G1 X104.204 Y85.112 E2.21792
G1 X106.888 Y87.796 E2.32810
G1 X106.888 Y88.503 E2.34863
G1 X103.497 Y85.112 E2.48784
G1 X102.790 Y85.112 E2.50837
G1 X106.888 Y89.210 E2.67662
G1 X106.888 Y89.917 E2.69715
G1 X102.083 Y85.112 E2.89443
G1 X101.376 Y85.112 E2.91496
G1 X106.888 Y90.624 E3.14127
G1 X106.888 Y91.331 E3.16180
G1 X100.669 Y85.112 E3.41715
G1 X99.962 Y85.112 E3.43768
G1 X106.888 Y92.038 E3.72206
G1 X106.888 Y92.745 E3.74259
G1 X99.255 Y85.112 E4.05600
G1 X98.547 Y85.112 E4.07653
G1 X106.888 Y93.453 E4.41898
G1 X106.888 Y94.160 E4.43951
G1 X97.840 Y85.112 E4.81099
G1 X97.133 Y85.112 E4.83152
G1 X106.888 Y94.867 E5.23204
G1 X106.888 Y95.574 E5.25257
G1 X96.426 Y85.112 E5.68212
G1 X95.719 Y85.112 E5.70265
G1 X106.888 Y96.281 E6.16123
G1 X106.888 Y96.988 E6.18176
G1 X95.012 Y85.112 E6.66937
G1 X94.305 Y85.112 E6.68990
G1 X106.888 Y97.695 E7.20655
G1 X106.888 Y98.402 E7.22708
G1 X93.598 Y85.112 E7.77277
G1 X92.891 Y85.112 E7.79330
G1 X106.888 Y99.109 E8.36802
G1 X106.888 Y99.817 E8.38855
G1 X92.183 Y85.112 E8.99230
G1 X91.476 Y85.112 E9.01283
G1 X106.888 Y100.524 E9.64561
G1 X106.888 Y101.231 E9.66614
G1 X90.769 Y85.112 E10.32796
G1 X90.062 Y85.112 E10.34849
G1 X106.888 Y101.938 E11.03934
G1 X106.888 Y102.645 E11.05987
G1 X89.355 Y85.112 E11.77976
G1 X88.648 Y85.112 E11.80029
G1 X106.423 Y102.888 E12.53014
G1 X105.716 Y102.888 E12.55067
G1 X87.941 Y85.112 E13.28052
G1 X87.234 Y85.112 E13.30105
G1 X105.009 Y102.888 E14.03090
G1 X104.302 Y102.888 E14.05143
G1 X86.527 Y85.112 E14.78128
G1 X85.819 Y85.112 E14.80181
G1 X103.595 Y102.888 E15.53166
G1 X102.888 Y102.888 E15.55219
G1 X85.112 Y85.112 E16.28203
G1 X84.405 Y85.112 E16.30256
G1 X102.181 Y102.888 E17.03241
G1 X101.473 Y102.888 E17.05294
G1 X83.698 Y85.112 E17.78279
G1 X82.991 Y85.112 E17.80332
G1 X100.766 Y102.888 E18.53317
G1 X100.059 Y102.888 E18.55370
G1 X82.284 Y85.112 E19.28355
G1 X81.577 Y85.112 E19.30408
G1 X99.352 Y102.888 E20.03393
G1 X98.645 Y102.888 E20.05446
G1 X80.870 Y85.112 E20.78431
G1 X80.163 Y85.112 E20.80484
G1 X97.938 Y102.888 E21.53469
G1 X97.231 Y102.888 E21.55522
G1 X79.456 Y85.112 E22.28507
G1 X78.748 Y85.112 E22.30560
G1 X96.524 Y102.888 E23.03545
G1 X95.817 Y102.888 E23.05598
G1 X78.041 Y85.112 E23.78583
G1 X77.334 Y85.112 E23.80636
G1 X95.109 Y102.888 E24.53620
G1 X94.402 Y102.888 E24.55673
G1 X76.627 Y85.112 E25.28658
G1 X75.920 Y85.112 E25.30711
G1 X93.695 Y102.888 E26.03696
G1 X92.988 Y102.888 E26.05749
G1 X75.213 Y85.112 E26.78734
G1 X74.506 Y85.112 E26.80787
G1 X92.281 Y102.888 E27.53772
G1 X91.574 Y102.888 E27.55825
G1 X73.799 Y85.112 E28.28810
G1 X73.092 Y85.112 E28.30863
G1 X90.867 Y102.888 E29.03848
G1 X90.160 Y102.888 E29.05901
G1 X72.384 Y85.112 E29.78886
G1 X71.677 Y85.112 E29.80939
G1 X89.453 Y102.888 E30.53924
G1 X88.745 Y102.888 E30.55977
G1 X70.970 Y85.112 E31.28962
G1 X70.263 Y85.112 E31.31015
G1 X88.038 Y102.888 E32.04000
G1 X87.331 Y102.888 E32.06053
G1 X69.556 Y85.112 E32.79037
G1 X68.849 Y85.112 E32.81090
G1 X86.624 Y102.888 E33.54075
G1 X85.917 Y102.888 E33.56128
G1 X68.142 Y85.112 E34.29113
G1 X67.435 Y85.112 E34.31166
G1 X85.210 Y102.888 E35.04151
G1 X84.503 Y102.888 E35.06204
G1 X66.728 Y85.112 E35.79189
G1 X66.020 Y85.112 E35.81242
G1 X83.796 Y102.888 E36.54227
G1 X83.089 Y102.888 E36.56280
G1 X65.313 Y85.112 E37.29265
G1 X64.606 Y85.112 E37.31318
G1 X82.382 Y102.888 E38.04303
G1 X81.674 Y102.888 E38.06356
G1 X63.899 Y85.112 E38.79341
G1 X63.192 Y85.112 E38.81394
G1 X80.967 Y102.888 E39.54379
G1 X80.260 Y102.888 E39.56432
G1 X62.485 Y85.112 E40.29417
G1 X61.778 Y85.112 E40.31470
G1 X68.598 Y91.932 E40.59471
G1 X67.681 Y91.723 F12000.000
G1 X61.071 Y85.112 F1200.000 E40.86614
G1 X60.364 Y85.112 E40.88667
G1 X67.167 Y91.916 E41.16601
G1 X66.773 Y92.229 E41.18062
G1 X59.657 Y85.112 E41.47284
G1 X59.112 Y85.275 E41.48933
G1 X66.380 Y92.543 E41.78774
G1 X65.987 Y92.857 E41.80235
G1 X59.112 Y85.982 E42.08461
G1 X59.112 Y86.690 E42.10514
G1 X65.851 Y93.428 E42.38183
G1 X65.851 Y94.135 E42.40236
G1 X59.112 Y87.397 E42.67904
G1 X59.112 Y88.104 E42.69957
G1 X65.851 Y94.842 E42.97625
G1 F1680.000 E40.97625
G92 E0
G1 X70.125 Y93.459 F12000.000
G1 F1680.000 E2.00000
G1 X79.553 Y102.888 F1200.000 E2.38712
G1 X78.846 Y102.888 E2.40765
G1 X70.247 Y94.288 E2.76074
G1 X70.017 Y94.765 E2.77612
G1 X78.139 Y102.888 E3.10962
G1 X77.432 Y102.888 E3.13015
G1 X69.787 Y95.243 E3.44405
G1 X69.557 Y95.720 E3.45943
G1 X76.725 Y102.888 E3.75373
G1 X76.018 Y102.888 E3.77426
G1 X69.086 Y95.956 E4.05886
G1 X68.511 Y96.088 E4.07600
G1 X75.310 Y102.888 E4.35521
G1 X74.603 Y102.888 E4.37574
G1 X67.935 Y96.219 E4.64954
G1 X66.802 Y95.793 E4.68469
G1 X73.896 Y102.888 E4.97598
G1 X73.189 Y102.888 E4.99651
G1 X59.112 Y88.811 E5.57450
G1 X59.112 Y89.518 E5.59503
G1 X72.482 Y102.888 E6.14398
G1 X71.775 Y102.888 E6.16451
G1 X59.112 Y90.225 E6.68444
G1 X59.112 Y90.932 E6.70497
G1 X71.068 Y102.888 E7.19586
G1 X70.361 Y102.888 E7.21639
G1 X59.112 Y91.639 E7.67824
G1 X59.112 Y92.346 E7.69877
G1 X69.654 Y102.888 E8.13159
G1 X68.946 Y102.888 E8.15212
G1 X59.112 Y93.054 E8.55591
G1 X59.112 Y93.761 E8.57644
G1 X68.239 Y102.888 E8.95119
G1 X67.532 Y102.888 E8.97172
G1 X59.112 Y94.468 E9.31744
G1 X59.112 Y95.175 E9.33797
G1 X66.825 Y102.888 E9.65466
G1 X66.118 Y102.888 E9.67519
G1 X59.112 Y95.882 E9.96284
G1 X59.112 Y96.589 E9.98337
G1 X65.411 Y102.888 E10.24199
G1 X64.704 Y102.888 E10.26252
G1 X59.112 Y97.296 E10.49211
G1 X59.112 Y98.003 E10.51264
G1 X63.997 Y102.888 E10.71319
G1 X63.290 Y102.888 E10.73372
G1 X59.112 Y98.710 E10.90524
G1 X59.112 Y99.417 E10.92577
G1 X62.583 Y102.888 E11.06825
G1 X61.875 Y102.888 E11.08878
G1 X59.112 Y100.125 E11.20223
G1 X59.112 Y100.832 E11.22276
G1 X61.168 Y102.888 E11.30718
G1 X60.461 Y102.888 E11.32771
G1 X59.112 Y101.539 E11.38309
G1 X59.112 Y102.246 E11.40362
G1 X59.754 Y102.888 E11.42997
G1 F1680.000 E9.42997
G92 E0
G1 X59.210 Y76.888 F12000.000
G1 F1680.000 E2.00000
G1 X59.112 Y76.790 F1200.000 E2.00401
G1 X59.112 Y76.083 E2.02454
G1 X59.917 Y76.888 E2.05758
G1 X60.624 Y76.888 E2.07811
G1 X59.112 Y75.376 E2.14018
G1 X59.112 Y74.669 E2.16071
G1 X61.331 Y76.888 E2.25182
G1 X62.038 Y76.888 E2.27235
G1 X59.112 Y73.962 E2.39249
G1 X59.112 Y73.255 E2.41302
G1 X62.745 Y76.888 E2.56219
G1 X63.453 Y76.888 E2.58272
G1 X59.112 Y72.547 E2.76093
G1 X59.112 Y71.840 E2.78146
G1 X64.160 Y76.888 E2.98870
G1 X64.867 Y76.888 E3.00923
G1 X59.112 Y71.133 E3.24551
G1 X59.112 Y70.426 E3.26604
G1 X65.574 Y76.888 E3.53135
G1 X66.281 Y76.888 E3.55188
G1 X59.112 Y69.719 E3.84622
G1 X59.112 Y69.012 E3.86675
G1 X66.988 Y76.888 E4.19013
G1 X67.695 Y76.888 E4.21066
G1 X59.112 Y68.305 E4.56307
G1 X59.112 Y67.598 E4.58360
G1 X68.402 Y76.888 E4.96505
G1 X69.109 Y76.888 E4.98558
G1 X59.112 Y66.891 E5.39605
G1 X59.112 Y66.183 E5.41658
G1 X69.817 Y76.888 E5.85610
G1 X70.524 Y76.888 E5.87663
G1 X59.112 Y65.476 E6.34517
G1 X59.112 Y64.769 E6.36570
G1 X71.231 Y76.888 E6.86328
G1 X71.938 Y76.888 E6.88381
G1 X59.112 Y64.062 E7.41042
G1 X59.112 Y63.355 E7.43095
G1 X72.645 Y76.888 E7.98660
G1 X73.352 Y76.888 E8.00713
G1 X59.112 Y62.648 E8.59181
G1 X59.112 Y61.941 E8.61234
G1 X65.851 Y68.679 E8.88903
G1 X65.851 Y67.972 E8.90956
G1 X59.112 Y61.234 E9.18624
G1 X59.112 Y60.527 E9.20677
G1 X65.851 Y67.265 E9.48345
G1 X66.077 Y66.784 E9.49888
G1 X59.112 Y59.819 E9.78486
G1 X59.112 Y59.112 E9.80539
G1 X66.471 Y66.471 E10.10753
G1 X66.864 Y66.157 E10.12214
G1 X59.819 Y59.112 E10.41139
G1 X60.527 Y59.112 E10.43192
G1 X67.258 Y65.843 E10.70829
G1 X67.892 Y65.771 E10.72684
G1 X61.234 Y59.112 E11.00025
G1 X61.941 Y59.112 E11.02078
G1 X68.809 Y65.980 E11.30277
G1 X69.974 Y67.145 F12000.000
G1 X79.716 Y76.888 F1200.000 E11.70280
G1 X80.423 Y76.888 E11.72333
G1 X62.648 Y59.112 E12.45318
G1 X63.355 Y59.112 E12.47371
G1 X81.130 Y76.888 E13.20356
G1 X81.837 Y76.888 E13.22409
G1 X64.062 Y59.112 E13.95394
G1 X64.769 Y59.112 E13.97447
G1 X82.544 Y76.888 E14.70432
G1 X83.252 Y76.888 E14.72485
G1 X65.476 Y59.112 E15.45469
G1 X66.183 Y59.112 E15.47522
G1 X83.959 Y76.888 E16.20507
G1 X84.666 Y76.888 E16.22560
G1 X66.891 Y59.112 E16.95545
G1 X67.598 Y59.112 E16.97598
G1 X85.373 Y76.888 E17.70583
G1 X86.080 Y76.888 E17.72636
G1 X68.305 Y59.112 E18.45621
G1 X69.012 Y59.112 E18.47674
G1 X86.787 Y76.888 E19.20659
G1 X87.494 Y76.888 E19.22712
G1 X69.719 Y59.112 E19.95697
G1 X70.426 Y59.112 E19.97750
G1 X88.201 Y76.888 E20.70735
G1 X88.908 Y76.888 E20.72788
G1 X71.133 Y59.112 E21.45773
G1 X71.840 Y59.112 E21.47826
G1 X89.616 Y76.888 E22.20811
G1 X90.323 Y76.888 E22.22864
G1 X72.547 Y59.112 E22.95849
G1 X73.255 Y59.112 E22.97902
G1 X91.030 Y76.888 E23.70886
G1 X91.737 Y76.888 E23.72939
G1 X73.962 Y59.112 E24.45924
G1 X74.669 Y59.112 E24.47977
G1 X92.444 Y76.888 E25.20962
G1 X93.151 Y76.888 E25.23015
G1 X75.376 Y59.112 E25.96000
G1 X76.083 Y59.112 E25.98053
G1 X93.858 Y76.888 E26.71038
G1 X94.565 Y76.888 E26.73091
G1 X76.790 Y59.112 E27.46076
G1 X77.497 Y59.112 E27.48129
G1 X95.272 Y76.888 E28.21114
G1 X95.980 Y76.888 E28.23167
G1 X78.204 Y59.112 E28.96152
G1 X78.911 Y59.112 E28.98205
G1 X96.687 Y76.888 E29.71190
G1 X97.394 Y76.888 E29.73243
G1 X79.618 Y59.112 E30.46228
G1 X80.326 Y59.112 E30.48281
G1 X98.101 Y76.888 E31.21265
G1 X98.808 Y76.888 E31.23318
G1 X81.033 Y59.112 E31.96303
G1 X81.740 Y59.112 E31.98356
G1 X99.515 Y76.888 E32.71341
G1 X100.222 Y76.888 E32.73394
G1 X82.447 Y59.112 E33.46379
G1 X83.154 Y59.112 E33.48432
G1 X100.929 Y76.888 E34.21417
G1 X101.636 Y76.888 E34.23470
G1 X83.861 Y59.112 E34.96455
G1 X84.568 Y59.112 E34.98508
G1 X102.343 Y76.888 E35.71493
G1 X103.051 Y76.888 E35.73546
G1 X85.275 Y59.112 E36.46531
G1 X85.982 Y59.112 E36.48584
G1 X103.758 Y76.888 E37.21569
G1 X104.465 Y76.888 E37.23622
G1 X86.690 Y59.112 E37.96607
G1 X87.397 Y59.112 E37.98660
G1 X105.172 Y76.888 E38.71645
G1 X105.879 Y76.888 E38.73698
G1 X88.104 Y59.112 E39.46682
G1 X88.811 Y59.112 E39.48735
G1 X106.586 Y76.888 E40.21720
G1 X106.888 Y76.482 E40.23188
G1 X89.518 Y59.112 E40.94507
G1 X90.225 Y59.112 E40.96560
G1 X106.888 Y75.775 E41.64976
G1 X106.888 Y75.068 E41.67029
G1 X90.932 Y59.112 E42.32542
G1 X91.639 Y59.112 E42.34595
G1 X106.888 Y74.361 E42.97205
G1 X106.888 Y73.654 E42.99258
G1 X92.346 Y59.112 E43.58964
G1 X93.054 Y59.112 E43.61017
G1 X106.888 Y72.946 E44.17819
G1 X106.888 Y72.239 E44.19872
G1 X93.761 Y59.112 E44.73772
G1 X94.468 Y59.112 E44.75825
G1 X106.888 Y71.532 E45.26821
G1 X106.888 Y70.825 E45.28874
G1 X95.175 Y59.112 E45.76966
G1 X95.882 Y59.112 E45.79019
G1 X106.888 Y70.118 E46.24208
G1 X106.888 Y69.411 E46.26261
G1 X96.589 Y59.112 E46.68547
G1 X97.296 Y59.112 E46.70600
G1 X106.888 Y68.704 E47.09983
G1 X106.888 Y67.997 E47.12036
G1 X98.003 Y59.112 E47.48515
G1 X98.710 Y59.112 E47.50568
G1 X106.888 Y67.290 E47.84144
G1 X106.888 Y66.583 E47.86197
G1 X99.417 Y59.112 E48.16869
G1 X100.125 Y59.112 E48.18922
G1 X106.888 Y65.875 E48.46691
G1 X106.888 Y65.168 E48.48744
G1 X100.832 Y59.112 E48.73609
G1 X101.539 Y59.112 E48.75662
G1 X106.888 Y64.461 E48.97625
G1 X106.888 Y63.754 E48.99678
G1 X102.246 Y59.112 E49.18737
G1 X102.953 Y59.112 E49.20790
G1 X106.888 Y63.047 E49.36945
G1 X106.888 Y62.340 E49.38998
G1 X103.660 Y59.112 E49.52250
G1 X104.367 Y59.112 E49.54303
G1 X106.888 Y61.633 E49.64652
G1 X106.888 Y60.926 E49.66705
G1 X105.074 Y59.112 E49.74150
G1 X105.781 Y59.112 E49.76203
G1 X106.888 Y60.219 E49.80745
G1 X106.888 Y59.511 E49.82798
G1 X106.489 Y59.112 E49.84437
G1 X79.009 Y76.888 F12000.000
G1 X70.299 Y68.178 F1200.000 E50.20198
G1 X70.070 Y68.655 E50.21736
