; generated by Slic3r 0.9.10b on 2013-11-09 at 14:24:06

; layer_height = 0.3
; perimeters = 2
; top_solid_layers = 3
; bottom_solid_layers = 3
; fill_density = 0.3
; perimeter_speed = 30
; infill_speed = 30
; travel_speed = 200
; nozzle_diameter = 0.5
; filament_diameter = 2.98
; extrusion_multiplier = 0.9
; perimeters extrusion width = 0.50mm
; infill extrusion width = 0.50mm
; solid infill extrusion width = 0.50mm
; top infill extrusion width = 0.50mm

G21 ; set units to millimeters
M107
M104 S190 ; set temperature
G28 ; home all axes
G1 Z15 F120 ; lift nozzle
M109 S190 ; wait for temperature to be reached
G90 ; use absolute coordinates
G92 E0
M82 ; use absolute distances for extrusion
G1 F1680.000 E-2.00000
G92 E0
G1 Z0.450 F12000.000
G1 X23.510 Y56.490
G1 F1680.000 E2.00000
G1 X24.730 Y56.120 F900.000 E2.03701
G1 X26.000 Y56.000 E2.07405
G1 X144.000 Y56.000 E5.50003
G1 X145.270 Y56.120 E5.53707
G1 X146.490 Y56.490 E5.57408
G1 X147.610 Y57.100 E5.61111
G1 X148.600 Y57.900 E5.64806
G1 X149.400 Y58.890 E5.68502
G1 X150.010 Y60.010 E5.72205
G1 X150.380 Y61.230 E5.75906
G1 X150.500 Y62.500 E5.79610
G1 X150.500 Y112.500 E7.24778
G1 X150.380 Y113.770 E7.28482
G1 X150.010 Y114.990 E7.32184
G1 X149.400 Y116.110 E7.35886
G1 X148.600 Y117.100 E7.39582
G1 X147.610 Y117.900 E7.43277
G1 X146.490 Y118.510 E7.46980
G1 X145.270 Y118.880 E7.50682
G1 X144.000 Y119.000 E7.54385
G1 X33.000 Y119.000 E10.76660
G1 X31.700 Y118.870 E10.80453
G1 X30.460 Y118.480 E10.84227
G1 X29.320 Y117.860 E10.87994
G1 X28.320 Y117.010 E10.91805
G1 X27.520 Y115.990 E10.95569
G1 X26.930 Y114.830 E10.99347
G1 X26.590 Y113.570 E11.03136
G1 X19.590 Y71.570 E12.26760
G1 X19.500 Y70.500 E12.29877
G1 X19.500 Y62.500 E12.53104
G1 X19.620 Y61.230 E12.56808
G1 X19.990 Y60.010 E12.60510
G1 X20.600 Y58.890 E12.64212
G1 X21.400 Y57.900 E12.67908
G1 X22.390 Y57.100 E12.71603
G1 X23.444 Y56.526 E12.75088
G1 F1680.000 E10.75088
G92 E0
G1 X47.250 Y66.450 F12000.000
G1 F1680.000 E2.00000
G1 X60.504 Y66.450 F900.000 E2.38481
G1 X61.000 Y65.954 E2.40518
G1 X66.303 Y71.257 E2.62293
G1 X61.311 Y76.250 E2.82793
G1 X47.250 Y76.250 E3.23616
G1 X47.250 Y66.525 E3.51851
G1 X47.750 Y66.950 F12000.000
G1 X60.711 Y66.950 F720.000 E3.89482
G1 X61.000 Y66.661 E3.90668
G1 X65.596 Y71.257 E4.09540
G1 X61.104 Y75.750 E4.27987
G1 X47.750 Y75.750 E4.66757
G1 X47.750 Y67.025 E4.92089
G1 X48.183 Y67.200 F12000.000
G1 X77.250 Y66.450
G1 X90.504 Y66.450 F900.000 E5.30570
G1 X91.000 Y65.954 E5.32607
G1 X96.303 Y71.257 E5.54382
G1 X91.311 Y76.250 E5.74882
G1 X77.250 Y76.250 E6.15705
G1 X77.250 Y66.525 E6.43941
G1 X77.750 Y66.950 F12000.000
G1 X90.711 Y66.950 F720.000 E6.81572
G1 X91.000 Y66.661 E6.82758
G1 X95.596 Y71.257 E7.01630
G1 X91.104 Y75.750 E7.20076
G1 X77.750 Y75.750 E7.58847
G1 X77.750 Y67.025 E7.84179
G1 X78.183 Y67.200 F12000.000
G1 F1680.000 E5.84179
G92 E0
G1 X143.250 Y111.750 F12000.000
G1 F1680.000 E2.00000
G1 X33.750 Y111.750 F900.000 E5.17919
G1 X33.750 Y69.750 E6.39861
G1 X26.750 Y69.750 E6.60184
G1 X26.750 Y63.250 E6.79056
G1 X143.250 Y63.250 E10.17299
G1 X143.250 Y111.675 E11.57895
G1 X143.750 Y112.250 F12000.000
G1 X33.250 Y112.250 F720.000 E14.78717
G1 X33.250 Y70.250 E16.00659
G1 X26.250 Y70.250 E16.20983
G1 X26.250 Y62.750 E16.42758
G1 X143.750 Y62.750 E19.83904
G1 X143.750 Y112.175 E21.27403
G1 X143.317 Y112.000 F12000.000
G1 X142.421 Y63.612
G1 X142.888 Y64.079 F1200.000 E21.29319
G1 X142.888 Y64.786 E21.31372
G1 X141.714 Y63.612 E21.36191
G1 X141.007 Y63.612 E21.38244
G1 X142.888 Y65.493 E21.45967
G1 X142.888 Y66.200 E21.48020
G1 X140.300 Y63.612 E21.58646
G1 X139.593 Y63.612 E21.60699
G1 X142.888 Y66.907 E21.74228
G1 X142.888 Y67.614 E21.76281
G1 X138.886 Y63.612 E21.92713
G1 X138.178 Y63.612 E21.94766
G1 X142.888 Y68.322 E22.14102
G1 X142.888 Y69.029 E22.16155
G1 X137.471 Y63.612 E22.38395
G1 X136.764 Y63.612 E22.40448
G1 X142.888 Y69.736 E22.65591
G1 X142.888 Y70.443 E22.67644
G1 X136.057 Y63.612 E22.95690
G1 X135.350 Y63.612 E22.97743
G1 X142.888 Y71.150 E23.28692
G1 X142.888 Y71.857 E23.30745
G1 X134.643 Y63.612 E23.64598
G1 X133.936 Y63.612 E23.66651
G1 X142.888 Y72.564 E24.03407
G1 X142.888 Y73.271 E24.05460
G1 X133.229 Y63.612 E24.45120
G1 X132.522 Y63.612 E24.47173
G1 X142.888 Y73.978 E24.89736
G1 X142.888 Y74.686 E24.91789
G1 X131.814 Y63.612 E25.37255
G1 X131.107 Y63.612 E25.39308
G1 X142.888 Y75.393 E25.87678
G1 X142.888 Y76.100 E25.89731
G1 X130.400 Y63.612 E26.41004
G1 X129.693 Y63.612 E26.43057
G1 X142.888 Y76.807 E26.97233
G1 X142.888 Y77.514 E26.99286
G1 X128.986 Y63.612 E27.56366
G1 X128.279 Y63.612 E27.58419
G1 X142.888 Y78.221 E28.18402
G1 X142.888 Y78.928 E28.20455
G1 X127.572 Y63.612 E28.83342
G1 X126.865 Y63.612 E28.85395
G1 X142.888 Y79.635 E29.51185
G1 X142.888 Y80.342 E29.53238
G1 X126.158 Y63.612 E30.21931
G1 X125.450 Y63.612 E30.23984
G1 X142.888 Y81.050 E30.95581
G1 X142.888 Y81.757 E30.97634
G1 X124.743 Y63.612 E31.72134
G1 X124.036 Y63.612 E31.74187
G1 X142.888 Y82.464 E32.51590
G1 X142.888 Y83.171 E32.53643
G1 X123.329 Y63.612 E33.33950
G1 X122.622 Y63.612 E33.36003
G1 X142.888 Y83.878 E34.19213
G1 X142.888 Y84.585 E34.21266
G1 X121.915 Y63.612 E35.07380
G1 X121.208 Y63.612 E35.09433
G1 X142.888 Y85.292 E35.98450
G1 X142.888 Y85.999 E36.00503
G1 X120.501 Y63.612 E36.92423
G1 X119.794 Y63.612 E36.94476
G1 X142.888 Y86.706 E37.89300
G1 X142.888 Y87.413 E37.91353
G1 X119.087 Y63.612 E38.89080
G1 X118.379 Y63.612 E38.91133
G1 X142.888 Y88.121 E39.91763
G1 X142.888 Y88.828 E39.93816
G1 X117.672 Y63.612 E40.97350
G1 X116.965 Y63.612 E40.99403
G1 X142.888 Y89.535 E42.05840
G1 X142.888 Y90.242 E42.07893
G1 X116.258 Y63.612 E43.17234
G1 X115.551 Y63.612 E43.19287
G1 X142.888 Y90.949 E44.31531
G1 X142.888 Y91.656 E44.33584
G1 X114.844 Y63.612 E45.48731
G1 X114.137 Y63.612 E45.50784
G1 X142.888 Y92.363 E46.68834
G1 X142.888 Y93.070 E46.70887
G1 X113.430 Y63.612 E47.91841
G1 X112.723 Y63.612 E47.93894
G1 X142.888 Y93.777 E49.17752
G1 X142.888 Y94.485 E49.19805
G1 X112.015 Y63.612 E50.46566
G1 X111.308 Y63.612 E50.48619
G1 X142.888 Y95.192 E51.78283
G1 X142.888 Y95.899 E51.80336
G1 X110.601 Y63.612 E53.12903
G1 X109.894 Y63.612 E53.14956
G1 X142.888 Y96.606 E54.50427
G1 X142.888 Y97.313 E54.52480
G1 X109.187 Y63.612 E55.90854
G1 X108.480 Y63.612 E55.92907
G1 X142.888 Y98.020 E57.34185
G1 X142.888 Y98.727 E57.36238
G1 X107.773 Y63.612 E58.80419
G1 X107.066 Y63.612 E58.82472
G1 X142.888 Y99.434 E60.29556
G1 X142.888 Y100.141 E60.31609
G1 X106.359 Y63.612 E61.81597
G1 X105.651 Y63.612 E61.83650
G1 X142.888 Y100.849 E63.36541
G1 X142.888 Y101.556 E63.38594
G1 X104.944 Y63.612 E64.94388
G1 X104.237 Y63.612 E64.96441
G1 X142.888 Y102.263 E66.55139
G1 X142.888 Y102.970 E66.57192
G1 X103.530 Y63.612 E68.18794
G1 X102.823 Y63.612 E68.20846
G1 X142.888 Y103.677 E69.85351
G1 X142.888 Y104.384 E69.87404
G1 X102.116 Y63.612 E71.54812
G1 X101.409 Y63.612 E71.56865
G1 X142.888 Y105.091 E73.27176
G1 X142.888 Y105.798 E73.29229
G1 X100.702 Y63.612 E75.02444
G1 X99.995 Y63.612 E75.04497
G1 X142.888 Y106.505 E76.80615
G1 X142.888 Y107.212 E76.82668
G1 X99.288 Y63.612 E78.61690
G1 X98.580 Y63.612 E78.63743
G1 X142.888 Y107.920 E80.45667
G1 X142.888 Y108.627 E80.47720
G1 X97.873 Y63.612 E82.32549
G1 X97.166 Y63.612 E82.34602
G1 X142.888 Y109.334 E84.22333
G1 X142.888 Y110.041 E84.24386
G1 X96.459 Y63.612 E86.15021
G1 X95.752 Y63.612 F12000.000
G1 X142.888 Y110.748 F1200.000 E88.08559
G1 X142.820 Y111.388 E88.10427
G1 X95.045 Y63.612 E90.06591
G1 X94.338 Y63.612 E90.08644
G1 X142.113 Y111.388 E92.04809
G1 X141.406 Y111.388 E92.06862
G1 X93.631 Y63.612 E94.03026
G1 X92.924 Y63.612 E94.05079
G1 X140.699 Y111.388 E96.01244
G1 X139.992 Y111.388 E96.03297
G1 X92.216 Y63.612 E97.99461
G1 X91.509 Y63.612 E98.01514
G1 X139.285 Y111.388 E99.97679
G1 X138.577 Y111.388 E99.99732
G1 X90.802 Y63.612 E101.95896
G1 X90.095 Y63.612 E101.97949
G1 X137.870 Y111.388 E103.94114
G1 X137.163 Y111.388 E103.96167
G1 X89.388 Y63.612 E105.92331
G1 X88.681 Y63.612 E105.94384
G1 X90.755 Y65.686 E106.02901
G1 X90.401 Y66.040 E106.04352
G1 X87.974 Y63.612 E106.14320
G1 X87.267 Y63.612 E106.16373
G1 X89.742 Y66.088 E106.26536
G1 X89.035 Y66.088 E106.28589
G1 X86.560 Y63.612 E106.38753
G1 X85.852 Y63.612 E106.40806
G1 X88.328 Y66.088 E106.50969
G1 X87.621 Y66.088 E106.53022
G1 X85.145 Y63.612 E106.63185
G1 X84.438 Y63.612 E106.65238
G1 X86.914 Y66.088 E106.75402
G1 X86.206 Y66.088 E106.77455
G1 X83.731 Y63.612 E106.87618
G1 X83.024 Y63.612 E106.89671
G1 X85.499 Y66.088 E106.99834
G1 X84.792 Y66.088 E107.01887
G1 X82.317 Y63.612 E107.12051
G1 X81.610 Y63.612 E107.14104
G1 X84.085 Y66.088 E107.24267
G1 X83.378 Y66.088 E107.26320
G1 X80.903 Y63.612 E107.36483
G1 X80.196 Y63.612 E107.38536
G1 X82.671 Y66.088 E107.48699
G1 X81.964 Y66.088 E107.50752
G1 X79.489 Y63.612 E107.60916
G1 X78.781 Y63.612 E107.62969
G1 X81.257 Y66.088 E107.73132
G1 X80.550 Y66.088 E107.75185
G1 X78.074 Y63.612 E107.85348
G1 X77.367 Y63.612 E107.87401
G1 X79.842 Y66.088 E107.97565
G1 X79.135 Y66.088 E107.99618
G1 X76.660 Y63.612 E108.09781
G1 X75.953 Y63.612 E108.11834
G1 X78.428 Y66.088 E108.21997
G1 X77.721 Y66.088 E108.24050
G1 X75.246 Y63.612 E108.34213
G1 X74.539 Y63.612 E108.36266
G1 X77.014 Y66.088 E108.46430
G1 X76.888 Y66.668 E108.48155
G1 X73.832 Y63.612 E108.60703
G1 X73.125 Y63.612 E108.62756
G1 X76.888 Y67.375 E108.78207
G1 X76.888 Y68.083 E108.80260
G1 X72.417 Y63.612 E108.98614
G1 X71.710 Y63.612 E109.00667
G1 X76.888 Y68.790 E109.21925
G1 X76.888 Y69.497 E109.23978
G1 X71.003 Y63.612 E109.48139
G1 X70.296 Y63.612 E109.50192
G1 X76.888 Y70.204 E109.77257
G1 X76.888 Y70.911 E109.79310
G1 X69.589 Y63.612 E110.09278
G1 X68.882 Y63.612 E110.11331
G1 X76.888 Y71.618 E110.44202
G1 X76.888 Y72.325 E110.46255
G1 X68.175 Y63.612 E110.82029
G1 X67.468 Y63.612 E110.84082
G1 X76.888 Y73.032 E111.22760
G1 X76.888 Y76.568 F12000.000
G1 X63.932 Y63.612 F1200.000 E111.75955
G1 X64.639 Y63.612 E111.78008
G1 X76.888 Y75.861 E112.28300
G1 X76.888 Y75.154 E112.30353
G1 X65.346 Y63.612 E112.77741
G1 X66.054 Y63.612 E112.79794
G1 X76.888 Y74.446 E113.24279
G1 X76.888 Y73.739 E113.26332
G1 X66.761 Y63.612 E113.67913
G1 X63.225 Y63.612 F12000.000
G1 X111.000 Y111.388 F1200.000 E115.64077
G1 X110.293 Y111.388 E115.66130
G1 X62.518 Y63.612 E117.62295
G1 X61.811 Y63.612 E117.64348
G1 X109.586 Y111.388 E119.60512
G1 X108.879 Y111.388 E119.62565
G1 X61.104 Y63.612 E121.58730
G1 X60.397 Y63.612 E121.60783
G1 X108.172 Y111.388 E123.56948
G1 X107.465 Y111.388 E123.59001
G1 X59.690 Y63.612 E125.55165
G1 X58.982 Y63.612 E125.57218
G1 X60.906 Y65.536 E125.65115
G1 X60.552 Y65.889 E125.66567
G1 X58.275 Y63.612 E125.75916
G1 X57.568 Y63.612 E125.77969
G1 X60.043 Y66.088 E125.88132
G1 X59.336 Y66.088 E125.90185
G1 X56.861 Y63.612 E126.00349
G1 X56.154 Y63.612 E126.02402
G1 X58.629 Y66.088 E126.12565
G1 X57.922 Y66.088 E126.14618
G1 X55.447 Y63.612 E126.24781
G1 X54.740 Y63.612 E126.26834
G1 X57.215 Y66.088 E126.36998
G1 X56.508 Y66.088 E126.39051
G1 X54.033 Y63.612 E126.49214
G1 X53.326 Y63.612 E126.51267
G1 X55.801 Y66.088 E126.61430
G1 X55.094 Y66.088 E126.63483
G1 X52.618 Y63.612 E126.73646
G1 X51.911 Y63.612 E126.75699
G1 X54.387 Y66.088 E126.85863
G1 X53.680 Y66.088 E126.87916
G1 X51.204 Y63.612 E126.98079
G1 X50.497 Y63.612 E127.00132
G1 X52.972 Y66.088 E127.10295
G1 X52.265 Y66.088 E127.12348
G1 X49.790 Y63.612 E127.22512
G1 X49.083 Y63.612 E127.24565
G1 X51.558 Y66.088 E127.34728
G1 X50.851 Y66.088 E127.36781
G1 X48.376 Y63.612 E127.46944
G1 X47.669 Y63.612 E127.48997
G1 X50.144 Y66.088 E127.59160
G1 X49.437 Y66.088 E127.61213
G1 X46.962 Y63.612 E127.71377
G1 X46.255 Y63.612 E127.73430
G1 X48.730 Y66.088 E127.83593
G1 X48.023 Y66.088 E127.85646
G1 X45.547 Y63.612 E127.95809
G1 X44.840 Y63.612 E127.97862
G1 X47.316 Y66.088 E128.08026
G1 X46.888 Y66.367 E128.09509
G1 X44.133 Y63.612 E128.20819
G1 X43.426 Y63.612 E128.22872
G1 X46.888 Y67.074 E128.37085
G1 X46.888 Y67.781 E128.39138
G1 X42.719 Y63.612 E128.56254
G1 X42.012 Y63.612 E128.58307
G1 X46.888 Y68.488 E128.78327
G1 X46.888 Y69.195 E128.80380
G1 X41.305 Y63.612 E129.03303
G1 X40.598 Y63.612 E129.05356
G1 X46.888 Y69.902 E129.31182
G1 X46.888 Y70.609 E129.33235
G1 X39.891 Y63.612 E129.61965
G1 X39.183 Y63.612 E129.64018
G1 X46.888 Y71.317 E129.95651
G1 X46.888 Y72.024 E129.97704
G1 X38.476 Y63.612 E130.32241
G1 X37.769 Y63.612 E130.34294
G1 X46.888 Y72.731 E130.71734
G1 X46.888 Y73.438 E130.73787
G1 X37.062 Y63.612 E131.14130
G1 X36.355 Y63.612 E131.16183
G1 X46.888 Y74.145 E131.59430
G1 X46.888 Y74.852 E131.61483
G1 X35.648 Y63.612 E132.07633
G1 X34.941 Y63.612 E132.09686
G1 X46.888 Y75.559 E132.58740
G1 X46.888 Y76.266 F12000.000
G1 X34.234 Y63.612 F1200.000 E133.10696
G1 X33.527 Y63.612 E133.12749
G1 X81.302 Y111.388 E135.08914
G1 X80.595 Y111.388 E135.10967
G1 X32.819 Y63.612 E137.07132
G1 X32.112 Y63.612 E137.09185
G1 X79.888 Y111.388 E139.05349
G1 X79.181 Y111.388 E139.07402
G1 X31.405 Y63.612 E141.03567
G1 X30.698 Y63.612 E141.05620
G1 X78.473 Y111.388 E143.01784
G1 X77.766 Y111.388 E143.03837
G1 X29.991 Y63.612 E145.00002
G1 X29.284 Y63.612 E145.02055
G1 X77.059 Y111.388 E146.98219
G1 X76.352 Y111.388 E147.00272
G1 X28.577 Y63.612 E148.96437
G1 X27.281 Y69.388 F12000.000
G1 X27.112 Y69.219 F1200.000 E148.97129
G1 X27.112 Y68.512 E148.99182
G1 X27.988 Y69.388 E149.02778
G1 X28.695 Y69.388 E149.04831
G1 X27.112 Y67.805 E149.11330
G1 X27.112 Y67.098 E149.13383
G1 X29.402 Y69.388 E149.22786
G1 X30.109 Y69.388 E149.24839
G1 X27.112 Y66.391 E149.37145
G1 X27.112 Y65.683 E149.39197
G1 X30.817 Y69.388 E149.54407
G1 X31.524 Y69.388 E149.56460
G1 X27.112 Y64.976 E149.74572
G1 X27.112 Y64.269 E149.76625
G1 X32.231 Y69.388 E149.97641
G1 X32.938 Y69.388 E149.99694
G1 X27.163 Y63.612 E150.23408
G1 X27.870 Y63.612 E150.25461
G1 X33.645 Y69.388 E150.49174
G1 X34.112 Y69.855 F12000.000
G1 X75.645 Y111.388 F1200.000 E152.19706
G1 X74.938 Y111.388 E152.21759
G1 X34.112 Y70.562 E153.89388
G1 X34.112 Y71.269 E153.91441
G1 X74.231 Y111.388 E155.56166
G1 X73.524 Y111.388 E155.58219
G1 X34.112 Y71.976 E157.20042
G1 X34.112 Y72.683 E157.22095
G1 X72.817 Y111.388 E158.81013
G1 X72.109 Y111.388 E158.83066
G1 X34.112 Y73.391 E160.39082
G1 X34.112 Y74.098 E160.41135
G1 X71.402 Y111.388 E161.94247
G1 X70.695 Y111.388 E161.96300
G1 X34.112 Y74.805 E163.46509
G1 X34.112 Y75.512 E163.48562
G1 X69.988 Y111.388 E164.95867
G1 X69.281 Y111.388 E164.97920
G1 X34.112 Y76.219 E166.42322
G1 X34.112 Y76.926 E166.44375
G1 X68.574 Y111.388 E167.85874
G1 X67.867 Y111.388 E167.87927
G1 X34.112 Y77.633 E169.26522
G1 X34.112 Y78.340 E169.28575
G1 X67.160 Y111.388 E170.64267
G1 X66.453 Y111.388 E170.66320
G1 X34.112 Y79.047 E171.99108
G1 X34.112 Y79.755 E172.01161
G1 X65.745 Y111.388 E173.31046
G1 X65.038 Y111.388 E173.33099
G1 X34.112 Y80.462 E174.60081
G1 X34.112 Y81.169 E174.62134
G1 X64.331 Y111.388 E175.86213
G1 X63.624 Y111.388 E175.88266
G1 X34.112 Y81.876 E177.09441
G1 X34.112 Y82.583 E177.11494
G1 X62.917 Y111.388 E178.29765
G1 X62.210 Y111.388 E178.31818
G1 X34.112 Y83.290 E179.47186
G1 X34.112 Y83.997 E179.49239
G1 X61.503 Y111.388 E180.61704
G1 X60.796 Y111.388 E180.63757
G1 X34.112 Y84.704 E181.73319
G1 X34.112 Y85.411 E181.75372
G1 X60.089 Y111.388 E182.82030
G1 X59.382 Y111.388 E182.84083
G1 X34.112 Y86.118 E183.87838
G1 X34.112 Y86.826 E183.89891
G1 X58.674 Y111.388 E184.90742
G1 X57.967 Y111.388 E184.92795
G1 X34.112 Y87.533 E185.90743
G1 X34.112 Y88.240 E185.92796
G1 X57.260 Y111.388 E186.87841
G1 X56.553 Y111.388 E186.89894
G1 X34.112 Y88.947 E187.82035
G1 X34.112 Y89.654 E187.84088
G1 X55.846 Y111.388 E188.73326
G1 X55.139 Y111.388 E188.75379
G1 X34.112 Y90.361 E189.61714
G1 X34.112 Y91.068 E189.63767
G1 X54.432 Y111.388 E190.47198
G1 X53.725 Y111.388 E190.49251
G1 X34.112 Y91.775 E191.29779
G1 X34.112 Y92.482 E191.31832
G1 X53.018 Y111.388 E192.09456
G1 X52.310 Y111.388 E192.11509
G1 X34.112 Y93.190 E192.86230
G1 X34.112 Y93.897 E192.88283
G1 X51.603 Y111.388 E193.60101
G1 X50.896 Y111.388 E193.62154
G1 X34.112 Y94.604 E194.31068
G1 X34.112 Y95.311 E194.33121
