; generated by Slic3r 1.0.0RC1 on 2013-11-20 at 15:13:28

; layer_height = 0.3
; perimeters = 2
; top_solid_layers = 2
; bottom_solid_layers = 2
; fill_density = 0.2
; perimeter_speed = 30
; infill_speed = 30
; travel_speed = 200
; nozzle_diameter = 0.5
; filament_diameter = 2.98
; extrusion_multiplier = 0.9
; perimeters extrusion width = 0.50mm
; infill extrusion width = 0.70mm
; solid infill extrusion width = 0.70mm
; top infill extrusion width = 0.70mm
; support material extrusion width = 0.50mm

G21 ; set units to millimeters
M107
M104 S190 ; set temperature
G28 ; home all axes
G1 Z15 F120 ; lift nozzle
M109 S190 ; wait for temperature to be reached
G90 ; use absolute coordinates
G92 E0
M82 ; use absolute distances for extrusion
G1 F1680.000 E-2.00000
G92 E0
G1 Z0.450 F12000.000
G1 X28.130 Y49.670 F12000.000
G1 E2.00000 F1680.000
G1 X31.180 Y48.170 E2.09868 F900.000
G1 X32.580 Y47.670 E2.14184
G1 X34.050 Y47.500 E2.18481
G1 X137.890 Y47.500 E5.19967
G1 X139.340 Y47.660 E5.24202
G1 X140.710 Y48.150 E5.28427
G1 X143.820 Y49.650 E5.38452
G1 X145.090 Y50.450 E5.42809
G1 X146.140 Y51.520 E5.47162
G1 X146.910 Y52.800 E5.51499
G1 X147.370 Y54.230 E5.55860
G1 X148.410 Y59.420 E5.71228
G1 X153.910 Y91.920 E6.66930
G1 X154.000 Y93.000 E6.70076
G1 X154.000 Y116.000 E7.36854
G1 X153.880 Y117.270 E7.40557
G1 X153.510 Y118.490 E7.44259
G1 X152.900 Y119.610 E7.47962
G1 X152.100 Y120.600 E7.51657
G1 X151.110 Y121.400 E7.55353
G1 X149.990 Y122.010 E7.59055
G1 X148.770 Y122.380 E7.62757
G1 X147.500 Y122.500 E7.66460
G1 X124.440 Y122.500 E8.33412
G1 X30.620 Y116.990 E11.06276
G1 X29.380 Y116.800 E11.09918
G1 X28.210 Y116.370 E11.13537
G1 X27.140 Y115.730 E11.17157
G1 X26.210 Y114.890 E11.20796
G1 X25.460 Y113.900 E11.24402
G1 X24.910 Y112.770 E11.28050
G1 X24.590 Y111.570 E11.31656
G1 X17.590 Y69.570 E12.55280
G1 X17.500 Y68.500 E12.58397
G1 X17.500 Y60.500 E12.81624
G1 X17.680 Y58.970 E12.86097
G1 X18.220 Y57.530 E12.90562
G1 X19.080 Y56.250 E12.95040
G1 X20.220 Y55.210 E12.99520
G1 X27.220 Y50.210 E13.24496
G1 X28.066 Y49.708 E13.27350
G1 F1680.000 E11.27350
G92 E0
G1 X75.250 Y68.450 F12000.000
G1 E2.00000 F1680.000
G1 X88.504 Y68.450 E2.38481 F900.000
G1 X89.000 Y67.954 E2.40518
G1 X94.303 Y73.257 E2.62293
G1 X89.311 Y78.250 E2.82793
G1 X75.250 Y78.250 E3.23616
G1 X75.250 Y68.525 E3.51852
G1 X75.750 Y68.950 F12000.000
G1 X88.711 Y68.950 E3.89483 F720.000
G1 X89.000 Y68.661 E3.90669
G1 X93.596 Y73.257 E4.09541
G1 X89.104 Y77.750 E4.27987
G1 X75.750 Y77.750 E4.66758
G1 X75.750 Y69.025 E4.92090
G1 X75.750 Y68.450 F12000.000
G1 X64.303 Y73.257 F12000.000
G1 X59.311 Y78.250 E5.12589 F900.000
G1 X45.250 Y78.250 E5.53412
G1 X45.250 Y68.450 E5.81865
G1 X58.504 Y68.450 E6.20347
G1 X59.000 Y67.954 E6.22383
G1 X64.250 Y73.204 E6.43941
G1 X63.596 Y73.257 F12000.000
G1 X59.104 Y77.750 E6.62387 F720.000
G1 X45.750 Y77.750 E7.01158
G1 X45.750 Y68.950 E7.26707
G1 X58.711 Y68.950 E7.64338
G1 X59.000 Y68.661 E7.65524
G1 X63.543 Y73.204 E7.84179
G1 X63.950 Y73.611 F12000.000
G1 F1680.000 E5.84179
G92 E0
G1 X140.250 Y56.250 F12000.000
G1 E2.00000 F1680.000
G1 X140.250 Y61.250 E2.14517 F900.000
G1 X141.250 Y61.250 E2.17420
G1 X141.250 Y109.750 E3.58234
G1 X31.750 Y109.750 E6.76153
G1 X31.750 Y67.750 E7.98095
G1 X24.750 Y67.750 E8.18418
G1 X24.750 Y61.250 E8.37290
G1 X31.750 Y61.250 E8.57614
G1 X31.750 Y56.250 E8.72131
G1 X42.250 Y56.250 E9.02616
G1 X42.250 Y61.250 E9.17133
G1 X129.750 Y61.250 E11.71178
G1 X129.750 Y56.250 E11.85695
G1 X140.175 Y56.250 E12.15962
G1 X140.750 Y55.750 F12000.000
G1 X140.750 Y60.750 E12.30479 F720.000
G1 X141.750 Y60.750 E12.33383
G1 X141.750 Y110.250 E13.77099
G1 X31.250 Y110.250 E16.97922
G1 X31.250 Y68.250 E18.19864
G1 X24.250 Y68.250 E18.40187
G1 X24.250 Y60.750 E18.61962
G1 X31.250 Y60.750 E18.82286
G1 X31.250 Y55.750 E18.96803
G1 X42.750 Y55.750 E19.30192
G1 X42.750 Y60.750 E19.44709
G1 X129.250 Y60.750 E21.95850
G1 X129.250 Y55.750 E22.10367
G1 X140.675 Y55.750 E22.43538
G1 X140.500 Y56.183 F12000.000
G1 X139.886 Y56.680 F12000.000
G1 X139.820 Y56.614 E22.43890 F1200.000
G1 X138.893 Y56.614 E22.47421
G1 X139.886 Y57.607 E22.52765
G1 X139.886 Y58.534 E22.56296
G1 X137.966 Y56.614 E22.66633
G1 X137.038 Y56.614 E22.70163
G1 X139.886 Y59.462 E22.85493
G1 X139.886 Y60.389 E22.89023
G1 X136.111 Y56.614 E23.09345
G1 X135.184 Y56.614 E23.12875
G1 X140.886 Y62.316 E23.43573
G1 X140.886 Y63.243 E23.47104
G1 X134.257 Y56.614 E23.82795
G1 X133.329 Y56.614 E23.86325
G1 X140.886 Y64.171 E24.27008
G1 X140.886 Y65.098 E24.30538
G1 X132.402 Y56.614 E24.76214
G1 X131.475 Y56.614 E24.79744
G1 X140.886 Y66.025 E25.30412
G1 X140.886 Y66.952 E25.33943
G1 X130.548 Y56.614 E25.89603
G1 X130.114 Y57.108 E25.92105
G1 X140.886 Y67.879 E26.50098
G1 X140.886 Y68.807 E26.53629
G1 X130.114 Y58.036 E27.11622
G1 X130.114 Y58.963 E27.15152
G1 X140.886 Y69.734 E27.73146
G1 X140.886 Y70.661 E27.76676
G1 X130.114 Y59.890 E28.34670
G1 X130.114 Y60.817 E28.38200
G1 X140.886 Y71.588 E28.96194
G1 X140.886 Y72.516 E28.99724
G1 X129.984 Y61.614 E29.58418
G1 X129.057 Y61.614 E29.61948
G1 X140.886 Y73.443 E30.25634
G1 X140.886 Y74.370 E30.29165
G1 X128.130 Y61.614 E30.97843
G1 X127.203 Y61.614 E31.01374
G1 X140.886 Y75.297 E31.75045
G1 X140.886 Y76.225 E31.78575
G1 X126.275 Y61.614 E32.57239
G1 X125.348 Y61.614 E32.60769
G1 X140.886 Y77.152 E33.44425
G1 X140.886 Y78.079 E33.47955
G1 X124.421 Y61.614 E34.36603
G1 X123.494 Y61.614 E34.40133
G1 X140.886 Y79.006 E35.33774
G1 X140.886 Y79.933 E35.37304
G1 X122.567 Y61.614 E36.35938
G1 X121.639 Y61.614 E36.39468
G1 X140.886 Y80.861 E37.43094
G1 X140.886 Y81.788 E37.46624
G1 X120.712 Y61.614 E38.55242
G1 X119.785 Y61.614 E38.58772
G1 X140.886 Y82.715 E39.72382
G1 X140.886 Y83.642 E39.75912
G1 X118.858 Y61.614 E40.94515
G1 X117.930 Y61.614 E40.98046
G1 X140.886 Y84.570 E42.21641
G1 X140.886 Y85.497 E42.25171
G1 X117.003 Y61.614 E43.53759
G1 X116.076 Y61.614 E43.57289
G1 X140.886 Y86.424 E44.90869
G1 X140.886 Y87.351 E44.94399
G1 X115.149 Y61.614 E46.32971
G1 X114.221 Y61.614 E46.36502
G1 X140.886 Y88.279 E47.80066
G1 X140.886 Y89.206 E47.83597
G1 X113.294 Y61.614 E49.32154
G1 X112.367 Y61.614 E49.35684
G1 X140.886 Y90.133 E50.89234
G1 X140.886 Y91.060 E50.92764
G1 X111.440 Y61.614 E52.51306
G1 X110.513 Y61.614 E52.54836
G1 X140.886 Y91.987 E54.18370
G1 X140.886 Y92.915 E54.21901
G1 X109.585 Y61.614 E55.90427
G1 X108.658 Y61.614 E55.93958
G1 X140.886 Y93.842 E57.67477
G1 X140.886 Y94.769 E57.71007
G1 X107.731 Y61.614 E59.49519
G1 X106.804 Y61.614 E59.53049
G1 X140.886 Y95.696 E61.36553
G1 X140.886 Y96.624 E61.40083
G1 X105.876 Y61.614 E63.28579
G1 X104.949 Y61.614 E63.32110
G1 X140.886 Y97.551 E65.25599
G1 X140.886 Y98.478 E65.29129
G1 X104.022 Y61.614 E67.27610
G1 X103.095 Y61.614 E67.31140
G1 X140.886 Y99.405 E69.34614
G1 X140.886 Y100.333 E69.38144
G1 X102.167 Y61.614 E71.46610
G1 X101.240 Y61.614 E71.50140
G1 X140.886 Y101.260 E73.63599
G1 X140.886 Y102.187 E73.67129
G1 X100.313 Y61.614 E75.85580
G1 X99.386 Y61.614 E75.89110
G1 X140.886 Y103.114 E78.12553
G1 X140.886 Y104.042 E78.16083
G1 X98.458 Y61.614 E80.44519
G1 X97.531 Y61.614 E80.48049
G1 X140.886 Y104.969 E82.81477
G1 X140.886 Y105.896 E82.85007
G1 X96.604 Y61.614 E85.23428
G1 X95.677 Y61.614 E85.26958
G1 X140.886 Y106.823 E87.70371
G1 X140.886 Y107.750 E87.73901
G1 X94.750 Y61.614 E90.22306
G1 X93.822 Y61.614 E90.25836
G1 X140.886 Y108.678 E92.79234
G1 X140.666 Y109.386 E92.82055
G1 X92.895 Y61.614 E95.39264
G1 X91.968 Y61.614 E95.42795
G1 X139.739 Y109.386 E98.00004
G1 X138.812 Y109.386 E98.03534
G1 X91.041 Y61.614 E100.60743
G1 X90.113 Y61.614 E100.64273
G1 X137.884 Y109.386 E103.21482
G1 X136.957 Y109.386 E103.25012
G1 X89.186 Y61.614 E105.82221
G1 X88.259 Y61.614 E105.85751
G1 X136.030 Y109.386 E108.42960
G1 X135.103 Y109.386 E108.46490
G1 X87.332 Y61.614 E111.03699
G1 X86.404 Y61.614 E111.07229
G1 X134.176 Y109.386 E113.64438
G1 X133.248 Y109.386 E113.67969
G1 X85.477 Y61.614 E116.25178
G1 X84.550 Y61.614 E116.28708
G1 X132.321 Y109.386 E118.85917
G1 X131.394 Y109.386 E118.89447
G1 X83.623 Y61.614 E121.46656
G1 X88.760 Y67.679 F12000.000
G1 X82.696 Y61.614 E121.79307 F1200.000
G1 X81.768 Y61.614 E121.82837
G1 X88.239 Y68.086 E122.17679
G1 X87.312 Y68.086 E122.21209
G1 X80.841 Y61.614 E122.56051
G1 X79.914 Y61.614 E122.59581
G1 X86.385 Y68.086 E122.94422
G1 X85.458 Y68.086 E122.97952
G1 X78.987 Y61.614 E123.32794
G1 X78.059 Y61.614 E123.36324
G1 X84.530 Y68.086 E123.71166
G1 X83.603 Y68.086 E123.74696
G1 X77.132 Y61.614 E124.09538
G1 X76.205 Y61.614 E124.13068
G1 X82.676 Y68.086 E124.47909
G1 X81.749 Y68.086 E124.51439
G1 X75.278 Y61.614 E124.86281
G1 X74.350 Y61.614 E124.89811
G1 X80.822 Y68.086 E125.24653
G1 X79.894 Y68.086 E125.28183
G1 X73.423 Y61.614 E125.63025
G1 X72.496 Y61.614 E125.66555
G1 X78.967 Y68.086 E126.01396
G1 X78.040 Y68.086 E126.04926
G1 X71.569 Y61.614 E126.39768
G1 X70.642 Y61.614 E126.43298
G1 X77.113 Y68.086 E126.78140
G1 X76.185 Y68.086 E126.81670
G1 X69.714 Y61.614 E127.16512
G1 X68.787 Y61.614 E127.20042
G1 X75.258 Y68.086 E127.54883
G1 X74.886 Y68.640 E127.57427
G1 X67.860 Y61.614 E127.95255
G1 X66.933 Y61.614 E127.98785
G1 X74.886 Y69.567 E128.41605
G1 X74.886 Y70.495 E128.45135
G1 X66.005 Y61.614 E128.92948
G1 X65.078 Y61.614 E128.96478
G1 X74.886 Y71.422 E129.49283
G1 X74.886 Y72.349 E129.52813
G1 X64.151 Y61.614 E130.10611
G1 X63.224 Y61.614 E130.14141
G1 X74.886 Y73.276 E130.76931
G1 X74.886 Y74.204 E130.80461
G1 X62.296 Y61.614 E131.48243
G1 X61.369 Y61.614 E131.51773
G1 X74.886 Y75.131 E132.24548
G1 X74.886 Y76.058 E132.28078
G1 X60.442 Y61.614 E133.05845
G1 X59.515 Y61.614 E133.09375
G1 X74.886 Y76.985 E133.92135
G1 X74.886 Y77.912 E133.95665
G1 X58.588 Y61.614 E134.83417
G1 X58.924 Y67.514 F12000.000
G1 X53.024 Y61.614 E135.15184 F1200.000
G1 X53.951 Y61.614 E135.18714
G1 X101.722 Y109.386 E137.75923
G1 X102.650 Y109.386 E137.79453
G1 X54.879 Y61.614 E140.36662
G1 X55.806 Y61.614 E140.40192
G1 X103.577 Y109.386 E142.97401
G1 X104.504 Y109.386 E143.00931
G1 X56.733 Y61.614 E145.58140
G1 X57.660 Y61.614 E145.61670
G1 X105.431 Y109.386 E148.18879
G1 X106.359 Y109.386 E148.22409
G1 X75.588 Y78.614 E149.88087
G1 X76.515 Y78.614 E149.91617
G1 X107.286 Y109.386 E151.57295
G1 X108.213 Y109.386 E151.60825
G1 X77.442 Y78.614 E153.26503
G1 X78.369 Y78.614 E153.30033
G1 X109.140 Y109.386 E154.95710
G1 X110.068 Y109.386 E154.99241
G1 X79.296 Y78.614 E156.64918
G1 X80.224 Y78.614 E156.68448
G1 X110.995 Y109.386 E158.34126
G1 X111.922 Y109.386 E158.37656
G1 X81.151 Y78.614 E160.03334
G1 X82.078 Y78.614 E160.06864
G1 X112.849 Y109.386 E161.72541
G1 X113.776 Y109.386 E161.76072
G1 X83.005 Y78.614 E163.41749
G1 X83.933 Y78.614 E163.45279
G1 X114.704 Y109.386 E165.10957
G1 X115.631 Y109.386 E165.14487
G1 X84.860 Y78.614 E166.80165
G1 X85.787 Y78.614 E166.83695
G1 X116.558 Y109.386 E168.49372
G1 X117.485 Y109.386 E168.52903
G1 X86.714 Y78.614 E170.18580
G1 X87.642 Y78.614 E170.22110
G1 X118.413 Y109.386 E171.87788
G1 X119.340 Y109.386 E171.91318
G1 X88.569 Y78.614 E173.56996
G1 X89.479 Y78.597 E173.60461
G1 X120.267 Y109.386 E175.26231
G1 X121.194 Y109.386 E175.29761
G1 X89.942 Y78.134 E176.98028
G1 X90.406 Y77.670 E177.00524
G1 X122.122 Y109.386 E178.71286
G1 X123.049 Y109.386 E178.74817
G1 X90.870 Y77.206 E180.48075
G1 X91.333 Y76.743 E180.50571
G1 X123.976 Y109.386 E182.26326
G1 X124.903 Y109.386 E182.29856
G1 X91.797 Y76.279 E184.08108
G1 X92.261 Y75.816 E184.10604
G1 X125.830 Y109.386 E185.91351
G1 X126.758 Y109.386 E185.94881
G1 X92.724 Y75.352 E187.78125
G1 X93.188 Y74.888 E187.80621
G1 X127.685 Y109.386 E189.66360
G1 X128.612 Y109.386 E189.69891
G1 X93.651 Y74.425 E191.58126
G1 X94.115 Y73.961 E191.60623
G1 X129.539 Y109.386 E193.51355
G1 X130.467 Y109.386 E193.54885
G1 X94.579 Y73.498 E195.48113
G1 F1680.000 E193.48113
G92 E0
G1 X64.743 Y73.333 F12000.000
G1 E2.00000 F1680.000
G1 X100.795 Y109.386 E3.94113 F1200.000
G1 X99.868 Y109.386 E3.97643
G1 X64.279 Y73.797 E5.89260
G1 X63.816 Y74.260 E5.91756
G1 X98.941 Y109.386 E7.80876
G1 X98.013 Y109.386 E7.84407
G1 X63.352 Y74.724 E9.71031
G1 X62.888 Y75.188 E9.73527
G1 X97.086 Y109.386 E11.57655
G1 X96.159 Y109.386 E11.61185
G1 X62.425 Y75.651 E13.42817
G1 X61.961 Y76.115 E13.45313
G1 X95.232 Y109.386 E15.24449
G1 X94.305 Y109.386 E15.27979
G1 X61.498 Y76.579 E17.04619
G1 X61.034 Y77.042 E17.07115
G1 X93.377 Y109.386 E18.81258
G1 X92.450 Y109.386 E18.84788
G1 X60.570 Y77.506 E20.56435
G1 X60.107 Y77.969 E20.58932
G1 X91.523 Y109.386 E22.28083
G1 X90.596 Y109.386 E22.31613
G1 X59.643 Y78.433 E23.98267
G1 X58.897 Y78.614 E24.01190
G1 X89.668 Y109.386 E25.66867
G1 X88.741 Y109.386 E25.70397
G1 X57.970 Y78.614 E27.36075
G1 X57.043 Y78.614 E27.39605
G1 X87.814 Y109.386 E29.05283
G1 X86.887 Y109.386 E29.08813
G1 X56.116 Y78.614 E30.74490
G1 X55.188 Y78.614 E30.78021
G1 X85.959 Y109.386 E32.43698
G1 X85.032 Y109.386 E32.47228
G1 X54.261 Y78.614 E34.12906
G1 X53.334 Y78.614 E34.16436
G1 X84.105 Y109.386 E35.82114
G1 X83.178 Y109.386 E35.85644
G1 X52.407 Y78.614 E37.51321
G1 X51.479 Y78.614 E37.54852
G1 X82.251 Y109.386 E39.20529
G1 X81.323 Y109.386 E39.24059
G1 X50.552 Y78.614 E40.89737
G1 X49.625 Y78.614 E40.93267
G1 X80.396 Y109.386 E42.58945
G1 X79.469 Y109.386 E42.62475
G1 X48.698 Y78.614 E44.28152
G1 X47.771 Y78.614 E44.31683
G1 X78.542 Y109.386 E45.97360
G1 X77.614 Y109.386 E46.00890
G1 X46.843 Y78.614 E47.66568
G1 X45.916 Y78.614 E47.70098
G1 X76.687 Y109.386 E49.35776
G1 X75.760 Y109.386 E49.39306
G1 X27.989 Y61.614 E51.96515
G1 X27.062 Y61.614 E52.00045
G1 X74.833 Y109.386 E54.57254
G1 X73.905 Y109.386 E54.60784
G1 X32.114 Y67.595 E56.85795
G1 X32.114 Y68.522 E56.89325
G1 X72.978 Y109.386 E59.09344
G1 X72.051 Y109.386 E59.12874
G1 X32.114 Y69.449 E61.27900
G1 X32.114 Y70.376 E61.31431
G1 X71.124 Y109.386 E63.41464
G1 X70.197 Y109.386 E63.44995
G1 X32.114 Y71.303 E65.50036
G1 X32.114 Y72.231 E65.53566
G1 X69.269 Y109.386 E67.53615
G1 X68.342 Y109.386 E67.57145
G1 X32.114 Y73.158 E69.52202
G1 X32.114 Y74.085 E69.55732
G1 X67.415 Y109.386 E71.45797
G1 X66.488 Y109.386 E71.49327
G1 X32.114 Y75.012 E73.34399
G1 X32.114 Y75.940 E73.37929
G1 X65.560 Y109.386 E75.18008
G1 X64.633 Y109.386 E75.21538
G1 X32.114 Y76.867 E76.96625
G1 X32.114 Y77.794 E77.00156
G1 X63.706 Y109.386 E78.70250
G1 X62.779 Y109.386 E78.73780
G1 X32.114 Y78.721 E80.38883
G1 X32.114 Y79.649 E80.42413
G1 X61.851 Y109.386 E82.02523
G1 X60.924 Y109.386 E82.06053
G1 X32.114 Y80.576 E83.61170
G1 X32.114 Y81.503 E83.64700
G1 X59.997 Y109.386 E85.14826
G1 X59.070 Y109.386 E85.18356
G1 X32.114 Y82.430 E86.63488
G1 X32.114 Y83.357 E86.67019
G1 X58.143 Y109.386 E88.07159
G1 X57.215 Y109.386 E88.10689
G1 X32.114 Y84.285 E89.45837
G1 X32.114 Y85.212 E89.49367
G1 X56.288 Y109.386 E90.79522
G1 X55.361 Y109.386 E90.83053
G1 X32.114 Y86.139 E92.08216
G1 X32.114 Y87.066 E92.11746
G1 X54.434 Y109.386 E93.31916
G1 X53.506 Y109.386 E93.35447
G1 X32.114 Y87.994 E94.50625
G1 X32.114 Y88.921 E94.54155
G1 X52.579 Y109.386 E95.64341
G1 X51.652 Y109.386 E95.67871
G1 X32.114 Y89.848 E96.73064
G1 X32.114 Y90.775 E96.76595
G1 X50.725 Y109.386 E97.76796
G1 X49.797 Y109.386 E97.80326
G1 X32.114 Y91.703 E98.75534
G1 X32.114 Y92.630 E98.79065
G1 X48.870 Y109.386 E99.69281
G1 X47.943 Y109.386 E99.72811
G1 X32.114 Y93.557 E100.58035
G1 X32.114 Y94.484 E100.61565
G1 X47.016 Y109.386 E101.41796
G1 X46.089 Y109.386 E101.45327
G1 X32.114 Y95.411 E102.20566
G1 X32.114 Y96.339 E102.24096
G1 X45.161 Y109.386 E102.94342
G1 X44.234 Y109.386 E102.97873
G1 X32.114 Y97.266 E103.63127
G1 X32.114 Y98.193 E103.66657
G1 X43.307 Y109.386 E104.26919
G1 X42.380 Y109.386 E104.30449
G1 X32.114 Y99.120 E104.85718
G1 X32.114 Y100.048 E104.89249
G1 X41.452 Y109.386 E105.39526
G1 X40.525 Y109.386 E105.43056
G1 X32.114 Y100.975 E105.88340
G1 X32.114 Y101.902 E105.91871
G1 X39.598 Y109.386 E106.32163
G1 X38.671 Y109.386 E106.35693
G1 X32.114 Y102.829 E106.70993
G1 X32.114 Y103.757 E106.74523
G1 X37.743 Y109.386 E107.04830
G1 X36.816 Y109.386 E107.08361
G1 X32.114 Y104.684 E107.33676
G1 X32.114 Y105.611 E107.37206
G1 X35.889 Y109.386 E107.57528
