; generated by Slic3r 1.0.0RC1 on 2013-11-19 at 23:48:49

; layer_height = 0.3
; perimeters = 2
; top_solid_layers = 3
; bottom_solid_layers = 3
; fill_density = 0.3
; perimeter_speed = 30
; infill_speed = 30
; travel_speed = 200
; nozzle_diameter = 0.5
; filament_diameter = 2.98
; extrusion_multiplier = 0.9
; perimeters extrusion width = 0.50mm
; infill extrusion width = 0.50mm
; solid infill extrusion width = 0.50mm
; top infill extrusion width = 0.50mm

G21 ; set units to millimeters
M107
M104 S190 ; set temperature
G28 ; home all axes
G1 Z15 F120 ; lift nozzle
M109 S190 ; wait for temperature to be reached
G90 ; use absolute coordinates
G92 E0
M82 ; use absolute distances for extrusion
G1 F1680.000 E-2.00000
G92 E0
G1 Z0.450 F12000.000
G1 X23.510 Y56.490 F12000.000
G1 E2.00000 F1680.000
G1 X24.730 Y56.120 E2.03701 F900.000
G1 X26.000 Y56.000 E2.07405
G1 X144.000 Y56.000 E5.50003
G1 X145.270 Y56.120 E5.53707
G1 X146.490 Y56.490 E5.57408
G1 X147.610 Y57.100 E5.61111
G1 X148.600 Y57.900 E5.64806
G1 X149.400 Y58.890 E5.68502
G1 X150.010 Y60.010 E5.72205
G1 X150.380 Y61.230 E5.75906
G1 X150.500 Y62.500 E5.79610
G1 X150.500 Y112.500 E7.24778
G1 X150.380 Y113.770 E7.28482
G1 X150.010 Y114.990 E7.32184
G1 X149.400 Y116.110 E7.35886
G1 X148.600 Y117.100 E7.39582
G1 X147.610 Y117.900 E7.43277
G1 X146.490 Y118.510 E7.46980
G1 X145.270 Y118.880 E7.50682
G1 X144.000 Y119.000 E7.54385
G1 X33.000 Y119.000 E10.76660
G1 X31.700 Y118.870 E10.80453
G1 X30.460 Y118.480 E10.84227
G1 X29.320 Y117.860 E10.87994
G1 X28.320 Y117.010 E10.91805
G1 X27.520 Y115.990 E10.95569
G1 X26.930 Y114.830 E10.99347
G1 X26.590 Y113.570 E11.03136
G1 X19.590 Y71.570 E12.26760
G1 X19.500 Y70.500 E12.29877
G1 X19.500 Y62.500 E12.53104
G1 X19.620 Y61.230 E12.56808
G1 X19.990 Y60.010 E12.60510
G1 X20.600 Y58.890 E12.64212
G1 X21.400 Y57.900 E12.67908
G1 X22.390 Y57.100 E12.71603
G1 X23.444 Y56.526 E12.75088
G1 F1680.000 E10.75088
G92 E0
G1 X77.250 Y66.450 F12000.000
G1 E2.00000 F1680.000
G1 X90.504 Y66.450 E2.38481 F900.000
G1 X91.000 Y65.954 E2.40518
G1 X96.303 Y71.257 E2.62293
G1 X91.311 Y76.250 E2.82793
G1 X77.250 Y76.250 E3.23616
G1 X77.250 Y66.525 E3.51852
G1 X77.750 Y66.950 F12000.000
G1 X90.711 Y66.950 E3.89483 F720.000
G1 X91.000 Y66.661 E3.90669
G1 X95.596 Y71.257 E4.09541
G1 X91.104 Y75.750 E4.27987
G1 X77.750 Y75.750 E4.66758
G1 X77.750 Y67.025 E4.92090
G1 X77.750 Y66.450 F12000.000
G1 X66.303 Y71.257 F12000.000
G1 X61.311 Y76.250 E5.12589 F900.000
G1 X47.250 Y76.250 E5.53412
G1 X47.250 Y66.450 E5.81865
G1 X60.504 Y66.450 E6.20347
G1 X61.000 Y65.954 E6.22383
G1 X66.250 Y71.204 E6.43941
G1 X65.596 Y71.257 F12000.000
G1 X61.104 Y75.750 E6.62387 F720.000
G1 X47.750 Y75.750 E7.01158
G1 X47.750 Y66.950 E7.26707
G1 X60.711 Y66.950 E7.64338
G1 X61.000 Y66.661 E7.65524
G1 X65.543 Y71.204 E7.84179
G1 X65.950 Y71.611 F12000.000
G1 F1680.000 E5.84179
G92 E0
G1 X143.250 Y63.250 F12000.000
G1 E2.00000 F1680.000
G1 X143.250 Y111.750 E3.40814 F900.000
G1 X33.750 Y111.750 E6.58733
G1 X33.750 Y69.750 E7.80674
G1 X26.750 Y69.750 E8.00998
G1 X26.750 Y63.250 E8.19870
G1 X143.175 Y63.250 E11.57895
G1 X143.750 Y62.750 F12000.000
G1 X143.750 Y112.250 E13.01612 F720.000
G1 X33.250 Y112.250 E16.22434
G1 X33.250 Y70.250 E17.44376
G1 X26.250 Y70.250 E17.64700
G1 X26.250 Y62.750 E17.86475
G1 X143.675 Y62.750 E21.27403
G1 X143.500 Y63.183 F12000.000
G1 X142.862 Y63.587 F12000.000
G1 X142.913 Y63.638 E21.27609 F1200.000
G1 X142.913 Y64.346 E21.29670
G1 X142.154 Y63.587 E21.32789
G1 X141.446 Y63.587 E21.34850
G1 X142.913 Y65.054 E21.40883
G1 X142.913 Y65.763 E21.42944
G1 X140.737 Y63.587 E21.51891
G1 X140.029 Y63.587 E21.53951
G1 X142.913 Y66.471 E21.65812
G1 X142.913 Y67.179 E21.67873
G1 X139.321 Y63.587 E21.82648
G1 X138.612 Y63.587 E21.84708
G1 X142.913 Y67.888 E22.02397
G1 X142.913 Y68.596 E22.04457
G1 X137.904 Y63.587 E22.25059
G1 X137.196 Y63.587 E22.27120
G1 X142.913 Y69.304 E22.50636
G1 X142.913 Y70.013 E22.52696
G1 X136.487 Y63.587 E22.79126
G1 X135.779 Y63.587 E22.81186
G1 X142.913 Y70.721 E23.10530
G1 X142.913 Y71.430 E23.12590
G1 X135.070 Y63.587 E23.44848
G1 X134.362 Y63.587 E23.46908
G1 X142.913 Y72.138 E23.82079
G1 X142.913 Y72.846 E23.84140
G1 X133.654 Y63.587 E24.22225
G1 X132.945 Y63.587 E24.24285
G1 X142.913 Y73.555 E24.65284
G1 X142.913 Y74.263 E24.67344
G1 X132.237 Y63.587 E25.11257
G1 X131.529 Y63.587 E25.13317
G1 X142.913 Y74.971 E25.60143
G1 X142.913 Y75.680 E25.62204
G1 X130.820 Y63.587 E26.11944
G1 X130.112 Y63.587 E26.14004
G1 X142.913 Y76.388 E26.66658
G1 X142.913 Y77.097 E26.68718
G1 X129.403 Y63.587 E27.24286
G1 X128.695 Y63.587 E27.26346
G1 X142.913 Y77.805 E27.84828
G1 X142.913 Y78.513 E27.86888
G1 X127.987 Y63.587 E28.48283
G1 X127.278 Y63.587 E28.50343
G1 X142.913 Y79.222 E29.14652
G1 X142.913 Y79.930 E29.16713
G1 X126.570 Y63.587 E29.83935
G1 X125.862 Y63.587 E29.85996
G1 X142.913 Y80.638 E30.56132
G1 X142.913 Y81.347 E30.58192
G1 X125.153 Y63.587 E31.31243
G1 X124.445 Y63.587 E31.33303
G1 X142.913 Y82.055 E32.09267
G1 X142.913 Y82.764 E32.11327
G1 X123.736 Y63.587 E32.90205
G1 X123.028 Y63.587 E32.92265
G1 X142.913 Y83.472 E33.74057
G1 X142.913 Y84.180 E33.76117
G1 X122.320 Y63.587 E34.60822
G1 X121.611 Y63.587 E34.62883
G1 X142.913 Y84.889 E35.50502
G1 X142.913 Y85.597 E35.52562
G1 X120.903 Y63.587 E36.43095
G1 X120.195 Y63.587 E36.45155
G1 X142.913 Y86.305 E37.38602
G1 X142.913 Y87.014 E37.40662
G1 X119.486 Y63.587 E38.37022
G1 X118.778 Y63.587 E38.39083
G1 X142.913 Y87.722 E39.38357
G1 X142.913 Y88.431 E39.40417
G1 X118.069 Y63.587 E40.42605
G1 X117.361 Y63.587 E40.44665
G1 X142.913 Y89.139 E41.49767
G1 X142.913 Y89.847 E41.51827
G1 X116.653 Y63.587 E42.59842
G1 X115.944 Y63.587 E42.61903
G1 X142.913 Y90.556 E43.72832
G1 X142.913 Y91.264 E43.74892
G1 X115.236 Y63.587 E44.88735
G1 X114.528 Y63.587 E44.90796
G1 X142.913 Y91.972 E46.07552
G1 X142.913 Y92.681 E46.09613
G1 X113.819 Y63.587 E47.29283
G1 X113.111 Y63.587 E47.31343
G1 X142.913 Y93.389 E48.53928
G1 X142.913 Y94.097 E48.55988
G1 X112.403 Y63.587 E49.81486
G1 X111.694 Y63.587 E49.83546
G1 X142.913 Y94.806 E51.11958
G1 X142.913 Y95.514 E51.14018
G1 X110.986 Y63.587 E52.45344
G1 X110.277 Y63.587 E52.47404
G1 X142.913 Y96.223 E53.81643
G1 X142.913 Y96.931 E53.83704
G1 X109.569 Y63.587 E55.20857
G1 X108.861 Y63.587 E55.22917
G1 X142.913 Y97.639 E56.62984
G1 X142.913 Y98.348 E56.65044
G1 X108.152 Y63.587 E58.08025
G1 X107.444 Y63.587 E58.10085
G1 X142.913 Y99.056 E59.55979
G1 X142.913 Y99.764 E59.58040
G1 X106.736 Y63.587 E61.06848
G1 X106.027 Y63.587 E61.08908
G1 X142.913 Y100.473 E62.60630
G1 X142.913 Y101.181 E62.62690
G1 X105.319 Y63.587 E64.17326
G1 X104.610 Y63.587 E64.19386
G1 X142.913 Y101.890 E65.76936
G1 X142.913 Y102.598 E65.78996
G1 X103.902 Y63.587 E67.39459
G1 X103.194 Y63.587 E67.41520
G1 X142.913 Y103.306 E69.04897
G1 X142.913 Y104.015 E69.06957
G1 X102.485 Y63.587 E70.73248
G1 X101.777 Y63.587 E70.75308
G1 X142.913 Y104.723 E72.44512
G1 X142.913 Y105.431 E72.46573
G1 X101.069 Y63.587 E74.18691
G1 X100.360 Y63.587 E74.20751
G1 X142.913 Y106.140 E75.95783
G1 X142.913 Y106.848 E75.97844
G1 X99.652 Y63.587 E77.75789
G1 X98.943 Y63.587 E77.77850
G1 X142.913 Y107.557 E79.58709
G1 X142.913 Y108.265 E79.60770
G1 X98.235 Y63.587 E81.44543
G1 X97.527 Y63.587 E81.46603
G1 X142.913 Y108.973 E83.33290
G1 X142.913 Y109.682 E83.35351
G1 X96.818 Y63.587 E85.24951
G1 X96.110 Y63.587 E85.27012
G1 X142.913 Y110.390 E87.19526
G1 X142.913 Y111.098 E87.21587
G1 X95.402 Y63.587 E89.17015
G1 X94.693 Y63.587 E89.19075
G1 X142.518 Y111.413 E91.15796
G1 X141.810 Y111.413 E91.17856
G1 X93.985 Y63.587 E93.14577
G1 X93.276 Y63.587 E93.16637
G1 X141.102 Y111.413 E95.13358
G1 X140.393 Y111.413 E95.15418
G1 X92.568 Y63.587 E97.12139
G1 X91.860 Y63.587 E97.14199
G1 X139.685 Y111.413 E99.10920
G1 X138.976 Y111.413 E99.12980
G1 X91.151 Y63.587 E101.09700
G1 X90.958 Y65.519 F12000.000
G1 X89.026 Y63.587 E101.17645 F1200.000
G1 X88.318 Y63.587 E101.19706
G1 X90.604 Y65.873 E101.29108
G1 X90.135 Y66.113 E101.30639
G1 X87.610 Y63.587 E101.41026
G1 X86.901 Y63.587 E101.43086
G1 X89.426 Y66.113 E101.53473
G1 X88.718 Y66.113 E101.55533
G1 X86.193 Y63.587 E101.65920
G1 X85.484 Y63.587 E101.67980
G1 X88.010 Y66.113 E101.78367
G1 X87.301 Y66.113 E101.80427
G1 X84.776 Y63.587 E101.90814
G1 X84.068 Y63.587 E101.92874
G1 X86.593 Y66.113 E102.03261
G1 X85.884 Y66.113 E102.05321
G1 X83.359 Y63.587 E102.15708
G1 X82.651 Y63.587 E102.17769
G1 X85.176 Y66.113 E102.28155
G1 X84.468 Y66.113 E102.30216
G1 X81.943 Y63.587 E102.40602
G1 X81.234 Y63.587 E102.42663
G1 X83.759 Y66.113 E102.53049
G1 X83.051 Y66.113 E102.55110
G1 X80.526 Y63.587 E102.65496
G1 X79.817 Y63.587 E102.67557
G1 X82.343 Y66.113 E102.77943
G1 X81.634 Y66.113 E102.80004
G1 X79.109 Y63.587 E102.90390
G1 X78.401 Y63.587 E102.92451
G1 X80.926 Y66.113 E103.02837
G1 X80.217 Y66.113 E103.04898
G1 X77.692 Y63.587 E103.15284
G1 X76.984 Y63.587 E103.17345
G1 X79.509 Y66.113 E103.27731
G1 X78.801 Y66.113 E103.29792
G1 X76.276 Y63.587 E103.40179
G1 X75.567 Y63.587 E103.42239
G1 X78.092 Y66.113 E103.52626
G1 X77.384 Y66.113 E103.54686
G1 X74.859 Y63.587 E103.65073
G1 X74.150 Y63.587 E103.67133
G1 X76.913 Y66.350 E103.78494
G1 X76.913 Y67.058 E103.80555
G1 X73.442 Y63.587 E103.94830
G1 X72.734 Y63.587 E103.96890
G1 X76.913 Y67.766 E104.14079
G1 X76.913 Y68.475 E104.16140
G1 X72.025 Y63.587 E104.36243
G1 X71.317 Y63.587 E104.38303
G1 X76.913 Y69.183 E104.61319
G1 X76.913 Y69.891 E104.63380
G1 X70.609 Y63.587 E104.89310
G1 X69.900 Y63.587 E104.91370
G1 X76.913 Y70.600 E105.20214
G1 X76.913 Y71.308 E105.22275
G1 X69.192 Y63.587 E105.54033
G1 X68.483 Y63.587 E105.56093
G1 X76.913 Y72.017 E105.90765
G1 X76.913 Y72.725 E105.92825
G1 X67.775 Y63.587 E106.30410
G1 X67.067 Y63.587 E106.32471
G1 X76.913 Y73.433 E106.72970
G1 X76.913 Y74.142 E106.75030
G1 X66.358 Y63.587 E107.18443
G1 X60.728 Y65.749 F12000.000
G1 X58.566 Y63.587 E107.27334 F1200.000
G1 X57.858 Y63.587 E107.29395
G1 X60.374 Y66.103 E107.39743
G1 X59.675 Y66.113 E107.41776
G1 X57.150 Y63.587 E107.52163
G1 X56.441 Y63.587 E107.54223
G1 X58.966 Y66.113 E107.64610
G1 X58.258 Y66.113 E107.66670
G1 X55.733 Y63.587 E107.77057
G1 X55.024 Y63.587 E107.79117
G1 X57.550 Y66.113 E107.89504
G1 X56.841 Y66.113 E107.91564
G1 X54.316 Y63.587 E108.01951
G1 X53.608 Y63.587 E108.04011
G1 X56.133 Y66.113 E108.14398
G1 X55.424 Y66.113 E108.16458
G1 X52.899 Y63.587 E108.26845
G1 X52.191 Y63.587 E108.28905
G1 X54.716 Y66.113 E108.39292
G1 X54.008 Y66.113 E108.41352
G1 X51.483 Y63.587 E108.51739
G1 X50.774 Y63.587 E108.53799
G1 X53.299 Y66.113 E108.64186
G1 X52.591 Y66.113 E108.66246
G1 X50.066 Y63.587 E108.76633
G1 X49.357 Y63.587 E108.78693
G1 X51.883 Y66.113 E108.89080
G1 X51.174 Y66.113 E108.91140
G1 X48.649 Y63.587 E109.01527
G1 X47.941 Y63.587 E109.03587
G1 X50.466 Y66.113 E109.13974
G1 X49.757 Y66.113 E109.16034
G1 X47.232 Y63.587 E109.26421
G1 X46.524 Y63.587 E109.28482
G1 X49.049 Y66.113 E109.38868
G1 X48.341 Y66.113 E109.40929
G1 X45.816 Y63.587 E109.51315
G1 X45.107 Y63.587 E109.53376
G1 X47.632 Y66.113 E109.63762
G1 X46.924 Y66.113 E109.65823
G1 X44.399 Y63.587 E109.76209
G1 X43.690 Y63.587 E109.78270
G1 X46.913 Y66.810 E109.91523
G1 X46.913 Y67.518 E109.93584
G1 X42.982 Y63.587 E110.09751
G1 X42.274 Y63.587 E110.11811
G1 X46.913 Y68.226 E110.30892
G1 X46.913 Y68.935 E110.32952
G1 X41.565 Y63.587 E110.54947
G1 X40.857 Y63.587 E110.57008
G1 X46.913 Y69.643 E110.81916
G1 X46.913 Y70.351 E110.83977
G1 X40.149 Y63.587 E111.11799
G1 X39.440 Y63.587 E111.13859
G1 X46.913 Y71.060 E111.44595
G1 X46.913 Y71.768 E111.46656
G1 X38.732 Y63.587 E111.80305
G1 X38.024 Y63.587 E111.82366
G1 X46.913 Y72.476 E112.18929
G1 X46.913 Y73.185 E112.20990
G1 X37.315 Y63.587 E112.60467
G1 X36.607 Y63.587 E112.62528
G1 X46.913 Y73.893 E113.04919
G1 X46.913 Y74.602 E113.06979
G1 X35.898 Y63.587 E113.52284
G1 X35.190 Y63.587 E113.54344
G1 X46.913 Y75.310 E114.02563
G1 X46.913 Y76.018 E114.04623
G1 X34.482 Y63.587 E114.55756
G1 X29.523 Y63.587 F12000.000
G1 X77.348 Y111.413 E116.52476 F1200.000
G1 X78.057 Y111.413 E116.54537
G1 X30.231 Y63.587 E118.51257
G1 X30.940 Y63.587 E118.53318
G1 X78.765 Y111.413 E120.50038
G1 X79.473 Y111.413 E120.52099
G1 X31.648 Y63.587 E122.48819
G1 X32.357 Y63.587 E122.50879
G1 X80.182 Y111.413 E124.47600
G1 X80.890 Y111.413 E124.49660
G1 X33.065 Y63.587 E126.46381
G1 X33.773 Y63.587 E126.48441
G1 X81.598 Y111.413 E128.45162
G1 X82.307 Y111.413 E128.47222
G1 X47.482 Y76.587 E129.90469
G1 X48.190 Y76.587 E129.92530
G1 X83.015 Y111.413 E131.35777
G1 X83.724 Y111.413 E131.37837
G1 X48.898 Y76.587 E132.81085
G1 X49.607 Y76.587 E132.83145
G1 X84.432 Y111.413 E134.26392
G1 X85.140 Y111.413 E134.28453
G1 X50.315 Y76.587 E135.71700
G1 X51.024 Y76.587 E135.73760
G1 X85.849 Y111.413 E137.17008
G1 X86.557 Y111.413 E137.19068
G1 X51.732 Y76.587 E138.62315
G1 X52.440 Y76.587 E138.64376
G1 X87.265 Y111.413 E140.07623
G1 X87.974 Y111.413 E140.09683
G1 X53.149 Y76.587 E141.52930
G1 X53.857 Y76.587 E141.54991
G1 X88.682 Y111.413 E142.98238
G1 X89.390 Y111.413 E143.00298
G1 X54.565 Y76.587 E144.43546
G1 X55.274 Y76.587 E144.45606
G1 X90.099 Y111.413 E145.88853
G1 X90.807 Y111.413 E145.90914
G1 X55.982 Y76.587 E147.34161
G1 X56.690 Y76.587 E147.36221
G1 X91.516 Y111.413 E148.79468
G1 X92.224 Y111.413 E148.81529
G1 X57.399 Y76.587 E150.24776
G1 X58.107 Y76.587 E150.26836
G1 X92.932 Y111.413 E151.70084
G1 X93.641 Y111.413 E151.72144
G1 X58.816 Y76.587 E153.15391
G1 X59.524 Y76.587 E153.17452
G1 X94.349 Y111.413 E154.60699
G1 X95.057 Y111.413 E154.62759
G1 X60.232 Y76.587 E156.06007
G1 X60.941 Y76.587 E156.08067
G1 X95.766 Y111.413 E157.51314
G1 X96.474 Y111.413 E157.53375
G1 X61.550 Y76.488 E158.97030
G1 X61.904 Y76.134 E158.98487
G1 X97.183 Y111.413 E160.43600
G1 X97.891 Y111.413 E160.45660
G1 X62.258 Y75.780 E161.92230
G1 X62.612 Y75.426 E161.93687
G1 X98.599 Y111.413 E163.41713
G1 X99.308 Y111.413 E163.43774
G1 X62.966 Y75.071 E164.93257
G1 X63.321 Y74.717 E164.94714
G1 X100.016 Y111.413 E166.45654
G1 X100.724 Y111.413 E166.47714
G1 X63.675 Y74.363 E168.00112
G1 X64.029 Y74.009 E168.01568
G1 X101.433 Y111.413 E169.55422
G1 X102.141 Y111.413 E169.57483
G1 X64.383 Y73.655 E171.12794
G1 X64.737 Y73.300 E171.14251
G1 X102.850 Y111.413 E172.71018
G1 X103.558 Y111.413 E172.73079
G1 X65.092 Y72.946 E174.31303
G1 X65.446 Y72.592 E174.32760
G1 X104.266 Y111.413 E175.92442
G1 X104.975 Y111.413 E175.94502
G1 X65.800 Y72.238 E177.55641
G1 X66.154 Y71.884 E177.57098
G1 X105.683 Y111.413 E179.19693
G1 X106.391 Y111.413 E179.21753
G1 X66.508 Y71.530 E180.85805
G1 X76.913 Y74.850 F12000.000
G1 X65.650 Y63.587 E181.32132 F1200.000
G1 X64.942 Y63.587 E181.34192
G1 X76.913 Y75.558 E181.83433
G1 F1680.000 E179.83433
G92 E0
G1 X96.738 Y71.300 F12000.000
G1 E2.00000 F1680.000
G1 X136.851 Y111.413 E3.64998 F1200.000
G1 X137.560 Y111.413 E3.67058
G1 X89.735 Y63.587 E5.63779
G1 X90.443 Y63.587 E5.65839
G1 X138.268 Y111.413 E7.62560
G1 X136.143 Y111.413 F12000.000
G1 X96.384 Y71.654 E9.26101 F1200.000
G1 X96.030 Y72.008 E9.27558
G1 X135.435 Y111.413 E10.89642
G1 X134.726 Y111.413 E10.91703
G1 X95.676 Y72.362 E12.52330
G1 X95.322 Y72.716 E12.53787
G1 X134.018 Y111.413 E14.12958
G1 X133.310 Y111.413 E14.15018
G1 X94.967 Y73.070 E15.72732
G1 X94.613 Y73.425 E15.74189
G1 X132.601 Y111.413 E17.30445
G1 X131.893 Y111.413 E17.32506
G1 X94.259 Y73.779 E18.87306
G1 X93.905 Y74.133 E18.88763
G1 X131.184 Y111.413 E20.42106
G1 X130.476 Y111.413 E20.44166
G1 X93.551 Y74.487 E21.96052
G1 X93.196 Y74.841 E21.97509
G1 X129.768 Y111.413 E23.47939
G1 X129.059 Y111.413 E23.49999
G1 X92.842 Y75.196 E24.98971
G1 X92.488 Y75.550 E25.00428
G1 X128.351 Y111.413 E26.47944
G1 X127.643 Y111.413 E26.50004
G1 X92.134 Y75.904 E27.96063
G1 X91.780 Y76.258 E27.97520
G1 X126.934 Y111.413 E29.42122
G1 X126.226 Y111.413 E29.44182
G1 X91.401 Y76.587 E30.87429
G1 X90.692 Y76.587 E30.89490
G1 X125.517 Y111.413 E32.32737
G1 X124.809 Y111.413 E32.34797
G1 X89.984 Y76.587 E33.78044
G1 X89.276 Y76.587 E33.80105
G1 X124.101 Y111.413 E35.23352
G1 X123.392 Y111.413 E35.25412
