; generated by Slic3r 1.0.0RC1 on 2013-11-20 at 14:26:25

; layer_height = 0.3
; perimeters = 2
; top_solid_layers = 2
; bottom_solid_layers = 2
; fill_density = 0.3
; perimeter_speed = 30
; infill_speed = 30
; travel_speed = 200
; nozzle_diameter = 0.5
; filament_diameter = 2.98
; extrusion_multiplier = 0.9
; perimeters extrusion width = 0.50mm
; infill extrusion width = 0.70mm
; solid infill extrusion width = 0.70mm
; top infill extrusion width = 0.70mm

G21 ; set units to millimeters
M107
M104 S190 ; set temperature
G28 ; home all axes
G1 Z15 F120 ; lift nozzle
M109 S190 ; wait for temperature to be reached
G90 ; use absolute coordinates
G92 E0
M82 ; use absolute distances for extrusion
G1 F1680.000 E-2.00000
G92 E0
G1 Z0.450 F12000.000
G1 X29.220 Y52.210 F12000.000
G1 E2.00000 F1680.000
G1 X30.390 Y51.550 E2.03900 F900.000
G1 X31.670 Y51.140 E2.07802
G1 X33.000 Y51.000 E2.11685
G1 X143.000 Y51.000 E5.31056
G1 X144.270 Y51.120 E5.34760
G1 X145.490 Y51.490 E5.38461
G1 X146.610 Y52.090 E5.42150
G1 X147.590 Y52.900 E5.45842
G1 X148.400 Y53.880 E5.49533
G1 X149.000 Y55.010 E5.53248
G1 X149.370 Y56.230 E5.56949
G1 X150.370 Y61.230 E5.71753
G1 X150.470 Y61.860 E5.73605
G1 X150.500 Y62.500 E5.75466
G1 X150.500 Y112.500 E7.20634
G1 X150.380 Y113.770 E7.24338
G1 X150.010 Y114.990 E7.28039
G1 X149.400 Y116.110 E7.31742
G1 X148.600 Y117.100 E7.35438
G1 X147.610 Y117.900 E7.39133
G1 X146.490 Y118.510 E7.42836
G1 X145.270 Y118.880 E7.46537
G1 X144.000 Y119.000 E7.50241
G1 X33.000 Y119.000 E10.72515
G1 X31.700 Y118.870 E10.76309
G1 X30.460 Y118.480 E10.80083
G1 X29.320 Y117.860 E10.83850
G1 X28.320 Y117.010 E10.87661
G1 X27.520 Y115.990 E10.91424
G1 X26.930 Y114.830 E10.95203
G1 X26.590 Y113.570 E10.98992
G1 X19.590 Y71.570 E12.22616
G1 X19.500 Y70.500 E12.25733
G1 X19.500 Y62.500 E12.48960
G1 X19.680 Y60.970 E12.53433
G1 X20.220 Y59.530 E12.57898
G1 X21.080 Y58.250 E12.62375
G1 X22.220 Y57.210 E12.66856
G1 X29.159 Y52.254 E12.91614
G1 F1680.000 E10.91614
G92 E0
G1 X77.250 Y70.450 F12000.000
G1 E2.00000 F1680.000
G1 X90.504 Y70.450 E2.38481 F900.000
G1 X91.000 Y69.954 E2.40518
G1 X96.303 Y75.257 E2.62293
G1 X91.311 Y80.250 E2.82793
G1 X77.250 Y80.250 E3.23616
G1 X77.250 Y70.525 E3.51852
G1 X77.750 Y70.950 F12000.000
G1 X90.711 Y70.950 E3.89483 F720.000
G1 X91.000 Y70.661 E3.90669
G1 X95.596 Y75.257 E4.09541
G1 X91.104 Y79.750 E4.27987
G1 X77.750 Y79.750 E4.66758
G1 X77.750 Y71.025 E4.92090
G1 X77.750 Y70.450 F12000.000
G1 X66.303 Y75.257 F12000.000
G1 X61.311 Y80.250 E5.12589 F900.000
G1 X47.250 Y80.250 E5.53412
G1 X47.250 Y70.450 E5.81865
G1 X60.504 Y70.450 E6.20347
G1 X61.000 Y69.954 E6.22383
G1 X66.250 Y75.204 E6.43941
G1 X65.596 Y75.257 F12000.000
G1 X61.104 Y79.750 E6.62387 F720.000
G1 X47.750 Y79.750 E7.01158
G1 X47.750 Y70.950 E7.26707
G1 X60.711 Y70.950 E7.64338
G1 X61.000 Y70.661 E7.65524
G1 X65.543 Y75.204 E7.84179
G1 X65.950 Y75.611 F12000.000
G1 F1680.000 E5.84179
G92 E0
G1 X131.750 Y58.250 F12000.000
G1 E2.00000 F1680.000
G1 X142.250 Y58.250 E2.30485 F900.000
G1 X142.250 Y63.250 E2.45002
G1 X143.250 Y63.250 E2.47906
G1 X143.250 Y111.750 E3.88719
G1 X33.750 Y111.750 E7.06638
G1 X33.750 Y69.750 E8.28580
G1 X26.750 Y69.750 E8.48904
G1 X26.750 Y63.250 E8.67775
G1 X33.750 Y63.250 E8.88099
G1 X33.750 Y58.250 E9.02616
G1 X44.250 Y58.250 E9.33101
G1 X44.250 Y63.250 E9.47618
G1 X131.750 Y63.250 E12.01663
G1 X131.750 Y58.325 E12.15962
G1 X131.250 Y57.750 F12000.000
G1 X142.750 Y57.750 E12.49351 F720.000
G1 X142.750 Y62.750 E12.63868
G1 X143.750 Y62.750 E12.66771
G1 X143.750 Y112.250 E14.10488
G1 X33.250 Y112.250 E17.31311
G1 X33.250 Y70.250 E18.53252
G1 X26.250 Y70.250 E18.73576
G1 X26.250 Y62.750 E18.95351
G1 X33.250 Y62.750 E19.15675
G1 X33.250 Y57.750 E19.30192
G1 X44.750 Y57.750 E19.63580
G1 X44.750 Y62.750 E19.78097
G1 X131.250 Y62.750 E22.29239
G1 X131.250 Y57.825 E22.43538
G1 X131.683 Y58.000 F12000.000
G1 X141.886 Y58.680 F12000.000
G1 X141.820 Y58.614 E22.43890 F1200.000
G1 X140.893 Y58.614 E22.47421
G1 X141.886 Y59.607 E22.52765
G1 X141.886 Y60.534 E22.56296
G1 X139.966 Y58.614 E22.66633
G1 X139.038 Y58.614 E22.70163
G1 X141.886 Y61.462 E22.85493
G1 X141.886 Y62.389 E22.89023
G1 X138.111 Y58.614 E23.09345
G1 X137.184 Y58.614 E23.12875
G1 X142.886 Y64.316 E23.43573
G1 X142.886 Y65.243 E23.47104
G1 X136.257 Y58.614 E23.82795
G1 X135.329 Y58.614 E23.86325
G1 X142.886 Y66.171 E24.27008
G1 X142.886 Y67.098 E24.30538
G1 X134.402 Y58.614 E24.76214
G1 X133.475 Y58.614 E24.79744
G1 X142.886 Y68.025 E25.30412
G1 X142.886 Y68.952 E25.33943
G1 X132.548 Y58.614 E25.89603
G1 X132.114 Y59.108 E25.92105
G1 X142.886 Y69.879 E26.50098
G1 X142.886 Y70.807 E26.53629
G1 X132.114 Y60.036 E27.11622
G1 X132.114 Y60.963 E27.15152
G1 X142.886 Y71.734 E27.73146
G1 X142.886 Y72.661 E27.76676
G1 X132.114 Y61.890 E28.34670
G1 X132.114 Y62.817 E28.38200
G1 X142.886 Y73.588 E28.96194
G1 X142.886 Y74.516 E28.99724
G1 X131.984 Y63.614 E29.58418
G1 X131.057 Y63.614 E29.61948
G1 X142.886 Y75.443 E30.25634
G1 X142.886 Y76.370 E30.29164
G1 X130.130 Y63.614 E30.97843
G1 X129.203 Y63.614 E31.01373
G1 X142.886 Y77.297 E31.75045
G1 X142.886 Y78.225 E31.78575
G1 X128.275 Y63.614 E32.57238
G1 X127.348 Y63.614 E32.60769
G1 X142.886 Y79.152 E33.44425
G1 X142.886 Y80.079 E33.47955
G1 X126.421 Y63.614 E34.36603
G1 X125.494 Y63.614 E34.40133
G1 X142.886 Y81.006 E35.33774
G1 X142.886 Y81.933 E35.37304
G1 X124.567 Y63.614 E36.35938
G1 X123.639 Y63.614 E36.39468
G1 X142.886 Y82.861 E37.43093
G1 X142.886 Y83.788 E37.46624
G1 X122.712 Y63.614 E38.55242
G1 X121.785 Y63.614 E38.58772
G1 X142.886 Y84.715 E39.72382
G1 X142.886 Y85.642 E39.75912
G1 X120.858 Y63.614 E40.94515
G1 X119.930 Y63.614 E40.98045
G1 X142.886 Y86.570 E42.21641
G1 X142.886 Y87.497 E42.25171
G1 X119.003 Y63.614 E43.53758
G1 X118.076 Y63.614 E43.57289
G1 X142.886 Y88.424 E44.90869
G1 X142.886 Y89.351 E44.94399
G1 X117.149 Y63.614 E46.32971
G1 X116.221 Y63.614 E46.36501
G1 X142.886 Y90.279 E47.80066
G1 X142.886 Y91.206 E47.83596
G1 X115.294 Y63.614 E49.32154
G1 X114.367 Y63.614 E49.35684
G1 X142.886 Y92.133 E50.89233
G1 X142.886 Y93.060 E50.92764
G1 X113.440 Y63.614 E52.51306
G1 X112.513 Y63.614 E52.54836
G1 X142.886 Y93.987 E54.18370
G1 X142.886 Y94.915 E54.21900
G1 X111.585 Y63.614 E55.90427
G1 X110.658 Y63.614 E55.93957
G1 X142.886 Y95.842 E57.67477
G1 X142.886 Y96.769 E57.71007
G1 X109.731 Y63.614 E59.49518
G1 X108.804 Y63.614 E59.53049
G1 X142.886 Y97.696 E61.36553
G1 X142.886 Y98.624 E61.40083
G1 X107.876 Y63.614 E63.28579
G1 X106.949 Y63.614 E63.32109
G1 X142.886 Y99.551 E65.25598
G1 X142.886 Y100.478 E65.29128
G1 X106.022 Y63.614 E67.27610
G1 X105.095 Y63.614 E67.31140
G1 X142.886 Y101.405 E69.34614
G1 X142.886 Y102.333 E69.38144
G1 X104.167 Y63.614 E71.46610
G1 X103.240 Y63.614 E71.50140
G1 X142.886 Y103.260 E73.63598
G1 X142.886 Y104.187 E73.67129
G1 X102.313 Y63.614 E75.85579
G1 X101.386 Y63.614 E75.89110
G1 X142.886 Y105.114 E78.12553
G1 X142.886 Y106.042 E78.16083
G1 X100.458 Y63.614 E80.44519
G1 X99.531 Y63.614 E80.48049
G1 X142.886 Y106.969 E82.81477
G1 X142.886 Y107.896 E82.85007
G1 X98.604 Y63.614 E85.23427
G1 X97.677 Y63.614 E85.26958
G1 X142.886 Y108.823 E87.70370
G1 X142.886 Y109.750 E87.73901
G1 X96.750 Y63.614 E90.22306
G1 X95.822 Y63.614 E90.25836
G1 X142.886 Y110.678 E92.79234
G1 X142.666 Y111.386 E92.82055
G1 X94.895 Y63.614 E95.39264
G1 X93.968 Y63.614 E95.42794
G1 X141.739 Y111.386 E98.00003
G1 X140.812 Y111.386 E98.03533
G1 X93.041 Y63.614 E100.60742
G1 X92.113 Y63.614 E100.64273
G1 X139.884 Y111.386 E103.21482
G1 X138.957 Y111.386 E103.25012
G1 X91.186 Y63.614 E105.82221
G1 X90.259 Y63.614 E105.85751
G1 X138.030 Y111.386 E108.42960
G1 X137.103 Y111.386 E108.46490
G1 X89.332 Y63.614 E111.03699
G1 X88.404 Y63.614 E111.07229
G1 X136.176 Y111.386 E113.64438
G1 X135.248 Y111.386 E113.67968
G1 X87.477 Y63.614 E116.25177
G1 X86.550 Y63.614 E116.28707
G1 X134.321 Y111.386 E118.85916
G1 X133.394 Y111.386 E118.89446
G1 X85.623 Y63.614 E121.46655
G1 X90.760 Y69.679 F12000.000
G1 X84.696 Y63.614 E121.79307 F1200.000
G1 X83.768 Y63.614 E121.82837
G1 X90.239 Y70.086 E122.17678
G1 X89.312 Y70.086 E122.21209
G1 X82.841 Y63.614 E122.56050
G1 X81.914 Y63.614 E122.59580
G1 X88.385 Y70.086 E122.94422
G1 X87.458 Y70.086 E122.97952
G1 X80.987 Y63.614 E123.32794
G1 X80.059 Y63.614 E123.36324
G1 X86.530 Y70.086 E123.71165
G1 X85.603 Y70.086 E123.74696
G1 X79.132 Y63.614 E124.09537
G1 X78.205 Y63.614 E124.13067
G1 X84.676 Y70.086 E124.47909
G1 X83.749 Y70.086 E124.51439
G1 X77.278 Y63.614 E124.86281
G1 X76.350 Y63.614 E124.89811
G1 X82.822 Y70.086 E125.24652
G1 X81.894 Y70.086 E125.28182
G1 X75.423 Y63.614 E125.63024
G1 X74.496 Y63.614 E125.66554
G1 X80.967 Y70.086 E126.01396
G1 X80.040 Y70.086 E126.04926
G1 X73.569 Y63.614 E126.39768
G1 X72.642 Y63.614 E126.43298
G1 X79.113 Y70.086 E126.78139
G1 X78.185 Y70.086 E126.81669
G1 X71.714 Y63.614 E127.16511
G1 X70.787 Y63.614 E127.20041
G1 X77.258 Y70.086 E127.54883
G1 X76.886 Y70.640 E127.57427
G1 X69.860 Y63.614 E127.95254
G1 X68.933 Y63.614 E127.98785
G1 X76.886 Y71.567 E128.41605
G1 X76.886 Y72.495 E128.45135
G1 X68.005 Y63.614 E128.92948
G1 X67.078 Y63.614 E128.96478
G1 X76.886 Y73.422 E129.49283
G1 X76.886 Y74.349 E129.52813
G1 X66.151 Y63.614 E130.10610
G1 X65.224 Y63.614 E130.14141
G1 X76.886 Y75.276 E130.76930
G1 X76.886 Y76.204 E130.80461
G1 X64.296 Y63.614 E131.48243
G1 X63.369 Y63.614 E131.51773
G1 X76.886 Y77.131 E132.24548
G1 X76.886 Y78.058 E132.28078
G1 X62.442 Y63.614 E133.05845
G1 X61.515 Y63.614 E133.09375
G1 X76.886 Y78.985 E133.92134
G1 X76.886 Y79.912 E133.95664
G1 X60.588 Y63.614 E134.83416
G1 X60.924 Y69.514 F12000.000
G1 X55.024 Y63.614 E135.15183 F1200.000
G1 X55.951 Y63.614 E135.18713
G1 X103.722 Y111.386 E137.75922
G1 X104.650 Y111.386 E137.79452
G1 X56.879 Y63.614 E140.36661
G1 X57.806 Y63.614 E140.40192
G1 X105.577 Y111.386 E142.97401
G1 X106.504 Y111.386 E143.00931
G1 X58.733 Y63.614 E145.58140
G1 X59.660 Y63.614 E145.61670
G1 X107.431 Y111.386 E148.18879
G1 X108.359 Y111.386 E148.22409
G1 X77.588 Y80.614 E149.88087
G1 X78.515 Y80.614 E149.91617
G1 X109.286 Y111.386 E151.57294
G1 X110.213 Y111.386 E151.60824
G1 X79.442 Y80.614 E153.26502
G1 X80.369 Y80.614 E153.30032
G1 X111.140 Y111.386 E154.95710
G1 X112.068 Y111.386 E154.99240
G1 X81.296 Y80.614 E156.64918
G1 X82.224 Y80.614 E156.68448
G1 X112.995 Y111.386 E158.34125
G1 X113.922 Y111.386 E158.37655
G1 X83.151 Y80.614 E160.03333
G1 X84.078 Y80.614 E160.06863
G1 X114.849 Y111.386 E161.72541
G1 X115.776 Y111.386 E161.76071
G1 X85.005 Y80.614 E163.41749
G1 X85.933 Y80.614 E163.45279
G1 X116.704 Y111.386 E165.10956
G1 X117.631 Y111.386 E165.14487
G1 X86.860 Y80.614 E166.80164
G1 X87.787 Y80.614 E166.83694
G1 X118.558 Y111.386 E168.49372
G1 X119.485 Y111.386 E168.52902
G1 X88.714 Y80.614 E170.18580
G1 X89.642 Y80.614 E170.22110
G1 X120.413 Y111.386 E171.87787
G1 X121.340 Y111.386 E171.91318
G1 X90.569 Y80.614 E173.56995
G1 X91.479 Y80.597 E173.60461
G1 X122.267 Y111.386 E175.26231
G1 X123.194 Y111.386 E175.29761
G1 X91.942 Y80.134 E176.98027
G1 X92.406 Y79.670 E177.00523
G1 X124.122 Y111.386 E178.71286
G1 X125.049 Y111.386 E178.74816
G1 X92.870 Y79.206 E180.48075
G1 X93.333 Y78.743 E180.50571
G1 X125.976 Y111.386 E182.26326
G1 X126.903 Y111.386 E182.29856
G1 X93.797 Y78.279 E184.08107
G1 X94.261 Y77.816 E184.10603
G1 X127.830 Y111.386 E185.91350
G1 X128.758 Y111.386 E185.94881
G1 X94.724 Y77.352 E187.78124
G1 X95.188 Y76.888 E187.80620
G1 X129.685 Y111.386 E189.66360
G1 X130.612 Y111.386 E189.69890
G1 X95.651 Y76.425 E191.58126
G1 X96.115 Y75.961 E191.60622
G1 X131.539 Y111.386 E193.51354
G1 X132.467 Y111.386 E193.54884
G1 X96.579 Y75.498 E195.48112
G1 F1680.000 E193.48112
G92 E0
G1 X66.743 Y75.333 F12000.000
G1 E2.00000 F1680.000
G1 X102.795 Y111.386 E3.94113 F1200.000
G1 X101.868 Y111.386 E3.97643
G1 X66.279 Y75.797 E5.89260
G1 X65.816 Y76.260 E5.91756
G1 X100.941 Y111.386 E7.80876
G1 X100.013 Y111.386 E7.84407
G1 X65.352 Y76.724 E9.71031
G1 X64.888 Y77.188 E9.73527
G1 X99.086 Y111.386 E11.57655
G1 X98.159 Y111.386 E11.61185
G1 X64.425 Y77.651 E13.42817
G1 X63.961 Y78.115 E13.45313
G1 X97.232 Y111.386 E15.24449
G1 X96.305 Y111.386 E15.27979
G1 X63.498 Y78.579 E17.04619
G1 X63.034 Y79.042 E17.07115
G1 X95.377 Y111.386 E18.81258
G1 X94.450 Y111.386 E18.84788
G1 X62.570 Y79.506 E20.56435
G1 X62.107 Y79.969 E20.58932
G1 X93.523 Y111.386 E22.28083
G1 X92.596 Y111.386 E22.31613
G1 X61.643 Y80.433 E23.98267
G1 X60.897 Y80.614 E24.01189
G1 X91.668 Y111.386 E25.66867
G1 X90.741 Y111.386 E25.70397
G1 X59.970 Y80.614 E27.36075
G1 X59.043 Y80.614 E27.39605
G1 X89.814 Y111.386 E29.05283
G1 X88.887 Y111.386 E29.08813
G1 X58.116 Y80.614 E30.74490
G1 X57.188 Y80.614 E30.78021
G1 X87.959 Y111.386 E32.43698
G1 X87.032 Y111.386 E32.47228
G1 X56.261 Y80.614 E34.12906
G1 X55.334 Y80.614 E34.16436
G1 X86.105 Y111.386 E35.82114
G1 X85.178 Y111.386 E35.85644
G1 X54.407 Y80.614 E37.51321
G1 X53.479 Y80.614 E37.54852
G1 X84.251 Y111.386 E39.20529
G1 X83.323 Y111.386 E39.24059
G1 X52.552 Y80.614 E40.89737
G1 X51.625 Y80.614 E40.93267
G1 X82.396 Y111.386 E42.58945
G1 X81.469 Y111.386 E42.62475
G1 X50.698 Y80.614 E44.28152
G1 X49.771 Y80.614 E44.31683
G1 X80.542 Y111.386 E45.97360
G1 X79.614 Y111.386 E46.00890
G1 X48.843 Y80.614 E47.66568
G1 X47.916 Y80.614 E47.70098
G1 X78.687 Y111.386 E49.35776
G1 X77.760 Y111.386 E49.39306
G1 X29.989 Y63.614 E51.96515
G1 X29.062 Y63.614 E52.00045
G1 X76.833 Y111.386 E54.57254
G1 X75.905 Y111.386 E54.60784
G1 X34.114 Y69.595 E56.85795
G1 X34.114 Y70.522 E56.89325
G1 X74.978 Y111.386 E59.09344
G1 X74.051 Y111.386 E59.12874
G1 X34.114 Y71.449 E61.27900
G1 X34.114 Y72.376 E61.31431
G1 X73.124 Y111.386 E63.41464
G1 X72.197 Y111.386 E63.44995
G1 X34.114 Y73.303 E65.50036
G1 X34.114 Y74.231 E65.53566
G1 X71.269 Y111.386 E67.53615
G1 X70.342 Y111.386 E67.57145
G1 X34.114 Y75.158 E69.52202
G1 X34.114 Y76.085 E69.55732
G1 X69.415 Y111.386 E71.45797
G1 X68.488 Y111.386 E71.49327
G1 X34.114 Y77.012 E73.34399
G1 X34.114 Y77.940 E73.37929
G1 X67.560 Y111.386 E75.18008
G1 X66.633 Y111.386 E75.21538
G1 X34.114 Y78.867 E76.96625
G1 X34.114 Y79.794 E77.00156
G1 X65.706 Y111.386 E78.70250
G1 X64.779 Y111.386 E78.73780
G1 X34.114 Y80.721 E80.38883
G1 X34.114 Y81.649 E80.42413
G1 X63.851 Y111.386 E82.02523
G1 X62.924 Y111.386 E82.06053
G1 X34.114 Y82.576 E83.61170
G1 X34.114 Y83.503 E83.64700
G1 X61.997 Y111.386 E85.14826
G1 X61.070 Y111.386 E85.18356
G1 X34.114 Y84.430 E86.63488
G1 X34.114 Y85.357 E86.67019
G1 X60.143 Y111.386 E88.07159
G1 X59.215 Y111.386 E88.10689
G1 X34.114 Y86.285 E89.45837
G1 X34.114 Y87.212 E89.49367
G1 X58.288 Y111.386 E90.79522
G1 X57.361 Y111.386 E90.83053
G1 X34.114 Y88.139 E92.08216
G1 X34.114 Y89.066 E92.11746
G1 X56.434 Y111.386 E93.31916
G1 X55.506 Y111.386 E93.35447
G1 X34.114 Y89.994 E94.50625
G1 X34.114 Y90.921 E94.54155
G1 X54.579 Y111.386 E95.64341
G1 X53.652 Y111.386 E95.67871
G1 X34.114 Y91.848 E96.73064
G1 X34.114 Y92.775 E96.76595
G1 X52.725 Y111.386 E97.76796
G1 X51.797 Y111.386 E97.80326
G1 X34.114 Y93.703 E98.75534
G1 X34.114 Y94.630 E98.79065
G1 X50.870 Y111.386 E99.69281
G1 X49.943 Y111.386 E99.72811
G1 X34.114 Y95.557 E100.58035
G1 X34.114 Y96.484 E100.61565
G1 X49.016 Y111.386 E101.41796
G1 X48.089 Y111.386 E101.45327
G1 X34.114 Y97.411 E102.20566
G1 X34.114 Y98.339 E102.24096
G1 X47.161 Y111.386 E102.94342
G1 X46.234 Y111.386 E102.97873
G1 X34.114 Y99.266 E103.63127
G1 X34.114 Y100.193 E103.66657
G1 X45.307 Y111.386 E104.26919
G1 X44.380 Y111.386 E104.30449
G1 X34.114 Y101.120 E104.85718
