; generated by Slic3r 1.0.0RC1 on 2013-11-20 at 14:24:53

; layer_height = 0.4
; perimeters = 1
; top_solid_layers = 3
; bottom_solid_layers = 3
; fill_density = 1
; perimeter_speed = 30
; infill_speed = 60
; travel_speed = 130
; nozzle_diameter = 0.5
; filament_diameter = 2.98
; extrusion_multiplier = 0.9
; perimeters extrusion width = 0.50mm
; infill extrusion width = 0.50mm
; solid infill extrusion width = 0.50mm
; top infill extrusion width = 0.50mm
; support material extrusion width = 0.50mm

G21 ; set units to millimeters
M107
M104 S190 ; set temperature
G28 ; home all axes
G1 Z15 F120 ; lift nozzle
M109 S190 ; wait for temperature to be reached
G90 ; use absolute coordinates
G92 E0
M82 ; use absolute distances for extrusion
G1 F1680.000 E-2.00000
G92 E0
G1 Z0.500 F7800.000
G1 X30.090 Y51.690 F7800.000
G1 E2.00000 F1680.000
G1 X33.090 Y50.190 E2.10820 F540.000
G1 X34.510 Y49.670 E2.15699
G1 X36.000 Y49.500 E2.20536
G1 X139.940 Y49.500 E5.55844
G1 X141.410 Y49.670 E5.60617
G1 X142.800 Y50.160 E5.65372
G1 X145.860 Y51.660 E5.76366
G1 X146.950 Y52.340 E5.80510
G1 X147.890 Y53.220 E5.84664
G1 X148.640 Y54.270 E5.88827
G1 X149.170 Y55.440 E5.92970
G1 X151.670 Y62.940 E6.18474
G1 X151.920 Y63.960 E6.21862
G1 X152.000 Y65.000 E6.25226
G1 X152.000 Y111.000 E7.73621
G1 X151.880 Y112.270 E7.77736
G1 X151.510 Y113.490 E7.81849
G1 X150.900 Y114.610 E7.85963
G1 X150.100 Y115.600 E7.90069
G1 X148.600 Y117.100 E7.96913
G1 X147.320 Y118.090 E8.02133
G1 X145.850 Y118.730 E8.07305
G1 X144.260 Y118.990 E8.12502
G1 X105.900 Y120.500 E9.36346
G1 X71.040 Y120.500 E10.48804
G1 X32.740 Y118.990 E11.72454
G1 X31.490 Y118.820 E11.76524
G1 X30.290 Y118.410 E11.80615
G1 X29.200 Y117.770 E11.84692
G1 X28.250 Y116.930 E11.88783
G1 X27.480 Y115.930 E11.92855
G1 X26.920 Y114.790 E11.96952
G1 X26.590 Y113.570 E12.01029
G1 X19.590 Y71.570 E13.38389
G1 X19.500 Y70.500 E13.41853
G1 X19.500 Y62.500 E13.67660
G1 X19.680 Y60.970 E13.72630
G1 X20.220 Y59.530 E13.77591
G1 X21.080 Y58.250 E13.82566
G1 X22.220 Y57.210 E13.87544
G1 X29.220 Y52.210 E14.15295
G1 X30.026 Y51.728 E14.18323
G1 F1680.000 E12.18323
G92 E0
G1 X77.250 Y70.450 F7800.000
G1 E2.00000 F1680.000
G1 X90.504 Y70.450 E2.42757 F540.000
G1 X91.000 Y69.954 E2.45020
G1 X96.303 Y75.257 E2.69215
G1 X91.311 Y80.250 E2.91992
G1 X77.250 Y80.250 E3.37351
G1 X77.250 Y70.525 E3.68724
G1 X77.750 Y70.950 F7800.000
G1 X90.711 Y70.950 E4.10536 F378.000
G1 X91.000 Y70.661 E4.11854
G1 X95.596 Y75.257 E4.32823
G1 X91.104 Y79.750 E4.53319
G1 X77.750 Y79.750 E4.96397
G1 X77.750 Y71.025 E5.24544
G1 X66.303 Y75.257 F7800.000
G1 X61.311 Y80.250 E5.47321 F540.000
G1 X47.250 Y80.250 E5.92681
G1 X47.250 Y70.450 E6.24295
G1 X60.504 Y70.450 E6.67052
G1 X61.000 Y69.954 E6.69315
G1 X66.250 Y75.204 E6.93268
G1 X65.596 Y75.257 F7800.000
G1 X61.104 Y79.750 E7.13764 F378.000
G1 X47.750 Y79.750 E7.56842
G1 X47.750 Y70.950 E7.85230
G1 X60.711 Y70.950 E8.27043
G1 X61.000 Y70.661 E8.28361
G1 X65.543 Y75.204 E8.49087
G1 F1680.000 E6.49087
G92 E0
G1 X44.250 Y63.250 F7800.000
G1 E2.00000 F1680.000
G1 X131.750 Y63.250 E4.82272 F540.000
G1 X131.750 Y58.250 E4.98402
G1 X142.250 Y58.250 E5.32275
G1 X142.250 Y63.250 E5.48405
G1 X143.250 Y63.250 E5.51631
G1 X143.250 Y111.750 E7.08090
G1 X33.750 Y111.750 E10.61334
G1 X33.750 Y69.750 E11.96824
G1 X26.750 Y69.750 E12.19406
G1 X26.750 Y63.250 E12.40375
G1 X33.750 Y63.250 E12.62957
G1 X33.750 Y58.250 E12.79086
G1 X44.250 Y58.250 E13.12959
G1 X44.250 Y63.175 E13.28847
G1 X44.750 Y62.750 F7800.000
G1 X131.250 Y62.750 E16.07893 F378.000
G1 X131.250 Y57.750 E16.24023
G1 X142.750 Y57.750 E16.61122
G1 X142.750 Y62.750 E16.77252
G1 X143.750 Y62.750 E16.80478
G1 X143.750 Y112.250 E18.40163
G1 X33.250 Y112.250 E21.96632
G1 X33.250 Y70.250 E23.32123
G1 X26.250 Y70.250 E23.54705
G1 X26.250 Y62.750 E23.78900
G1 X33.250 Y62.750 E24.01481
G1 X33.250 Y57.750 E24.17611
G1 X44.750 Y57.750 E24.54710
G1 X44.750 Y62.675 E24.70598
G1 X45.016 Y63.587 F7800.000
G1 X51.541 Y70.113 E25.00373 F1080.000
G1 X52.248 Y70.113 E25.02655
G1 X45.723 Y63.587 E25.32431
G1 X46.430 Y63.587 E25.34713
G1 X52.955 Y70.113 E25.64489
G1 X53.663 Y70.113 E25.66771
G1 X47.138 Y63.587 E25.96546
G1 X47.845 Y63.587 E25.98828
G1 X54.370 Y70.113 E26.28604
G1 X55.077 Y70.113 E26.30886
G1 X48.552 Y63.587 E26.60661
G1 X49.259 Y63.587 E26.62944
G1 X55.784 Y70.113 E26.92719
G1 X56.492 Y70.113 E26.95001
G1 X49.967 Y63.587 E27.24777
G1 X50.674 Y63.587 E27.27059
G1 X57.199 Y70.113 E27.56834
G1 X57.906 Y70.113 E27.59117
G1 X51.381 Y63.587 E27.88892
G1 X52.088 Y63.587 E27.91174
G1 X58.614 Y70.113 E28.20950
G1 X59.321 Y70.113 E28.23232
G1 X52.796 Y63.587 E28.53007
G1 X53.503 Y63.587 E28.55289
G1 X60.028 Y70.113 E28.85065
G1 X60.550 Y69.927 E28.86852
G1 X54.210 Y63.587 E29.15781
G1 X54.918 Y63.587 E29.18063
G1 X60.903 Y69.573 E29.45378
G1 X60.576 Y63.587 F7800.000
G1 X76.913 Y79.924 E30.19927 F1080.000
G1 X76.913 Y79.217 E30.22209
G1 X61.283 Y63.587 E30.93531
G1 X61.990 Y63.587 E30.95813
G1 X76.913 Y78.510 E31.63907
G1 X76.913 Y77.803 E31.66189
G1 X62.697 Y63.587 E32.31056
G1 X63.405 Y63.587 E32.33338
G1 X76.913 Y77.095 E32.94978
G1 X76.913 Y76.388 E32.97260
G1 X64.112 Y63.587 E33.55672
G1 X64.819 Y63.587 E33.57954
G1 X76.913 Y75.681 E34.13138
G1 X76.913 Y74.973 E34.15421
G1 X65.527 Y63.587 E34.67378
G1 X66.234 Y63.587 E34.69660
G1 X76.913 Y74.266 E35.18389
G1 X76.913 Y73.559 E35.20671
G1 X66.941 Y63.587 E35.66174
G1 X67.648 Y63.587 E35.68456
G1 X76.913 Y72.852 E36.10730
G1 X76.913 Y72.144 E36.13013
G1 X68.356 Y63.587 E36.52060
G1 X69.063 Y63.587 E36.54342
G1 X76.913 Y71.437 E36.90162
G1 X76.913 Y70.730 E36.92444
G1 X69.770 Y63.587 E37.25036
G1 X70.477 Y63.587 E37.27318
G1 X77.003 Y70.113 E37.57094
G1 X77.710 Y70.113 E37.59376
G1 X71.185 Y63.587 E37.89151
G1 X71.892 Y63.587 E37.91434
G1 X78.417 Y70.113 E38.21209
G1 X79.124 Y70.113 E38.23491
G1 X72.599 Y63.587 E38.53267
G1 X73.307 Y63.587 E38.55549
G1 X79.832 Y70.113 E38.85324
G1 X80.539 Y70.113 E38.87607
G1 X74.014 Y63.587 E39.17382
G1 X74.721 Y63.587 E39.19664
G1 X81.246 Y70.113 E39.49440
G1 X81.953 Y70.113 E39.51722
G1 X75.428 Y63.587 E39.81497
G1 X76.136 Y63.587 E39.83779
G1 X82.661 Y70.113 E40.13555
G1 X83.368 Y70.113 E40.15837
G1 X76.843 Y63.587 E40.45613
G1 X77.550 Y63.587 E40.47895
G1 X84.075 Y70.113 E40.77670
G1 X84.782 Y70.113 E40.79952
G1 X78.257 Y63.587 E41.09728
G1 X78.965 Y63.587 E41.12010
G1 X85.490 Y70.113 E41.41785
G1 X86.197 Y70.113 E41.44068
G1 X79.672 Y63.587 E41.73843
G1 X80.379 Y63.587 E41.76125
G1 X86.904 Y70.113 E42.05901
G1 X87.612 Y70.113 E42.08183
G1 X81.086 Y63.587 E42.37958
G1 X81.794 Y63.587 E42.40240
G1 X88.319 Y70.113 E42.70016
G1 X89.026 Y70.113 E42.72298
G1 X82.501 Y63.587 E43.02074
G1 X83.208 Y63.587 E43.04356
G1 X89.733 Y70.113 E43.34131
G1 X90.402 Y70.074 E43.36294
G1 X83.916 Y63.587 E43.65895
G1 X84.623 Y63.587 E43.68177
G1 X90.756 Y69.721 E43.96164
G1 X90.988 Y63.587 F7800.000
G1 X138.813 Y111.413 E46.14402 F1080.000
G1 X139.521 Y111.413 E46.16684
G1 X91.696 Y63.587 E48.34922
G1 X92.403 Y63.587 E48.37204
G1 X140.228 Y111.413 E50.55442
G1 X140.935 Y111.413 E50.57725
G1 X93.110 Y63.587 E52.75962
G1 X93.817 Y63.587 E52.78245
G1 X141.642 Y111.413 E54.96483
G1 X142.350 Y111.413 E54.98765
G1 X94.525 Y63.587 E57.17003
G1 X95.232 Y63.587 E57.19285
G1 X142.913 Y111.268 E59.36864
G1 X142.913 Y110.561 E59.39146
G1 X95.939 Y63.587 E61.53497
G1 X96.646 Y63.587 E61.55780
G1 X142.913 Y109.854 E63.66904
G1 X142.913 Y109.146 E63.69186
G1 X97.354 Y63.587 E65.77083
G1 X98.061 Y63.587 E65.79365
G1 X142.913 Y108.439 E67.84034
G1 X142.913 Y107.732 E67.86316
G1 X98.768 Y63.587 E69.87758
G1 X99.475 Y63.587 E69.90040
G1 X142.913 Y107.025 E71.88254
G1 X142.913 Y106.317 E71.90536
G1 X100.183 Y63.587 E73.85523
G1 X100.890 Y63.587 E73.87805
G1 X142.913 Y105.610 E75.79565
G1 X142.913 Y104.903 E75.81847
G1 X101.597 Y63.587 E77.70379
G1 X102.305 Y63.587 E77.72661
G1 X142.913 Y104.195 E79.57966
G1 X142.913 Y103.488 E79.60248
G1 X103.012 Y63.587 E81.42325
G1 X103.719 Y63.587 E81.44607
G1 X142.913 Y102.781 E83.23457
G1 X142.913 Y102.074 E83.25739
G1 X104.426 Y63.587 E85.01361
G1 X105.134 Y63.587 E85.03643
G1 X142.913 Y101.366 E86.76038
G1 X142.913 Y100.659 E86.78320
G1 X105.841 Y63.587 E88.47487
G1 X106.548 Y63.587 E88.49769
G1 X142.913 Y99.952 E90.15709
G1 X142.913 Y99.245 E90.17991
G1 X107.255 Y63.587 E91.80704
G1 X107.963 Y63.587 E91.82986
G1 X142.913 Y98.537 E93.42471
G1 X142.913 Y97.830 E93.44753
G1 X108.670 Y63.587 E95.01010
G1 X109.377 Y63.587 E95.03292
G1 X142.913 Y97.123 E96.56322
G1 X142.913 Y96.415 E96.58605
G1 X110.085 Y63.587 E98.08407
G1 X110.792 Y63.587 E98.10689
G1 X142.913 Y95.708 E99.57264
G1 X142.913 Y95.001 E99.59547
G1 X111.499 Y63.587 E101.02894
G1 X112.206 Y63.587 E101.05176
G1 X142.913 Y94.294 E102.45297
G1 X142.913 Y93.586 E102.47579
G1 X112.914 Y63.587 E103.84472
G1 X113.621 Y63.587 E103.86754
G1 X142.913 Y92.879 E105.20419
G1 X142.913 Y92.172 E105.22701
G1 X114.328 Y63.587 E106.53139
G1 X115.035 Y63.587 E106.55421
G1 X142.913 Y91.465 E107.82632
G1 X142.913 Y90.757 E107.84914
G1 X115.743 Y63.587 E109.08897
G1 X116.450 Y63.587 E109.11179
G1 X142.913 Y90.050 E110.31934
G1 X142.913 Y89.343 E110.34217
G1 X117.157 Y63.587 E111.51745
G1 X117.864 Y63.587 E111.54027
G1 X142.913 Y88.636 E112.68327
G1 X142.913 Y87.928 E112.70610
G1 X118.572 Y63.587 E113.81683
G1 X119.279 Y63.587 E113.83965
G1 X142.913 Y87.221 E114.91811
G1 X142.913 Y86.514 E114.94093
G1 X119.986 Y63.587 E115.98711
G1 X120.694 Y63.587 E116.00993
G1 X142.913 Y85.806 E117.02384
G1 X142.913 Y85.099 E117.04666
G1 X121.401 Y63.587 E118.02830
G1 X122.108 Y63.587 E118.05112
G1 X142.913 Y84.392 E119.00048
G1 X142.913 Y83.685 E119.02330
G1 X122.815 Y63.587 E119.94038
G1 X123.523 Y63.587 E119.96320
G1 X142.913 Y82.977 E120.84801
G1 X142.913 Y82.270 E120.87084
G1 X124.230 Y63.587 E121.72337
G1 X124.937 Y63.587 E121.74619
G1 X142.913 Y81.563 E122.56645
G1 X142.913 Y80.856 E122.58928
G1 X125.644 Y63.587 E123.37726
G1 X126.352 Y63.587 E123.40008
G1 X142.913 Y80.148 E124.15580
G1 X142.913 Y79.441 E124.17862
G1 X127.059 Y63.587 E124.90206
G1 X127.766 Y63.587 E124.92488
G1 X142.913 Y78.734 E125.61604
G1 X142.913 Y78.026 E125.63886
G1 X128.474 Y63.587 E126.29775
G1 X129.181 Y63.587 E126.32057
G1 X142.913 Y77.319 E126.94719
G1 X142.913 Y76.612 E126.97001
G1 X129.888 Y63.587 E127.56435
G1 X130.595 Y63.587 E127.58717
G1 X142.913 Y75.905 E128.14923
G1 X142.913 Y75.197 E128.17206
G1 X131.303 Y63.587 E128.70185
G1 X132.010 Y63.587 E128.72467
G1 X142.913 Y74.490 E129.22219
G1 X142.913 Y73.783 E129.24501
G1 X132.087 Y62.958 E129.73898
G1 X132.087 Y62.251 E129.76180
G1 X142.913 Y73.076 E130.25578
G1 X142.913 Y72.368 E130.27860
G1 X132.087 Y61.543 E130.77257
G1 X132.087 Y60.836 E130.79540
G1 X142.913 Y71.661 E131.28937
G1 X142.913 Y70.954 E131.31219
G1 X132.087 Y60.129 E131.80617
G1 X132.087 Y59.421 E131.82899
G1 X142.913 Y70.247 E132.32296
G1 X142.913 Y69.539 E132.34578
G1 X132.087 Y58.714 E132.83976
G1 X132.668 Y58.587 E132.85893
G1 X142.913 Y68.832 E133.32642
G1 X142.913 Y68.125 E133.34924
G1 X133.375 Y58.587 E133.78445
G1 X134.083 Y58.587 E133.80727
G1 X142.913 Y67.417 E134.21020
G1 X142.913 Y66.710 E134.23302
G1 X134.790 Y58.587 E134.60368
G1 X135.497 Y58.587 E134.62650
G1 X142.913 Y66.003 E134.96489
G1 X142.913 Y65.296 E134.98771
G1 X136.204 Y58.587 E135.29382
G1 X136.912 Y58.587 E135.31664
G1 X142.913 Y64.588 E135.59048
G1 X142.913 Y63.881 E135.61330
G1 X142.619 Y63.587 E135.62670
G1 X141.913 Y62.881 F7800.000
G1 X137.619 Y58.587 E135.82263 F1080.000
G1 X138.326 Y58.587 E135.84545
G1 X141.913 Y62.174 E136.00910
G1 X141.913 Y61.467 E136.03193
G1 X139.033 Y58.587 E136.16331
G1 X139.741 Y58.587 E136.18613
G1 X141.913 Y60.759 E136.28523
G1 X141.913 Y60.052 E136.30806
G1 X140.448 Y58.587 E136.37489
G1 X141.155 Y58.587 E136.39771
G1 X141.913 Y59.345 E136.43226
G1 X141.913 Y58.637 E136.45509
G1 X141.863 Y58.587 E136.45737
G1 X96.537 Y75.501 F7800.000
G1 X132.448 Y111.413 E138.09609 F1080.000
G1 X133.155 Y111.413 E138.11891
G1 X85.330 Y63.587 E140.30129
G1 X86.037 Y63.587 E140.32411
G1 X133.862 Y111.413 E142.50649
G1 X134.570 Y111.413 E142.52931
G1 X86.745 Y63.587 E144.71169
G1 X87.452 Y63.587 E144.73451
G1 X135.277 Y111.413 E146.91689
G1 X135.984 Y111.413 E146.93971
G1 X88.159 Y63.587 E149.12209
G1 X88.866 Y63.587 E149.14491
G1 X136.691 Y111.413 E151.32729
G1 X137.399 Y111.413 E151.35011
G1 X89.574 Y63.587 E153.53249
G1 X90.281 Y63.587 E153.55532
G1 X138.106 Y111.413 E155.73769
G1 X131.741 Y111.413 F7800.000
G1 X96.183 Y75.855 E157.36028 F1080.000
G1 X95.829 Y76.209 E157.37642
G1 X131.033 Y111.413 E158.98286
G1 X130.326 Y111.413 E159.00568
G1 X95.476 Y76.562 E160.59599
G1 X95.122 Y76.916 E160.61213
G1 X129.619 Y111.413 E162.18630
G1 X128.912 Y111.413 E162.20912
G1 X94.768 Y77.269 E163.76716
G1 X94.415 Y77.623 E163.78330
G1 X128.204 Y111.413 E165.32519
G1 X127.497 Y111.413 E165.34802
G1 X94.061 Y77.977 E166.87378
G1 X93.708 Y78.330 E166.88991
G1 X126.790 Y111.413 E168.39954
G1 X126.082 Y111.413 E168.42236
G1 X93.354 Y78.684 E169.91585
G1 X93.000 Y79.038 E169.93198
G1 X125.375 Y111.413 E171.40933
G1 X124.668 Y111.413 E171.43215
G1 X92.647 Y79.391 E172.89337
G1 X92.293 Y79.745 E172.90950
G1 X123.961 Y111.413 E174.35458
G1 X123.253 Y111.413 E174.37740
G1 X91.939 Y80.099 E175.80634
G1 X91.586 Y80.452 E175.82247
G1 X122.546 Y111.413 E177.23527
G1 X121.839 Y111.413 E177.25810
G1 X91.014 Y80.587 E178.66472
G1 X90.307 Y80.587 E178.68754
G1 X121.132 Y111.413 E180.09417
G1 X120.424 Y111.413 E180.11699
G1 X89.599 Y80.587 E181.52362
G1 X88.892 Y80.587 E181.54644
G1 X119.717 Y111.413 E182.95306
G1 X119.010 Y111.413 E182.97588
G1 X88.185 Y80.587 E184.38251
G1 X87.477 Y80.587 E184.40533
G1 X118.303 Y111.413 E185.81196
G1 X117.595 Y111.413 E185.83478
G1 X86.770 Y80.587 E187.24141
G1 X86.063 Y80.587 E187.26423
G1 X116.888 Y111.413 E188.67085
G1 X116.181 Y111.413 E188.69367
G1 X85.356 Y80.587 E190.10030
G1 X84.648 Y80.587 E190.12312
G1 X115.473 Y111.413 E191.52975
G1 X114.766 Y111.413 E191.55257
G1 X83.941 Y80.587 E192.95919
G1 X83.234 Y80.587 E192.98202
G1 X114.059 Y111.413 E194.38864
G1 X113.352 Y111.413 E194.41146
G1 X82.527 Y80.587 E195.81809
G1 X81.819 Y80.587 E195.84091
G1 X112.644 Y111.413 E197.24754
G1 X111.937 Y111.413 E197.27036
G1 X81.112 Y80.587 E198.67698
G1 X80.405 Y80.587 E198.69981
G1 X111.230 Y111.413 E200.10643
G1 X110.523 Y111.413 E200.12925
G1 X79.697 Y80.587 E201.53588
G1 X78.990 Y80.587 E201.55870
G1 X109.815 Y111.413 E202.96533
G1 X109.108 Y111.413 E202.98815
G1 X78.283 Y80.587 E204.39477
G1 X77.576 Y80.587 E204.41760
G1 X108.401 Y111.413 E205.82422
G1 X107.693 Y111.413 E205.84704
G1 X59.868 Y63.587 E208.02942
G1 X59.161 Y63.587 E208.05224
G1 X106.986 Y111.413 E210.23462
G1 X106.279 Y111.413 E210.25744
G1 X58.454 Y63.587 E212.43982
G1 X57.747 Y63.587 E212.46264
G1 X105.572 Y111.413 E214.64502
G1 X104.864 Y111.413 E214.66785
G1 X57.039 Y63.587 E216.85022
G1 X56.332 Y63.587 E216.87305
G1 X104.157 Y111.413 E219.05543
G1 X103.450 Y111.413 E219.07825
G1 X55.625 Y63.587 E221.26063
G1 F1680.000 E219.26063
G92 E0
G1 X43.552 Y58.587 F7800.000
G1 E2.00000 F1680.000
G1 X43.913 Y58.948 E2.01645 F1080.000
G1 X43.913 Y59.655 E2.03927
G1 X42.845 Y58.587 E2.08799
G1 X42.138 Y58.587 E2.11081
G1 X43.913 Y60.362 E2.19181
G1 X43.913 Y61.070 E2.21463
G1 X41.430 Y58.587 E2.32790
G1 X40.723 Y58.587 E2.35072
G1 X43.913 Y61.777 E2.49626
G1 X43.913 Y62.484 E2.51909
G1 X40.016 Y58.587 E2.69690
G1 X39.308 Y58.587 E2.71973
G1 X50.834 Y70.113 E3.24564
G1 X50.126 Y70.113 E3.26846
G1 X38.601 Y58.587 E3.79438
G1 X37.894 Y58.587 E3.81720
G1 X49.419 Y70.113 E4.34312
G1 X48.712 Y70.113 E4.36594
G1 X37.187 Y58.587 E4.89186
G1 X36.479 Y58.587 E4.91468
G1 X48.004 Y70.113 E5.44060
G1 X47.297 Y70.113 E5.46342
G1 X35.772 Y58.587 E5.98934
G1 X35.065 Y58.587 E6.01216
G1 X46.913 Y70.435 E6.55280
G1 X46.913 Y71.142 E6.57562
G1 X34.358 Y58.587 E7.14853
G1 X34.087 Y59.025 E7.16511
G1 X46.913 Y71.850 E7.75035
G1 X46.913 Y72.557 E7.77317
G1 X34.087 Y59.732 E8.35841
G1 X34.087 Y60.439 E8.38124
G1 X46.913 Y73.264 E8.96648
G1 X46.913 Y73.971 E8.98930
