; generated by Slic3r 0.9.8 on 2013-10-03 at 18:42:57

; layer_height = 0.3
; perimeters = 2
; top_solid_layers = 3
; bottom_solid_layers = 3
; fill_density = 0.4
; perimeter_speed = 30
; infill_speed = 30
; travel_speed = 200
; scale = 1
; nozzle_diameter = 0.5
; filament_diameter = 2.98
; extrusion_multiplier = 0.9
; perimeters extrusion width = 0.70mm
; infill extrusion width = 0.70mm
; first layer extrusion width = 0.53mm

M107
M190 S65 ; wait for bed temperature to be reached
M104 S190 ; set temperature
G28 ; home all axes
G1 Z15 F120 ; lift nozzle
M109 S190 ; wait for temperature to be reached
G90 ; use absolute coordinates
G21 ; set units to millimeters
G92 E0
M82 ; use absolute distances for extrusion
G1 F1680.000 E-2.00000
G92 E0
G1 Z0.450 F12000.000
G1 X31.761 Y116.251
G1 F1680.000 E2.00000
G1 X30.461 Y116.121 F900.000 E2.03942
G1 X29.211 Y115.731 E2.07893
G1 X28.071 Y115.101 E2.11823
G1 X27.071 Y114.261 E2.15764
G1 X26.261 Y113.231 E2.19718
G1 X25.671 Y112.061 E2.23672
G1 X25.331 Y110.801 E2.27610
G1 X18.331 Y68.801 E3.56088
G1 X18.241 Y67.731 E3.59328
G1 X18.241 Y60.261 E3.81868
G1 X18.371 Y58.991 E3.85720
G1 X18.741 Y57.771 E3.89567
G1 X19.341 Y56.641 E3.93427
G1 X20.151 Y55.651 E3.97287
G1 X21.141 Y54.841 E4.01146
G1 X22.271 Y54.241 E4.05007
G1 X23.491 Y53.871 E4.08854
G1 X24.761 Y53.741 E4.12706
G1 X145.231 Y53.741 E7.76210
G1 X146.501 Y53.871 E7.80063
G1 X147.721 Y54.241 E7.83909
G1 X148.851 Y54.841 E7.87770
G1 X149.841 Y55.651 E7.91629
G1 X150.651 Y56.641 E7.95489
G1 X151.251 Y57.771 E7.99350
G1 X151.621 Y58.991 E8.03196
G1 X151.751 Y60.261 E8.07048
G1 X151.751 Y109.731 E9.56319
G1 X151.621 Y111.001 E9.60171
G1 X151.251 Y112.221 E9.64017
G1 X150.651 Y113.351 E9.67878
G1 X149.841 Y114.341 E9.71738
G1 X148.851 Y115.151 E9.75597
G1 X147.721 Y115.751 E9.79458
G1 X146.501 Y116.121 E9.83305
G1 X145.231 Y116.251 E9.87157
G1 X31.839 Y116.251 E13.29304
G1 X31.761 Y116.251 E13.29540
G1 F1680.000 E11.29540
G92 E0
G1 X75.719 Y73.783 F12000.000
G1 F1680.000 E2.00000
G1 X75.719 Y63.919 F900.000 E2.29764
G1 X88.989 Y63.919 E2.69804
G1 X89.496 Y63.406 E2.71981
G1 X94.849 Y68.757 E2.94819
G1 X89.823 Y73.783 E3.16268
G1 X75.797 Y73.783 E3.58590
G1 X75.719 Y73.783 E3.58825
G1 X76.238 Y73.263 F12000.000
G1 X76.238 Y64.438 F720.000 E3.85454
G1 X89.205 Y64.438 E4.24580
G1 X89.498 Y64.143 E4.25835
G1 X94.114 Y68.757 E4.45529
G1 X89.608 Y73.263 E4.64760
G1 X76.316 Y73.263 E5.04865
G1 X76.238 Y73.263 E5.05100
G1 X75.719 Y73.263 F12000.000
G1 F1680.000 E3.05100
G92 E0
G1 X64.849 Y68.757 F12000.000
G1 F1680.000 E2.00000
G1 X59.825 Y73.783 F900.000 E2.21443
G1 X45.719 Y73.783 E2.64007
G1 X45.719 Y63.919 E2.93771
G1 X58.991 Y63.919 E3.33819
G1 X59.501 Y63.409 E3.35995
G1 X64.794 Y68.702 E3.58581
G1 X64.849 Y68.757 E3.58816
G1 X64.114 Y68.757 F12000.000
G1 X59.610 Y73.263 F720.000 E3.78042
G1 X46.238 Y73.263 E4.18388
G1 X46.238 Y64.438 E4.45017
G1 X59.206 Y64.438 E4.84145
G1 X59.501 Y64.144 E4.85403
G1 X64.059 Y68.702 E5.04853
G1 X64.114 Y68.757 E5.05089
G1 X64.482 Y69.124 F12000.000
G1 F1680.000 E3.05089
G92 E0
G1 X25.283 Y60.783 F12000.000
G1 F1680.000 E2.00000
G1 X144.717 Y60.783 F900.000 E5.60378
G1 X144.717 Y109.217 E7.06521
G1 X32.283 Y109.217 E10.45777
G1 X32.283 Y67.219 E11.72501
G1 X25.283 Y67.219 E11.93623
G1 X25.283 Y60.861 E12.12807
G1 X25.283 Y60.783 E12.13042
G1 X24.763 Y60.263 F12000.000
G1 X145.236 Y60.263 F720.000 E15.76556
G1 X145.236 Y109.737 E17.25835
G1 X31.763 Y109.737 E20.68227
G1 X31.763 Y67.738 E21.94951
G1 X24.763 Y67.738 E22.16073
G1 X24.763 Y60.341 E22.38393
G1 X24.763 Y60.263 E22.38628
G1 X25.214 Y60.523 F12000.000
G1 F1680.000 E20.38628
G92 E0
G1 X26.257 Y66.865 F12000.000
G1 F1680.000 E2.00000
G1 X25.637 Y66.245 F1200.000 E2.02644
G1 X25.637 Y65.510 E2.04863
G1 X26.992 Y66.865 E2.10645
G1 X27.727 Y66.865 E2.12864
G1 X25.637 Y64.775 E2.21784
G1 X25.637 Y64.040 E2.24003
G1 X28.462 Y66.865 E2.36062
G1 X29.197 Y66.865 E2.38281
G1 X25.637 Y63.305 E2.53477
G1 X25.637 Y62.570 E2.55696
G1 X29.932 Y66.865 E2.74031
G1 X30.668 Y66.865 E2.76250
G1 X25.637 Y61.834 E2.97722
G1 X25.675 Y61.137 E2.99830
G1 X31.403 Y66.865 E3.24278
G1 F1680.000 E1.24278
G92 E0
G1 X45.291 Y74.137 F12000.000
G1 F1680.000 E2.00000
G1 X80.017 Y108.863 F1200.000 E3.48234
G1 X79.282 Y108.863 E3.50453
G1 X31.556 Y61.137 E5.54180
G1 X30.821 Y61.137 E5.56399
G1 X78.547 Y108.863 E7.60126
G1 X77.811 Y108.863 E7.62345
G1 X30.086 Y61.137 E9.66073
G1 X29.351 Y61.137 E9.68292
G1 X77.076 Y108.863 E11.72019
G1 X76.341 Y108.863 E11.74238
G1 X28.616 Y61.137 E13.77965
G1 X27.881 Y61.137 E13.80184
G1 X75.606 Y108.863 E15.83912
G1 X74.871 Y108.863 E15.86131
G1 X32.637 Y66.629 E17.66415
G1 X32.138 Y66.865 E17.68082
G1 X26.410 Y61.137 E17.92531
G1 X27.146 Y61.137 E17.94750
G1 X32.873 Y66.865 E18.19199
G1 X32.637 Y67.364 E18.20866
G1 X74.136 Y108.863 E19.98012
G1 X73.401 Y108.863 E20.00231
G1 X32.637 Y68.099 E21.74239
G1 X32.637 Y68.834 E21.76458
G1 X72.666 Y108.863 E23.47328
G1 X71.930 Y108.863 E23.49547
G1 X32.637 Y69.570 E25.17279
G1 X32.637 Y70.305 E25.19498
G1 X71.195 Y108.863 E26.84092
G1 X70.460 Y108.863 E26.86311
G1 X32.637 Y71.040 E28.47767
G1 X32.637 Y71.775 E28.49986
G1 X69.725 Y108.863 E30.08304
G1 X68.990 Y108.863 E30.10523
G1 X32.637 Y72.510 E31.65702
G1 X32.637 Y73.245 E31.67921
G1 X68.255 Y108.863 E33.19963
G1 X67.520 Y108.863 E33.22182
G1 X32.637 Y73.980 E34.71085
G1 X32.637 Y74.716 E34.73304
G1 X66.784 Y108.863 E36.19069
G1 X66.049 Y108.863 E36.21288
G1 X32.637 Y75.451 E37.63915
G1 X32.637 Y76.186 E37.66134
G1 X65.314 Y108.863 E39.05623
G1 X64.579 Y108.863 E39.07842
G1 X32.637 Y76.921 E40.44193
G1 X32.637 Y77.656 E40.46412
G1 X63.844 Y108.863 E41.79625
G1 X63.109 Y108.863 E41.81844
G1 X32.637 Y78.391 E43.11919
G1 X32.637 Y79.126 E43.14138
G1 X62.374 Y108.863 E44.41075
G1 X61.638 Y108.863 E44.43294
G1 X32.637 Y79.862 E45.67092
G1 X32.637 Y80.597 E45.69311
G1 X60.903 Y108.863 E46.89972
G1 X60.168 Y108.863 E46.92191
G1 X32.637 Y81.332 E48.09713
G1 X32.637 Y82.067 E48.11932
G1 X59.433 Y108.863 E49.26316
G1 X58.698 Y108.863 E49.28535
G1 X32.637 Y82.802 E50.39781
G1 X32.637 Y83.537 E50.42000
G1 X57.963 Y108.863 E51.50108
G1 X57.228 Y108.863 E51.52327
G1 X32.637 Y84.272 E52.57297
G1 X32.637 Y85.007 E52.59516
G1 X56.493 Y108.863 E53.61348
G1 X55.757 Y108.863 E53.63567
G1 X32.637 Y85.743 E54.62261
G1 X32.637 Y86.478 E54.64480
G1 X55.022 Y108.863 E55.60035
G1 X54.287 Y108.863 E55.62254
G1 X32.637 Y87.213 E56.54672
G1 X32.637 Y87.948 E56.56891
G1 X53.552 Y108.863 E57.46170
G1 X52.817 Y108.863 E57.48389
G1 X32.637 Y88.683 E58.34530
G1 X32.637 Y89.418 E58.36749
G1 X52.082 Y108.863 E59.19753
G1 X51.347 Y108.863 E59.21972
G1 X32.637 Y90.153 E60.01837
G1 X32.637 Y90.889 E60.04056
G1 X50.611 Y108.863 E60.80783
G1 X49.876 Y108.863 E60.83002
G1 X32.637 Y91.624 E61.56591
G1 X32.637 Y92.359 E61.58810
G1 X49.141 Y108.863 E62.29260
G1 X48.406 Y108.863 E62.31479
G1 X32.637 Y93.094 E62.98792
G1 X32.637 Y93.829 E63.01011
G1 X47.671 Y108.863 E63.65186
G1 X46.936 Y108.863 E63.67405
G1 X32.637 Y94.564 E64.28441
G1 X32.637 Y95.299 E64.30660
G1 X46.201 Y108.863 E64.88558
G1 X45.466 Y108.863 E64.90777
G1 X32.637 Y96.034 E65.45538
G1 X32.637 Y96.770 E65.47757
G1 X44.730 Y108.863 E65.99379
G1 X43.995 Y108.863 E66.01598
G1 X32.637 Y97.505 E66.50082
G1 X32.637 Y98.240 E66.52301
G1 X43.260 Y108.863 E66.97647
G1 X42.525 Y108.863 E66.99866
G1 X32.637 Y98.975 E67.42074
G1 X32.637 Y99.710 E67.44293
G1 X41.790 Y108.863 E67.83362
G1 X41.055 Y108.863 E67.85581
G1 X32.637 Y100.445 E68.21513
G1 X32.637 Y101.180 E68.23732
G1 X40.320 Y108.863 E68.56525
G1 X39.584 Y108.863 E68.58744
G1 X32.637 Y101.916 E68.88400
G1 X32.637 Y102.651 E68.90619
G1 X38.849 Y108.863 E69.17136
G1 X38.114 Y108.863 E69.19355
G1 X32.637 Y103.386 E69.42734
G1 X32.637 Y104.121 E69.44953
G1 X37.379 Y108.863 E69.65194
G1 X36.644 Y108.863 E69.67413
G1 X32.637 Y104.856 E69.84516
G1 X32.637 Y105.591 E69.86735
G1 X35.909 Y108.863 E70.00700
G1 X35.174 Y108.863 E70.02919
G1 X32.637 Y106.326 E70.13746
G1 X32.637 Y107.062 E70.15965
G1 X34.438 Y108.863 E70.23654
G1 X33.703 Y108.863 E70.25873
G1 X32.637 Y107.797 E70.30423
G1 X32.637 Y108.532 E70.32642
G1 X32.968 Y108.863 E70.34055
G1 F1680.000 E68.34055
G92 E0
G1 X45.365 Y74.210 F12000.000
G1 F1680.000 E2.00000
G1 X32.291 Y61.137 F1200.000 E2.55806
G1 X33.027 Y61.137 E2.58025
G1 X45.365 Y73.475 E3.10693
G1 X45.365 Y72.740 E3.12912
G1 X33.762 Y61.137 E3.62442
G1 X34.497 Y61.137 E3.64661
G1 X45.365 Y72.005 E4.11053
G1 X45.365 Y71.270 E4.13272
G1 X35.232 Y61.137 E4.56525
G1 X35.967 Y61.137 E4.58744
G1 X45.365 Y70.535 E4.98860
G1 X45.365 Y69.800 E5.01079
G1 X36.702 Y61.137 E5.38056
G1 X37.437 Y61.137 E5.40275
G1 X45.365 Y69.065 E5.74115
G1 X45.365 Y68.329 E5.76334
G1 X38.173 Y61.137 E6.07035
G1 X38.908 Y61.137 E6.09254
G1 X45.365 Y67.594 E6.36817
G1 X45.365 Y66.859 E6.39036
G1 X39.643 Y61.137 E6.63461
G1 X40.378 Y61.137 E6.65680
G1 X45.365 Y66.124 E6.86967
G1 X45.365 Y65.389 E6.89186
G1 X41.113 Y61.137 E7.07335
G1 X41.848 Y61.137 E7.09554
G1 X45.365 Y64.654 E7.24564
G1 X45.365 Y63.919 E7.26783
G1 X42.583 Y61.137 E7.38656
G1 X43.319 Y61.137 E7.40875
G1 X45.746 Y63.565 E7.51237
G1 X46.481 Y63.565 E7.53456
G1 X44.054 Y61.137 E7.63818
G1 X44.789 Y61.137 E7.66036
G1 X47.216 Y63.565 E7.76398
G1 X47.951 Y63.565 E7.78617
G1 X45.524 Y61.137 E7.88979
G1 X46.259 Y61.137 E7.91198
G1 X48.686 Y63.565 E8.01560
G1 X49.422 Y63.565 E8.03779
G1 X46.994 Y61.137 E8.14141
G1 X47.729 Y61.137 E8.16360
G1 X50.157 Y63.565 E8.26722
G1 X50.892 Y63.565 E8.28941
G1 X48.464 Y61.137 E8.39302
G1 X49.200 Y61.137 E8.41521
G1 X51.627 Y63.565 E8.51883
G1 X52.362 Y63.565 E8.54102
G1 X49.935 Y61.137 E8.64464
G1 X50.670 Y61.137 E8.66683
G1 X53.097 Y63.565 E8.77045
G1 X53.832 Y63.565 E8.79264
G1 X51.405 Y61.137 E8.89626
G1 X52.140 Y61.137 E8.91845
G1 X54.568 Y63.565 E9.02206
G1 X55.303 Y63.565 E9.04425
G1 X52.875 Y61.137 E9.14787
G1 X53.610 Y61.137 E9.17006
G1 X56.038 Y63.565 E9.27368
G1 X56.773 Y63.565 E9.29587
G1 X54.346 Y61.137 E9.39949
G1 X55.081 Y61.137 E9.42168
G1 X57.508 Y63.565 E9.52530
G1 X58.243 Y63.565 E9.54749
G1 X55.816 Y61.137 E9.65111
G1 X56.551 Y61.137 E9.67330
G1 X58.960 Y63.546 E9.77612
G1 X59.327 Y63.179 E9.79181
G1 X57.286 Y61.137 E9.87895
G1 X58.021 Y61.137 E9.90114
G1 X105.747 Y108.863 E11.93841
G1 X105.011 Y108.863 E11.96060
G1 X65.079 Y68.931 E13.66520
G1 X64.712 Y69.298 E13.68089
G1 X104.276 Y108.863 E15.36980
G1 X103.541 Y108.863 E15.39199
G1 X64.344 Y69.666 E17.06520
G1 X63.977 Y70.033 E17.08089
G1 X102.806 Y108.863 E18.73841
G1 X102.071 Y108.863 E18.76060
G1 X63.609 Y70.401 E20.40242
G1 X63.242 Y70.769 E20.41811
G1 X101.336 Y108.863 E22.04424
G1 X100.601 Y108.863 E22.06643
G1 X62.874 Y71.136 E23.67687
G1 X62.507 Y71.504 E23.69256
G1 X99.866 Y108.863 E25.28730
G1 X99.130 Y108.863 E25.30949
G1 X62.139 Y71.872 E26.88854
G1 X61.772 Y72.239 E26.90423
G1 X98.395 Y108.863 E28.46758
G1 X97.660 Y108.863 E28.48977
G1 X61.405 Y72.607 E30.03743
G1 X61.037 Y72.975 E30.05312
G1 X96.925 Y108.863 E31.58508
G1 X96.190 Y108.863 E31.60727
G1 X60.670 Y73.342 E33.12354
G1 X60.302 Y73.710 E33.13923
G1 X95.455 Y108.863 E34.63981
G1 X94.720 Y108.863 E34.66200
G1 X59.935 Y74.078 E36.14688
G1 X59.259 Y74.137 E36.16735
G1 X93.984 Y108.863 E37.64969
G1 X93.249 Y108.863 E37.67188
G1 X58.524 Y74.137 E39.15421
G1 X57.789 Y74.137 E39.17640
G1 X92.514 Y108.863 E40.65874
G1 X91.779 Y108.863 E40.68093
G1 X57.054 Y74.137 E42.16327
G1 X56.319 Y74.137 E42.18546
G1 X91.044 Y108.863 E43.66779
G1 X90.309 Y108.863 E43.68998
G1 X55.583 Y74.137 E45.17232
G1 X54.848 Y74.137 E45.19451
G1 X89.574 Y108.863 E46.67685
G1 X88.838 Y108.863 E46.69904
G1 X54.113 Y74.137 E48.18137
G1 X53.378 Y74.137 E48.20356
G1 X88.103 Y108.863 E49.68590
G1 X87.368 Y108.863 E49.70809
G1 X52.643 Y74.137 E51.19043
G1 X51.908 Y74.137 E51.21262
G1 X86.633 Y108.863 E52.69495
G1 X85.898 Y108.863 E52.71714
G1 X51.173 Y74.137 E54.19948
G1 X50.437 Y74.137 E54.22167
G1 X85.163 Y108.863 E55.70401
G1 X84.428 Y108.863 E55.72620
G1 X49.702 Y74.137 E57.20853
G1 X48.967 Y74.137 E57.23072
G1 X83.693 Y108.863 E58.71306
G1 X82.957 Y108.863 E58.73525
G1 X48.232 Y74.137 E60.21759
G1 X47.497 Y74.137 E60.23978
G1 X82.222 Y108.863 E61.72211
G1 X81.487 Y108.863 E61.74430
G1 X46.762 Y74.137 E63.22664
G1 X46.027 Y74.137 E63.24883
G1 X80.752 Y108.863 E64.73117
G1 F1680.000 E62.73117
G92 E0
G1 X106.482 Y108.863 F12000.000
G1 F1680.000 E2.00000
G1 X58.756 Y61.137 F1200.000 E4.03727
G1 X59.492 Y61.137 E4.05946
G1 X107.217 Y108.863 E6.09674
G1 X107.952 Y108.863 E6.11893
G1 X60.227 Y61.137 E8.15620
G1 X60.962 Y61.137 E8.17839
G1 X108.687 Y108.863 E10.21566
G1 X109.422 Y108.863 E10.23785
G1 X61.697 Y61.137 E12.27513
G1 X62.432 Y61.137 E12.29732
G1 X75.365 Y74.070 E12.84938
G1 X75.432 Y74.137 F12000.000
G1 X110.157 Y108.863 F1200.000 E14.33171
G1 X110.893 Y108.863 E14.35390
G1 X76.167 Y74.137 E15.83624
G1 X76.902 Y74.137 E15.85843
G1 X111.628 Y108.863 E17.34077
G1 X112.363 Y108.863 E17.36296
G1 X77.637 Y74.137 E18.84529
G1 X78.373 Y74.137 E18.86748
G1 X113.098 Y108.863 E20.34982
G1 X113.833 Y108.863 E20.37201
G1 X79.108 Y74.137 E21.85435
G1 X79.843 Y74.137 E21.87654
G1 X114.568 Y108.863 E23.35887
G1 X115.303 Y108.863 E23.38106
G1 X80.578 Y74.137 E24.86340
G1 X81.313 Y74.137 E24.88559
G1 X116.039 Y108.863 E26.36793
G1 X116.774 Y108.863 E26.39012
G1 X82.048 Y74.137 E27.87245
G1 X82.783 Y74.137 E27.89464
G1 X117.509 Y108.863 E29.37698
G1 X118.244 Y108.863 E29.39917
G1 X83.519 Y74.137 E30.88151
G1 X84.254 Y74.137 E30.90370
G1 X118.979 Y108.863 E32.38603
G1 X119.714 Y108.863 E32.40822
G1 X84.989 Y74.137 E33.89056
G1 X85.724 Y74.137 E33.91275
G1 X120.449 Y108.863 E35.39509
G1 X121.184 Y108.863 E35.41728
G1 X86.459 Y74.137 E36.89962
G1 X87.194 Y74.137 E36.92180
G1 X121.920 Y108.863 E38.40414
G1 X122.655 Y108.863 E38.42633
G1 X87.929 Y74.137 E39.90867
G1 X88.664 Y74.137 E39.93086
G1 X123.390 Y108.863 E41.41320
G1 X124.125 Y108.863 E41.43538
G1 X89.400 Y74.137 E42.91772
G1 X90.004 Y74.006 F12000.000
G1 X124.860 Y108.863 F1200.000 E44.40565
G1 X125.595 Y108.863 E44.42784
G1 X90.371 Y73.639 E45.93146
G1 X90.739 Y73.271 E45.94715
G1 X126.330 Y108.863 E47.46646
G1 X127.066 Y108.863 E47.48865
G1 X91.106 Y72.904 E49.02365
G1 X91.474 Y72.536 E49.03934
G1 X127.801 Y108.863 E50.59003
G1 X128.536 Y108.863 E50.61222
G1 X91.842 Y72.169 E52.17860
G1 X92.209 Y71.801 E52.19429
G1 X129.271 Y108.863 E53.77636
G1 X130.006 Y108.863 E53.79855
G1 X92.577 Y71.433 E55.39631
G1 X92.944 Y71.066 E55.41200
G1 X130.741 Y108.863 E57.02545
G1 X131.476 Y108.863 E57.04764
G1 X93.312 Y70.698 E58.67678
G1 X93.679 Y70.331 E58.69247
G1 X132.211 Y108.863 E60.33731
G1 X132.947 Y108.863 E60.35950
G1 X94.047 Y69.963 E62.02002
G1 X94.415 Y69.596 E62.03571
G1 X133.682 Y108.863 E63.71193
G1 X134.417 Y108.863 E63.73412
G1 X94.782 Y69.228 E65.42602
G1 X95.150 Y68.860 E65.44171
G1 X135.152 Y108.863 E67.14931
G1 X135.887 Y108.863 E67.17150
G1 X88.162 Y61.137 E69.20877
G1 X87.427 Y61.137 E69.23096
G1 X89.393 Y63.104 E69.31490
G1 X89.027 Y63.473 E69.33059
G1 X86.692 Y61.137 E69.43031
G1 X85.956 Y61.137 E69.45250
G1 X88.384 Y63.565 E69.55611
G1 X87.649 Y63.565 E69.57830
G1 X85.221 Y61.137 E69.68192
G1 X84.486 Y61.137 E69.70411
G1 X86.913 Y63.565 E69.80773
G1 X86.178 Y63.565 E69.82992
G1 X83.751 Y61.137 E69.93354
G1 X83.016 Y61.137 E69.95573
G1 X85.443 Y63.565 E70.05935
G1 X84.708 Y63.565 E70.08154
G1 X82.281 Y61.137 E70.18516
G1 X81.546 Y61.137 E70.20735
G1 X83.973 Y63.565 E70.31096
G1 X83.238 Y63.565 E70.33315
G1 X80.810 Y61.137 E70.43677
G1 X80.075 Y61.137 E70.45896
G1 X82.503 Y63.565 E70.56258
G1 X81.768 Y63.565 E70.58477
G1 X79.340 Y61.137 E70.68839
G1 X78.605 Y61.137 E70.71058
G1 X81.032 Y63.565 E70.81420
G1 X80.297 Y63.565 E70.83639
G1 X77.870 Y61.137 E70.94000
G1 X77.135 Y61.137 E70.96219
G1 X79.562 Y63.565 E71.06581
G1 X78.827 Y63.565 E71.08800
G1 X76.400 Y61.137 E71.19162
G1 X75.664 Y61.137 E71.21381
G1 X78.092 Y63.565 E71.31743
G1 X77.357 Y63.565 E71.33962
G1 X74.929 Y61.137 E71.44324
G1 X74.194 Y61.137 E71.46543
G1 X76.622 Y63.565 E71.56905
G1 X75.886 Y63.565 E71.59124
G1 X73.459 Y61.137 E71.69485
