; generated by Slic3r 1.0.0RC1 on 2013-11-20 at 10:50:42

; layer_height = 0.4
; perimeters = 1
; top_solid_layers = 3
; bottom_solid_layers = 3
; fill_density = 1
; perimeter_speed = 30
; infill_speed = 60
; travel_speed = 130
; nozzle_diameter = 0.5
; filament_diameter = 2.98
; extrusion_multiplier = 0.9
; perimeters extrusion width = 0.50mm
; infill extrusion width = 0.50mm
; solid infill extrusion width = 0.50mm
; top infill extrusion width = 0.50mm
; support material extrusion width = 0.50mm

G21 ; set units to millimeters
M107
M104 S190 ; set temperature
G28 ; home all axes
G1 Z15 F120 ; lift nozzle
M109 S190 ; wait for temperature to be reached
G90 ; use absolute coordinates
G92 E0
M82 ; use absolute distances for extrusion
G1 F1680.000 E-2.00000
G92 E0
G1 Z0.500 F7800.000
G1 X62.200 Y41.310 F7800.000
G1 E2.00000 F1680.000
G1 X62.970 Y40.140 E2.04518 F540.000
G1 X63.970 Y39.150 E2.09058
G1 X65.150 Y38.410 E2.13551
G1 X66.470 Y37.930 E2.18082
G1 X71.640 Y36.680 E2.35241
G1 X72.400 Y36.550 E2.37728
G1 X73.170 Y36.500 E2.40218
G1 X79.770 Y36.500 E2.61509
G1 X80.530 Y36.540 E2.63964
G1 X81.280 Y36.680 E2.66425
G1 X86.510 Y37.930 E2.83772
G1 X87.320 Y38.180 E2.86507
G1 X88.080 Y38.530 E2.89206
G1 X94.750 Y42.120 E3.13642
G1 X101.670 Y46.120 E3.39427
G1 X102.810 Y46.960 E3.43995
G1 X103.740 Y48.020 E3.48544
G1 X104.420 Y49.260 E3.53106
G1 X104.820 Y50.610 E3.57649
G1 X108.170 Y69.420 E4.19284
G1 X108.350 Y70.570 E4.23039
G1 X108.430 Y71.300 E4.25408
G1 X108.490 Y72.470 E4.29187
G1 X108.490 Y73.000 E4.30897
G1 X108.460 Y73.740 E4.33286
G1 X108.430 Y74.190 E4.34741
G1 X108.300 Y75.280 E4.38282
G1 X108.070 Y76.530 E4.42383
G1 X107.780 Y77.610 E4.45990
G1 X92.690 Y124.970 E6.06340
G1 X92.140 Y126.220 E6.10745
G1 X91.350 Y127.330 E6.15140
G1 X90.340 Y128.250 E6.19548
G1 X89.160 Y128.930 E6.23941
G1 X87.860 Y129.360 E6.28359
G1 X86.500 Y129.500 E6.32769
G1 X84.840 Y129.490 E6.38124
G1 X66.100 Y128.490 E6.98665
G1 X64.720 Y128.260 E7.03178
G1 X63.410 Y127.740 E7.07725
G1 X62.240 Y126.960 E7.12261
G1 X61.280 Y125.940 E7.16780
G1 X60.550 Y124.730 E7.21339
G1 X60.100 Y123.400 E7.25868
G1 X59.950 Y122.000 E7.30410
G1 X59.950 Y86.760 E8.44093
G1 X61.500 Y44.010 E9.82094
G1 X61.710 Y42.630 E9.86597
G1 X62.174 Y41.380 E9.90898
G1 F1680.000 E7.90898
G92 E0
G1 X87.816 Y54.291 F7800.000
G1 E2.00000 F1680.000
G1 X88.295 Y53.421 E2.03204 F540.000
G1 X88.975 Y52.697 E2.06408
G1 X89.813 Y52.165 E2.09612
G1 X90.757 Y51.858 E2.12815
G1 X91.574 Y51.807 E2.15455
G1 X91.749 Y51.796 E2.16021
G1 X92.725 Y51.982 E2.19225
G1 X93.623 Y52.405 E2.22429
G1 X94.388 Y53.038 E2.25632
G1 X94.972 Y53.841 E2.28836
G1 X95.338 Y54.765 E2.32040
G1 X95.462 Y55.750 E2.35244
G1 X95.338 Y56.735 E2.38448
G1 X94.972 Y57.659 E2.41652
G1 X94.911 Y57.742 E2.41985
G1 X94.388 Y58.462 E2.44856
G1 X93.623 Y59.095 E2.48060
G1 X92.724 Y59.518 E2.51264
G1 X91.971 Y59.662 E2.53738
G1 X91.749 Y59.704 E2.54468
G1 X90.757 Y59.642 E2.57673
G1 X89.813 Y59.335 E2.60876
G1 X89.726 Y59.280 E2.61210
G1 X88.974 Y58.803 E2.64080
G1 X88.295 Y58.079 E2.67284
G1 X87.816 Y57.208 E2.70489
G1 X87.569 Y56.247 E2.73692
G1 X87.569 Y55.253 E2.76896
G1 X87.797 Y54.364 E2.79858
G1 X88.285 Y54.477 F7800.000
G1 X88.702 Y53.717 E2.82655 F540.000
G1 X89.296 Y53.085 E2.85451
G1 X90.028 Y52.621 E2.88248
G1 X90.852 Y52.353 E2.91044
G1 X91.717 Y52.299 E2.93841
G1 X92.569 Y52.461 E2.96637
G1 X93.384 Y52.856 E2.99559
G1 X94.021 Y53.383 E3.02226
G1 X94.530 Y54.084 E3.05023
G1 X94.850 Y54.890 E3.07819
G1 X94.958 Y55.750 E3.10616
G1 X94.850 Y56.610 E3.13412
G1 X94.507 Y57.449 E3.16334
G1 X94.021 Y58.117 E3.19001
G1 X93.353 Y58.670 E3.21798
G1 X92.569 Y59.039 E3.24594
G1 X91.877 Y59.171 E3.26864
G1 X91.717 Y59.201 E3.27391
G1 X90.852 Y59.147 E3.30187
G1 X89.994 Y58.858 E3.33109
G1 X89.296 Y58.415 E3.35776
G1 X88.702 Y57.783 E3.38572
G1 X88.285 Y57.023 E3.41369
G1 X88.069 Y56.183 E3.44165
G1 X88.069 Y55.317 E3.46962
G1 X88.266 Y54.550 E3.49517
G1 F1680.000 E1.49517
G92 E0
G1 X89.785 Y64.679 F7800.000
G1 E2.00000 F1680.000
G1 X90.638 Y64.544 E2.02786 F540.000
G1 X91.500 Y64.499 E2.05572
G1 X92.363 Y64.544 E2.08358
G1 X93.215 Y64.679 E2.11144
G1 X94.050 Y64.903 E2.13930
G1 X94.856 Y65.212 E2.16717
G1 X95.626 Y65.604 E2.19503
G1 X96.314 Y66.052 E2.22151
G1 X97.021 Y66.618 E2.25074
G1 X97.632 Y67.229 E2.27860
G1 X98.175 Y67.900 E2.30646
G1 X98.646 Y68.624 E2.33432
G1 X99.038 Y69.394 E2.36218
G1 X99.347 Y70.200 E2.39005
G1 X99.571 Y71.034 E2.41790
G1 X99.706 Y71.888 E2.44577
G1 X99.751 Y72.750 E2.47363
G1 X99.706 Y73.613 E2.50149
G1 X99.571 Y74.465 E2.52935
G1 X99.347 Y75.300 E2.55721
G1 X99.038 Y76.106 E2.58507
G1 X98.646 Y76.876 E2.61293
G1 X98.175 Y77.600 E2.64080
G1 X97.632 Y78.271 E2.66866
G1 X97.021 Y78.882 E2.69652
G1 X96.350 Y79.425 E2.72438
G1 X95.625 Y79.896 E2.75224
G1 X94.856 Y80.288 E2.78011
G1 X94.050 Y80.597 E2.80797
G1 X93.215 Y80.821 E2.83582
G1 X92.362 Y80.956 E2.86369
G1 X91.500 Y81.001 E2.89155
G1 X90.637 Y80.956 E2.91941
G1 X89.785 Y80.821 E2.94726
G1 X88.950 Y80.597 E2.97513
G1 X88.144 Y80.288 E3.00299
G1 X87.374 Y79.896 E3.03085
G1 X86.650 Y79.425 E3.05871
G1 X85.979 Y78.882 E3.08657
G1 X85.368 Y78.271 E3.11443
G1 X84.802 Y77.564 E3.14366
G1 X84.354 Y76.876 E3.17015
G1 X83.962 Y76.106 E3.19801
G1 X83.653 Y75.300 E3.22587
G1 X83.429 Y74.465 E3.25373
G1 X83.294 Y73.612 E3.28159
G1 X83.249 Y72.750 E3.30945
G1 X83.294 Y71.888 E3.33731
G1 X83.423 Y71.077 E3.36380
G1 X83.653 Y70.200 E3.39303
G1 X83.962 Y69.394 E3.42089
G1 X84.354 Y68.624 E3.44875
G1 X84.825 Y67.900 E3.47661
G1 X85.368 Y67.229 E3.50448
G1 X85.979 Y66.618 E3.53234
G1 X86.650 Y66.075 E3.56020
G1 X87.375 Y65.604 E3.58806
G1 X88.144 Y65.212 E3.61592
G1 X88.950 Y64.903 E3.64379
G1 X89.712 Y64.699 E3.66923
G1 X89.873 Y65.173 F7800.000
G1 X90.690 Y65.042 E3.69592 F378.000
G1 X91.500 Y65.000 E3.72209
G1 X92.310 Y65.042 E3.74827
G1 X93.111 Y65.169 E3.77443
G1 X93.895 Y65.379 E3.80061
G1 X94.652 Y65.670 E3.82678
G1 X95.375 Y66.038 E3.85295
G1 X96.056 Y66.480 E3.87912
G1 X96.686 Y66.990 E3.90529
G1 X97.260 Y67.564 E3.93146
G1 X97.770 Y68.194 E3.95763
G1 X98.212 Y68.875 E3.98380
G1 X98.580 Y69.598 E4.00997
G1 X98.871 Y70.355 E4.03614
G1 X99.081 Y71.139 E4.06231
G1 X99.208 Y71.940 E4.08848
G1 X99.250 Y72.750 E4.11465
G1 X99.208 Y73.560 E4.14082
G1 X99.081 Y74.361 E4.16699
G1 X98.871 Y75.145 E4.19316
G1 X98.580 Y75.902 E4.21933
G1 X98.212 Y76.625 E4.24550
G1 X97.770 Y77.306 E4.27167
G1 X97.260 Y77.936 E4.29784
G1 X96.686 Y78.510 E4.32402
G1 X96.056 Y79.020 E4.35019
G1 X95.375 Y79.462 E4.37636
G1 X94.652 Y79.830 E4.40253
G1 X93.895 Y80.121 E4.42870
G1 X93.111 Y80.331 E4.45487
G1 X92.310 Y80.458 E4.48104
G1 X91.500 Y80.500 E4.50721
G1 X90.690 Y80.458 E4.53338
G1 X89.889 Y80.331 E4.55955
G1 X89.105 Y80.121 E4.58572
G1 X88.348 Y79.830 E4.61189
G1 X87.625 Y79.462 E4.63806
G1 X86.944 Y79.020 E4.66423
G1 X86.314 Y78.510 E4.69040
G1 X85.740 Y77.936 E4.71657
G1 X85.221 Y77.292 E4.74327
G1 X84.788 Y76.625 E4.76891
G1 X84.420 Y75.902 E4.79508
G1 X84.129 Y75.145 E4.82125
G1 X83.919 Y74.361 E4.84742
G1 X83.792 Y73.560 E4.87359
G1 X83.750 Y72.750 E4.89976
G1 X83.792 Y71.940 E4.92593
G1 X83.916 Y71.155 E4.95157
G1 X84.129 Y70.355 E4.97827
G1 X84.420 Y69.598 E5.00444
G1 X84.788 Y68.875 E5.03061
G1 X85.230 Y68.194 E5.05678
G1 X85.740 Y67.564 E5.08295
G1 X86.314 Y66.990 E5.10912
G1 X86.944 Y66.480 E5.13529
G1 X87.625 Y66.038 E5.16146
G1 X88.348 Y65.670 E5.18763
G1 X89.105 Y65.379 E5.21381
G1 X89.800 Y65.193 E5.23702
G1 X91.620 Y62.815 F7800.000
G1 X93.859 Y63.290 E5.31084 F540.000
G1 X94.513 Y63.478 E5.33279
G1 X95.152 Y63.710 E5.35475
G1 X95.774 Y63.987 E5.37670
G1 X96.375 Y64.307 E5.39865
G1 X96.952 Y64.667 E5.42061
G1 X97.502 Y65.067 E5.44256
G1 X98.024 Y65.505 E5.46451
G1 X98.513 Y65.977 E5.48646
G1 X98.969 Y66.483 E5.50842
G1 X99.388 Y67.019 E5.53037
G1 X99.768 Y67.584 E5.55232
G1 X100.108 Y68.173 E5.57428
G1 X100.407 Y68.784 E5.59623
G1 X100.662 Y69.415 E5.61818
G1 X100.872 Y70.063 E5.64014
G1 X101.037 Y70.723 E5.66209
G1 X101.155 Y71.393 E5.68404
G1 X101.226 Y72.070 E5.70599
G1 X101.250 Y72.750 E5.72795
G1 X101.226 Y73.430 E5.74990
G1 X101.155 Y74.107 E5.77185
G1 X101.037 Y74.777 E5.79381
G1 X100.872 Y75.437 E5.81576
G1 X100.662 Y76.085 E5.83771
G1 X100.407 Y76.715 E5.85967
G1 X100.108 Y77.327 E5.88162
G1 X99.768 Y77.916 E5.90357
G1 X99.388 Y78.481 E5.92552
G1 X98.969 Y79.017 E5.94748
G1 X98.513 Y79.523 E5.96943
G1 X98.024 Y79.995 E5.99138
G1 X97.502 Y80.433 E6.01334
G1 X96.952 Y80.833 E6.03529
G1 X96.375 Y81.193 E6.05724
G1 X95.774 Y81.513 E6.07919
G1 X95.152 Y81.790 E6.10115
G1 X94.513 Y82.022 E6.12310
G1 X93.859 Y82.210 E6.14505
G1 X93.193 Y82.351 E6.16701
G1 X92.519 Y82.446 E6.18896
G1 X91.840 Y82.494 E6.21091
G1 X84.250 Y82.500 E6.45577
G1 X84.250 Y114.301 E7.48168
G1 X68.750 Y114.301 E7.98170
G1 X68.750 Y45.000 E10.21735
G1 X84.250 Y45.000 E10.71737
G1 X84.250 Y48.500 E10.83028
G1 X91.299 Y48.500 E11.05768
G1 X97.678 Y52.183 E11.29531
G1 X97.678 Y59.317 E11.52545
G1 X91.685 Y62.777 E11.74868
G1 X92.999 Y62.596 F7800.000
G1 X93.980 Y62.805 E11.78104 F378.000
G1 X94.667 Y63.002 E11.80412
G1 X95.340 Y63.247 E11.82720
G1 X95.728 Y63.419 E11.84090
G1 X95.993 Y63.537 E11.85028
G1 X96.625 Y63.873 E11.87336
G1 X97.232 Y64.252 E11.89644
G1 X97.810 Y64.673 E11.91952
G1 X98.358 Y65.133 E11.94260
G1 X98.873 Y65.630 E11.96568
G1 X99.352 Y66.162 E11.98876
G1 X99.792 Y66.725 E12.01183
G1 X100.192 Y67.318 E12.03491
G1 X100.550 Y67.938 E12.05799
G1 X100.864 Y68.581 E12.08107
G1 X101.132 Y69.244 E12.10415
G1 X101.353 Y69.925 E12.12723
G1 X101.526 Y70.619 E12.15031
G1 X101.650 Y71.323 E12.17339
G1 X101.725 Y72.035 E12.19647
G1 X101.750 Y72.750 E12.21955
G1 X101.725 Y73.465 E12.24263
G1 X101.650 Y74.176 E12.26571
G1 X101.526 Y74.881 E12.28879
G1 X101.353 Y75.575 E12.31187
G1 X101.132 Y76.256 E12.33495
G1 X100.864 Y76.919 E12.35803
G1 X100.550 Y77.562 E12.38111
G1 X100.192 Y78.182 E12.40419
G1 X99.792 Y78.775 E12.42727
G1 X99.352 Y79.338 E12.45035
G1 X98.873 Y79.870 E12.47342
G1 X98.358 Y80.367 E12.49650
G1 X97.810 Y80.827 E12.51958
G1 X97.232 Y81.248 E12.54266
G1 X96.625 Y81.627 E12.56574
G1 X95.993 Y81.962 E12.58882
G1 X95.340 Y82.253 E12.61190
G1 X94.667 Y82.498 E12.63498
G1 X93.980 Y82.695 E12.65806
G1 X93.280 Y82.844 E12.68114
G1 X92.571 Y82.944 E12.70422
G1 X91.858 Y82.994 E12.72730
G1 X91.250 Y83.000 E12.74691
G1 X84.750 Y83.000 E12.95659
G1 X84.750 Y114.801 E13.98250
G1 X68.250 Y114.801 E14.51478
G1 X68.250 Y44.500 E16.78269
G1 X84.750 Y44.500 E17.31497
G1 X84.750 Y48.000 E17.42788
G1 X91.433 Y48.000 E17.64347
G1 X98.178 Y51.894 E17.89473
G1 X98.178 Y59.606 E18.14350
G1 X93.064 Y62.559 E18.33402
G1 X91.721 Y63.181 F7800.000
G1 X92.817 Y64.277 E18.38440 F1080.000
G1 X93.717 Y64.465 E18.41427
G1 X92.626 Y63.373 E18.46444
G1 X93.530 Y63.565 E18.49449
G1 X94.791 Y64.826 E18.55244
G1 X94.515 Y63.837 E18.58581
G1 X96.350 Y65.673 E18.67018
G1 X95.742 Y64.352 F7800.000
G1 X99.895 Y68.506 E18.86106 F1080.000
G1 X99.424 Y69.459 E18.89562
G1 X100.689 Y70.724 E18.95377
G1 X100.835 Y71.583 E18.98207
G1 X99.785 Y70.533 E19.03032
G1 X99.976 Y71.435 E19.06030
G1 X100.898 Y72.358 E19.10270
G1 X100.901 Y73.073 E19.12593
G1 X100.062 Y72.234 E19.16449
G1 X100.078 Y72.962 E19.18816
G1 X100.854 Y73.738 E19.22385
G1 X100.767 Y74.363 E19.24435
G1 X100.042 Y73.639 E19.27766
G1 X99.946 Y74.254 E19.29792
G1 X100.645 Y74.954 E19.33005
G1 X100.492 Y75.513 E19.34890
G1 X99.819 Y74.840 E19.37983
G1 X99.669 Y75.402 E19.39873
G1 X100.313 Y76.046 E19.42834
G1 X100.108 Y76.554 E19.44612
G1 X99.471 Y75.917 E19.47538
G1 X99.258 Y76.416 E19.49302
G1 X99.876 Y77.034 E19.52141
G1 X99.623 Y77.493 E19.53845
G1 X99.018 Y76.888 E19.56627
G1 X98.751 Y77.333 E19.58314
G1 X99.350 Y77.933 E19.61069
G1 X99.059 Y78.354 E19.62733
G1 X98.470 Y77.765 E19.65438
G1 X98.154 Y78.162 E19.67085
G1 X98.746 Y78.753 E19.69806
G1 X98.412 Y79.131 E19.71445
G1 X97.830 Y78.550 E19.74118
G1 X97.474 Y78.906 E19.75755
G1 X98.060 Y79.492 E19.78447
G1 X97.691 Y79.835 E19.80085
G1 X97.104 Y79.248 E19.82780
G1 X96.711 Y79.567 E19.84425
G1 X97.303 Y80.160 E19.87149
G1 X96.891 Y80.460 E19.88805
G1 X96.295 Y79.863 E19.91547
G1 X95.863 Y80.144 E19.93221
G1 X96.461 Y80.742 E19.95969
G1 X96.011 Y81.005 E19.97661
G1 X95.397 Y80.390 E20.00484
G1 X94.919 Y80.625 E20.02214
G1 X95.542 Y81.247 E20.05074
G1 X95.049 Y81.467 E20.06827
G1 X94.404 Y80.822 E20.09788
G1 X93.866 Y80.996 E20.11627
G1 X94.528 Y81.658 E20.14670
G1 X93.981 Y81.824 E20.16526
G1 X93.304 Y81.146 E20.19640
G1 X92.691 Y81.245 E20.21659
G1 X93.406 Y81.961 E20.24949
G1 X92.799 Y82.066 E20.26952
G1 X92.043 Y81.310 E20.30425
G1 X91.352 Y81.331 E20.32674
G1 X92.154 Y82.134 E20.36362
G1 X91.465 Y82.157 E20.38603
G1 X90.600 Y81.291 E20.42579
G1 X89.753 Y81.157 E20.45364
G1 X90.753 Y82.157 E20.49959
G1 X90.042 Y82.158 E20.52272
G1 X88.775 Y80.891 E20.58094
G1 X87.520 Y80.348 F7800.000
G1 X89.330 Y82.158 E20.66413 F1080.000
G1 X83.906 Y76.734 F7800.000
G1 X69.087 Y61.916 E21.34515 F1080.000
G1 X69.087 Y62.628 E21.36829
G1 X88.618 Y82.159 E22.26588
G1 X87.906 Y82.160 E22.28901
G1 X69.087 Y63.340 E23.15388
G1 X69.087 Y64.053 E23.17703
G1 X87.195 Y82.160 E24.00920
G1 X86.483 Y82.161 E24.03233
G1 X69.087 Y64.765 E24.83179
G1 X69.087 Y65.477 E24.85494
G1 X85.771 Y82.161 E25.62169
G1 X85.060 Y82.162 E25.64482
G1 X69.087 Y66.190 E26.37887
G1 X69.087 Y66.902 E26.40201
G1 X84.348 Y82.163 E27.10335
G1 X83.913 Y82.440 E27.12012
G1 X69.087 Y67.614 E27.80145
G1 X69.087 Y68.327 E27.82460
G1 X83.913 Y83.152 E28.50593
G1 X83.913 Y83.864 E28.52908
G1 X69.087 Y69.039 E29.21042
G1 X69.087 Y69.751 E29.23356
G1 X83.913 Y84.577 E29.91490
G1 X83.913 Y85.289 E29.93805
G1 X69.087 Y70.463 E30.61938
G1 X69.087 Y71.176 E30.64253
G1 X83.913 Y86.001 E31.32386
G1 X83.913 Y86.713 E31.34701
G1 X69.087 Y71.888 E32.02835
G1 X69.087 Y72.600 E32.05149
G1 X83.913 Y87.426 E32.73283
G1 X83.913 Y88.138 E32.75597
G1 X69.087 Y73.313 E33.43731
G1 X69.087 Y74.025 E33.46046
G1 X83.913 Y88.850 E34.14179
G1 X83.913 Y89.563 E34.16494
G1 X69.087 Y74.737 E34.84627
G1 X69.087 Y75.450 E34.86942
G1 X83.913 Y90.275 E35.55076
G1 X83.913 Y90.987 E35.57390
G1 X69.087 Y76.162 E36.25524
G1 X69.087 Y76.874 E36.27839
G1 X83.913 Y91.700 E36.95972
G1 X83.913 Y92.412 E36.98287
G1 X69.087 Y77.586 E37.66420
G1 X69.087 Y78.299 E37.68735
G1 X83.913 Y93.124 E38.36868
G1 X83.913 Y93.836 E38.39183
G1 X69.087 Y79.011 E39.07317
G1 X69.087 Y79.723 E39.09631
G1 X83.913 Y94.549 E39.77765
G1 X83.913 Y95.261 E39.80080
G1 X69.087 Y80.436 E40.48213
G1 X69.087 Y81.148 E40.50528
G1 X83.913 Y95.973 E41.18661
G1 X83.913 Y96.686 E41.20976
G1 X69.087 Y81.860 E41.89110
G1 X69.087 Y82.573 E41.91424
G1 X83.913 Y97.398 E42.59558
G1 X83.913 Y98.110 E42.61872
G1 X69.087 Y83.285 E43.30006
G1 X69.087 Y83.997 E43.32321
G1 X83.913 Y98.823 E44.00454
G1 X83.913 Y99.535 E44.02769
G1 X69.087 Y84.709 E44.70902
G1 X69.087 Y85.422 E44.73217
G1 X83.913 Y100.247 E45.41351
G1 X83.913 Y100.959 E45.43665
G1 X69.087 Y86.134 E46.11799
G1 X69.087 Y86.846 E46.14114
G1 X83.913 Y101.672 E46.82247
G1 X83.913 Y102.384 E46.84562
G1 X69.087 Y87.559 E47.52695
G1 X69.087 Y88.271 E47.55010
G1 X83.913 Y103.096 E48.23143
G1 X83.913 Y103.809 E48.25458
G1 X69.087 Y88.983 E48.93592
G1 X69.087 Y89.696 E48.95906
G1 X83.913 Y104.521 E49.64040
G1 X83.913 Y105.233 E49.66355
G1 X69.087 Y90.408 E50.34488
G1 X69.087 Y91.120 E50.36803
G1 X83.913 Y105.946 E51.04936
G1 X83.913 Y106.658 E51.07251
G1 X69.087 Y91.832 E51.75385
G1 X69.087 Y92.545 E51.77699
G1 X83.913 Y107.370 E52.45833
G1 X83.913 Y108.083 E52.48147
G1 X69.087 Y93.257 E53.16281
G1 X69.087 Y93.969 E53.18596
