; generated by Slic3r 1.2.1 on 2015-01-10 at 11:03:51

; external perimeters extrusion width = 0.50mm
; perimeters extrusion width = 0.50mm
; infill extrusion width = 0.50mm
; solid infill extrusion width = 0.50mm
; top infill extrusion width = 0.50mm

M104 S190 ; set temperature
G28 ; home all axes
G1 Z15 F120 ; lift nozzle
M109 S190 ; wait for temperature to be reached
G21 ; set units to millimeters
G90 ; use absolute coordinates
M82 ; use absolute distances for extrusion
G92 E0
M106 S102
G1 E-2.00000 F1680.000
G92 E0
G1 Z0.400 F12000.000
G1 X17.866 Y34.400 F12000.000
G1 E2.00000 F1680.000
G1 X21.000 Y33.582 E2.09699 F1200.000
G1 X149.000 Y33.582 E5.92983
G1 X151.222 Y33.979 E5.99742 F1200.000
G1 X153.169 Y35.121 E6.06500
G1 X154.600 Y36.866 E6.13259
G1 X155.418 Y40.000 E6.22958
G1 X155.418 Y130.000 E8.92454
G1 X155.021 Y132.222 E8.99213
G1 X153.879 Y134.169 E9.05971
G1 X152.134 Y135.600 E9.12730
G1 X149.000 Y136.418 E9.22429
G1 X21.000 Y136.418 E13.05713
G1 X18.778 Y136.021 E13.12472
G1 X16.831 Y134.879 E13.19230
G1 X15.400 Y133.134 E13.25989
G1 X14.582 Y130.000 E13.35688
G1 X14.582 Y40.000 E16.05184
G1 X14.979 Y37.778 E16.11943
G1 X16.121 Y35.831 E16.18701
G1 X17.808 Y34.447 E16.25235
G1 E14.25235 F1680.000
G92 E0
G1 X97.163 Y46.836 F12000.000
G1 E2.00000 F1680.000
G1 X139.663 Y46.836 E3.19646 F1200.000
G1 X139.663 Y123.753 E5.36182
G1 X97.163 Y123.753 E6.55827 F1200.000
G1 X97.163 Y46.911 E8.72152
G1 X88.250 Y86.775 F12000.000
G1 X88.250 Y40.250 E10.03130 F1200.000
G1 X148.750 Y40.250 E11.73449
G1 X148.750 Y129.750 E14.25409
G1 X88.250 Y129.750 E15.95728 F1200.000
G1 X88.250 Y86.850 E17.16498
G1 X96.898 Y123.387 F12000.000
G1 X88.515 Y115.004 E17.49874 F2400.000
G1 X88.515 Y114.448 E17.51438
G1 X96.898 Y122.831 E17.84814
G1 X96.898 Y122.276 E17.86378
G1 X88.515 Y113.893 E18.19754
G1 X88.515 Y113.337 E18.21318
G1 X96.898 Y121.721 E18.54694
G1 X96.898 Y121.165 E18.56258
G1 X88.515 Y112.782 E18.89634
G1 X88.515 Y112.226 E18.91198
G1 X96.898 Y120.610 E19.24574
G1 X96.898 Y120.054 E19.26138
G1 X88.515 Y111.671 E19.59514
G1 X88.515 Y111.115 E19.61078
G1 X96.898 Y119.499 E19.94454
G1 X96.898 Y118.943 E19.96018
G1 X88.515 Y110.560 E20.29394
G1 X88.515 Y110.004 E20.30958
G1 X96.898 Y118.388 E20.64334
G1 X96.898 Y117.832 E20.65898
G1 X88.515 Y109.449 E20.99274
G1 X88.515 Y108.894 E21.00838
G1 X96.898 Y117.277 E21.34214
G1 X96.898 Y116.721 E21.35778
G1 X88.515 Y108.338 E21.69154
G1 X88.515 Y107.783 E21.70718
G1 X96.898 Y116.166 E22.04094
G1 X96.898 Y115.611 E22.05658
G1 X88.515 Y107.227 E22.39034
G1 X88.515 Y106.672 E22.40598
G1 X96.898 Y115.055 E22.73974
G1 X96.898 Y114.500 E22.75538
G1 X88.515 Y106.116 E23.08914
G1 X88.515 Y105.561 E23.10478
G1 X96.898 Y113.944 E23.43854
G1 X96.898 Y113.389 E23.45418
G1 X88.515 Y105.005 E23.78794
G1 X88.515 Y104.450 E23.80358
G1 X96.898 Y112.833 E24.13734
G1 X96.898 Y112.278 E24.15298
G1 X88.515 Y103.895 E24.48674
G1 X88.515 Y103.339 E24.50238
G1 X96.898 Y111.722 E24.83614
G1 X96.898 Y111.167 E24.85178
G1 X88.515 Y102.784 E25.18554
G1 X88.515 Y102.228 E25.20118
G1 X96.898 Y110.611 E25.53494
G1 X96.898 Y110.056 E25.55058
G1 X88.515 Y101.673 E25.88434
G1 X88.515 Y101.117 E25.89998
G1 X96.898 Y109.501 E26.23374
G1 X96.898 Y108.945 E26.24937
G1 X88.515 Y100.562 E26.58314
G1 X88.515 Y100.006 E26.59877
G1 X96.898 Y108.390 E26.93254
G1 X96.898 Y107.834 E26.94817
G1 X88.515 Y99.451 E27.28194
G1 X88.515 Y98.895 E27.29757
G1 X96.898 Y107.279 E27.63134
G1 X96.898 Y106.723 E27.64697
G1 X88.515 Y98.340 E27.98074
G1 X88.515 Y97.785 E27.99637
G1 X96.898 Y106.168 E28.33014
G1 X96.898 Y105.612 E28.34577
G1 X88.515 Y97.229 E28.67954
G1 X88.515 Y96.674 E28.69517
G1 X96.898 Y105.057 E29.02894
G1 X96.898 Y104.501 E29.04457
G1 X88.515 Y96.118 E29.37834
G1 X88.515 Y95.563 E29.39397
G1 X96.898 Y103.946 E29.72774
G1 X96.898 Y103.391 E29.74337
G1 X88.515 Y95.007 E30.07714
G1 X88.515 Y94.452 E30.09277
G1 X96.898 Y102.835 E30.42654
G1 X96.898 Y102.280 E30.44217
G1 X88.515 Y93.896 E30.77594
G1 X88.515 Y93.341 E30.79157
G1 X96.898 Y101.724 E31.12534
G1 X96.898 Y101.169 E31.14097
G1 X88.515 Y92.785 E31.47474
G1 X88.515 Y92.230 E31.49037
G1 X96.898 Y100.613 E31.82414
G1 X96.898 Y100.058 E31.83977
G1 X88.515 Y91.675 E32.17354
G1 X88.515 Y91.119 E32.18917
G1 X96.898 Y99.502 E32.52294
G1 X96.898 Y98.947 E32.53857
G1 X88.515 Y90.564 E32.87234
G1 X88.515 Y90.008 E32.88797
G1 X96.898 Y98.391 E33.22174
G1 X96.898 Y97.836 E33.23737
G1 X88.515 Y89.453 E33.57114
G1 X88.515 Y88.897 E33.58677
G1 X96.898 Y97.281 E33.92054
G1 X96.898 Y96.725 E33.93617
G1 X88.515 Y88.342 E34.26994
G1 X88.515 Y87.786 E34.28557
G1 X96.898 Y96.170 E34.61934
G1 X96.898 Y95.614 E34.63497
G1 X88.515 Y87.231 E34.96873
G1 X88.515 Y86.675 E34.98437
G1 X96.898 Y95.059 E35.31813
G1 X96.898 Y94.503 E35.33377
G1 X88.515 Y86.120 E35.66753
G1 X88.515 Y85.565 E35.68317
G1 X96.898 Y93.948 E36.01693
G1 X96.898 Y93.392 E36.03257
G1 X88.515 Y85.009 E36.36633
G1 X88.515 Y84.454 E36.38197
G1 X96.898 Y92.837 E36.71573
G1 X96.898 Y92.282 E36.73137
G1 X88.515 Y83.898 E37.06513
G1 X88.515 Y83.343 E37.08077
G1 X96.898 Y91.726 E37.41453
G1 X96.898 Y91.171 E37.43017
G1 X88.515 Y82.787 E37.76393
G1 X88.515 Y82.232 E37.77957
G1 X96.898 Y90.615 E38.11333
G1 X96.898 Y90.060 E38.12897
G1 X88.515 Y81.676 E38.46273
G1 X88.515 Y81.121 E38.47837
G1 X96.898 Y89.504 E38.81213
G1 X96.898 Y88.949 E38.82777
G1 X88.515 Y80.565 E39.16153
G1 X88.515 Y80.010 E39.17717
G1 X96.898 Y88.393 E39.51093
G1 X96.898 Y87.838 E39.52657
G1 X88.515 Y79.455 E39.86033
G1 X88.515 Y78.899 E39.87597
G1 X96.898 Y87.282 E40.20973
G1 X96.898 Y86.727 E40.22537
G1 X88.515 Y78.344 E40.55913
G1 X88.515 Y77.788 E40.57477
G1 X96.898 Y86.172 E40.90853
G1 X96.898 Y85.616 E40.92417
G1 X88.515 Y77.233 E41.25793
G1 X88.515 Y76.677 E41.27357
G1 X96.898 Y85.061 E41.60733
G1 X96.898 Y84.505 E41.62297
G1 X88.515 Y76.122 E41.95673
G1 X88.515 Y75.566 E41.97237
G1 X96.898 Y83.950 E42.30613
G1 X96.898 Y83.394 E42.32177
G1 X88.515 Y75.011 E42.65553
G1 X88.515 Y74.456 E42.67117
G1 X96.898 Y82.839 E43.00493
G1 X96.898 Y82.283 E43.02057
G1 X88.515 Y73.900 E43.35433
G1 X88.515 Y73.345 E43.36997
G1 X96.898 Y81.728 E43.70373
G1 X96.898 Y81.172 E43.71937
G1 X88.515 Y72.789 E44.05313
G1 X88.515 Y72.234 E44.06877
G1 X96.898 Y80.617 E44.40253
G1 X96.898 Y80.062 E44.41817
G1 X88.515 Y71.678 E44.75193
G1 X88.515 Y71.123 E44.76757
G1 X96.898 Y79.506 E45.10133
G1 X96.898 Y78.951 E45.11697
G1 X88.515 Y70.567 E45.45073
G1 X88.515 Y70.012 E45.46637
G1 X96.898 Y78.395 E45.80013
G1 X96.898 Y77.840 E45.81577
G1 X88.515 Y69.456 E46.14953
G1 X88.515 Y68.901 E46.16517
G1 X96.898 Y77.284 E46.49893
G1 X96.898 Y76.729 E46.51457
G1 X88.515 Y68.346 E46.84833
G1 X88.515 Y67.790 E46.86397
G1 X96.898 Y76.173 E47.19773
G1 X96.898 Y75.618 E47.21337
G1 X88.515 Y67.235 E47.54713
G1 X88.515 Y66.679 E47.56277
G1 X96.898 Y75.062 E47.89653
G1 X96.898 Y74.507 E47.91217
G1 X88.515 Y66.124 E48.24593
G1 X88.515 Y65.568 E48.26157
G1 X96.898 Y73.952 E48.59533
G1 X96.898 Y73.396 E48.61097
G1 X88.515 Y65.013 E48.94473
G1 X88.515 Y64.457 E48.96037
G1 X96.898 Y72.841 E49.29413
G1 X96.898 Y72.285 E49.30977
G1 X88.515 Y63.902 E49.64353
G1 X88.515 Y63.346 E49.65917
G1 X96.898 Y71.730 E49.99293
G1 X96.898 Y71.174 E50.00857
G1 X88.515 Y62.791 E50.34233
G1 X88.515 Y62.236 E50.35797
G1 X96.898 Y70.619 E50.69173
G1 X96.898 Y70.063 E50.70737
G1 X88.515 Y61.680 E51.04113
G1 X88.515 Y61.125 E51.05677
G1 X96.898 Y69.508 E51.39053
G1 X96.898 Y68.953 E51.40617
G1 X88.515 Y60.569 E51.73993
G1 X88.515 Y60.014 E51.75557
G1 X96.898 Y68.397 E52.08933
G1 X96.898 Y67.842 E52.10497
G1 X88.515 Y59.458 E52.43873
G1 X88.515 Y58.903 E52.45437
G1 X96.898 Y67.286 E52.78813
G1 X96.898 Y66.731 E52.80377
G1 X88.515 Y58.347 E53.13753
G1 X88.515 Y57.792 E53.15317
G1 X96.898 Y66.175 E53.48693
G1 X96.898 Y65.620 E53.50257
G1 X88.515 Y57.236 E53.83633
G1 X88.515 Y56.681 E53.85197
G1 X96.898 Y65.064 E54.18573
G1 X96.898 Y64.509 E54.20137
G1 X88.515 Y56.126 E54.53513
G1 X88.515 Y55.570 E54.55077
G1 X96.898 Y63.953 E54.88453
G1 X96.898 Y63.398 E54.90017
G1 X88.515 Y55.015 E55.23393
G1 X88.515 Y54.459 E55.24957
G1 X96.898 Y62.843 E55.58333
G1 X96.898 Y62.287 E55.59896
G1 X88.515 Y53.904 E55.93273
G1 X88.515 Y53.348 E55.94836
G1 X96.898 Y61.732 E56.28213
G1 X96.898 Y61.176 E56.29776
G1 X88.515 Y52.793 E56.63153
G1 X88.515 Y52.237 E56.64716
G1 X96.898 Y60.621 E56.98093
G1 X96.898 Y60.065 E56.99656
G1 X88.515 Y51.682 E57.33033
G1 X88.515 Y51.127 E57.34596
G1 X96.898 Y59.510 E57.67973
G1 X96.898 Y58.954 E57.69536
G1 X88.515 Y50.571 E58.02913
G1 X88.515 Y50.016 E58.04476
G1 X96.898 Y58.399 E58.37853
G1 X96.898 Y57.843 E58.39416
G1 X88.515 Y49.460 E58.72793
G1 X88.515 Y48.905 E58.74356
G1 X96.898 Y57.288 E59.07733
G1 X96.898 Y56.733 E59.09296
G1 X88.515 Y48.349 E59.42673
G1 X88.515 Y47.794 E59.44236
G1 X96.898 Y56.177 E59.77613
G1 X96.898 Y55.622 E59.79176
G1 X88.515 Y47.238 E60.12553
G1 X88.515 Y46.683 E60.14116
G1 X96.898 Y55.066 E60.47493
G1 X96.898 Y54.511 E60.49056
G1 X88.515 Y46.127 E60.82433
G1 X88.515 Y45.572 E60.83996
G1 X96.898 Y53.955 E61.17373
G1 X96.898 Y53.400 E61.18936
G1 X88.515 Y45.017 E61.52313
G1 X88.515 Y44.461 E61.53876
G1 X96.898 Y52.844 E61.87253
G1 X96.898 Y52.289 E61.88816
G1 X88.515 Y43.906 E62.22193
G1 X88.515 Y43.350 E62.23756
G1 X96.898 Y51.733 E62.57133
G1 X96.898 Y51.178 E62.58696
G1 X88.515 Y42.795 E62.92073
G1 X88.515 Y42.239 E62.93636
G1 X96.898 Y50.623 E63.27013
G1 X96.898 Y50.067 E63.28576
G1 X88.515 Y41.684 E63.61953
G1 X88.515 Y41.128 E63.63516
G1 X96.898 Y49.512 E63.96893
G1 X96.898 Y48.956 E63.98456
G1 X88.515 Y40.573 E64.31832
G1 X89.012 Y40.515 E64.33242
G1 X96.898 Y48.401 E64.64639
G1 X96.898 Y47.845 E64.66202
G1 X89.567 Y40.515 E64.95388
G1 X90.123 Y40.515 E64.96951
G1 X96.898 Y47.290 E65.23925
G1 X96.898 Y46.734 E65.25489
G1 X90.678 Y40.515 E65.50251
G1 X91.234 Y40.515 E65.51815
G1 X97.290 Y46.571 E65.75927
G1 X97.845 Y46.571 E65.77491
G1 X91.789 Y40.515 E66.01603
G1 X92.345 Y40.515 E66.03166
G1 X98.401 Y46.571 E66.27278
G1 X98.956 Y46.571 E66.28842
G1 X92.900 Y40.515 E66.52954
G1 X93.456 Y40.515 E66.54518
G1 X99.512 Y46.571 E66.78630
G1 X100.067 Y46.571 E66.80193
G1 X94.011 Y40.515 E67.04305
G1 X94.566 Y40.515 E67.05869
G1 X100.623 Y46.571 E67.29981
G1 X101.178 Y46.571 E67.31544
G1 X95.122 Y40.515 E67.55656
G1 X95.677 Y40.515 E67.57220
G1 X101.734 Y46.571 E67.81332
G1 X102.289 Y46.571 E67.82896
G1 X96.233 Y40.515 E68.07008
G1 X96.788 Y40.515 E68.08571
G1 X102.845 Y46.571 E68.32683
G1 X103.400 Y46.571 E68.34247
G1 X97.344 Y40.515 E68.58359
G1 X97.899 Y40.515 E68.59923
G1 X103.955 Y46.571 E68.84035
G1 X104.511 Y46.571 E68.85598
G1 X98.455 Y40.515 E69.09710
G1 X99.010 Y40.515 E69.11274
G1 X105.066 Y46.571 E69.35386
G1 X105.622 Y46.571 E69.36950
G1 X99.566 Y40.515 E69.61062
G1 X100.121 Y40.515 E69.62625
G1 X106.177 Y46.571 E69.86737
G1 X106.733 Y46.571 E69.88301
G1 X100.676 Y40.515 E70.12413
G1 X101.232 Y40.515 E70.13977
G1 X107.288 Y46.571 E70.38088
G1 X107.844 Y46.571 E70.39652
G1 X101.787 Y40.515 E70.63764
G1 X102.343 Y40.515 E70.65328
G1 X108.399 Y46.571 E70.89440
G1 X108.955 Y46.571 E70.91003
G1 X102.898 Y40.515 E71.15115
G1 X103.454 Y40.515 E71.16679
G1 X109.510 Y46.571 E71.40791
G1 X110.065 Y46.571 E71.42355
G1 X104.009 Y40.515 E71.66467
G1 X104.565 Y40.515 E71.68030
G1 X110.621 Y46.571 E71.92142
G1 X111.176 Y46.571 E71.93706
G1 X105.120 Y40.515 E72.17818
G1 X105.675 Y40.515 E72.19382
G1 X111.732 Y46.571 E72.43494
G1 X112.287 Y46.571 E72.45057
G1 X106.231 Y40.515 E72.69169
G1 X106.786 Y40.515 E72.70733
G1 X112.843 Y46.571 E72.94845
G1 X113.398 Y46.571 E72.96409
G1 X107.342 Y40.515 E73.20521
G1 X107.897 Y40.515 E73.22084
G1 X113.954 Y46.571 E73.46196
G1 X114.509 Y46.571 E73.47760
G1 X108.453 Y40.515 E73.71872
G1 X109.008 Y40.515 E73.73436
G1 X115.065 Y46.571 E73.97547
G1 X115.620 Y46.571 E73.99111
G1 X109.564 Y40.515 E74.23223
G1 X110.119 Y40.515 E74.24787
G1 X116.175 Y46.571 E74.48899
G1 X116.731 Y46.571 E74.50462
G1 X110.675 Y40.515 E74.74574
G1 X111.230 Y40.515 E74.76138
G1 X117.286 Y46.571 E75.00250
G1 X117.842 Y46.571 E75.01814
G1 X111.785 Y40.515 E75.25926
G1 X112.341 Y40.515 E75.27489
G1 X118.397 Y46.571 E75.51601
G1 X118.953 Y46.571 E75.53165
G1 X112.896 Y40.515 E75.77277
G1 X113.452 Y40.515 E75.78841
G1 X119.508 Y46.571 E76.02953
G1 X120.064 Y46.571 E76.04516
G1 X114.007 Y40.515 E76.28628
G1 X114.563 Y40.515 E76.30192
G1 X120.619 Y46.571 E76.54304
G1 X121.175 Y46.571 E76.55868
G1 X115.118 Y40.515 E76.79980
G1 X115.674 Y40.515 E76.81543
G1 X121.730 Y46.571 E77.05655
G1 X122.285 Y46.571 E77.07219
G1 X116.229 Y40.515 E77.31331
G1 X116.785 Y40.515 E77.32895
G1 X122.841 Y46.571 E77.57006
G1 X123.396 Y46.571 E77.58570
G1 X117.340 Y40.515 E77.82682
G1 X117.895 Y40.515 E77.84246
G1 X123.952 Y46.571 E78.08358
G1 X124.507 Y46.571 E78.09921
G1 X118.451 Y40.515 E78.34033
G1 X119.006 Y40.515 E78.35597
G1 X125.063 Y46.571 E78.59709
G1 X125.618 Y46.571 E78.61273
G1 X119.562 Y40.515 E78.85385
G1 X120.117 Y40.515 E78.86948
G1 X126.174 Y46.571 E79.11060
G1 X126.729 Y46.571 E79.12624
G1 X120.673 Y40.515 E79.36736
G1 X121.228 Y40.515 E79.38300
G1 X127.284 Y46.571 E79.62412
G1 X127.840 Y46.571 E79.63975
G1 X121.784 Y40.515 E79.88087
G1 X122.339 Y40.515 E79.89651
G1 X128.395 Y46.571 E80.13763
G1 X128.951 Y46.571 E80.15327
G1 X122.895 Y40.515 E80.39439
G1 X123.450 Y40.515 E80.41002
G1 X129.506 Y46.571 E80.65114
G1 X130.062 Y46.571 E80.66678
G1 X124.005 Y40.515 E80.90790
G1 X124.561 Y40.515 E80.92354
G1 X130.617 Y46.571 E81.16465
G1 X131.173 Y46.571 E81.18029
G1 X125.116 Y40.515 E81.42141
G1 X125.672 Y40.515 E81.43705
G1 X131.728 Y46.571 E81.67817
G1 X132.284 Y46.571 E81.69380
G1 X126.227 Y40.515 E81.93492
G1 X126.783 Y40.515 E81.95056
G1 X132.839 Y46.571 E82.19168
G1 X133.394 Y46.571 E82.20732
G1 X127.338 Y40.515 E82.44844
G1 X127.894 Y40.515 E82.46407
G1 X133.950 Y46.571 E82.70519
G1 X134.505 Y46.571 E82.72083
G1 X128.449 Y40.515 E82.96195
G1 X129.004 Y40.515 E82.97759
G1 X135.061 Y46.571 E83.21871
G1 X135.616 Y46.571 E83.23434
G1 X129.560 Y40.515 E83.47546
G1 X130.115 Y40.515 E83.49110
G1 X136.172 Y46.571 E83.73222
G1 X136.727 Y46.571 E83.74786
G1 X130.671 Y40.515 E83.98898
G1 X131.226 Y40.515 E84.00461
G1 X137.283 Y46.571 E84.24573
G1 X137.838 Y46.571 E84.26137
G1 X131.782 Y40.515 E84.50249
G1 X132.337 Y40.515 E84.51813
G1 X138.394 Y46.571 E84.75924
G1 X138.949 Y46.571 E84.77488
G1 X132.893 Y40.515 E85.01600
G1 X133.448 Y40.515 E85.03164
G1 X139.504 Y46.571 E85.27276
G1 X148.445 Y40.515 F12000.000
G1 X148.485 Y40.555 E85.27435 F2400.000
G1 X148.485 Y41.110 E85.28999
G1 X147.890 Y40.515 E85.31369
G1 X147.334 Y40.515 E85.32933
G1 X148.485 Y41.666 E85.37515
G1 X148.485 Y42.221 E85.39079
G1 X146.779 Y40.515 E85.45872
G1 X146.224 Y40.515 E85.47436
G1 X148.485 Y42.776 E85.56441
G1 X148.485 Y43.332 E85.58005
G1 X145.668 Y40.515 E85.69221
G1 X145.113 Y40.515 E85.70785
G1 X148.485 Y43.887 E85.84212
G1 X148.485 Y44.443 E85.85776
G1 X144.557 Y40.515 E86.01415
G1 X144.002 Y40.515 E86.02979
G1 X148.485 Y44.998 E86.20829
G1 X148.485 Y45.554 E86.22393
G1 X143.446 Y40.515 E86.42455
G1 X142.891 Y40.515 E86.44019
G1 X148.485 Y46.109 E86.66292
G1 X148.485 Y46.665 E86.67856
G1 X142.335 Y40.515 E86.92341
G1 X141.780 Y40.515 E86.93904
G1 X148.485 Y47.220 E87.20601
G1 X148.485 Y47.776 E87.22164
G1 X141.224 Y40.515 E87.51072
G1 X140.669 Y40.515 E87.52636
G1 X148.485 Y48.331 E87.83755
G1 X148.485 Y48.886 E87.85318
G1 X140.114 Y40.515 E88.18649
G1 X139.558 Y40.515 E88.20212
G1 X148.485 Y49.442 E88.55754
G1 X148.485 Y49.997 E88.57318
G1 X139.003 Y40.515 E88.95071
G1 X138.447 Y40.515 E88.96635
G1 X148.485 Y50.553 E89.36600
G1 X148.485 Y51.108 E89.38163
G1 X137.892 Y40.515 E89.80339
G1 X137.336 Y40.515 E89.81903
G1 X148.485 Y51.664 E90.26290
G1 X148.485 Y52.219 E90.27854
G1 X136.781 Y40.515 E90.74453
G1 X136.225 Y40.515 E90.76017
G1 X148.485 Y52.775 E91.24827
G1 X148.485 Y53.330 E91.26391
G1 X135.670 Y40.515 E91.77412
G1 X135.114 Y40.515 E91.78976
G1 X148.485 Y53.886 E92.32209
G1 X148.485 Y54.441 E92.33773
G1 X134.559 Y40.515 E92.89217
G1 X134.004 Y40.515 E92.90781
G1 X148.485 Y54.996 E93.48437
