; generated by Slic3r 0.9.9 on 2013-09-23 at 11:59:34

; layer_height = 0.25
; perimeters = 2
; top_solid_layers = 3
; bottom_solid_layers = 3
; fill_density = 0.4
; perimeter_speed = 30
; infill_speed = 60
; travel_speed = 130
; nozzle_diameter = 0.5
; filament_diameter = 2.9
; extrusion_multiplier = 1
; perimeters extrusion width = 0.84mm
; infill extrusion width = 0.84mm
; solid infill extrusion width = 0.84mm
; top infill extrusion width = 0.84mm
; first layer extrusion width = 0.75mm

G21 ; set units to millimeters
M107
M190 S100 ; wait for bed temperature to be reached
M104 S225 ; set temperature
G28 ; home all axes
G1 Z5 F1000 ; lift nozzle
M109 S225 ; wait for temperature to be reached
G90 ; use absolute coordinates
G92 E0
M82 ; use absolute distances for extrusion
G1 F1800.000 E-1.00000
G92 E0
G1 Z0.375 F7800.000
G1 X37.915 Y36.525
G1 F1800.000 E1.00000
G1 X39.025 Y35.415 F720.000 E1.06206
G1 X39.705 Y34.825 E1.09765
G1 X40.195 Y34.485 E1.12123
G1 X40.455 Y34.335 E1.13310
G1 X42.385 Y33.345 E1.21885
G1 X42.665 Y33.225 E1.23089
G1 X43.235 Y33.025 E1.25478
G1 X43.535 Y32.945 E1.26705
G1 X44.135 Y32.825 E1.29124
G1 X45.685 Y32.585 E1.35325
G1 X46.705 Y32.505 E1.39370
G1 X112.695 Y32.505 E4.00256
G1 X113.715 Y32.585 E4.04301
G1 X115.265 Y32.825 E4.10501
G1 X115.815 Y32.935 E4.12719
G1 X116.355 Y33.085 E4.14935
G1 X116.985 Y33.325 E4.17600
G1 X117.885 Y33.735 E4.21510
G1 X118.905 Y34.305 E4.26129
G1 X119.345 Y34.585 E4.28191
G1 X119.765 Y34.885 E4.30231
G1 X120.575 Y35.565 E4.34413
G1 X121.335 Y36.325 E4.38662
G1 X121.845 Y36.925 E4.41775
G1 X122.165 Y37.335 E4.43831
G1 X122.595 Y37.995 E4.46945
G1 X123.165 Y39.015 E4.51565
G1 X123.575 Y39.915 E4.55475
G1 X123.715 Y40.285 E4.57039
G1 X124.005 Y41.255 E4.61041
G1 X134.525 Y90.595 E6.60487
G1 X134.935 Y93.205 E6.70932
G1 X134.965 Y93.505 E6.72124
G1 X134.975 Y94.105 E6.74496
G1 X134.965 Y94.405 E6.75683
G1 X134.895 Y94.995 E6.78032
G1 X134.535 Y97.265 E6.87118
G1 X134.395 Y97.845 E6.89477
G1 X134.195 Y98.415 E6.91865
G1 X133.945 Y98.965 E6.94254
G1 X132.905 Y100.995 E7.03271
G1 X132.585 Y101.505 E7.05651
G1 X132.405 Y101.745 E7.06838
G1 X131.815 Y102.435 E7.10427
G1 X99.935 Y134.315 E8.88667
G1 X99.245 Y134.905 E8.92256
G1 X98.755 Y135.245 E8.94614
G1 X98.235 Y135.545 E8.96987
G1 X96.465 Y136.445 E9.04838
G1 X95.915 Y136.695 E9.07226
G1 X95.345 Y136.895 E9.09614
G1 X94.765 Y137.035 E9.11973
G1 X92.195 Y137.435 E9.22256
G1 X91.905 Y137.465 E9.23408
G1 X91.305 Y137.475 E9.25781
G1 X91.005 Y137.465 E9.26967
G1 X90.405 Y137.395 E9.29355
G1 X88.155 Y137.035 E9.38364
G1 X87.575 Y136.885 E9.40732
G1 X87.005 Y136.695 E9.43107
G1 X86.455 Y136.445 E9.45496
G1 X84.685 Y135.545 E9.53346
G1 X55.575 Y120.125 E10.83579
G1 X54.865 Y119.695 E10.86861
G1 X54.215 Y119.175 E10.90152
G1 X53.635 Y118.585 E10.93422
G1 X53.295 Y118.155 E10.95590
G1 X52.985 Y117.695 E10.97783
G1 X52.725 Y117.215 E10.99941
G1 X52.495 Y116.715 E11.02117
G1 X41.155 Y88.605 E12.21949
G1 X40.895 Y87.825 E12.25200
G1 X37.115 Y73.725 E12.82911
G1 X36.955 Y72.965 E12.85982
G1 X36.905 Y72.445 E12.88047
G1 X35.025 Y44.645 E13.98203
G1 X35.015 Y44.055 E14.00536
G1 X35.045 Y43.455 E14.02911
G1 X35.325 Y41.625 E14.10230
G1 X35.445 Y41.025 E14.12649
G1 X35.625 Y40.445 E14.15050
G1 X35.845 Y39.885 E14.17428
G1 X36.695 Y38.215 E14.24837
G1 X36.985 Y37.695 E14.27191
G1 X37.325 Y37.205 E14.29548
G1 X37.845 Y36.602 E14.32695
G1 F1800.000 E13.32695
G92 E0
G1 X87.887 Y90.626 F7800.000
G1 F1800.000 E1.00000
G1 X89.206 Y89.826 F720.000 E1.06101
G1 X90.731 Y89.591 E1.12201
G1 X92.196 Y89.950 E1.18164
G1 X94.977 Y91.246 E1.30295
G1 X96.194 Y92.138 E1.36258
G1 X96.994 Y93.458 E1.42359
G1 X97.229 Y94.983 E1.48460
G1 X96.862 Y96.482 E1.54560
G1 X95.950 Y97.726 E1.60661
G1 X94.630 Y98.527 E1.66762
G1 X93.105 Y98.761 E1.72862
G1 X91.640 Y98.403 E1.78825
G1 X88.859 Y97.106 E1.90956
G1 X87.643 Y96.214 E1.96919
G1 X86.842 Y94.895 E2.03019
G1 X86.607 Y93.370 E2.09120
G1 X86.974 Y91.871 E2.15221
G1 X87.825 Y90.711 E2.20909
G1 X87.781 Y89.938 F7800.000
G1 F1800.000 E1.20909
G92 E0
G1 X90.357 Y88.143 F7800.000
G1 F1800.000 E1.00000
G1 X90.357 Y48.857 F504.000 E2.55316
G1 X109.496 Y48.857 E3.30980
G1 X110.266 Y50.718 E3.38943
G1 X112.900 Y59.067 E3.73553
G1 X114.794 Y67.613 E4.08162
G1 X115.936 Y76.293 E4.42770
G1 X116.319 Y85.039 E4.77381
G1 X116.178 Y88.250 E4.90087
G1 X106.705 Y88.664 E5.27573
G1 X92.730 Y88.053 E5.82877
G1 X92.365 Y88.005 E5.84331
G1 X92.356 Y88.108 E5.84741
G1 X91.465 Y87.968 E5.88307
G1 X90.460 Y88.127 E5.92330
G1 X89.661 Y88.180 F7800.000
G1 F1800.000 E4.92330
G92 E0
G1 X79.411 Y48.916 F7800.000
G1 F1800.000 E1.00000
G1 X78.206 Y49.107 F720.000 E1.04826
G1 X78.136 Y49.097 E1.05107
G1 X76.998 Y48.916 E1.09661
G1 X75.911 Y48.362 E1.14483
G1 X75.048 Y47.499 E1.19308
G1 X74.493 Y46.410 E1.24140
G1 X74.302 Y45.205 E1.28965
G1 X74.367 Y44.796 E1.30602
G1 X73.426 Y45.480 E1.35201
G1 X72.273 Y45.480 E1.39760
G1 X71.340 Y44.802 E1.44319
G1 X70.983 Y43.705 E1.48879
G1 X71.340 Y42.608 E1.53439
G1 X72.273 Y41.930 E1.57998
G1 X73.426 Y41.930 E1.62557
G1 X74.359 Y42.608 E1.67117
G1 X74.687 Y43.618 E1.71316
G1 X75.048 Y42.911 E1.74456
G1 X75.911 Y42.048 E1.79281
G1 X76.999 Y41.494 E1.84106
G1 X78.206 Y41.303 E1.88938
G1 X79.411 Y41.494 E1.93764
G1 X80.498 Y42.047 E1.98586
G1 X81.362 Y42.910 E2.03413
G1 X81.917 Y43.999 E2.08243
G1 X82.108 Y45.205 E2.13071
G1 X81.917 Y46.411 E2.17897
G1 X81.362 Y47.500 E2.22728
G1 X80.498 Y48.363 E2.27554
G1 X79.505 Y48.869 E2.31963
G1 X79.231 Y49.589 F7800.000
G1 F1800.000 E1.31963
G92 E0
G1 X85.674 Y109.241 F7800.000
G1 F1800.000 E1.00000
G1 X85.396 Y109.309 F720.000 E1.01134
G1 X84.138 Y106.893 E1.11900
G1 X82.393 Y106.893 E1.18801
G1 X83.487 Y105.799 E1.24920
G1 X84.727 Y104.268 E1.32707
G1 X85.427 Y103.189 E1.37793
G1 X86.259 Y103.577 E1.41423
G1 X85.945 Y105.134 E1.47702
G1 X85.674 Y107.844 E1.58469
G1 X85.674 Y109.136 E1.63578
G1 F1800.000 E0.63578
G92 E0
G1 X83.393 Y80.517 F7800.000
G1 F1800.000 E1.00000
G1 X82.094 Y79.218 F720.000 E1.07267
G1 X80.562 Y77.978 E1.15056
G1 X78.911 Y76.905 E1.22842
G1 X77.155 Y76.010 E1.30632
G1 X75.316 Y75.304 E1.38421
G1 X73.412 Y74.794 E1.46211
G1 X71.467 Y74.486 E1.53999
G1 X69.499 Y74.383 E1.61787
G1 X67.532 Y74.486 E1.69575
G1 X66.017 Y74.726 E1.75641
G1 X66.017 Y55.010 E2.53589
G1 X65.954 Y53.812 E2.58329
G1 X65.736 Y52.435 E2.63842
G1 X65.375 Y51.088 E2.69355
G1 X65.043 Y50.224 E2.73014
G1 X65.999 Y49.529 E2.77688
G1 X70.010 Y52.443 E2.97288
G1 X70.144 Y52.443 E2.97818
G1 X71.767 Y54.066 E3.06890
G1 X74.802 Y55.619 E3.20369
G1 X78.218 Y56.156 E3.34040
G1 X81.599 Y55.617 E3.47572
G1 X83.393 Y54.703 E3.55535
G1 X83.393 Y80.413 E4.57179
G1 F1800.000 E3.57179
G92 E0
G1 X85.229 Y102.216 F7800.000
G1 F1800.000 E1.00000
G1 X85.651 Y102.525 F720.000 E1.02069
G1 X87.051 Y103.178 E1.08174
G1 X86.634 Y105.238 E1.16482
G1 X86.371 Y107.879 E1.26975
G1 X86.371 Y110.531 E1.37462
G1 X86.543 Y112.261 E1.44334
G1 X86.201 Y112.363 E1.45747
G1 X83.716 Y107.590 E1.67022
G1 X80.496 Y107.590 E1.79750
G1 X81.627 Y106.674 E1.85502
G1 X82.969 Y105.332 E1.93003
G1 X84.162 Y103.858 E2.00503
G1 X85.172 Y102.303 E2.07832
G1 F1800.000 E1.07832
G92 E0
G1 X84.090 Y82.462 F7800.000
G1 F1800.000 E1.00000
G1 X82.969 Y81.078 F720.000 E1.07042
G1 X81.627 Y79.736 E1.14543
G1 X80.152 Y78.542 E1.22045
G1 X78.562 Y77.509 E1.29542
G1 X76.871 Y76.648 E1.37043
G1 X75.100 Y75.968 E1.44543
G1 X73.267 Y75.477 E1.52045
G1 X71.394 Y75.180 E1.59544
G1 X69.499 Y75.081 E1.67044
G1 X67.605 Y75.180 E1.74544
G1 X65.320 Y75.542 E1.83689
G1 X65.320 Y74.446 E1.88019
G1 X52.049 Y78.002 E2.42336
G1 X51.695 Y76.680 E2.47750
G1 X65.320 Y73.029 E3.03516
G1 X65.320 Y55.028 E3.74679
G1 X65.260 Y53.885 E3.79205
G1 X65.054 Y52.580 E3.84429
G1 X64.712 Y51.304 E3.89653
G1 X64.201 Y49.975 E3.95281
G1 X65.999 Y48.669 E4.04067
G1 X70.237 Y51.747 E4.24773
G1 X70.433 Y51.747 E4.25548
G1 X72.182 Y53.496 E4.35325
G1 X75.022 Y54.949 E4.47938
G1 X78.217 Y55.451 E4.60726
G1 X81.380 Y54.947 E4.73387
G1 X84.090 Y53.569 E4.85406
G1 X84.090 Y82.357 E5.99218
G1 F1800.000 E4.99218
G92 E0
G1 X84.975 Y101.166 F7800.000
G1 F1800.000 E1.00000
G1 X86.008 Y101.923 F720.000 E1.05061
G1 X87.842 Y102.778 E1.13062
G1 X87.324 Y105.342 E1.23400
G1 X87.067 Y107.913 E1.33618
G1 X87.067 Y110.497 E1.43831
G1 X87.324 Y113.068 E1.54049
G1 X87.694 Y114.902 E1.61445
G1 X87.263 Y114.969 E1.63170
G1 X86.890 Y115.195 E1.64896
G1 X83.293 Y108.286 E1.95690
G1 X78.626 Y108.286 E2.14143
G1 X78.562 Y108.071 E2.15031
G1 X79.743 Y107.304 E2.20596
G1 X81.160 Y106.156 E2.27808
G1 X82.451 Y104.866 E2.35021
G1 X83.598 Y103.448 E2.42232
G1 X84.592 Y101.919 E2.49443
G1 X84.928 Y101.259 E2.52368
G1 F1800.000 E1.52368
G92 E0
G1 X84.571 Y84.459 F7800.000
G1 F1800.000 E1.00000
G1 X83.598 Y82.962 F720.000 E1.07058
G1 X82.451 Y81.544 E1.14269
G1 X81.160 Y80.254 E1.21481
G1 X79.743 Y79.106 E1.28694
G1 X78.213 Y78.113 E1.35903
G1 X76.588 Y77.285 E1.43116
G1 X74.885 Y76.631 E1.50327
G1 X73.122 Y76.159 E1.57540
G1 X71.321 Y75.873 E1.64751
G1 X69.499 Y75.778 E1.71962
G1 X67.678 Y75.873 E1.79173
G1 X65.876 Y76.159 E1.86385
G1 X64.624 Y76.494 E1.91510
G1 X64.624 Y75.354 E1.96019
G1 X51.557 Y78.855 E2.49500
G1 X50.842 Y76.187 E2.60420
G1 X64.624 Y72.495 E3.16827
G1 X64.624 Y55.047 E3.85804
G1 X64.567 Y53.958 E3.90115
G1 X64.371 Y52.725 E3.95050
G1 X64.048 Y51.519 E3.99986
G1 X63.601 Y50.354 E4.04921
G1 X63.302 Y49.767 E4.07523
G1 X65.398 Y48.245 E4.17764
G1 X65.903 Y46.691 E4.24224
G1 X66.096 Y46.691 E4.24988
G1 X66.601 Y48.245 E4.31448
G1 X70.463 Y51.051 E4.50319
G1 X70.721 Y51.051 E4.51340
G1 X72.596 Y52.925 E4.61822
G1 X75.241 Y54.278 E4.73569
G1 X78.216 Y54.746 E4.85473
G1 X81.161 Y54.277 E4.97264
G1 X83.808 Y52.931 E5.09003
G1 X84.786 Y51.953 E5.14470
G1 X84.786 Y84.395 E6.42726
G1 X84.671 Y84.429 E6.43201
G1 F1800.000 E5.43201
G92 E0
G1 X84.727 Y100.120 F7800.000
G1 F1800.000 E1.00000
G1 X86.364 Y101.321 F720.000 E1.08027
G1 X88.689 Y102.405 E1.18169
G1 X88.512 Y102.979 E1.20544
G1 X88.013 Y105.445 E1.30491
G1 X87.763 Y107.948 E1.40434
G1 X87.763 Y110.462 E1.50373
G1 X88.013 Y112.965 E1.60316
G1 X88.521 Y115.479 E1.70459
G1 X87.506 Y115.636 E1.74521
G1 X86.615 Y116.176 E1.78640
G1 X82.871 Y108.982 E2.10702
G1 X75.962 Y108.982 E2.38017
G1 X75.893 Y108.698 E2.39174
G1 X77.865 Y107.693 E2.47921
G1 X79.333 Y106.740 E2.54842
G1 X80.694 Y105.638 E2.61766
G1 X81.932 Y104.399 E2.68690
G1 X83.034 Y103.039 E2.75612
G1 X83.988 Y101.570 E2.82535
G1 X84.679 Y100.213 E2.88553
G1 F1800.000 E1.88553
G92 E0
G1 X84.942 Y86.712 F7800.000
G1 F1800.000 E1.00000
G1 X83.988 Y84.840 F720.000 E1.08305
G1 X83.034 Y83.371 E1.15228
G1 X81.932 Y82.011 E1.22150
G1 X80.694 Y80.772 E1.29074
G1 X79.333 Y79.670 E1.35998
G1 X77.865 Y78.717 E1.42919
G1 X76.304 Y77.922 E1.49843
G1 X74.669 Y77.294 E1.56766
G1 X72.978 Y76.841 E1.63690
G1 X71.248 Y76.567 E1.70613
G1 X69.499 Y76.475 E1.77535
G1 X67.751 Y76.567 E1.84458
G1 X66.021 Y76.841 E1.91381
G1 X63.928 Y77.402 E1.99950
G1 X63.928 Y76.261 E2.04458
G1 X51.065 Y79.708 E2.57105
G1 X49.989 Y75.695 E2.73531
G1 X63.928 Y71.960 E3.30578
G1 X63.928 Y55.066 E3.97370
G1 X63.873 Y54.031 E4.01465
G1 X63.689 Y52.870 E4.06112
G1 X63.385 Y51.735 E4.10759
G1 X62.964 Y50.637 E4.15406
G1 X62.412 Y49.554 E4.20214
G1 X64.806 Y47.814 E4.31913
G1 X65.903 Y44.438 E4.45950
G1 X66.096 Y44.438 E4.46714
G1 X67.193 Y47.814 E4.60751
G1 X70.689 Y50.354 E4.77834
G1 X71.010 Y50.354 E4.79101
G1 X73.010 Y52.355 E4.90287
G1 X75.461 Y53.608 E5.01168
G1 X78.215 Y54.041 E5.12189
G1 X80.943 Y53.607 E5.23109
G1 X83.394 Y52.360 E5.33983
G1 X85.482 Y50.278 E5.45641
G1 X85.482 Y86.384 E6.88383
G1 X85.031 Y86.658 E6.90471
G1 F1800.000 E5.90471
G92 E0
G1 X84.414 Y99.028 F7800.000
G1 F1800.000 E1.00000
G1 X86.720 Y100.719 F720.000 E1.11307
G1 X89.533 Y102.031 E1.23577
G1 X89.187 Y103.151 E1.28214
G1 X88.703 Y105.549 E1.37886
G1 X88.460 Y107.983 E1.47554
G1 X88.460 Y110.427 E1.57219
G1 X88.703 Y112.861 E1.66887
G1 X89.187 Y115.259 E1.76558
G1 X89.430 Y116.044 E1.79809
G1 X87.749 Y116.303 E1.86532
G1 X86.341 Y117.157 E1.93042
G1 X82.448 Y109.679 E2.26374
G1 X71.293 Y109.679 E2.70474
G1 X71.251 Y109.138 E2.72619
G1 X72.833 Y108.887 E2.78952
G1 X74.454 Y108.453 E2.85586
G1 X76.020 Y107.852 E2.92220
G1 X77.516 Y107.089 E2.98856
G1 X78.923 Y106.176 E3.05488
G1 X80.227 Y105.120 E3.12123
G1 X81.414 Y103.933 E3.18759
G1 X82.470 Y102.629 E3.25393
G1 X83.384 Y101.221 E3.32027
G1 X84.146 Y99.726 E3.38662
G1 X84.377 Y99.125 E3.41205
G1 F1800.000 E2.41205
G92 E0
G1 X67.748 Y109.138 F7800.000
G1 F1800.000 E1.00000
G1 X67.706 Y109.679 F720.000 E1.02145
G1 X63.231 Y109.679 E1.19835
G1 X63.231 Y107.948 E1.26675
G1 X64.545 Y108.453 E1.32239
G1 X66.166 Y108.887 E1.38873
G1 X67.645 Y109.121 E1.44793
G1 F1800.000 E0.44793
G92 E0
G1 X84.644 Y87.983 F7800.000
G1 F1800.000 E1.00000
G1 X84.146 Y86.684 F720.000 E1.05499
G1 X83.384 Y85.189 E1.12134
G1 X82.470 Y83.781 E1.18768
G1 X81.414 Y82.477 E1.25402
G1 X80.227 Y81.290 E1.32037
G1 X78.923 Y80.234 E1.38673
G1 X77.516 Y79.321 E1.45305
G1 X76.021 Y78.559 E1.51940
G1 X74.454 Y77.957 E1.58575
G1 X72.833 Y77.523 E1.65210
G1 X71.175 Y77.260 E1.71844
G1 X69.499 Y77.173 E1.78478
G1 X67.824 Y77.260 E1.85113
G1 X66.166 Y77.523 E1.91747
G1 X64.545 Y77.957 E1.98381
G1 X63.231 Y78.462 E2.03946
G1 X63.231 Y77.169 E2.09056
G1 X50.572 Y80.561 E2.60868
G1 X49.136 Y75.202 E2.82800
G1 X63.231 Y71.426 E3.40488
G1 X63.231 Y55.084 E4.05094
G1 X63.180 Y54.104 E4.08974
G1 X63.007 Y53.015 E4.13332
G1 X62.722 Y51.950 E4.17691
G1 X62.327 Y50.921 E4.22049
G1 X61.826 Y49.939 E4.26408
G1 X61.464 Y49.381 E4.29036
G1 X64.213 Y47.384 E4.42469
G1 X65.400 Y43.731 E4.57653
G1 X66.599 Y43.731 E4.62392
G1 X67.786 Y47.384 E4.77576
G1 X70.915 Y49.658 E4.92869
G1 X71.460 Y49.658 E4.95021
G1 X71.629 Y49.989 E4.96492
G1 X73.425 Y51.784 E5.06530
G1 X75.680 Y52.938 E5.16546
G1 X78.213 Y53.336 E5.26683
G1 X80.724 Y52.937 E5.36733
G1 X82.981 Y51.789 E5.46743
G1 X84.780 Y49.994 E5.56793
G1 X85.894 Y47.808 E5.66492
G1 X86.179 Y47.876 E5.67649
G1 X86.179 Y86.776 E7.21437
G1 X85.009 Y87.486 E7.26847
G1 X84.706 Y87.898 E7.28870
G1 F1800.000 E6.28870
G92 E0
G1 X86.254 Y44.679 F7800.000
G1 F1800.000 E1.00000
G1 X86.104 Y43.731 F720.000 E1.03792
G1 X112.349 Y43.731 E2.07548
G1 X112.834 Y43.808 E2.09490
G1 X112.950 Y43.867 E2.10006
G1 X113.042 Y43.959 E2.10520
G1 X113.102 Y44.076 E2.11040
G1 X113.122 Y44.205 E2.11554
G1 X112.907 Y45.567 E2.17004
G1 X112.667 Y45.595 E2.17957
G1 X112.288 Y44.679 E2.21878
G1 X86.359 Y44.679 E3.24386
G1 F1800.000 E2.24386
G92 E0
G1 X84.292 Y97.403 F7800.000
G1 F1800.000 E1.00000
G1 X85.025 Y98.613 F720.000 E1.05593
G1 X87.077 Y100.117 E1.15649
G1 X90.378 Y101.656 E1.30048
G1 X89.863 Y103.323 E1.36947
G1 X89.392 Y105.653 E1.46343
G1 X89.156 Y108.017 E1.55737
G1 X89.156 Y110.393 E1.65127
G1 X89.392 Y112.757 E1.74521
G1 X89.863 Y115.086 E1.83917
G1 X90.333 Y116.610 E1.90219
G1 X87.992 Y116.970 E1.99584
G1 X86.067 Y118.138 E2.08486
G1 X82.026 Y110.375 E2.43087
G1 X62.535 Y110.375 E3.20142
G1 X62.535 Y106.844 E3.34102
G1 X63.262 Y107.214 E3.37329
G1 X64.761 Y107.790 E3.43675
G1 X66.311 Y108.205 E3.50020
G1 X67.897 Y108.456 E3.56366
G1 X69.499 Y108.540 E3.62712
G1 X71.102 Y108.456 E3.69058
G1 X72.688 Y108.205 E3.75404
G1 X74.238 Y107.790 E3.81750
G1 X75.737 Y107.214 E3.88095
G1 X77.167 Y106.486 E3.94442
G1 X78.513 Y105.612 E4.00787
G1 X79.761 Y104.601 E4.07133
G1 X80.896 Y103.466 E4.13480
G1 X81.906 Y102.219 E4.19825
G1 X82.780 Y100.873 E4.26171
G1 X83.509 Y99.442 E4.32517
G1 X84.254 Y97.501 E4.40739
G1 F1800.000 E3.40739
G92 E0
G1 X84.370 Y89.534 F7800.000
G1 F1800.000 E1.00000
G1 X84.084 Y88.466 F720.000 E1.04371
G1 X83.509 Y86.968 E1.10717
G1 X82.780 Y85.537 E1.17063
G1 X81.906 Y84.191 E1.23409
G1 X80.896 Y82.944 E1.29754
G1 X79.761 Y81.809 E1.36101
G1 X78.513 Y80.798 E1.42447
G1 X77.167 Y79.924 E1.48792
G1 X75.737 Y79.196 E1.55138
G1 X74.238 Y78.620 E1.61484
G1 X72.688 Y78.205 E1.67831
G1 X71.102 Y77.954 E1.74176
G1 X69.499 Y77.870 E1.80522
G1 X67.897 Y77.954 E1.86868
G1 X66.311 Y78.205 E1.93213
G1 X64.761 Y78.620 E1.99559
G1 X63.262 Y79.196 E2.05905
G1 X62.535 Y79.566 E2.09132
