; generated by Slic3r 1.2.6 on 2015-04-03 at 17:22:09

; external perimeters extrusion width = 0.50mm
; perimeters extrusion width = 0.50mm
; infill extrusion width = 0.50mm
; solid infill extrusion width = 0.50mm
; top infill extrusion width = 0.50mm

M104 S190 ; set temperature
G28 ; home all axes
G1 Z15 F120 ; lift nozzle
M109 S190 ; wait for temperature to be reached
G21 ; set units to millimeters
G90 ; use absolute coordinates
M82 ; use absolute distances for extrusion
G92 E0
M106 S102
G1 E-2.00000 F1680.00000
G92 E0
G1 Z0.400 F12000.000
G1 X12.158 Y11.010 F12000.000
G1 E2.00000 F1680.00000
G1 X14.320 Y9.374 E2.08118 F1200.000
G1 X17.076 Y8.112 E2.17196
G1 X18.567 Y7.458 E2.22072
G1 X20.023 Y6.838 E2.26809
G1 X23.014 Y5.617 E2.36484
G1 X24.661 Y4.971 E2.41782
G1 X28.018 Y3.700 E2.52531
G1 X33.640 Y1.679 E2.70418
G1 X36.270 Y1.332 E2.78364
G1 X153.920 Y10.433 E6.31706
G1 X156.104 Y11.000 E6.38464 F1200.000
G1 X157.957 Y12.288 E6.45223
G1 X159.250 Y14.139 E6.51981
G1 X159.842 Y16.831 E6.60238
G1 X159.842 Y35.583 E7.16389
G1 X159.782 Y36.464 E7.19032
G1 X144.022 Y150.249 E10.63005
G1 X143.324 Y152.396 E10.69763
G1 X141.781 Y154.293 E10.77084
G1 X137.037 Y158.259 E10.95600
G1 X135.000 Y159.406 E11.02600
G1 X113.440 Y166.791 E11.70842
G1 X111.478 Y167.137 E11.76809
G1 X26.484 Y168.686 E14.31357
G1 X26.028 Y168.678 E14.32723
G1 X24.488 Y168.596 E14.37342
G1 X23.732 Y168.511 E14.39618
G1 X22.321 Y168.267 E14.43906
G1 X21.473 Y168.060 E14.46520
G1 X20.191 Y167.652 E14.50550
G1 X19.393 Y167.339 E14.53115
G1 X18.240 Y166.794 E14.56934
G1 X17.518 Y166.394 E14.59406
G1 X16.495 Y165.738 E14.63045
G1 X15.778 Y165.205 E14.65721
G1 X14.884 Y164.437 E14.69249
G1 X14.233 Y163.793 E14.71993
G1 X13.472 Y162.922 E14.75454
G1 X12.912 Y162.179 E14.78240
G1 X12.290 Y161.216 E14.81675
G1 X11.846 Y160.405 E14.84443
G1 X11.362 Y159.348 E14.87924
G1 X11.063 Y158.563 E14.90441
G1 X10.717 Y157.438 E14.93965
G1 X10.533 Y156.675 E14.96314
G1 X10.326 Y155.508 E14.99864
G1 X10.237 Y154.752 E15.02144
G1 X10.158 Y153.155 E15.06930
G1 X10.606 Y15.174 E19.20104
G1 X11.010 Y12.954 E19.26863
G1 X12.120 Y11.075 E19.33396
G1 E17.33396 F1680.00000
G92 E0
G1 X66.866 Y63.434 F12000.000
G1 E2.00000 F1680.00000
G1 X66.731 Y128.525 E3.83246 F1200.000
G1 X63.266 Y127.277 E3.93614
G1 X61.522 Y126.625 E3.98855
G1 X56.708 Y124.753 E4.13395
G1 X55.220 Y124.150 E4.17914
G1 X52.386 Y122.951 E4.26578
G1 X51.025 Y122.350 E4.30768
G1 X48.478 Y121.175 E4.38664
G1 X48.286 Y55.589 E6.23304
G1 X48.286 Y36.572 E6.76838
G1 X48.476 Y18.666 E7.27250
G1 X51.024 Y17.500 E7.35139
G1 X52.386 Y16.902 E7.39327
G1 X53.778 Y16.309 E7.43586
G1 X56.709 Y15.112 E7.52498
G1 X58.251 Y14.508 E7.57162
G1 X61.520 Y13.270 E7.67000
G1 X66.733 Y11.396 E7.82596
G1 X66.740 Y12.317 E7.85189
G1 X66.922 Y36.518 E8.53321 F1200.000
G1 X66.866 Y63.359 E9.28883
G1 X66.522 Y11.950 F12000.000
G1 X66.319 Y11.747 E9.29689 F2400.000
G1 X65.911 Y11.894 E9.30914
G1 X66.526 Y12.510 E9.33367
G1 X66.530 Y13.070 E9.34945
G1 X65.502 Y12.041 E9.39045
G1 X65.093 Y12.188 E9.40270
G1 X66.535 Y13.630 E9.46016
G1 X66.539 Y14.190 E9.47594
G1 X64.684 Y12.335 E9.54987
G1 X64.275 Y12.482 E9.56211
G1 X66.543 Y14.751 E9.65250
G1 X66.547 Y15.311 E9.66829
G1 X63.866 Y12.629 E9.77514
G1 X63.457 Y12.776 E9.78739
G1 X66.551 Y15.871 E9.91071
G1 X66.556 Y16.431 E9.92649
G1 X63.048 Y12.923 E10.06628
G1 X62.639 Y13.070 E10.07852
G1 X66.560 Y16.991 E10.23477
G1 X66.564 Y17.551 E10.25056
G1 X62.230 Y13.217 E10.42327
G1 X61.821 Y13.364 E10.43552
G1 X66.568 Y18.111 E10.62470
G1 X66.573 Y18.671 E10.64048
G1 X61.414 Y13.513 E10.84606
G1 X61.011 Y13.666 E10.85821
G1 X66.577 Y19.232 E11.08002
G1 X66.581 Y19.792 E11.09580
G1 X60.608 Y13.819 E11.33385
G1 X60.205 Y13.971 E11.34600
G1 X66.585 Y20.352 E11.60029
G1 X66.589 Y20.912 E11.61607
G1 X59.801 Y14.124 E11.88659
G1 X59.398 Y14.277 E11.89874
G1 X66.594 Y21.472 E12.18550
G1 X66.598 Y22.032 E12.20129
G1 X58.995 Y14.429 E12.50428
G1 X58.592 Y14.582 E12.51643
G1 X66.602 Y22.592 E12.83567
G1 X66.606 Y23.153 E12.85145
G1 X58.189 Y14.736 E13.18689
G1 X57.790 Y14.892 E13.19898
G1 X66.611 Y23.713 E13.55050
G1 X66.615 Y24.273 E13.56628
G1 X57.391 Y15.049 E13.93389
G1 X56.991 Y15.205 E13.94597
G1 X66.619 Y24.833 E14.32966
G1 X66.623 Y25.393 E14.34545
G1 X56.594 Y15.364 E14.74515
G1 X56.199 Y15.525 E14.75717
G1 X66.627 Y25.953 E15.17277
G1 X66.632 Y26.513 E15.18856
G1 X55.804 Y15.686 E15.62007
G1 X55.409 Y15.847 E15.63208
G1 X66.636 Y27.074 E16.07949
G1 X66.640 Y27.634 E16.09527
G1 X55.015 Y16.008 E16.55858
G1 X54.620 Y16.169 E16.57060
G1 X66.644 Y28.194 E17.04981
G1 X66.648 Y28.754 E17.06559
G1 X54.225 Y16.331 E17.56070
G1 X53.830 Y16.492 E17.57272
G1 X66.653 Y29.314 E18.08373
G1 X66.657 Y29.874 E18.09951
G1 X53.440 Y16.657 E18.62624
G1 X53.050 Y16.824 E18.63818
G1 X66.661 Y30.434 E19.18061
G1 X66.665 Y30.995 E19.19639
G1 X52.660 Y16.990 E19.75453
G1 X52.272 Y17.157 E19.76645
G1 X66.670 Y31.555 E20.34023
G1 X66.674 Y32.115 E20.35602
G1 X51.886 Y17.327 E20.94537
G1 X51.499 Y17.496 E20.95726
G1 X66.678 Y32.675 E21.56217
G1 X66.682 Y33.235 E21.57796
G1 X51.113 Y17.666 E22.19843
G1 X50.731 Y17.840 E22.21026
G1 X66.686 Y33.795 E22.84613
G1 X66.691 Y34.355 E22.86191
G1 X50.350 Y18.014 E23.51315
G1 X49.968 Y18.189 E23.52496
G1 X66.695 Y34.916 E24.19156
G1 X66.699 Y35.476 E24.20735
G1 X49.587 Y18.364 E24.88930
G1 X49.206 Y18.538 E24.90112
G1 X66.703 Y36.036 E25.59845
G1 X66.708 Y36.596 E25.61423
G1 X48.825 Y18.713 E26.32692
G1 X48.685 Y19.129 E26.33929
G1 X66.706 Y37.151 E27.05750
G1 X66.705 Y37.706 E27.07313
G1 X48.679 Y19.679 E27.79153
G1 X48.673 Y20.229 E27.80703
G1 X66.704 Y38.260 E28.52562
G1 X66.703 Y38.815 E28.54125
G1 X48.667 Y20.779 E29.26002
G1 X48.662 Y21.329 E29.27552
G1 X66.702 Y39.370 E29.99448
G1 X66.701 Y39.925 E30.01011
G1 X48.656 Y21.880 E30.72926
G1 X48.650 Y22.430 E30.74476
G1 X66.700 Y40.479 E31.46409
G1 X66.698 Y41.034 E31.47973
G1 X48.644 Y22.980 E32.19924
G1 X48.638 Y23.530 E32.21475
G1 X66.697 Y41.589 E32.93445
G1 X66.696 Y42.144 E32.95009
G1 X48.632 Y24.080 E33.66998
G1 X48.626 Y24.630 E33.68548
G1 X66.695 Y42.698 E34.40556
G1 X66.694 Y43.253 E34.42119
G1 X48.621 Y25.180 E35.14146
G1 X48.615 Y25.730 E35.15696
G1 X66.693 Y43.808 E35.87742
G1 X66.692 Y44.363 E35.89305
G1 X48.609 Y26.280 E36.61369
G1 X48.603 Y26.830 E36.62919
G1 X66.690 Y44.917 E37.35002
G1 X66.689 Y45.472 E37.36565
G1 X48.597 Y27.380 E38.08667
G1 X48.591 Y27.930 E38.10217
G1 X66.688 Y46.027 E38.82337
G1 X66.687 Y46.582 E38.83901
G1 X48.586 Y28.480 E39.56040
G1 X48.580 Y29.030 E39.57590
G1 X66.686 Y47.137 E40.29747
G1 X66.685 Y47.691 E40.31311
G1 X48.574 Y29.581 E41.03487
G1 X48.568 Y30.131 E41.05037
G1 X66.683 Y48.246 E41.77232
G1 X66.682 Y48.801 E41.78796
G1 X48.562 Y30.681 E42.51009
G1 X48.556 Y31.231 E42.52559
G1 X66.681 Y49.356 E43.24792
G1 X66.680 Y49.910 E43.26355
G1 X48.550 Y31.781 E43.98606
G1 X48.545 Y32.331 E44.00157
G1 X66.679 Y50.465 E44.72426
G1 X66.678 Y51.020 E44.73990
G1 X48.539 Y32.881 E45.46278
G1 X48.533 Y33.431 E45.47828
G1 X66.677 Y51.575 E46.20136
G1 X66.675 Y52.129 E46.21699
G1 X48.527 Y33.981 E46.94025
G1 X48.521 Y34.531 E46.95575
G1 X66.674 Y52.684 E47.67920
G1 X66.673 Y53.239 E47.69483
G1 X48.515 Y35.081 E48.41846
G1 X48.510 Y35.631 E48.43397
G1 X66.672 Y53.794 E49.15779
G1 X66.671 Y54.348 E49.17342
G1 X48.504 Y36.181 E49.89743
G1 X48.500 Y36.734 E49.91300
G1 X66.670 Y54.903 E50.63709
G1 X66.668 Y55.458 E50.65273
G1 X48.500 Y37.290 E51.37677
G1 X48.500 Y37.846 E51.39244
G1 X66.667 Y56.013 E52.11644
G1 X66.666 Y56.568 E52.13207
G1 X48.500 Y38.402 E52.85603
G1 X48.500 Y38.958 E52.87169
G1 X66.665 Y57.122 E53.59560
G1 X66.664 Y57.677 E53.61124
G1 X48.500 Y39.514 E54.33510
G1 X48.500 Y40.070 E54.35076
G1 X66.663 Y58.232 E55.07458
G1 X66.662 Y58.787 E55.09021
G1 X48.500 Y40.625 E55.81398
G1 X48.500 Y41.181 E55.82965
G1 X66.660 Y59.341 E56.55337
G1 X66.659 Y59.896 E56.56901
G1 X48.500 Y41.737 E57.29269
G1 X48.500 Y42.293 E57.30835
G1 X66.658 Y60.451 E58.03199
G1 X66.657 Y61.006 E58.04762
G1 X48.500 Y42.849 E58.77121
G1 X48.500 Y43.405 E58.78687
G1 X66.656 Y61.560 E59.51041
G1 X66.655 Y62.115 E59.52605
G1 X48.500 Y43.961 E60.24954
G1 X48.500 Y44.517 E60.26521
G1 X66.653 Y62.670 E60.98866
G1 X66.652 Y63.225 E61.00429
G1 X48.500 Y45.073 E61.72769
G1 X48.500 Y45.629 E61.74336
G1 X66.651 Y63.779 E62.46672
G1 X66.650 Y64.334 E62.48235
G1 X48.500 Y46.185 E63.20566
G1 X48.500 Y46.741 E63.22133
G1 X66.649 Y64.889 E63.94459
G1 X66.648 Y65.444 E63.96022
G1 X48.500 Y47.296 E64.68344
G1 X48.500 Y47.852 E64.69911
G1 X66.647 Y65.999 E65.42228
G1 X66.645 Y66.553 E65.43792
G1 X48.500 Y48.408 E66.16104
G1 X48.500 Y48.964 E66.17671
G1 X66.644 Y67.108 E66.89979
G1 X66.643 Y67.663 E66.91542
G1 X48.500 Y49.520 E67.63846
G1 X48.500 Y50.076 E67.65413
G1 X66.642 Y68.218 E68.37711
G1 X66.641 Y68.772 E68.39275
G1 X48.500 Y50.632 E69.11569
G1 X48.500 Y51.188 E69.13136
G1 X66.640 Y69.327 E69.85426
G1 X66.638 Y69.882 E69.86989
G1 X48.500 Y51.744 E70.59274
G1 X48.500 Y52.300 E70.60841
G1 X66.637 Y70.437 E71.33121
G1 X66.636 Y70.991 E71.34685
G1 X48.500 Y52.856 E72.06960
G1 X48.500 Y53.412 E72.08527
G1 X66.635 Y71.546 E72.80798
G1 X66.634 Y72.101 E72.82362
G1 X48.500 Y53.968 E73.54629
G1 X48.500 Y54.523 E73.56195
G1 X66.633 Y72.656 E74.28457
G1 X66.632 Y73.210 E74.30021
G1 X48.500 Y55.079 E75.02278
G1 X48.501 Y55.636 E75.03846
G1 X66.630 Y73.765 E75.76097
G1 X66.629 Y74.320 E75.77661
G1 X48.502 Y56.193 E76.49901
G1 X48.504 Y56.751 E76.51472
G1 X66.628 Y74.875 E77.23702
G1 X66.627 Y75.430 E77.25265
G1 X48.506 Y57.308 E77.97483
G1 X48.507 Y57.866 E77.99054
G1 X66.626 Y75.984 E78.71261
G1 X66.625 Y76.539 E78.72825
G1 X48.509 Y58.423 E79.45021
G1 X48.511 Y58.981 E79.46592
G1 X66.623 Y77.094 E80.18777
G1 X66.622 Y77.649 E80.20340
G1 X48.512 Y59.538 E80.92514
G1 X48.514 Y60.096 E80.94085
G1 X66.621 Y78.203 E81.66248
G1 X66.620 Y78.758 E81.67812
G1 X48.515 Y60.654 E82.39963
G1 X48.517 Y61.211 E82.41534
G1 X66.619 Y79.313 E83.13675
G1 X66.618 Y79.868 E83.15238
G1 X48.519 Y61.769 E83.87368
G1 X48.520 Y62.326 E83.88939
G1 X66.617 Y80.422 E84.61058
G1 X66.615 Y80.977 E84.62621
G1 X48.522 Y62.884 E85.34728
G1 X48.524 Y63.441 E85.36299
G1 X66.614 Y81.532 E86.08396
G1 X66.613 Y82.087 E86.09959
G1 X48.525 Y63.999 E86.82044
G1 X48.527 Y64.556 E86.83615
G1 X66.612 Y82.641 E87.55690
G1 X66.611 Y83.196 E87.57253
G1 X48.528 Y65.114 E88.29316
G1 X48.530 Y65.671 E88.30887
G1 X66.610 Y83.751 E89.02939
G1 X66.608 Y84.306 E89.04502
G1 X48.532 Y66.229 E89.76543
G1 X48.533 Y66.787 E89.78114
G1 X66.607 Y84.861 E90.50144
G1 X66.606 Y85.415 E90.51708
G1 X48.535 Y67.344 E91.23726
G1 X48.537 Y67.902 E91.25297
G1 X66.605 Y85.970 E91.97305
G1 X66.604 Y86.525 E91.98868
G1 X48.538 Y68.459 E92.70865
G1 X48.540 Y69.017 E92.72436
G1 X66.603 Y87.080 E93.44422
G1 X66.602 Y87.634 E93.45985
G1 X48.541 Y69.574 E94.17959
G1 X48.543 Y70.132 E94.19530
G1 X66.600 Y88.189 E94.91494
G1 X66.599 Y88.744 E94.93057
G1 X48.545 Y70.689 E95.65009
G1 X48.546 Y71.247 E95.66580
G1 X66.598 Y89.299 E96.38522
G1 X66.597 Y89.853 E96.40085
G1 X48.548 Y71.804 E97.12015
G1 X48.550 Y72.362 E97.13586
G1 X66.596 Y90.408 E97.85505
G1 X66.595 Y90.963 E97.87068
G1 X48.551 Y72.920 E98.58976
G1 X48.553 Y73.477 E98.60547
G1 X66.593 Y91.518 E99.32444
G1 X66.592 Y92.072 E99.34007
G1 X48.555 Y74.035 E100.05893
G1 X48.556 Y74.592 E100.07464
G1 X66.591 Y92.627 E100.79339
G1 X66.590 Y93.182 E100.80902
G1 X48.558 Y75.150 E101.52766
G1 X48.559 Y75.707 E101.54337
G1 X66.589 Y93.737 E102.26189
G1 X66.588 Y94.292 E102.27753
G1 X48.561 Y76.265 E102.99594
G1 X48.563 Y76.822 E103.01165
G1 X66.587 Y94.846 E103.72996
G1 X66.585 Y95.401 E103.74559
G1 X48.564 Y77.380 E104.46378
G1 X48.566 Y77.937 E104.47949
G1 X66.584 Y95.956 E105.19757
G1 X66.583 Y96.511 E105.21321
G1 X48.568 Y78.495 E105.93118
G1 X48.569 Y79.053 E105.94689
G1 X66.582 Y97.065 E106.66475
G1 X66.581 Y97.620 E106.68038
G1 X48.571 Y79.610 E107.39813
G1 X48.572 Y80.168 E107.41384
G1 X66.580 Y98.175 E108.13148
G1 X66.578 Y98.730 E108.14711
G1 X48.574 Y80.725 E108.86464
G1 X48.576 Y81.283 E108.88035
G1 X66.577 Y99.284 E109.59777
G1 X66.576 Y99.839 E109.61340
G1 X48.577 Y81.840 E110.33070
G1 X48.579 Y82.398 E110.34642
G1 X66.575 Y100.394 E111.06361
G1 X66.574 Y100.949 E111.07924
G1 X48.581 Y82.955 E111.79633
G1 X48.582 Y83.513 E111.81204
G1 X66.573 Y101.503 E112.52901
G1 X66.572 Y102.058 E112.54465
G1 X48.584 Y84.071 E113.26151
G1 X48.585 Y84.628 E113.27722
G1 X66.570 Y102.613 E113.99397
G1 X66.569 Y103.168 E114.00960
G1 X48.587 Y85.186 E114.72624
G1 X48.589 Y85.743 E114.74195
G1 X66.568 Y103.723 E115.45848
G1 X66.567 Y104.277 E115.47412
G1 X48.590 Y86.301 E116.19054
G1 X48.592 Y86.858 E116.20625
G1 X66.566 Y104.832 E116.92255
G1 X66.565 Y105.387 E116.93819
G1 X48.594 Y87.416 E117.65438
G1 X48.595 Y87.973 E117.67010
G1 X66.564 Y105.942 E118.38618
G1 X66.562 Y106.496 E118.40182
G1 X48.597 Y88.531 E119.11779
G1 X48.598 Y89.088 E119.13350
G1 X66.561 Y107.051 E119.84937
G1 X66.560 Y107.606 E119.86500
G1 X48.600 Y89.646 E120.58075
G1 X48.602 Y90.204 E120.59646
G1 X66.559 Y108.161 E121.31211
G1 X66.558 Y108.715 E121.32774
G1 X48.603 Y90.761 E122.04327
G1 X48.605 Y91.319 E122.05898
G1 X66.557 Y109.270 E122.77440
G1 X66.555 Y109.825 E122.79004
G1 X48.607 Y91.876 E123.50535
G1 X48.608 Y92.434 E123.52106
G1 X66.554 Y110.380 E124.23626
G1 X66.553 Y110.934 E124.25189
G1 X48.610 Y92.991 E124.96698
G1 X48.612 Y93.549 E124.98269
G1 X66.552 Y111.489 E125.69767
G1 X66.551 Y112.044 E125.71330
G1 X48.613 Y94.106 E126.42817
G1 X48.615 Y94.664 E126.44388
G1 X66.550 Y112.599 E127.15864
G1 X66.549 Y113.154 E127.17427
G1 X48.616 Y95.221 E127.88891
G1 X48.618 Y95.779 E127.90463
G1 X66.547 Y113.708 E128.61916
G1 X66.546 Y114.263 E128.63479
G1 X48.620 Y96.337 E129.34922
G1 X48.621 Y96.894 E129.36493
G1 X66.545 Y114.818 E130.07924
G1 X66.544 Y115.373 E130.09487
G1 X48.623 Y97.452 E130.80907
G1 X48.625 Y98.009 E130.82479
G1 X66.543 Y115.927 E131.53888
G1 X66.542 Y116.482 E131.55451
G1 X48.626 Y98.567 E132.26849
G1 X48.628 Y99.124 E132.28420
G1 X66.540 Y117.037 E132.99807
G1 X66.539 Y117.592 E133.01370
G1 X48.629 Y99.682 E133.72746
G1 X48.631 Y100.239 E133.74317
G1 X66.538 Y118.146 E134.45682
G1 X66.537 Y118.701 E134.47245
G1 X48.633 Y100.797 E135.18599
G1 X48.634 Y101.354 E135.20170
G1 X66.536 Y119.256 E135.91513
G1 X66.535 Y119.811 E135.93076
G1 X48.636 Y101.912 E136.64408
G1 X48.638 Y102.470 E136.65979
G1 X66.534 Y120.365 E137.37299
G1 X66.532 Y120.920 E137.38862
G1 X48.639 Y103.027 E138.10172
G1 X48.641 Y103.585 E138.11743
G1 X66.531 Y121.475 E138.83041
G1 X66.530 Y122.030 E138.84604
G1 X48.642 Y104.142 E139.55892
G1 X48.644 Y104.700 E139.57463
G1 X66.529 Y122.585 E140.28739
G1 X66.528 Y123.139 E140.30302
G1 X48.646 Y105.257 E141.01567
G1 X48.647 Y105.815 E141.03138
G1 X66.527 Y123.694 E141.74392
G1 X66.525 Y124.249 E141.75955
G1 X48.649 Y106.372 E142.47198
G1 X48.651 Y106.930 E142.48769
G1 X66.524 Y124.804 E143.20001
G1 X66.523 Y125.358 E143.21565
G1 X48.652 Y107.487 E143.92785
G1 X48.654 Y108.045 E143.94356
G1 X66.522 Y125.913 E144.65566
G1 X66.521 Y126.468 E144.67129
G1 X48.655 Y108.603 E145.38328
G1 X48.657 Y109.160 E145.39899
G1 X66.520 Y127.023 E146.11086
G1 X66.519 Y127.577 E146.12649
G1 X48.659 Y109.718 E146.83826
G1 X48.660 Y110.275 E146.85397
G1 X66.517 Y128.132 E147.56562
G1 X65.731 Y127.902 E147.58870
G1 X48.662 Y110.833 E148.26896
G1 X48.664 Y111.390 E148.28468
G1 X64.863 Y127.589 E148.93025
G1 X63.994 Y127.276 F12000.000
G1 X48.665 Y111.948 E149.54113 F2400.000
G1 X48.667 Y112.505 E149.55685
G1 X63.118 Y126.956 E150.13275
