; generated by Slic3r 1.2.6 on 2015-04-03 at 21:40:02

; external perimeters extrusion width = 0.50mm
; perimeters extrusion width = 0.50mm
; infill extrusion width = 0.50mm
; solid infill extrusion width = 0.50mm
; top infill extrusion width = 0.50mm

M104 S190 ; set temperature
G28 ; home all axes
G1 Z15 F120 ; lift nozzle
M109 S190 ; wait for temperature to be reached
G21 ; set units to millimeters
G90 ; use absolute coordinates
M82 ; use absolute distances for extrusion
G92 E0
M106 S102
G1 E-2.00000 F1680.00000
G92 E0
G1 Z0.350 F12000.000
G1 X19.610 Y15.780 F12000.000
G1 E2.00000 F1680.00000
G1 X20.278 Y15.061 E2.02763 F1200.000
G1 X21.112 Y14.290 E2.05961
G1 X21.897 Y13.670 E2.08778
G1 X22.845 Y13.034 E2.11991
G1 X23.687 Y12.557 E2.14714
G1 X24.749 Y12.057 E2.18020
G1 X25.592 Y11.730 E2.20567
G1 X26.760 Y11.369 E2.24007
G1 X27.573 Y11.175 E2.26360
G1 X28.837 Y10.958 E2.29969
G1 X29.582 Y10.875 E2.32080
G1 X31.282 Y10.794 E2.36874
G1 X79.722 Y10.794 E3.73239
G1 X134.178 Y11.178 E5.26548 F1200.000
G1 X136.401 Y11.591 E5.32911
G1 X138.343 Y12.746 E5.39275
G1 X139.156 Y13.590 E5.42573
G1 X160.401 Y40.109 E6.38231
G1 X161.482 Y42.094 E6.44594
G1 X161.813 Y44.049 E6.50176
G1 X162.261 Y78.143 E7.46167
G1 X162.262 Y143.564 E9.30338
G1 X162.179 Y145.187 E9.34915
G1 X162.087 Y145.960 E9.37105
G1 X161.871 Y147.160 E9.40538
G1 X161.677 Y147.949 E9.42826
G1 X161.316 Y149.096 E9.46209
G1 X161.008 Y149.888 E9.48603
G1 X160.508 Y150.959 E9.51931
G1 X160.068 Y151.751 E9.54482
G1 X159.432 Y152.726 E9.57759
G1 X158.879 Y153.456 E9.60336
G1 X158.108 Y154.334 E9.63627
G1 X157.457 Y154.977 E9.66200
G1 X156.557 Y155.748 E9.69538
G1 X155.835 Y156.284 E9.72069
G1 X154.811 Y156.939 E9.75490
G1 X154.075 Y157.344 E9.77856
G1 X152.928 Y157.881 E9.81421
G1 X152.128 Y158.193 E9.83840
G1 X150.859 Y158.591 E9.87582
G1 X150.022 Y158.794 E9.90007
G1 X148.634 Y159.033 E9.93974
G1 X147.881 Y159.117 E9.96106
G1 X146.373 Y159.197 E10.00358
G1 X145.778 Y159.201 E10.02033
G1 X14.367 Y153.975 E13.72272
G1 X12.159 Y153.490 E13.78635
G1 X10.255 Y152.271 E13.84998
G1 X8.890 Y150.470 E13.91361
G1 X8.186 Y147.573 E13.99755
G1 X7.738 Y49.250 E16.76554
G1 X7.821 Y47.597 E16.81213
G1 X7.913 Y46.825 E16.83403
G1 X8.129 Y45.624 E16.86837
G1 X8.323 Y44.836 E16.89124
G1 X8.754 Y43.477 E16.93136
G1 X16.791 Y20.714 E17.61097
G1 X17.391 Y19.244 E17.65565
G1 X17.773 Y18.472 E17.67989
G1 X18.369 Y17.449 E17.71323
G1 X18.894 Y16.680 E17.73943
G1 X19.563 Y15.839 E17.76970
G1 E15.76970 F1680.00000
G92 E0
G1 X120.651 Y106.920 F12000.000
G1 E2.00000 F1680.00000
G1 X120.209 Y107.022 E2.01182 F900.000
G1 X119.232 Y107.146 E2.03745
G1 X118.150 Y107.188 E2.06563
G1 X57.277 Y106.932 E3.65010
G1 X55.975 Y106.905 E3.68400
G1 X54.603 Y106.828 E3.71979
G1 X53.247 Y106.686 E3.75526
G1 X52.540 Y106.577 E3.77389
G1 X52.540 Y89.481 E4.21888
G1 X52.812 Y89.418 E4.22615
G1 X53.655 Y89.288 E4.24835
G1 X54.593 Y89.201 E4.27288
G1 X55.625 Y89.145 E4.29978
G1 X57.565 Y89.103 E4.35030
G1 X117.286 Y88.918 E5.90477
G1 X119.221 Y89.059 E5.95526
G1 X120.829 Y89.487 E5.99858 F900.000
G1 X122.048 Y90.171 E6.03498
G1 X122.902 Y91.077 E6.06737
G1 X123.414 Y92.200 E6.09950
G1 X123.592 Y93.608 E6.13643
G1 X122.788 Y106.177 E6.46426
G1 X122.560 Y106.294 E6.47094
G1 X121.896 Y106.560 E6.48957
G1 X121.101 Y106.816 E6.51130
G1 X120.724 Y106.903 E6.52135
G1 X120.815 Y107.296 F12000.000
G1 X120.280 Y107.419 E6.53565 F720.000
G1 X119.265 Y107.548 E6.56227
G1 X118.157 Y107.591 E6.59114
G1 X57.272 Y107.335 E8.17592
G1 X55.960 Y107.308 E8.21009
G1 X54.570 Y107.230 E8.24632
G1 X53.195 Y107.086 E8.28230
G1 X52.136 Y106.923 E8.31020
G1 X52.136 Y89.160 E8.77254
G1 X52.736 Y89.022 E8.78855
G1 X53.605 Y88.887 E8.81146
G1 X54.563 Y88.799 E8.83651
G1 X55.610 Y88.742 E8.86378
G1 X57.560 Y88.699 E8.91456
G1 X117.300 Y88.514 E10.46953
G1 X119.288 Y88.660 E10.52141
G1 X120.982 Y89.110 E10.56704 F720.000
G1 X122.300 Y89.850 E10.60638
G1 X123.241 Y90.849 E10.64211
G1 X123.806 Y92.089 E10.67758
G1 X123.997 Y93.595 E10.71710
G1 X123.176 Y106.431 E11.05189
G1 X122.727 Y106.662 E11.06502
G1 X122.033 Y106.940 E11.08450
G1 X121.208 Y107.205 E11.10705
G1 X120.888 Y107.279 E11.11559
G1 X120.474 Y106.930 F12000.000
G1 X122.406 Y90.996 F12000.000
G1 X121.706 Y90.295 E11.14150 F1200.000
G1 X120.491 Y89.653 F12000.000
G1 X123.191 Y92.353 E11.24135 F1200.000
G1 X123.281 Y93.017 E11.25886
G1 X119.710 Y89.446 E11.39093
G1 X118.962 Y89.270 E11.41104
G1 X123.364 Y93.673 E11.57388
G1 X123.335 Y94.217 E11.58813
G1 X118.343 Y89.225 E11.77277
G1 X117.725 Y89.180 E11.78899
G1 X123.301 Y94.756 E11.99523
G1 X123.266 Y95.295 E12.00935
G1 X117.112 Y89.141 E12.23695
G1 X116.541 Y89.143 E12.25189
G1 X123.232 Y95.834 E12.49936
G1 X123.197 Y96.372 E12.51348
G1 X115.969 Y89.144 E12.78080
G1 X115.398 Y89.146 E12.79574
G1 X123.163 Y96.911 E13.08293
G1 X123.129 Y97.450 E13.09705
G1 X114.827 Y89.148 E13.40409
G1 X114.255 Y89.150 E13.41903
G1 X123.094 Y97.989 E13.74594
G1 X123.060 Y98.527 E13.76006
G1 X113.684 Y89.151 E14.10682
G1 X113.112 Y89.153 E14.12176
G1 X123.025 Y99.066 E14.48839
G1 X122.991 Y99.605 E14.50251
G1 X112.541 Y89.155 E14.88899
G1 X111.969 Y89.157 E14.90393
G1 X122.956 Y100.144 E15.31028
G1 X122.922 Y100.682 E15.32440
G1 X111.398 Y89.159 E15.75060
G1 X110.826 Y89.160 E15.76555
G1 X122.887 Y101.221 E16.21161
G1 X122.853 Y101.760 E16.22573
G1 X110.255 Y89.162 E16.69165
G1 X109.683 Y89.164 E16.70660
G1 X122.818 Y102.299 E17.19238
G1 X122.784 Y102.837 E17.20650
G1 X109.112 Y89.166 E17.71215
G1 X108.540 Y89.167 E17.72709
G1 X122.749 Y103.376 E18.25260
G1 X122.715 Y103.915 E18.26671
G1 X107.969 Y89.169 E18.81208
G1 X107.398 Y89.171 E18.82702
G1 X122.680 Y104.454 E19.39225
G1 X122.646 Y104.992 E19.40637
G1 X106.826 Y89.173 E19.99145
G1 X106.255 Y89.174 E20.00640
G1 X122.611 Y105.531 E20.61134
G1 X122.560 Y106.053 E20.62506
G1 X105.683 Y89.176 E21.24925
G1 X105.112 Y89.178 E21.26419
G1 X122.171 Y106.238 E21.89513
G1 X121.755 Y106.395 E21.90676
G1 X104.540 Y89.180 E22.54344
G1 X103.969 Y89.182 E22.55839
G1 X121.321 Y106.534 E23.20016
G1 X120.871 Y106.657 E23.21236
G1 X103.397 Y89.183 E23.85863
G1 X102.826 Y89.185 E23.87358
G1 X120.406 Y106.765 E24.52376
G1 X119.912 Y106.845 E24.53683
G1 X102.254 Y89.187 E25.18990
G1 X101.683 Y89.189 E25.20485
G1 X119.404 Y106.909 E25.86024
G1 X118.861 Y106.940 E25.87445
G1 X101.111 Y89.190 E26.53092
G1 X100.540 Y89.192 E26.54586
G1 X118.310 Y106.962 E27.20307
G1 X117.737 Y106.963 E27.21803
G1 X99.969 Y89.194 E27.87520
G1 X99.397 Y89.196 E27.89015
G1 X117.162 Y106.960 E28.54717
G1 X116.586 Y106.958 E28.56223
G1 X98.826 Y89.197 E29.21909
G1 X98.254 Y89.199 E29.23404
G1 X116.011 Y106.956 E29.89075
G1 X115.435 Y106.953 E29.90580
G1 X97.683 Y89.201 E30.56236
G1 X97.111 Y89.203 E30.57730
G1 X114.859 Y106.951 E31.23370
G1 X114.284 Y106.948 E31.24876
G1 X96.540 Y89.205 E31.90500
G1 X95.968 Y89.206 E31.91995
G1 X113.708 Y106.946 E32.57604
G1 X113.132 Y106.944 E32.59109
G1 X95.397 Y89.208 E33.24703
G1 X94.825 Y89.210 E33.26198
G1 X112.557 Y106.941 E33.91776
G1 X111.981 Y106.939 E33.93281
G1 X94.254 Y89.212 E34.58844
G1 X93.682 Y89.213 E34.60338
G1 X111.405 Y106.936 E35.25885
G1 X110.830 Y106.934 E35.27391
G1 X93.111 Y89.215 E35.92922
G1 X92.540 Y89.217 E35.94417
G1 X110.254 Y106.931 E36.59933
G1 X109.678 Y106.929 E36.61438
G1 X91.968 Y89.219 E37.26939
G1 X91.397 Y89.220 E37.28434
G1 X109.103 Y106.927 E37.93919
G1 X108.527 Y106.924 E37.95424
G1 X90.825 Y89.222 E38.60894
G1 X90.254 Y89.224 E38.62388
G1 X107.951 Y106.922 E39.27842
G1 X107.376 Y106.919 E39.29348
G1 X89.682 Y89.226 E39.94787
G1 X89.111 Y89.228 E39.96281
G1 X106.800 Y106.917 E40.61704
G1 X106.224 Y106.914 E40.63210
G1 X88.539 Y89.229 E41.28617
G1 X87.968 Y89.231 E41.30112
G1 X105.649 Y106.912 E41.95504
G1 X105.073 Y106.910 E41.97009
G1 X87.396 Y89.233 E42.62386
G1 X86.825 Y89.235 E42.63881
G1 X104.497 Y106.907 E43.29242
G1 X103.922 Y106.905 E43.30747
G1 X86.253 Y89.236 E43.96093
G1 X85.682 Y89.238 E43.97587
G1 X103.346 Y106.902 E44.62918
G1 X102.771 Y106.900 E44.64423
G1 X85.111 Y89.240 E45.29738
G1 X84.539 Y89.242 E45.31232
G1 X102.195 Y106.898 E45.96531
G1 X101.619 Y106.895 E45.98037
G1 X83.968 Y89.244 E46.63321
G1 X83.396 Y89.245 E46.64815
G1 X101.044 Y106.893 E47.30083
G1 X100.468 Y106.890 E47.31589
G1 X82.825 Y89.247 E47.96841
G1 X82.253 Y89.249 E47.98336
G1 X99.892 Y106.888 E48.63573
G1 X99.317 Y106.885 E48.65079
G1 X81.682 Y89.251 E49.30300
G1 X81.110 Y89.252 E49.31795
G1 X98.741 Y106.883 E49.97001
G1 X98.165 Y106.881 E49.98506
G1 X80.539 Y89.254 E50.63697
G1 X79.967 Y89.256 E50.65192
G1 X97.590 Y106.878 E51.30367
G1 X97.014 Y106.876 E51.31872
G1 X79.396 Y89.258 E51.97032
G1 X78.824 Y89.259 E51.98526
G1 X96.438 Y106.873 E52.63671
G1 X95.863 Y106.871 E52.65176
G1 X78.253 Y89.261 E53.30305
G1 X77.682 Y89.263 E53.31799
G1 X95.287 Y106.868 E53.96913
G1 X94.711 Y106.866 E53.98418
G1 X77.110 Y89.265 E54.63516
G1 X76.539 Y89.267 E54.65010
G1 X94.136 Y106.864 E55.30093
G1 X93.560 Y106.861 E55.31598
G1 X75.967 Y89.268 E55.96665
G1 X75.396 Y89.270 E55.98159
G1 X92.984 Y106.859 E56.63210
G1 X92.409 Y106.856 E56.64716
G1 X74.824 Y89.272 E57.29752
G1 X74.253 Y89.274 E57.31246
G1 X91.833 Y106.854 E57.96266
G1 X91.257 Y106.852 E57.97772
G1 X73.681 Y89.275 E58.62777
G1 X73.110 Y89.277 E58.64271
G1 X90.682 Y106.849 E59.29260
G1 X90.106 Y106.847 E59.30766
G1 X72.538 Y89.279 E59.95740
G1 X71.967 Y89.281 E59.97234
G1 X89.531 Y106.844 E60.62192
G1 X88.955 Y106.842 E60.63698
G1 X71.395 Y89.282 E61.28641
G1 X70.824 Y89.284 E61.30135
G1 X88.379 Y106.839 E61.95062
G1 X87.804 Y106.837 E61.96568
G1 X70.253 Y89.286 E62.61480
G1 X69.681 Y89.288 E62.62974
G1 X87.228 Y106.835 E63.27870
G1 X86.652 Y106.832 E63.29376
G1 X69.110 Y89.290 E63.94257
G1 X68.538 Y89.291 E63.95751
G1 X86.077 Y106.830 E64.60616
G1 X85.501 Y106.827 E64.62122
G1 X67.967 Y89.293 E65.26972
G1 X67.395 Y89.295 E65.28466
G1 X84.925 Y106.825 E65.93301
G1 X84.350 Y106.823 E65.94806
G1 X66.824 Y89.297 E66.59625
G1 X66.252 Y89.298 E66.61119
G1 X83.774 Y106.820 E67.25923
G1 X83.198 Y106.818 E67.27428
G1 X65.681 Y89.300 E67.92216
G1 X65.109 Y89.302 E67.93710
G1 X82.623 Y106.815 E68.58483
G1 X82.047 Y106.813 E68.59988
G1 X64.538 Y89.304 E69.24745
G1 X63.966 Y89.305 E69.26239
G1 X81.471 Y106.810 E69.90981
G1 X80.896 Y106.808 E69.92486
G1 X63.395 Y89.307 E70.57212
G1 X62.824 Y89.309 E70.58707
G1 X80.320 Y106.806 E71.23417
G1 X79.744 Y106.803 E71.24922
G1 X62.252 Y89.311 E71.89617
G1 X61.681 Y89.313 E71.91112
G1 X79.169 Y106.801 E72.55791
G1 X78.593 Y106.798 E72.57297
G1 X61.109 Y89.314 E73.21960
G1 X60.538 Y89.316 E73.23455
G1 X78.017 Y106.796 E73.88103
G1 X77.442 Y106.793 E73.89609
G1 X59.966 Y89.318 E74.54242
G1 X59.395 Y89.320 E74.55736
G1 X76.866 Y106.791 E75.20353
G1 X76.291 Y106.789 E75.21859
G1 X58.823 Y89.321 E75.86461
G1 X58.252 Y89.323 E75.87955
G1 X75.715 Y106.786 E76.52542
G1 X75.139 Y106.784 E76.54047
G1 X57.680 Y89.325 E77.18618
G1 X57.116 Y89.334 E77.20094
G1 X74.564 Y106.781 E77.84624
G1 X73.988 Y106.779 E77.86130
G1 X56.555 Y89.346 E78.50605
G1 X55.994 Y89.358 E78.52072
G1 X73.412 Y106.777 E79.16493
G1 X72.837 Y106.774 E79.17999
G1 X55.437 Y89.374 E79.82352
G1 X54.893 Y89.404 E79.83776
G1 X72.261 Y106.772 E80.48012
G1 X71.685 Y106.769 E80.49517
G1 X54.355 Y89.439 E81.13611
G1 X53.831 Y89.488 E81.14989
G1 X71.110 Y106.767 E81.78895
G1 X70.534 Y106.764 E81.80400
G1 X53.322 Y89.553 E82.44057
G1 X52.826 Y89.630 E82.45371
G1 X69.958 Y106.762 E83.08734
G1 X69.383 Y106.760 E83.10240
G1 X52.762 Y90.139 E83.71709
G1 X52.762 Y90.712 E83.73209
G1 X68.807 Y106.757 E84.32549
G1 X68.231 Y106.755 E84.34055
G1 X52.762 Y91.286 E84.91266
G1 X52.762 Y91.859 E84.92765
G1 X67.656 Y106.752 E85.47848
G1 X67.080 Y106.750 E85.49353
G1 X52.762 Y92.432 E86.02306
G1 X52.762 Y93.005 E86.03806
G1 X66.504 Y106.747 E86.54630
G1 X65.929 Y106.745 E86.56135
G1 X52.762 Y93.579 E87.04831
G1 X52.762 Y94.152 E87.06330
G1 X65.353 Y106.743 E87.52896
G1 X64.778 Y106.740 E87.54402
G1 X52.762 Y94.725 E87.98839
G1 X52.762 Y95.298 E88.00338
G1 X64.202 Y106.738 E88.42646
G1 X63.626 Y106.735 E88.44152
G1 X52.762 Y95.872 E88.84331
G1 X52.762 Y96.445 E88.85830
G1 X63.051 Y106.733 E89.23881
G1 X62.475 Y106.731 E89.25386
G1 X52.762 Y97.018 E89.61307
G1 X52.762 Y97.591 E89.62806
G1 X61.899 Y106.728 E89.96599
G1 X61.324 Y106.726 E89.98104
G1 X52.762 Y98.165 E90.29767
G1 X52.762 Y98.738 E90.31266
G1 X60.748 Y106.723 E90.60800
G1 X60.172 Y106.721 E90.62306
G1 X52.762 Y99.311 E90.89711
G1 X52.762 Y99.884 E90.91210
G1 X59.597 Y106.718 E91.16486
G1 X59.021 Y106.716 E91.17992
G1 X52.762 Y100.457 E91.41139
G1 X52.762 Y101.031 E91.42638
G1 X58.445 Y106.714 E91.63656
G1 X57.870 Y106.711 E91.65162
G1 X52.762 Y101.604 E91.84051
G1 X52.762 Y102.177 E91.85550
G1 X57.293 Y106.708 E92.02305
G1 X56.708 Y106.696 E92.03836
G1 X52.762 Y102.750 E92.18427
G1 X52.762 Y103.324 E92.19926
G1 X56.122 Y106.684 E92.32353
G1 X55.517 Y106.651 E92.33939
G1 X52.762 Y103.897 E92.44126
G1 X52.762 Y104.470 E92.45625
G1 X54.909 Y106.617 E92.53565
G1 X54.280 Y106.561 E92.55219
G1 X52.762 Y105.043 E92.60830
G1 X52.762 Y105.617 E92.62329
G1 X53.640 Y106.494 E92.65573
G1 X52.977 Y106.405 E92.67320
G1 X52.762 Y106.190 E92.68115
G1 E90.68115 F1680.00000
G92 E0
G1 Z0.350 F12000.000
G1 X92.616 Y118.516 F12000.000
G1 E2.00000 F1680.00000
G1 X127.969 Y118.697 E2.92020 F900.000
G1 X126.914 Y121.624 E3.00117
G1 X126.264 Y123.363 E3.04949
G1 X124.394 Y128.171 E3.18378
G1 X123.793 Y129.654 E3.22542
G1 X122.597 Y132.482 E3.30536
G1 X121.998 Y133.838 E3.34393
G1 X120.932 Y136.150 E3.41020
G1 X54.075 Y136.595 E5.15047
G1 X52.881 Y136.526 E5.18160
G1 X51.760 Y136.324 E5.21124
G1 X50.694 Y135.989 E5.24032
G1 X49.704 Y135.527 E5.26877
G1 X48.807 Y134.942 E5.29665
G1 X47.998 Y134.232 E5.32466
G1 X47.286 Y133.402 E5.35311
G1 X46.680 Y132.453 E5.38244
G1 X46.179 Y131.384 E5.41315
G1 X45.807 Y130.199 E5.44547
G1 X45.582 Y128.892 E5.48000
G1 X45.506 Y127.454 E5.51748
G1 X45.572 Y126.011 E5.55507
G1 X45.769 Y124.694 E5.58974
G1 X46.094 Y123.503 E5.62189
G1 X46.537 Y122.435 E5.65198
G1 X47.087 Y121.490 E5.68042
G1 X47.742 Y120.666 E5.70783
G1 X48.502 Y119.964 E5.73476
G1 X49.367 Y119.384 E5.76186
G1 X50.343 Y118.924 E5.78994
G1 X51.426 Y118.590 E5.81944
G1 X52.610 Y118.387 E5.85071
G1 X53.913 Y118.318 E5.88467
G1 X57.147 Y118.335 E5.96886
G1 X92.541 Y118.516 E6.89015 F900.000
G1 X92.543 Y118.112 F12000.000
G1 X128.542 Y118.297 E7.82716 F720.000
G1 X127.293 Y121.763 E7.92305
G1 X126.641 Y123.506 E7.97151
G1 X124.769 Y128.320 E8.10594
G1 X124.166 Y129.808 E8.14773
G1 X122.967 Y132.642 E8.22784
G1 X122.366 Y134.004 E8.26658
G1 X121.191 Y136.552 E8.33960
G1 X54.064 Y136.999 E10.08689
G1 X52.833 Y136.928 E10.11898
G1 X51.663 Y136.717 E10.14993
G1 X50.548 Y136.366 E10.18036
G1 X49.507 Y135.880 E10.21025
G1 X48.562 Y135.264 E10.23962
G1 X47.710 Y134.516 E10.26912
G1 X46.962 Y133.643 E10.29906
G1 X46.326 Y132.648 E10.32981
G1 X45.802 Y131.531 E10.36191
G1 X45.414 Y130.295 E10.39564
G1 X45.180 Y128.937 E10.43149
G1 X45.102 Y127.456 E10.47010
G1 X45.170 Y125.972 E10.50876
G1 X45.374 Y124.611 E10.54459
G1 X45.712 Y123.372 E10.57802
G1 X46.175 Y122.255 E10.60948
G1 X46.753 Y121.262 E10.63939
G1 X47.446 Y120.391 E10.66836
G1 X48.251 Y119.646 E10.69691
G1 X49.167 Y119.032 E10.72562
G1 X50.197 Y118.547 E10.75523
G1 X51.332 Y118.197 E10.78616
G1 X52.565 Y117.986 E10.81872
G1 X53.903 Y117.915 E10.85360
G1 X57.271 Y117.932 E10.94126
G1 X92.468 Y118.112 E11.85743 F720.000
G1 X92.791 Y118.547 F12000.000
G1 X127.603 Y119.124 F12000.000
G1 X127.396 Y118.918 E11.86505 F1200.000
G1 X126.822 Y118.915 E11.88002
