; generated by Slic3r 1.2.6 on 2015-04-04 at 10:08:15

; external perimeters extrusion width = 0.50mm
; perimeters extrusion width = 0.50mm
; infill extrusion width = 0.50mm
; solid infill extrusion width = 0.50mm
; top infill extrusion width = 0.50mm

M104 S190 ; set temperature
G28 ; home all axes
G1 Z15 F120 ; lift nozzle
M109 S190 ; wait for temperature to be reached
G21 ; set units to millimeters
G90 ; use absolute coordinates
M82 ; use absolute distances for extrusion
G92 E0
M106 S102
G1 E-2.00000 F1680.00000
G92 E0
G1 Z0.350 F12000.000
G1 X20.669 Y26.970 F12000.000
G1 E2.00000 F1680.00000
G1 X21.390 Y26.434 E2.02531 F1200.000
G1 X22.414 Y25.779 E2.05952
G1 X23.150 Y25.374 E2.08318
G1 X24.297 Y24.837 E2.11883
G1 X25.098 Y24.525 E2.14302
G1 X26.366 Y24.127 E2.18044
G1 X46.250 Y18.928 E2.75904
G1 X47.782 Y18.720 E2.80254
G1 X74.116 Y18.335 E3.54397
G1 X112.291 Y18.346 E4.61869
G1 X113.516 Y18.415 E4.65322 F1200.000
G1 X114.271 Y18.502 E4.67461
G1 X115.885 Y18.803 E4.72083
G1 X143.314 Y25.635 E5.51661
G1 X144.989 Y26.153 E5.56597
G1 X145.789 Y26.467 E5.59017
G1 X146.942 Y27.012 E5.62605
G1 X147.667 Y27.413 E5.64938
G1 X148.690 Y28.069 E5.68360
G1 X149.409 Y28.604 E5.70884
G1 X150.303 Y29.372 E5.74201
G1 X150.956 Y30.019 E5.76787
G1 X151.717 Y30.889 E5.80041
G1 X152.278 Y31.634 E5.82668
G1 X152.901 Y32.598 E5.85898
G1 X153.346 Y33.410 E5.88507
G1 X153.830 Y34.468 E5.91780
G1 X154.130 Y35.255 E5.94153
G1 X154.476 Y36.380 E5.97465
G1 X154.660 Y37.145 E5.99681
G1 X154.868 Y38.312 E6.03018
G1 X154.956 Y39.071 E6.05168
G1 X155.036 Y40.647 E6.09612
G1 X155.036 Y120.492 E8.34391
G1 X154.585 Y136.738 E8.80144
G1 X154.127 Y138.952 E8.86507
G1 X152.931 Y140.870 E8.92870
G1 X151.146 Y142.256 E8.99234
G1 X148.740 Y142.968 E9.06297
G1 X114.881 Y146.077 E10.02016
G1 X41.085 Y151.646 E12.10359
G1 X38.441 Y151.292 E12.17867
G1 X34.546 Y149.888 E12.29524
G1 X29.410 Y147.929 E12.44998
G1 X26.327 Y146.694 E12.54348
G1 X24.763 Y146.041 E12.59119
G1 X21.878 Y144.785 E12.67976
G1 X19.121 Y143.513 E12.76524
G1 X17.274 Y142.211 E12.82887
G1 X15.991 Y140.350 E12.89251
G1 X15.412 Y137.731 E12.96801
G1 X14.964 Y77.721 E14.65747
G1 X14.975 Y38.785 E15.75358
G1 X15.047 Y37.531 E15.78896
G1 X15.138 Y36.758 E15.81085
G1 X15.355 Y35.558 E15.84519
G1 X15.549 Y34.769 E15.86807
G1 X15.910 Y33.622 E15.90190
G1 X16.218 Y32.830 E15.92583
G1 X16.718 Y31.759 E15.95912
G1 X17.158 Y30.967 E15.98462
G1 X17.794 Y29.992 E16.01739
G1 X18.347 Y29.262 E16.04318
G1 X19.118 Y28.383 E16.07609
G1 X19.768 Y27.741 E16.10181
G1 X20.612 Y27.018 E16.13308
G1 E14.13308 F1680.00000
G92 E0
G1 X40.328 Y77.312 F12000.000
G1 E2.00000 F1680.00000
G1 X39.952 Y144.300 E3.74366 F900.000
G1 X37.025 Y143.246 E3.82464
G1 X35.286 Y142.596 E3.87296
G1 X30.478 Y140.726 E4.00726
G1 X28.995 Y140.125 E4.04889
G1 X26.167 Y138.929 E4.12883
G1 X24.811 Y138.330 E4.16740
G1 X22.499 Y137.264 E4.23368
G1 X22.054 Y77.670 E5.78488
G1 X22.054 Y39.173 E6.78692
G1 X22.123 Y37.977 E6.81811
G1 X22.325 Y36.856 E6.84775
G1 X22.660 Y35.791 E6.87683
G1 X23.122 Y34.800 E6.90528
G1 X23.707 Y33.903 E6.93316
G1 X24.417 Y33.094 E6.96116
G1 X25.247 Y32.383 E6.98962
G1 X26.196 Y31.776 E7.01894
G1 X27.265 Y31.276 E7.04966
G1 X28.450 Y30.903 E7.08198
G1 X29.757 Y30.678 E7.11650
G1 X31.195 Y30.603 E7.15398
G1 X32.571 Y30.666 E7.18985
G1 X33.956 Y30.866 E7.22628 F900.000
G1 X35.146 Y31.191 E7.25839
G1 X36.214 Y31.634 E7.28847
G1 X37.159 Y32.183 E7.31692
G1 X37.983 Y32.839 E7.34432
G1 X38.685 Y33.598 E7.37126
G1 X39.265 Y34.463 E7.39836
G1 X39.725 Y35.439 E7.42644
G1 X40.059 Y36.522 E7.45594
G1 X40.262 Y37.706 E7.48721
G1 X40.331 Y39.011 E7.52121
G1 X40.328 Y77.237 E8.51621
G1 X40.732 Y77.240 F12000.000
G1 X40.352 Y144.873 E10.27668 F720.000
G1 X36.886 Y143.625 E10.37258
G1 X35.142 Y142.973 E10.42103
G1 X30.329 Y141.101 E10.55547
G1 X28.841 Y140.498 E10.59726
G1 X26.007 Y139.299 E10.67736
G1 X24.645 Y138.698 E10.71610
G1 X22.097 Y137.523 E10.78913
G1 X21.650 Y77.672 E12.34703
G1 X21.650 Y39.162 E13.34942
G1 X21.721 Y37.929 E13.38154
G1 X21.932 Y36.760 E13.41248
G1 X22.283 Y35.644 E13.44292
G1 X22.769 Y34.604 E13.47280
G1 X23.385 Y33.659 E13.50218
G1 X24.133 Y32.807 E13.53168
G1 X25.006 Y32.058 E13.56162
G1 X26.001 Y31.422 E13.59236
G1 X27.118 Y30.899 E13.62447
G1 X28.354 Y30.510 E13.65819
G1 X29.712 Y30.277 E13.69404
G1 X31.193 Y30.199 E13.73266
G1 X32.610 Y30.264 E13.76956
G1 X34.039 Y30.470 E13.80715 F720.000
G1 X35.277 Y30.808 E13.84057
G1 X36.394 Y31.271 E13.87202
G1 X37.387 Y31.849 E13.90193
G1 X38.258 Y32.542 E13.93090
G1 X39.003 Y33.347 E13.95945
G1 X39.617 Y34.264 E13.98817
G1 X40.102 Y35.293 E14.01778
G1 X40.452 Y36.428 E14.04870
G1 X40.663 Y37.661 E14.08127
G1 X40.734 Y39.000 E14.11616
G1 X40.732 Y77.165 E15.10955
G1 X40.298 Y77.488 F12000.000
G1 X39.679 Y36.143 F12000.000
G1 X34.922 Y31.387 E15.28498 F1200.000
G1 X34.136 Y31.173 E15.30623
G1 X39.886 Y36.922 E15.51830
G1 X40.004 Y37.612 E15.53655
G1 X33.418 Y31.027 E15.77943
G1 X32.750 Y30.930 E15.79704
G1 X40.062 Y38.242 E16.06674
G1 X40.094 Y38.846 E16.08251
G1 X32.121 Y30.872 E16.37661
G1 X31.521 Y30.845 E16.39225
G1 X40.108 Y39.431 E16.70896
G1 X40.108 Y40.003 E16.72387
G1 X30.940 Y30.835 E17.06202
G1 X30.397 Y30.863 E17.07620
G1 X40.108 Y40.575 E17.43439
G1 X40.108 Y41.146 E17.44930
G1 X29.854 Y30.892 E17.82751
G1 X29.351 Y30.961 E17.84074
G1 X40.108 Y41.718 E18.23750
G1 X40.108 Y42.290 E18.25241
G1 X28.863 Y31.045 E18.66715
G1 X28.382 Y31.135 E18.67992
G1 X40.108 Y42.861 E19.11241
G1 X40.108 Y43.433 E19.12732
G1 X27.947 Y31.272 E19.57585
G1 X27.512 Y31.409 E19.58774
G1 X40.108 Y44.005 E20.05232
G1 X40.108 Y44.576 E20.06723
G1 X27.100 Y31.568 E20.54702
G1 X26.710 Y31.750 E20.55823
G1 X40.108 Y45.148 E21.05238
G1 X40.108 Y45.720 E21.06729
G1 X26.321 Y31.933 E21.57580
G1 X25.966 Y32.149 E21.58665
G1 X40.108 Y46.291 E22.10826
G1 X40.108 Y46.863 E22.12317
G1 X25.617 Y32.372 E22.65764
G1 X25.278 Y32.604 E22.66837
G1 X40.108 Y47.435 E23.21537
G1 X40.108 Y48.006 E23.23028
G1 X24.970 Y32.868 E23.78864
G1 X24.668 Y33.138 E23.79920
G1 X40.108 Y48.578 E24.36868
G1 X40.108 Y49.150 E24.38359
G1 X24.382 Y33.424 E24.96362
G1 X24.113 Y33.726 E24.97418
G1 X40.108 Y49.721 E25.56415
G1 X40.108 Y50.293 E25.57906
G1 X23.849 Y34.034 E26.17875
G1 X23.623 Y34.380 E26.18953
G1 X40.108 Y50.865 E26.79754
G1 X40.108 Y51.436 E26.81245
G1 X23.398 Y34.726 E27.42879
G1 X23.198 Y35.098 E27.43980
G1 X40.108 Y52.008 E28.06350
G1 X40.108 Y52.580 E28.07841
G1 X23.016 Y35.488 E28.70882
G1 X22.841 Y35.884 E28.72012
G1 X40.108 Y53.151 E29.35699
G1 X40.108 Y53.723 E29.37190
G1 X22.704 Y36.319 E30.01380
G1 X22.568 Y36.754 E30.02569
G1 X40.108 Y54.295 E30.67265
G1 X40.108 Y54.866 E30.68755
G1 X22.470 Y37.228 E31.33811
G1 X22.383 Y37.712 E31.35094
G1 X40.108 Y55.438 E32.00472
G1 X40.108 Y56.010 E32.01963
G1 X22.327 Y38.228 E32.67547
G1 X22.295 Y38.769 E32.68959
G1 X40.108 Y56.581 E33.34658
G1 X40.108 Y57.153 E33.36149
G1 X22.277 Y39.321 E34.01917
G1 X22.277 Y39.893 E34.03408
G1 X40.108 Y57.725 E34.69176
G1 X40.108 Y58.296 E34.70667
G1 X22.277 Y40.465 E35.36436
G1 X22.277 Y41.036 E35.37927
G1 X40.108 Y58.868 E36.03695
G1 X40.108 Y59.440 E36.05186
G1 X22.277 Y41.608 E36.70954
G1 X22.277 Y42.180 E36.72445
G1 X40.108 Y60.011 E37.38213
G1 X40.108 Y60.583 E37.39704
G1 X22.277 Y42.751 E38.05473
G1 X22.277 Y43.323 E38.06963
G1 X40.108 Y61.154 E38.72732
G1 X40.108 Y61.726 E38.74223
G1 X22.277 Y43.895 E39.39991
G1 X22.277 Y44.466 E39.41482
G1 X40.108 Y62.298 E40.07250
G1 X40.108 Y62.869 E40.08741
G1 X22.277 Y45.038 E40.74510
G1 X22.277 Y45.610 E40.76000
G1 X40.108 Y63.441 E41.41769
G1 X40.108 Y64.013 E41.43260
G1 X22.277 Y46.181 E42.09028
G1 X22.277 Y46.753 E42.10519
G1 X40.108 Y64.584 E42.76287
G1 X40.108 Y65.156 E42.77778
G1 X22.277 Y47.325 E43.43546
G1 X22.277 Y47.896 E43.45037
G1 X40.108 Y65.728 E44.10806
G1 X40.108 Y66.299 E44.12297
G1 X22.277 Y48.468 E44.78065
G1 X22.277 Y49.040 E44.79556
G1 X40.108 Y66.871 E45.45324
G1 X40.108 Y67.443 E45.46815
G1 X22.277 Y49.611 E46.12583
G1 X22.277 Y50.183 E46.14074
G1 X40.108 Y68.014 E46.79843
G1 X40.108 Y68.586 E46.81334
G1 X22.277 Y50.755 E47.47102
G1 X22.277 Y51.326 E47.48593
G1 X40.108 Y69.158 E48.14361
G1 X40.108 Y69.729 E48.15852
G1 X22.277 Y51.898 E48.81620
G1 X22.277 Y52.470 E48.83111
G1 X40.108 Y70.301 E49.48880
G1 X40.108 Y70.873 E49.50371
G1 X22.277 Y53.041 E50.16139
G1 X22.277 Y53.613 E50.17630
G1 X40.108 Y71.444 E50.83398
G1 X40.108 Y72.016 E50.84889
G1 X22.277 Y54.185 E51.50657
G1 X22.277 Y54.756 E51.52148
G1 X40.108 Y72.588 E52.17917
G1 X40.108 Y73.159 E52.19407
G1 X22.277 Y55.328 E52.85176
G1 X22.277 Y55.900 E52.86667
G1 X40.108 Y73.731 E53.52435
G1 X40.108 Y74.303 E53.53926
G1 X22.277 Y56.471 E54.19694
G1 X22.277 Y57.043 E54.21185
G1 X40.108 Y74.874 E54.86953
G1 X40.108 Y75.446 E54.88444
G1 X22.277 Y57.615 E55.54213
G1 X22.277 Y58.186 E55.55704
G1 X40.108 Y76.018 E56.21472
G1 X40.108 Y76.589 E56.22963
G1 X22.277 Y58.758 E56.88731
G1 X22.277 Y59.330 E56.90222
G1 X40.106 Y77.159 E57.55983
G1 X40.103 Y77.728 E57.57466
G1 X22.277 Y59.901 E58.23215
G1 X22.277 Y60.473 E58.24706
G1 X40.100 Y78.296 E58.90444
G1 X40.097 Y78.864 E58.91926
G1 X22.277 Y61.045 E59.57652
G1 X22.277 Y61.616 E59.59143
G1 X40.093 Y79.433 E60.24857
G1 X40.090 Y80.001 E60.26340
G1 X22.277 Y62.188 E60.92042
G1 X22.277 Y62.760 E60.93533
G1 X40.087 Y80.570 E61.59223
G1 X40.084 Y81.138 E61.60706
G1 X22.277 Y63.331 E62.26385
G1 X22.277 Y63.903 E62.27876
G1 X40.081 Y81.707 E62.93543
G1 X40.077 Y82.275 E62.95025
G1 X22.277 Y64.475 E63.60681
G1 X22.277 Y65.046 E63.62171
G1 X40.074 Y82.844 E64.27815
G1 X40.071 Y83.412 E64.29298
G1 X22.277 Y65.618 E64.94929
G1 X22.277 Y66.189 E64.96420
G1 X40.068 Y83.981 E65.62040
G1 X40.065 Y84.549 E65.63523
G1 X22.277 Y66.761 E66.29131
G1 X22.277 Y67.333 E66.30622
G1 X40.062 Y85.118 E66.96219
G1 X40.058 Y85.686 E66.97701
G1 X22.277 Y67.904 E67.63286
G1 X22.277 Y68.476 E67.64777
G1 X40.055 Y86.255 E68.30350
G1 X40.052 Y86.823 E68.31833
G1 X22.277 Y69.048 E68.97394
G1 X22.277 Y69.619 E68.98885
G1 X40.049 Y87.392 E69.64434
G1 X40.046 Y87.960 E69.65917
G1 X22.277 Y70.191 E70.31455
G1 X22.277 Y70.763 E70.32946
G1 X40.042 Y88.529 E70.98472
G1 X40.039 Y89.097 E70.99954
G1 X22.277 Y71.334 E71.65468
G1 X22.277 Y71.906 E71.66959
G1 X40.036 Y89.666 E72.32462
G1 X40.033 Y90.234 E72.33944
G1 X22.277 Y72.478 E72.99435
G1 X22.277 Y73.049 E73.00926
G1 X40.030 Y90.802 E73.66405
G1 X40.026 Y91.371 E73.67888
G1 X22.277 Y73.621 E74.33355
G1 X22.277 Y74.193 E74.34846
G1 X40.023 Y91.939 E75.00301
G1 X40.020 Y92.508 E75.01784
G1 X22.277 Y74.764 E75.67228
G1 X22.277 Y75.336 E75.68719
G1 X40.017 Y93.076 E76.34151
G1 X40.014 Y93.645 E76.35633
G1 X22.277 Y75.908 E77.01053
G1 X22.277 Y76.479 E77.02544
G1 X40.011 Y94.213 E77.67953
G1 X40.007 Y94.782 E77.69435
G1 X22.277 Y77.051 E78.34832
G1 X22.277 Y77.623 E78.36324
G1 X40.004 Y95.350 E79.01708
G1 X40.001 Y95.919 E79.03190
G1 X22.281 Y78.199 E79.68547
G1 X22.286 Y78.775 E79.70049
G1 X39.998 Y96.487 E80.35377
G1 X39.995 Y97.056 E80.36860
G1 X22.290 Y79.351 E81.02161
G1 X22.294 Y79.927 E81.03663
G1 X39.991 Y97.624 E81.68937
G1 X39.988 Y98.193 E81.70419
G1 X22.298 Y80.503 E82.35665
G1 X22.303 Y81.079 E82.37167
G1 X39.985 Y98.761 E83.02385
G1 X39.982 Y99.330 E83.03868
G1 X22.307 Y81.655 E83.69059
G1 X22.311 Y82.231 E83.70561
G1 X39.979 Y99.898 E84.35724
G1 X39.976 Y100.467 E84.37206
G1 X22.316 Y82.807 E85.02342
G1 X22.320 Y83.383 E85.03844
G1 X39.972 Y101.035 E85.68952
G1 X39.969 Y101.604 E85.70434
G1 X22.324 Y83.959 E86.35514
G1 X22.329 Y84.535 E86.37017
G1 X39.966 Y102.172 E87.02069
G1 X39.963 Y102.740 E87.03552
G1 X22.333 Y85.111 E87.68577
G1 X22.337 Y85.686 E87.70079
G1 X39.960 Y103.309 E88.35076
G1 X39.956 Y103.877 E88.36559
G1 X22.341 Y86.262 E89.01528
G1 X22.346 Y86.838 E89.03031
G1 X39.953 Y104.446 E89.67973
G1 X39.950 Y105.014 E89.69455
G1 X22.350 Y87.414 E90.34370
G1 X22.354 Y87.990 E90.35872
G1 X39.947 Y105.583 E91.00759
G1 X39.944 Y106.151 E91.02241
G1 X22.359 Y88.566 E91.67101
G1 X22.363 Y89.142 E91.68603
G1 X39.940 Y106.720 E92.33435
G1 X39.937 Y107.288 E92.34917
G1 X22.367 Y89.718 E92.99721
G1 X22.372 Y90.294 E93.01223
G1 X39.934 Y107.857 E93.66000
G1 X39.931 Y108.425 E93.67482
G1 X22.376 Y90.870 E94.32231
G1 X22.380 Y91.446 E94.33733
G1 X39.928 Y108.994 E94.98455
G1 X39.925 Y109.562 E94.99937
G1 X22.384 Y92.022 E95.64631
G1 X22.389 Y92.598 E95.66133
G1 X39.921 Y110.131 E96.30799
G1 X39.918 Y110.699 E96.32281
G1 X22.393 Y93.174 E96.96920
G1 X22.397 Y93.750 E96.98422
G1 X39.915 Y111.268 E97.63033
G1 X39.912 Y111.836 E97.64515
G1 X22.402 Y94.326 E98.29099
G1 X22.406 Y94.902 E98.30601
G1 X39.909 Y112.405 E98.95156
G1 X39.905 Y112.973 E98.96639
G1 X22.410 Y95.478 E99.61167
G1 X22.415 Y96.054 E99.62669
G1 X39.902 Y113.541 E100.27169
G1 X39.899 Y114.110 E100.28652
G1 X22.419 Y96.630 E100.93124
G1 X22.423 Y97.206 E100.94627
G1 X39.896 Y114.678 E101.59072
G1 X39.893 Y115.247 E101.60554
G1 X22.427 Y97.782 E102.24972
G1 X22.432 Y98.358 E102.26474
G1 X39.889 Y115.815 E102.90864
G1 X39.886 Y116.384 E102.92346
G1 X22.436 Y98.934 E103.56709
G1 X22.440 Y99.510 E103.58211
G1 X39.883 Y116.952 E104.22545
G1 X39.880 Y117.521 E104.24028
G1 X22.445 Y100.086 E104.88335
G1 X22.449 Y100.662 E104.89837
G1 X39.877 Y118.089 E105.54117
G1 X39.874 Y118.658 E105.55599
G1 X22.453 Y101.237 E106.19851
G1 X22.458 Y101.813 E106.21353
G1 X39.870 Y119.226 E106.85577
G1 X39.867 Y119.795 E106.87060
G1 X22.462 Y102.389 E107.51257
G1 X22.466 Y102.965 E107.52759
G1 X39.864 Y120.363 E108.16928
G1 X39.861 Y120.932 E108.18410
G1 X22.470 Y103.541 E108.82552
G1 X22.475 Y104.117 E108.84054
G1 X39.858 Y121.500 E109.48168
G1 X39.854 Y122.069 E109.49650
G1 X22.479 Y104.693 E110.13736
G1 X22.483 Y105.269 E110.15238
G1 X39.851 Y122.637 E110.79297
G1 X39.848 Y123.206 E110.80780
G1 X22.488 Y105.845 E111.44810
G1 X22.492 Y106.421 E111.46313
G1 X39.845 Y123.774 E112.10316
G1 X39.842 Y124.343 E112.11799
G1 X22.496 Y106.997 E112.75774
G1 X22.501 Y107.573 E112.77276
G1 X39.838 Y124.911 E113.41224
G1 X39.835 Y125.479 E113.42707
G1 X22.505 Y108.149 E114.06628
G1 X22.509 Y108.725 E114.08130
G1 X39.832 Y126.048 E114.72023
G1 X39.829 Y126.616 E114.73505
G1 X22.513 Y109.301 E115.37370
G1 X22.518 Y109.877 E115.38873
G1 X39.826 Y127.185 E116.02710
G1 X39.823 Y127.753 E116.04193
G1 X22.522 Y110.453 E116.68003
G1 X22.526 Y111.029 E116.69505
G1 X39.819 Y128.322 E117.33287
G1 X39.816 Y128.890 E117.34770
G1 X22.531 Y111.605 E117.98525
G1 X22.535 Y112.181 E118.00027
G1 X39.813 Y129.459 E118.63754
G1 X39.810 Y130.027 E118.65237
G1 X22.539 Y112.757 E119.28936
G1 X22.544 Y113.333 E119.30438
G1 X39.807 Y130.596 E119.94110
G1 X39.803 Y131.164 E119.95593
G1 X22.548 Y113.909 E120.59237
G1 X22.552 Y114.485 E120.60739
G1 X39.800 Y131.733 E121.24356
G1 X39.797 Y132.301 E121.25839
G1 X22.556 Y115.061 E121.89428
G1 X22.561 Y115.637 E121.90930
G1 X39.794 Y132.870 E122.54492
G1 X39.791 Y133.438 E122.55974
G1 X22.565 Y116.212 E123.19508
G1 X22.569 Y116.788 E123.21010
G1 X39.788 Y134.007 E123.84516
G1 X39.784 Y134.575 E123.85999
G1 X22.574 Y117.364 E124.49478
G1 X22.578 Y117.940 E124.50980
G1 X39.781 Y135.144 E125.14431
G1 X39.778 Y135.712 E125.15914
G1 X22.582 Y118.516 E125.79337
G1 X22.587 Y119.092 E125.80839
G1 X39.775 Y136.281 E126.44235
G1 X39.772 Y136.849 E126.45718
G1 X22.591 Y119.668 E127.09086
G1 X22.595 Y120.244 E127.10588
G1 X39.768 Y137.417 E127.73929
G1 X39.765 Y137.986 E127.75411
G1 X22.599 Y120.820 E128.38724
G1 X22.604 Y121.396 E128.40226
G1 X39.762 Y138.554 E129.03512
G1 X39.759 Y139.123 E129.04994
G1 X22.608 Y121.972 E129.68252
G1 X22.612 Y122.548 E129.69754
G1 X39.756 Y139.691 E130.32984
G1 X39.752 Y140.260 E130.34467
G1 X22.617 Y123.124 E130.97670
G1 X22.621 Y123.700 E130.99172
G1 X39.749 Y140.828 E131.62347
G1 X39.746 Y141.397 E131.63829
G1 X22.625 Y124.276 E132.26977
G1 X22.630 Y124.852 E132.28479
G1 X39.743 Y141.965 E132.91598
G1 X39.740 Y142.534 E132.93081
G1 X22.634 Y125.428 E133.56173
G1 X22.638 Y126.004 E133.57675
G1 X39.737 Y143.102 E134.20740
G1 X39.733 Y143.671 E134.22222
G1 X22.642 Y126.580 E134.85259
G1 X22.647 Y127.156 E134.86761
