; generated by Slic3r 1.2.6 on 2015-04-04 at 10:13:06

; external perimeters extrusion width = 0.50mm
; perimeters extrusion width = 0.50mm
; infill extrusion width = 0.50mm
; solid infill extrusion width = 0.50mm
; top infill extrusion width = 0.50mm

M104 S190 ; set temperature
G28 ; home all axes
G1 Z15 F120 ; lift nozzle
M109 S190 ; wait for temperature to be reached
G21 ; set units to millimeters
G90 ; use absolute coordinates
M82 ; use absolute distances for extrusion
G92 E0
M106 S102
G1 E-2.00000 F1680.00000
G92 E0
G1 Z0.350 F12000.000
G1 X24.887 Y43.846 F12000.000
G1 E2.00000 F1680.00000
G1 X68.291 Y19.211 E3.40502 F1200.000
G1 X71.350 Y18.373 E3.49431
G1 X92.273 Y17.989 E4.08343
G1 X112.178 Y17.988 E4.64380
G1 X144.597 Y18.372 E5.55651 F1200.000
G1 X146.817 Y18.795 E5.62014
G1 X148.754 Y19.960 E5.68377
G1 X150.169 Y21.723 E5.74741
G1 X150.888 Y23.866 E5.81104
G1 X150.950 Y25.102 E5.84587
G1 X148.386 Y81.172 E7.42600
G1 X145.834 Y114.885 E8.37779
G1 X142.790 Y138.161 E9.03866
G1 X142.505 Y139.834 E9.08641
G1 X142.298 Y140.684 E9.11104
G1 X141.890 Y141.966 E9.14892
G1 X141.576 Y142.765 E9.17311
G1 X141.032 Y143.918 E9.20899
G1 X140.630 Y144.643 E9.23232
G1 X139.974 Y145.666 E9.26654
G1 X139.439 Y146.386 E9.29178
G1 X138.672 Y147.280 E9.32496
G1 X138.025 Y147.932 E9.35081
G1 X137.155 Y148.693 E9.38335
G1 X136.410 Y149.255 E9.40962
G1 X135.446 Y149.877 E9.44192
G1 X134.633 Y150.322 E9.46801
G1 X133.576 Y150.806 E9.50074
G1 X132.788 Y151.106 E9.52448
G1 X131.663 Y151.452 E9.55760
G1 X130.898 Y151.637 E9.57975
G1 X129.731 Y151.844 E9.61312
G1 X128.973 Y151.933 E9.63462
G1 X127.345 Y152.012 E9.68050
G1 X71.039 Y151.564 E11.26566
G1 X68.795 Y151.141 E11.32996
G1 X27.349 Y135.317 E12.57890
G1 X26.881 Y135.117 E12.59321
G1 X25.368 Y134.398 E12.64038
G1 X23.515 Y133.070 E12.70455
G1 X22.350 Y131.871 E12.75161
G1 X21.211 Y130.267 E12.80702
G1 X20.384 Y128.616 E12.85898
G1 X19.880 Y127.230 E12.90049
G1 X19.384 Y125.155 E12.96057
G1 X19.222 Y124.084 E12.99106
G1 X19.057 Y121.583 E13.06161
G1 X19.043 Y121.141 E13.07406
G1 X19.235 Y50.784 E15.05474
G1 X19.638 Y48.560 E15.11838
G1 X20.785 Y46.613 E15.18201
G1 X22.494 Y45.204 E15.24435
G1 X24.822 Y43.883 E15.31969
G1 E13.31969 F1680.00000
G92 E0
G1 X68.318 Y107.320 F12000.000
G1 E2.00000 F1680.00000
G1 X68.318 Y96.300 E2.28683 F900.000
G1 X139.403 Y96.300 E4.13709
G1 X139.403 Y98.513 E4.19471
G1 X138.788 Y113.747 E4.59155 F900.000
G1 X80.510 Y113.937 E6.10849
G1 X68.318 Y113.755 E6.42587
G1 X68.318 Y107.395 E6.59143
G1 X67.914 Y107.395 F12000.000
G1 X67.914 Y95.897 E6.89071 F720.000
G1 X139.806 Y95.897 E8.76197
G1 X139.806 Y98.522 E8.83030
G1 X139.176 Y114.149 E9.23741 F720.000
G1 X80.507 Y114.341 E10.76450
G1 X67.914 Y114.152 E11.09232
G1 X67.914 Y107.470 E11.26627
G1 X68.347 Y107.145 F12000.000
G1 X68.541 Y113.326 F12000.000
G1 X68.752 Y113.537 E11.27409 F1200.000
G1 X69.335 Y113.546 E11.28935
G1 X68.541 Y112.752 E11.31875
G1 X68.541 Y112.178 E11.33378
G1 X69.917 Y113.555 E11.38475
G1 X70.500 Y113.563 E11.40000
G1 X68.541 Y111.604 E11.47255
G1 X68.541 Y111.030 E11.48757
G1 X71.082 Y113.572 E11.58169
G1 X71.665 Y113.581 E11.59694
G1 X68.541 Y110.456 E11.71263
G1 X68.541 Y109.883 E11.72766
G1 X72.248 Y113.590 E11.86492
G1 X72.830 Y113.598 E11.88017
G1 X68.541 Y109.309 E12.03900
G1 X68.541 Y108.735 E12.05403
G1 X73.413 Y113.607 E12.23443
G1 X73.995 Y113.616 E12.24969
G1 X68.541 Y108.161 E12.45166
G1 X68.541 Y107.587 E12.46669
G1 X74.578 Y113.624 E12.69023
G1 X75.161 Y113.633 E12.70549
G1 X68.541 Y107.013 E12.95061
G1 X68.541 Y106.439 E12.96563
G1 X75.743 Y113.642 E13.23232
G1 X76.326 Y113.651 E13.24758
G1 X68.541 Y105.865 E13.53584
G1 X68.541 Y105.291 E13.55086
G1 X76.908 Y113.659 E13.86070
G1 X77.491 Y113.668 E13.87595
G1 X68.541 Y104.718 E14.20736
G1 X68.541 Y104.144 E14.22238
G1 X78.074 Y113.677 E14.57536
G1 X78.656 Y113.685 E14.59062
G1 X68.541 Y103.570 E14.96517
G1 X68.541 Y102.996 E14.98019
G1 X79.239 Y113.694 E15.37631
G1 X79.821 Y113.703 E15.39157
G1 X68.541 Y102.422 E15.80926
G1 X68.541 Y101.848 E15.82429
G1 X80.404 Y113.711 E16.26355
G1 X80.979 Y113.713 E16.27862
G1 X68.541 Y101.274 E16.73920
G1 X68.541 Y100.700 E16.75422
G1 X81.551 Y113.711 E17.23598
G1 X82.123 Y113.709 E17.25095
G1 X68.541 Y100.126 E17.75389
G1 X68.541 Y99.553 E17.76891
G1 X82.696 Y113.708 E18.29303
G1 X83.268 Y113.706 E18.30801
G1 X68.541 Y98.979 E18.85330
G1 X68.541 Y98.405 E18.86833
G1 X83.840 Y113.704 E19.43480
G1 X84.412 Y113.702 E19.44978
G1 X68.541 Y97.831 E20.03744
G1 X68.541 Y97.257 E20.05246
G1 X84.984 Y113.700 E20.66130
G1 X85.556 Y113.698 E20.67627
G1 X68.541 Y96.683 E21.30629
G1 X68.954 Y96.523 E21.31791
G1 X86.128 Y113.696 E21.95379
G1 X86.700 Y113.694 E21.96876
G1 X69.528 Y96.523 E22.60457
G1 X70.102 Y96.523 E22.61960
G1 X87.272 Y113.693 E23.25534
G1 X87.844 Y113.691 E23.27031
G1 X70.676 Y96.523 E23.90599
G1 X71.250 Y96.523 E23.92101
G1 X88.416 Y113.689 E24.55661
G1 X88.988 Y113.687 E24.57159
G1 X71.824 Y96.523 E25.20712
G1 X72.398 Y96.523 E25.22215
G1 X89.560 Y113.685 E25.85761
G1 X90.132 Y113.683 E25.87259
G1 X72.971 Y96.523 E26.50799
G1 X73.545 Y96.523 E26.52301
G1 X90.704 Y113.681 E27.15834
G1 X91.276 Y113.680 E27.17332
G1 X74.119 Y96.523 E27.80857
G1 X74.693 Y96.523 E27.82360
G1 X91.848 Y113.678 E28.45879
G1 X92.420 Y113.676 E28.47376
G1 X75.267 Y96.523 E29.10888
G1 X75.841 Y96.523 E29.12391
G1 X92.992 Y113.674 E29.75896
G1 X93.564 Y113.672 E29.77394
G1 X76.415 Y96.523 E30.40892
G1 X76.989 Y96.523 E30.42394
G1 X94.136 Y113.670 E31.05886
G1 X94.708 Y113.668 E31.07383
G1 X77.563 Y96.523 E31.70868
G1 X78.136 Y96.523 E31.72370
G1 X95.280 Y113.667 E32.35847
G1 X95.852 Y113.665 E32.37345
G1 X78.710 Y96.523 E33.00816
G1 X79.284 Y96.523 E33.02318
G1 X96.424 Y113.663 E33.65782
G1 X96.996 Y113.661 E33.67280
G1 X79.858 Y96.523 E34.30736
G1 X80.432 Y96.523 E34.32239
G1 X97.568 Y113.659 E34.95689
G1 X98.140 Y113.657 E34.97186
G1 X81.006 Y96.523 E35.60629
G1 X81.580 Y96.523 E35.62132
G1 X98.712 Y113.655 E36.25568
G1 X99.284 Y113.653 E36.27065
G1 X82.154 Y96.523 E36.90495
G1 X82.728 Y96.523 E36.91997
G1 X99.856 Y113.652 E37.55419
G1 X100.428 Y113.650 E37.56917
G1 X83.301 Y96.523 E38.20332
G1 X83.875 Y96.523 E38.21835
G1 X101.000 Y113.648 E38.85243
G1 X101.572 Y113.646 E38.86741
G1 X84.449 Y96.523 E39.50142
G1 X85.023 Y96.523 E39.51645
G1 X102.144 Y113.644 E40.15039
G1 X102.716 Y113.642 E40.16537
G1 X85.597 Y96.523 E40.79925
G1 X86.171 Y96.523 E40.81427
G1 X103.288 Y113.640 E41.44808
G1 X103.860 Y113.639 E41.46306
G1 X86.745 Y96.523 E42.09680
G1 X87.319 Y96.523 E42.11182
G1 X104.432 Y113.637 E42.74549
G1 X105.004 Y113.635 E42.76047
G1 X87.893 Y96.523 E43.39407
G1 X88.466 Y96.523 E43.40910
G1 X105.576 Y113.633 E44.04263
G1 X106.148 Y113.631 E44.05760
G1 X89.040 Y96.523 E44.69107
G1 X89.614 Y96.523 E44.70609
G1 X106.720 Y113.629 E45.33949
G1 X107.293 Y113.627 E45.35446
G1 X90.188 Y96.523 E45.98779
G1 X90.762 Y96.523 E46.00281
G1 X107.865 Y113.626 E46.63607
G1 X108.437 Y113.624 E46.65104
G1 X91.336 Y96.523 E47.28423
G1 X91.910 Y96.523 E47.29926
G1 X109.009 Y113.622 E47.93237
G1 X109.581 Y113.620 E47.94735
G1 X92.484 Y96.523 E48.58040
G1 X93.058 Y96.523 E48.59542
G1 X110.153 Y113.618 E49.22840
G1 X110.725 Y113.616 E49.24338
G1 X93.631 Y96.523 E49.87629
G1 X94.205 Y96.523 E49.89132
G1 X111.297 Y113.614 E50.52416
G1 X111.869 Y113.612 E50.53914
G1 X94.779 Y96.523 E51.17191
G1 X95.353 Y96.523 E51.18693
G1 X112.441 Y113.611 E51.81964
G1 X113.013 Y113.609 E51.83461
G1 X95.927 Y96.523 E52.46725
G1 X96.501 Y96.523 E52.48227
G1 X113.585 Y113.607 E53.11484
G1 X114.157 Y113.605 E53.12981
G1 X97.075 Y96.523 E53.76231
G1 X97.649 Y96.523 E53.77734
G1 X114.729 Y113.603 E54.40976
G1 X115.301 Y113.601 E54.42474
G1 X98.223 Y96.523 E55.05710
G1 X98.796 Y96.523 E55.07212
G1 X115.873 Y113.599 E55.70441
G1 X116.445 Y113.598 E55.71939
G1 X99.370 Y96.523 E56.35161
G1 X99.944 Y96.523 E56.36664
G1 X117.017 Y113.596 E56.99879
G1 X117.589 Y113.594 E57.01376
G1 X100.518 Y96.523 E57.64585
G1 X101.092 Y96.523 E57.66087
G1 X118.161 Y113.592 E58.29288
G1 X118.733 Y113.590 E58.30786
G1 X101.666 Y96.523 E58.93980
G1 X102.240 Y96.523 E58.95483
G1 X119.305 Y113.588 E59.58670
G1 X119.877 Y113.586 E59.60168
G1 X102.814 Y96.523 E60.23349
G1 X103.387 Y96.523 E60.24851
G1 X120.449 Y113.584 E60.88025
G1 X121.021 Y113.583 E60.89523
G1 X103.961 Y96.523 E61.52689
G1 X104.535 Y96.523 E61.54192
G1 X121.593 Y113.581 E62.17352
G1 X122.165 Y113.579 E62.18850
G1 X105.109 Y96.523 E62.82002
G1 X105.683 Y96.523 E62.83505
G1 X122.737 Y113.577 E63.46651
G1 X123.309 Y113.575 E63.48149
G1 X106.257 Y96.523 E64.11288
G1 X106.831 Y96.523 E64.12791
G1 X123.881 Y113.573 E64.75923
G1 X124.453 Y113.571 E64.77420
G1 X107.405 Y96.523 E65.40546
G1 X107.979 Y96.523 E65.42048
G1 X125.025 Y113.570 E66.05167
G1 X125.597 Y113.568 E66.06664
G1 X108.552 Y96.523 E66.69776
G1 X109.126 Y96.523 E66.71279
G1 X126.169 Y113.566 E67.34383
G1 X126.741 Y113.564 E67.35881
G1 X109.700 Y96.523 E67.98979
G1 X110.274 Y96.523 E68.00481
G1 X127.313 Y113.562 E68.63572
G1 X127.885 Y113.560 E68.65070
G1 X110.848 Y96.523 E69.28154
G1 X111.422 Y96.523 E69.29656
G1 X128.457 Y113.558 E69.92733
G1 X129.029 Y113.557 E69.94231
G1 X111.996 Y96.523 E70.57301
G1 X112.570 Y96.523 E70.58804
G1 X129.601 Y113.555 E71.21867
G1 X130.173 Y113.553 E71.23365
G1 X113.144 Y96.523 E71.86421
G1 X113.717 Y96.523 E71.87923
G1 X130.745 Y113.551 E72.50973
G1 X131.318 Y113.549 E72.52471
G1 X114.291 Y96.523 E73.15513
G1 X114.865 Y96.523 E73.17016
G1 X131.890 Y113.547 E73.80051
G1 X132.462 Y113.545 E73.81549
G1 X115.439 Y96.523 E74.44578
G1 X116.013 Y96.523 E74.46080
G1 X133.034 Y113.543 E75.09102
G1 X133.606 Y113.542 E75.10600
G1 X116.587 Y96.523 E75.73615
G1 X117.161 Y96.523 E75.75117
G1 X134.178 Y113.540 E76.38125
G1 X134.750 Y113.538 E76.39623
G1 X117.735 Y96.523 E77.02624
G1 X118.309 Y96.523 E77.04126
G1 X135.322 Y113.536 E77.67121
G1 X135.894 Y113.534 E77.68618
G1 X118.882 Y96.523 E78.31606
G1 X119.456 Y96.523 E78.33108
G1 X136.466 Y113.532 E78.96089
G1 X137.038 Y113.530 E78.97586
G1 X120.030 Y96.523 E79.60560
G1 X120.604 Y96.523 E79.62062
G1 X137.610 Y113.529 E80.25029
G1 X138.182 Y113.527 E80.26527
G1 X121.178 Y96.523 E80.89486
G1 X121.752 Y96.523 E80.90989
G1 X138.585 Y113.356 E81.53315
G1 X138.607 Y112.804 E81.54760
G1 X122.326 Y96.523 E82.15044
G1 X122.900 Y96.523 E82.16546
G1 X138.629 Y112.252 E82.74787
G1 X138.651 Y111.701 E82.76232
G1 X123.474 Y96.523 E83.32431
G1 X124.047 Y96.523 E83.33933
G1 X138.673 Y111.149 E83.88089
G1 X138.696 Y110.597 E83.89534
G1 X124.621 Y96.523 E84.41647
G1 X125.195 Y96.523 E84.43150
G1 X138.718 Y110.046 E84.93220
G1 X138.740 Y109.494 E84.94666
G1 X125.769 Y96.523 E85.42694
G1 X126.343 Y96.523 E85.44196
G1 X138.762 Y108.942 E85.90181
G1 X138.785 Y108.391 E85.91627
G1 X126.917 Y96.523 E86.35570
G1 X127.491 Y96.523 E86.37072
G1 X138.807 Y107.839 E86.78972
G1 X138.829 Y107.287 E86.80418
G1 X128.065 Y96.523 E87.20275
G1 X128.639 Y96.523 E87.21778
G1 X138.851 Y106.736 E87.59593
G1 X138.874 Y106.184 E87.61038
G1 X129.212 Y96.523 E87.96811
G1 X129.786 Y96.523 E87.98313
G1 X138.896 Y105.632 E88.32043
G1 X138.918 Y105.081 E88.33489
G1 X130.360 Y96.523 E88.65176
G1 X130.934 Y96.523 E88.66679
G1 X138.940 Y104.529 E88.96323
G1 X138.963 Y103.978 E88.97769
G1 X131.508 Y96.523 E89.25371
G1 X132.082 Y96.523 E89.26873
G1 X138.985 Y103.426 E89.52433
G1 X139.007 Y102.874 E89.53878
G1 X132.656 Y96.523 E89.77395
G1 X133.230 Y96.523 E89.78898
G1 X139.029 Y102.323 E90.00372
G1 X139.052 Y101.771 E90.01818
G1 X133.804 Y96.523 E90.21249
G1 X134.377 Y96.523 E90.22752
G1 X139.074 Y101.219 E90.40141
G1 X139.096 Y100.668 E90.41587
G1 X134.951 Y96.523 E90.56933
G1 X135.525 Y96.523 E90.58436
G1 X139.118 Y100.116 E90.71740
G1 X139.141 Y99.564 E90.73185
G1 X136.099 Y96.523 E90.84447
G1 X136.673 Y96.523 E90.85949
G1 X139.163 Y99.013 E90.95168
G1 X139.180 Y98.456 E90.96627
G1 X137.247 Y96.523 E91.03784
G1 X137.821 Y96.523 E91.05286
G1 X139.180 Y97.882 E91.10318
G1 X139.180 Y97.308 E91.11821
G1 X138.395 Y96.523 E91.14727
G1 X138.969 Y96.523 E91.16230
G1 X139.180 Y96.734 E91.17012
G1 E89.17012 F1680.00000
G92 E0
G1 Z0.350 F12000.000
G1 X98.932 Y144.696 F12000.000
G1 E2.00000 F1680.00000
G1 X71.508 Y144.478 E2.71385 F900.000
G1 X64.708 Y129.942 E3.13156
G1 X63.718 Y127.773 E3.19362
G1 X64.388 Y127.420 E3.21333
G1 X65.137 Y127.105 E3.23448
G1 X65.991 Y126.851 E3.25767
G1 X66.947 Y126.698 E3.28288
G1 X68.034 Y126.645 E3.31122
G1 X127.433 Y126.648 E4.85730
G1 X128.545 Y126.711 E4.88630 F900.000
G1 X129.644 Y126.905 E4.91533
G1 X130.692 Y127.226 E4.94387
G1 X131.668 Y127.671 E4.97180
G1 X132.553 Y128.239 E4.99916
G1 X133.352 Y128.930 E5.02665
G1 X134.056 Y129.746 E5.05470
G1 X134.658 Y130.693 E5.08391
G1 X135.158 Y131.772 E5.11487
G1 X135.532 Y132.979 E5.14776
G1 X135.759 Y134.314 E5.18301
G1 X135.835 Y135.784 E5.22131
G1 X135.757 Y137.251 E5.25956
G1 X135.527 Y138.580 E5.29466
G1 X135.147 Y139.777 E5.32737
G1 X134.639 Y140.852 E5.35832
G1 X134.030 Y141.802 E5.38767
G1 X133.323 Y142.626 E5.41594
G1 X132.524 Y143.324 E5.44357
G1 X131.640 Y143.895 E5.47097
G1 X130.664 Y144.342 E5.49888
G1 X129.619 Y144.663 E5.52735
G1 X128.530 Y144.857 E5.55615
G1 X127.380 Y144.922 E5.58612
G1 X99.007 Y144.697 E6.32467
G1 X99.004 Y145.100 F12000.000
G1 X71.250 Y144.879 E7.04709 F720.000
G1 X64.341 Y130.111 E7.47147
G1 X63.213 Y127.639 E7.54220
G1 X63.565 Y127.397 E7.55332
G1 X64.215 Y127.055 E7.57244
G1 X65.001 Y126.725 E7.59462
G1 X65.901 Y126.457 E7.61906
G1 X66.905 Y126.296 E7.64554
G1 X68.025 Y126.242 E7.67471
G1 X127.444 Y126.245 E9.22135
G1 X128.592 Y126.310 E9.25126 F720.000
G1 X129.738 Y126.512 E9.28156
G1 X130.835 Y126.848 E9.31143
G1 X131.862 Y127.316 E9.34079
G1 X132.795 Y127.915 E9.36966
G1 X133.638 Y128.644 E9.39866
G1 X134.380 Y129.505 E9.42825
G1 X135.013 Y130.499 E9.45891
G1 X135.535 Y131.627 E9.49128
G1 X135.926 Y132.885 E9.52556
G1 X136.160 Y134.270 E9.56212
G1 X136.239 Y135.784 E9.60159
G1 X136.159 Y137.296 E9.64100
G1 X135.920 Y138.675 E9.67744
G1 X135.523 Y139.925 E9.71158
G1 X134.993 Y141.048 E9.74390
G1 X134.355 Y142.043 E9.77467
G1 X133.610 Y142.910 E9.80442
G1 X132.767 Y143.647 E9.83356
G1 X131.834 Y144.250 E9.86248
G1 X130.808 Y144.720 E9.89185
G1 X129.714 Y145.056 E9.92164
G1 X128.577 Y145.258 E9.95171
G1 X127.390 Y145.326 E9.98264
G1 X99.079 Y145.101 E10.71958
G1 X98.757 Y144.665 F12000.000
G1 X71.823 Y144.257 F12000.000
G1 X71.590 Y144.024 E10.72821 F1200.000
G1 X71.086 Y142.945 F12000.000
G1 X72.402 Y144.261 E10.77700 F1200.000
G1 X72.981 Y144.266 E10.79217
G1 X70.581 Y141.865 E10.88112
G1 X70.076 Y140.786 F12000.000
G1 X73.560 Y144.271 E11.01024 F1200.000
G1 X74.139 Y144.275 E11.02541
G1 X69.571 Y139.707 E11.19469
G1 X69.066 Y138.628 F12000.000
G1 X74.718 Y144.280 E11.40414 F1200.000
G1 X75.297 Y144.284 E11.41931
G1 X68.561 Y137.549 E11.66892
G1 X68.056 Y136.469 F12000.000
G1 X75.876 Y144.289 E11.95870 F1200.000
G1 X76.455 Y144.294 E11.97387
G1 X67.551 Y135.390 E12.30381
G1 X67.047 Y134.311 F12000.000
G1 X77.034 Y144.298 E12.67392 F1200.000
G1 X77.613 Y144.303 E12.68909
G1 X66.542 Y133.232 E13.09936
G1 X66.037 Y132.152 F12000.000
G1 X78.192 Y144.307 E13.54979 F1200.000
G1 X78.771 Y144.312 E13.56496
G1 X65.532 Y131.073 E14.05556
G1 X65.027 Y129.994 F12000.000
G1 X79.350 Y144.317 E14.58632 F1200.000
G1 X79.929 Y144.321 E14.60149
G1 X64.539 Y128.932 E15.17179
G1 X64.057 Y127.875 F12000.000
G1 X80.508 Y144.326 E15.78142 F1200.000
G1 X81.087 Y144.330 E15.79659
G1 X64.392 Y127.635 E16.41526
G1 X64.793 Y127.462 E16.42671
G1 X81.666 Y144.335 E17.05196
G1 X82.245 Y144.340 E17.06713
