; generated by Slic3r 1.2.6 on 2015-04-04 at 10:15:42

; external perimeters extrusion width = 0.50mm
; perimeters extrusion width = 0.50mm
; infill extrusion width = 0.50mm
; solid infill extrusion width = 0.50mm
; top infill extrusion width = 0.50mm

M104 S190 ; set temperature
G28 ; home all axes
G1 Z15 F120 ; lift nozzle
M109 S190 ; wait for temperature to be reached
G21 ; set units to millimeters
G90 ; use absolute coordinates
M82 ; use absolute distances for extrusion
G92 E0
M106 S102
G1 E-2.00000 F1680.00000
G92 E0
G1 Z0.350 F12000.000
G1 X15.362 Y11.546 F12000.000
G1 E2.00000 F1680.00000
G1 X17.086 Y10.085 E2.06363 F1200.000
G1 X20.260 Y9.213 E2.15627
G1 X130.673 Y8.156 E5.26476
G1 X132.894 Y8.529 E5.32816
G1 X136.739 Y9.914 E5.44323 F1200.000
G1 X138.536 Y10.586 E5.49722
G1 X143.517 Y12.523 E5.64767
G1 X145.067 Y13.151 E5.69476
G1 X147.967 Y14.378 E5.78340
G1 X149.456 Y15.036 E5.82924
G1 X152.214 Y16.307 E5.91473
G1 X154.061 Y17.610 E5.97836
G1 X155.345 Y19.471 E6.04199
G1 X155.923 Y22.081 E6.11727
G1 X156.115 Y44.179 E6.73938
G1 X155.923 Y77.366 E7.67367
G1 X155.237 Y80.220 E7.75632
G1 X116.196 Y157.851 E10.20259
G1 X114.841 Y159.661 E10.26622
G1 X112.945 Y160.891 E10.32985
G1 X110.611 Y161.394 E10.39706
G1 X93.002 Y161.844 E10.89296
G1 X22.346 Y161.396 E12.88208
G1 X20.124 Y160.985 E12.94572
G1 X18.180 Y159.831 E13.00935
G1 X16.756 Y158.076 E13.07298
G1 X15.952 Y155.055 E13.16098
G1 X13.886 Y15.745 E17.08327
G1 X14.249 Y13.514 E17.14690
G1 X15.325 Y11.611 E17.20842
G1 E15.20842 F1680.00000
G92 E0
G1 X28.586 Y65.954 F12000.000
G1 E2.00000 F1680.00000
G1 X28.345 Y63.704 E2.05890 F900.000
G1 X28.069 Y60.579 E2.14054
G1 X27.826 Y57.333 E2.22526
G1 X27.609 Y54.038 E2.31122
G1 X27.383 Y49.911 E2.41880
G1 X101.771 Y49.534 E4.35508
G1 X102.882 Y49.597 E4.38404
G1 X103.981 Y49.790 E4.41307 F900.000
G1 X105.029 Y50.112 E4.44160
G1 X106.005 Y50.557 E4.46953
G1 X106.890 Y51.124 E4.49689
G1 X107.688 Y51.815 E4.52438
G1 X108.392 Y52.631 E4.55243
G1 X108.995 Y53.578 E4.58164
G1 X109.495 Y54.658 E4.61260
G1 X109.869 Y55.864 E4.64549
G1 X110.096 Y57.200 E4.68074
G1 X110.172 Y58.669 E4.71904
G1 X110.094 Y60.136 E4.75729
G1 X109.864 Y61.465 E4.79239
G1 X109.484 Y62.663 E4.82510
G1 X108.976 Y63.738 E4.85605
G1 X108.367 Y64.687 E4.88540
G1 X107.660 Y65.511 E4.91367
G1 X106.861 Y66.210 E4.94130
G1 X105.977 Y66.781 E4.96869
G1 X105.001 Y67.227 E4.99662
G1 X103.956 Y67.549 E5.02508
G1 X102.867 Y67.742 E5.05388
G1 X101.716 Y67.808 E5.08386
G1 X28.751 Y67.364 E6.98312
G1 X28.595 Y66.028 E7.01812
G1 X28.194 Y66.075 F12000.000
G1 X27.944 Y63.742 E7.07919 F720.000
G1 X27.666 Y60.612 E7.16097
G1 X27.424 Y57.362 E7.24582
G1 X27.207 Y54.062 E7.33188
G1 X26.957 Y49.510 E7.45055
G1 X101.782 Y49.131 E9.39819
G1 X102.929 Y49.195 E9.42809
G1 X104.075 Y49.397 E9.45839 F720.000
G1 X105.172 Y49.734 E9.48826
G1 X106.198 Y50.202 E9.51762
G1 X107.132 Y50.800 E9.54648
G1 X107.975 Y51.529 E9.57549
G1 X108.717 Y52.390 E9.60507
G1 X109.350 Y53.384 E9.63574
G1 X109.872 Y54.512 E9.66810
G1 X110.262 Y55.770 E9.70238
G1 X110.497 Y57.155 E9.73895
G1 X110.576 Y58.669 E9.77841
G1 X110.496 Y60.181 E9.81783
G1 X110.257 Y61.561 E9.85427
G1 X109.860 Y62.811 E9.88840
G1 X109.330 Y63.934 E9.92073
G1 X108.692 Y64.929 E9.95149
G1 X107.947 Y65.796 E9.98124
G1 X107.104 Y66.533 E10.01039
G1 X106.171 Y67.136 E10.03930
G1 X105.145 Y67.605 E10.06867
G1 X104.051 Y67.942 E10.09847
G1 X102.913 Y68.144 E10.12853
G1 X101.727 Y68.211 E10.15947
G1 X28.392 Y67.765 E12.06835
G1 X28.203 Y66.149 E12.11068
G1 X28.597 Y65.779 F12000.000
G1 X29.149 Y67.143 F12000.000
G1 X28.935 Y66.929 E12.11859 F1200.000
G1 X28.859 Y66.280 E12.13567
G1 X29.725 Y67.146 E12.16771
G1 X30.302 Y67.150 E12.18278
G1 X28.783 Y65.631 E12.23894
G1 X28.709 Y64.983 E12.25597
G1 X30.879 Y67.153 E12.33619
G1 X31.455 Y67.157 E12.35127
G1 X28.644 Y64.345 E12.45520
G1 X28.579 Y63.708 E12.47196
G1 X32.032 Y67.160 E12.59960
G1 X32.608 Y67.164 E12.61467
G1 X28.522 Y63.077 E12.76575
G1 X28.466 Y62.448 E12.78225
G1 X33.185 Y67.167 E12.95670
G1 X33.761 Y67.171 E12.97178
G1 X28.410 Y61.820 E13.16960
G1 X28.354 Y61.191 E13.18611
G1 X34.338 Y67.174 E13.40731
G1 X34.914 Y67.178 E13.42238
G1 X28.299 Y60.562 E13.66696
G1 X28.251 Y59.942 E13.68323
G1 X35.491 Y67.181 E13.95089
G1 X36.067 Y67.185 E13.96596
G1 X28.205 Y59.322 E14.25663
G1 X28.159 Y58.703 E14.27287
G1 X36.644 Y67.188 E14.58657
G1 X37.220 Y67.192 E14.60164
G1 X28.112 Y58.084 E14.93837
G1 X28.066 Y57.465 E14.95460
G1 X37.797 Y67.195 E15.31435
G1 X38.373 Y67.199 E15.32942
G1 X28.023 Y56.849 E15.71206
G1 X27.983 Y56.235 E15.72813
G1 X38.950 Y67.202 E16.13358
G1 X39.526 Y67.206 E16.14865
G1 X27.943 Y55.622 E16.57690
G1 X27.902 Y55.009 E16.59297
G1 X40.103 Y67.209 E17.04403
G1 X40.679 Y67.213 E17.05910
G1 X27.862 Y54.395 E17.53297
G1 X27.823 Y53.784 E17.54900
G1 X41.256 Y67.216 E18.04561
G1 X41.832 Y67.220 E18.06068
G1 X27.790 Y53.177 E18.57983
G1 X27.757 Y52.571 E18.59570
G1 X42.409 Y67.223 E19.13740
G1 X42.986 Y67.227 E19.15247
G1 X27.724 Y51.965 E19.71671
G1 X27.690 Y51.359 E19.73259
G1 X43.562 Y67.230 E20.31937
G1 X44.139 Y67.234 E20.33444
G1 X27.657 Y50.752 E20.94377
G1 X27.637 Y50.159 E20.95928
G1 X44.715 Y67.237 E21.59065
G1 X45.292 Y67.241 E21.60572
G1 X28.180 Y50.130 E22.23833
G1 X28.751 Y50.127 E22.25324
G1 X45.868 Y67.244 E22.88608
G1 X46.445 Y67.248 E22.90115
G1 X29.321 Y50.124 E23.53424
G1 X29.891 Y50.121 E23.54914
G1 X47.021 Y67.251 E24.18246
G1 X47.598 Y67.255 E24.19753
G1 X30.461 Y50.118 E24.83108
G1 X31.031 Y50.115 E24.84599
G1 X48.174 Y67.258 E25.47978
G1 X48.751 Y67.262 E25.49485
G1 X31.601 Y50.112 E26.12888
G1 X32.171 Y50.109 E26.14378
G1 X49.327 Y67.265 E26.77805
G1 X49.904 Y67.269 E26.79312
G1 X32.741 Y50.107 E27.42762
G1 X33.312 Y50.104 E27.44253
G1 X50.480 Y67.272 E28.07727
G1 X51.057 Y67.276 E28.09234
G1 X33.882 Y50.101 E28.72731
G1 X34.452 Y50.098 E28.74222
G1 X51.633 Y67.280 E29.37743
G1 X52.210 Y67.283 E29.39250
G1 X35.022 Y50.095 E30.02795
G1 X35.592 Y50.092 E30.04285
G1 X52.786 Y67.287 E30.67854
G1 X53.363 Y67.290 E30.69361
G1 X36.162 Y50.089 E31.32953
G1 X36.732 Y50.086 E31.34444
G1 X53.939 Y67.294 E31.98060
G1 X54.516 Y67.297 E31.99567
G1 X37.302 Y50.083 E32.63206
G1 X37.872 Y50.081 E32.64697
G1 X55.093 Y67.301 E33.28360
G1 X55.669 Y67.304 E33.29867
G1 X38.443 Y50.078 E33.93554
G1 X39.013 Y50.075 E33.95044
G1 X56.246 Y67.308 E34.58755
G1 X56.822 Y67.311 E34.60262
G1 X39.583 Y50.072 E35.23996
G1 X40.153 Y50.069 E35.25487
G1 X57.399 Y67.315 E35.89245
G1 X57.975 Y67.318 E35.90752
G1 X40.723 Y50.066 E36.54533
G1 X41.293 Y50.063 E36.56024
G1 X58.552 Y67.322 E37.19829
G1 X59.128 Y67.325 E37.21336
G1 X41.863 Y50.060 E37.85165
G1 X42.433 Y50.057 E37.86656
G1 X59.705 Y67.329 E38.50508
G1 X60.281 Y67.332 E38.52015
G1 X43.004 Y50.055 E39.15892
G1 X43.574 Y50.052 E39.17382
G1 X60.858 Y67.336 E39.81282
G1 X61.434 Y67.339 E39.82789
G1 X44.144 Y50.049 E40.46713
G1 X44.714 Y50.046 E40.48203
G1 X62.011 Y67.343 E41.12151
G1 X62.587 Y67.346 E41.13658
G1 X45.284 Y50.043 E41.77629
G1 X45.854 Y50.040 E41.79119
G1 X63.164 Y67.350 E42.43114
G1 X63.740 Y67.353 E42.44621
G1 X46.424 Y50.037 E43.08639
G1 X46.994 Y50.034 E43.10130
G1 X64.317 Y67.357 E43.74171
G1 X64.893 Y67.360 E43.75679
G1 X47.565 Y50.031 E44.39744
G1 X48.135 Y50.028 E44.41235
G1 X65.470 Y67.364 E45.05324
G1 X66.046 Y67.367 E45.06831
G1 X48.705 Y50.026 E45.70944
G1 X49.275 Y50.023 E45.72435
G1 X66.623 Y67.371 E46.36571
G1 X67.200 Y67.374 E46.38078
G1 X49.845 Y50.020 E47.02239
G1 X50.415 Y50.017 E47.03729
G1 X67.776 Y67.378 E47.67913
G1 X68.353 Y67.381 E47.69420
G1 X50.985 Y50.014 E48.33628
G1 X51.555 Y50.011 E48.35118
G1 X68.929 Y67.385 E48.99350
G1 X69.506 Y67.388 E49.00857
G1 X52.126 Y50.008 E49.65112
G1 X52.696 Y50.005 E49.66602
G1 X70.082 Y67.392 E50.30881
G1 X70.659 Y67.395 E50.32388
G1 X53.266 Y50.002 E50.96690
G1 X53.836 Y50.000 E50.98181
G1 X71.235 Y67.399 E51.62507
G1 X71.812 Y67.402 E51.64014
G1 X54.406 Y49.997 E52.28364
G1 X54.976 Y49.994 E52.29854
G1 X72.388 Y67.406 E52.94227
G1 X72.965 Y67.409 E52.95735
G1 X55.546 Y49.991 E53.60132
G1 X56.116 Y49.988 E53.61622
G1 X73.541 Y67.413 E54.26043
G1 X74.118 Y67.416 E54.27550
G1 X56.686 Y49.985 E54.91994
G1 X57.257 Y49.982 E54.93485
G1 X74.694 Y67.420 E55.57953
G1 X75.271 Y67.423 E55.59460
G1 X57.827 Y49.979 E56.23952
G1 X58.397 Y49.976 E56.25442
G1 X75.847 Y67.427 E56.89957
G1 X76.424 Y67.430 E56.91465
G1 X58.967 Y49.974 E57.56004
G1 X59.537 Y49.971 E57.57494
G1 X77.000 Y67.434 E58.22057
G1 X77.577 Y67.438 E58.23564
G1 X60.107 Y49.968 E58.88150
G1 X60.677 Y49.965 E58.89641
G1 X78.153 Y67.441 E59.54251
G1 X78.730 Y67.445 E59.55758
G1 X61.247 Y49.962 E60.20392
G1 X61.818 Y49.959 E60.21882
G1 X79.307 Y67.448 E60.86540
G1 X79.883 Y67.452 E60.88047
G1 X62.388 Y49.956 E61.52728
G1 X62.958 Y49.953 E61.54218
G1 X80.460 Y67.455 E62.18923
G1 X81.036 Y67.459 E62.20430
G1 X63.528 Y49.950 E62.85158
G1 X64.098 Y49.948 E62.86649
G1 X81.613 Y67.462 E63.51401
G1 X82.189 Y67.466 E63.52908
G1 X64.668 Y49.945 E64.17684
G1 X65.238 Y49.942 E64.19174
G1 X82.766 Y67.469 E64.83974
G1 X83.342 Y67.473 E64.85481
G1 X65.808 Y49.939 E65.50304
G1 X66.379 Y49.936 E65.51794
G1 X83.919 Y67.476 E66.16641
G1 X84.495 Y67.480 E66.18148
G1 X66.949 Y49.933 E66.83019
G1 X67.519 Y49.930 E66.84509
G1 X85.072 Y67.483 E67.49403
G1 X85.648 Y67.487 E67.50911
G1 X68.089 Y49.927 E68.15828
G1 X68.659 Y49.924 E68.17319
G1 X86.225 Y67.490 E68.82260
G1 X86.801 Y67.494 E68.83767
G1 X69.229 Y49.922 E69.48732
G1 X69.799 Y49.919 E69.50223
G1 X87.378 Y67.497 E70.15212
G1 X87.954 Y67.501 E70.16719
G1 X70.369 Y49.916 E70.81731
G1 X70.940 Y49.913 E70.83222
G1 X88.531 Y67.504 E71.48258
G1 X89.107 Y67.508 E71.49765
G1 X71.510 Y49.910 E72.14825
G1 X72.080 Y49.907 E72.16315
G1 X89.684 Y67.511 E72.81399
G1 X90.260 Y67.515 E72.82906
G1 X72.650 Y49.904 E73.48013
G1 X73.220 Y49.901 E73.49503
G1 X90.837 Y67.518 E74.14634
G1 X91.414 Y67.522 E74.16141
G1 X73.790 Y49.898 E74.81296
G1 X74.360 Y49.895 E74.82786
G1 X91.990 Y67.525 E75.47965
G1 X92.567 Y67.529 E75.49472
G1 X74.930 Y49.893 E76.14674
G1 X75.500 Y49.890 E76.16164
G1 X93.143 Y67.532 E76.81389
G1 X93.720 Y67.536 E76.82897
G1 X76.071 Y49.887 E77.48146
G1 X76.641 Y49.884 E77.49636
G1 X94.296 Y67.539 E78.14909
G1 X94.873 Y67.543 E78.16416
G1 X77.211 Y49.881 E78.81713
G1 X77.781 Y49.878 E78.83203
G1 X95.449 Y67.546 E79.48523
G1 X96.026 Y67.550 E79.50030
G1 X78.351 Y49.875 E80.15374
G1 X78.921 Y49.872 E80.16865
G1 X96.602 Y67.553 E80.82232
G1 X97.179 Y67.557 E80.83739
G1 X79.491 Y49.869 E81.49131
G1 X80.061 Y49.867 E81.50621
G1 X97.755 Y67.560 E82.16036
G1 X98.332 Y67.564 E82.17543
G1 X80.632 Y49.864 E82.82982
G1 X81.202 Y49.861 E82.84472
G1 X98.908 Y67.567 E83.49934
G1 X99.485 Y67.571 E83.51441
G1 X81.772 Y49.858 E84.16927
G1 X82.342 Y49.855 E84.18418
G1 X100.061 Y67.574 E84.83927
G1 X100.638 Y67.578 E84.85434
G1 X82.912 Y49.852 E85.50968
G1 X83.482 Y49.849 E85.52458
G1 X101.214 Y67.581 E86.18015
G1 X101.791 Y67.585 E86.19522
G1 X84.052 Y49.846 E86.85103
G1 X84.622 Y49.843 E86.86593
G1 X102.333 Y67.554 E87.52071
G1 X102.875 Y67.523 E87.53490
G1 X85.193 Y49.841 E88.18864
G1 X85.763 Y49.838 E88.20354
G1 X103.366 Y67.441 E88.85434
G1 X103.853 Y67.355 E88.86726
G1 X86.333 Y49.835 E89.51498
G1 X86.903 Y49.832 E89.52988
G1 X104.302 Y67.231 E90.17315
G1 X104.741 Y67.097 E90.18514
G1 X87.473 Y49.829 E90.82353
G1 X88.043 Y49.826 E90.83844
G1 X105.158 Y66.941 E91.47119
G1 X105.551 Y66.761 E91.48249
G1 X88.613 Y49.823 E92.10869
G1 X89.183 Y49.820 E92.12360
G1 X105.941 Y66.578 E92.74313
G1 X106.289 Y66.353 E92.75396
G1 X89.754 Y49.817 E93.36529
G1 X90.324 Y49.815 E93.38019
G1 X106.637 Y66.128 E93.98331
G1 X106.958 Y65.876 E93.99398
G1 X90.894 Y49.812 E94.58788
G1 X91.464 Y49.809 E94.60278
G1 X107.264 Y65.608 E95.18690
G1 X107.552 Y65.324 E95.19749
G1 X92.034 Y49.806 E95.77122
G1 X92.604 Y49.803 E95.78612
G1 X107.828 Y65.027 E96.34896
G1 X108.093 Y64.719 E96.35958
G1 X93.174 Y49.800 E96.91113
G1 X93.744 Y49.797 E96.92603
G1 X108.334 Y64.387 E97.46542
G1 X108.558 Y64.038 E97.47626
G1 X94.314 Y49.794 E98.00284
G1 X94.885 Y49.791 E98.01775
G1 X108.782 Y63.688 E98.53153
G1 X108.967 Y63.301 E98.54276
G1 X95.455 Y49.788 E99.04232
G1 X96.025 Y49.786 E99.05723
G1 X109.151 Y62.912 E99.54250
G1 X109.322 Y62.509 E99.55393
G1 X96.595 Y49.783 E100.02444
G1 X97.165 Y49.780 E100.03934
G1 X109.460 Y62.074 E100.49388
G1 X109.598 Y61.640 E100.50581
G1 X97.735 Y49.777 E100.94438
G1 X98.305 Y49.774 E100.95928
G1 X109.702 Y61.171 E101.38064
G1 X109.787 Y60.683 E101.39359
G1 X98.875 Y49.771 E101.79700
G1 X99.446 Y49.768 E101.81190
G1 X109.872 Y60.194 E102.19736
G1 X109.901 Y59.651 E102.21159
G1 X100.016 Y49.765 E102.57705
G1 X100.586 Y49.762 E102.59196
G1 X109.930 Y59.107 E102.93741
G1 X109.937 Y58.541 E102.95220
G1 X101.156 Y49.760 E103.27685
G1 X101.729 Y49.760 E103.29184
G1 X109.906 Y57.937 E103.59414
G1 X109.875 Y57.332 E103.60996
G1 X102.336 Y49.794 E103.88865
G1 X102.970 Y49.855 E103.90530
G1 X109.760 Y56.644 E104.15630
G1 X109.629 Y55.941 E104.17501
G1 X103.666 Y49.978 E104.39547
G1 X104.463 Y50.201 E104.41710
G1 X109.371 Y55.110 E104.59857
G1 X108.950 Y54.115 F12000.000
G1 X105.414 Y50.580 E104.72927 F1200.000
G1 X107.173 Y51.766 F12000.000
G1 X107.733 Y52.325 E104.74996 F1200.000
G1 E102.74996 F1680.00000
G92 E0
G1 Z0.350 F12000.000
G1 X110.733 Y78.067 F12000.000
G1 E2.00000 F1680.00000
G1 X111.831 Y78.261 E2.02903 F900.000
G1 X112.879 Y78.582 E2.05757
G1 X113.855 Y79.028 E2.08549
G1 X114.740 Y79.595 E2.11286
G1 X115.539 Y80.286 E2.14034
G1 X116.243 Y81.102 E2.16840
G1 X116.845 Y82.049 E2.19761
G1 X117.345 Y83.128 E2.22857
G1 X117.720 Y84.335 E2.26145
G1 X117.946 Y85.670 E2.29671
G1 X118.022 Y87.140 E2.33501
G1 X117.945 Y88.607 E2.37325
G1 X117.715 Y89.936 E2.40836
G1 X117.334 Y91.133 E2.44107
G1 X116.826 Y92.208 E2.47202
G1 X116.218 Y93.158 E2.50137
G1 X115.510 Y93.982 E2.52964
G1 X114.711 Y94.681 E2.55727
G1 X113.827 Y95.252 E2.58466
G1 X112.852 Y95.698 E2.61258
G1 X111.806 Y96.019 E2.64105
G1 X110.717 Y96.213 E2.66985
G1 X109.565 Y96.279 E2.69988
G1 X34.472 Y96.279 E4.65448
G1 X32.697 Y96.126 E4.70086
G1 X31.253 Y95.688 E4.74013
G1 X30.097 Y94.978 E4.77543
G1 X29.257 Y94.041 E4.80819
G1 X28.754 Y92.894 E4.84079
G1 X28.575 Y91.446 E4.87876
G1 X28.204 Y79.118 E5.19979
G1 X28.652 Y78.911 E5.21264
G1 X29.414 Y78.628 E5.23378
G1 X30.358 Y78.359 E5.25934
G1 X30.890 Y78.245 E5.27350
G1 X31.476 Y78.143 E5.28898
G1 X32.104 Y78.065 E5.30545
G1 X32.776 Y78.017 E5.32298
G1 X33.503 Y78.001 E5.34192
G1 X109.620 Y78.005 E7.32317
G1 X110.658 Y78.063 E7.35022 F900.000
G1 X110.681 Y77.660 F12000.000
G1 X111.926 Y77.868 E7.38307 F720.000
G1 X113.023 Y78.204 E7.41294
G1 X114.049 Y78.672 E7.44230
G1 X114.983 Y79.271 E7.47117
G1 X115.825 Y80.000 E7.50017
G1 X116.567 Y80.861 E7.52976
G1 X117.200 Y81.855 E7.56043
G1 X117.723 Y82.983 E7.59279
G1 X118.113 Y84.241 E7.62707
G1 X118.348 Y85.626 E7.66363
G1 X118.426 Y87.140 E7.70310
G1 X118.346 Y88.652 E7.74251
G1 X118.107 Y90.032 E7.77896
G1 X117.710 Y91.281 E7.81309
G1 X117.180 Y92.404 E7.84541
G1 X116.542 Y93.399 E7.87618
G1 X115.798 Y94.267 E7.90593
G1 X114.955 Y95.004 E7.93507
G1 X114.021 Y95.606 E7.96399
G1 X112.996 Y96.076 E7.99336
G1 X111.901 Y96.412 E8.02315
G1 X110.764 Y96.614 E8.05322
G1 X109.577 Y96.682 E8.08418
G1 X34.455 Y96.682 E10.03953
G1 X32.620 Y96.524 E10.08745
G1 X31.086 Y96.059 E10.12918
G1 X29.836 Y95.291 E10.16737
G1 X28.914 Y94.262 E10.20334
G1 X28.361 Y93.002 E10.23915
G1 X28.172 Y91.477 E10.27915
G1 X27.793 Y78.872 E10.60739
G1 X28.497 Y78.538 E10.62766
G1 X29.288 Y78.244 E10.64962
