; generated by Slic3r 1.2.6 on 2015-04-12 at 19:32:48

; external perimeters extrusion width = 0.50mm
; perimeters extrusion width = 0.50mm
; infill extrusion width = 0.50mm
; solid infill extrusion width = 0.50mm
; top infill extrusion width = 0.50mm

M104 S190 ; set temperature
G28 ; home all axes
G1 Z15 F120 ; lift nozzle
M109 S190 ; wait for temperature to be reached
G21 ; set units to millimeters
G90 ; use absolute coordinates
M82 ; use absolute distances for extrusion
G92 E0
M106 S102
G1 E-2.00000 F1680.00000
G92 E0
G1 Z0.400 F12000.000
G1 X25.041 Y68.415 F12000.000
G1 E2.00000 F1680.00000
G1 X26.278 Y68.279 E2.03724 F1200.000
G1 X56.631 Y67.894 E2.94622
G1 X137.827 Y67.894 E5.37756
G1 X138.259 Y67.909 E5.39049
G1 X139.981 Y68.025 E5.44218 F1200.000
G1 X141.063 Y68.191 E5.47496
G1 X142.498 Y68.540 E5.51919
G1 X143.880 Y69.049 E5.56329
G1 X145.029 Y69.630 E5.60182
G1 X146.587 Y70.736 E5.65904
G1 X147.424 Y71.544 E5.69389
G1 X148.736 Y73.344 E5.76059
G1 X149.238 Y74.372 E5.79485
G1 X149.834 Y76.338 E5.85635
G1 X150.002 Y77.586 E5.89405
G1 X150.052 Y78.728 E5.92829
G1 X150.015 Y79.501 E5.95147
G1 X149.338 Y88.977 E6.23595
G1 X148.784 Y91.165 E6.30353
G1 X147.507 Y93.026 E6.37112
G1 X145.020 Y94.590 E6.45909
G1 X144.578 Y94.742 E6.47308
G1 X143.534 Y95.039 E6.50558
G1 X117.008 Y101.901 E7.32603
G1 X115.237 Y102.104 E7.37942
G1 X27.671 Y99.864 E10.00235
G1 X25.460 Y99.410 E10.06993
G1 X23.543 Y98.219 E10.13752
G1 X22.156 Y96.438 E10.20510
G1 X21.465 Y94.230 E10.27439
G1 X21.128 Y91.343 E10.36142
G1 X20.971 Y89.791 E10.40812
G1 X20.685 Y86.563 E10.50517
G1 X20.439 Y83.274 E10.60394
G1 X20.218 Y79.921 E10.70455
G1 X19.949 Y75.017 E10.85160
G1 X20.235 Y72.778 E10.91919
G1 X21.277 Y70.777 E10.98677
G1 X22.948 Y69.260 E11.05436
G1 X24.972 Y68.443 E11.11969
G1 E9.11969 F1680.00000
G92 E0
G1 X142.699 Y88.337 F12000.000
G1 E2.00000 F1680.00000
G1 X142.422 Y88.432 E2.00827 F1200.000
G1 X141.863 Y88.585 E2.02456
G1 X115.372 Y95.437 E2.79488
G1 X28.058 Y93.204 E5.25374
G1 X27.761 Y90.667 E5.32563
G1 X27.610 Y89.176 E5.36782
G1 X27.332 Y86.047 E5.45627
G1 X27.090 Y82.796 E5.54803
G1 X26.873 Y79.497 E5.64111
G1 X26.623 Y74.943 E5.76951
G1 X56.633 Y74.562 E6.61441
G1 X137.905 Y74.568 E8.90237
G1 X139.511 Y74.676 E8.94770 F1200.000
G1 X140.898 Y75.013 E8.98787
G1 X141.987 Y75.563 E9.02222
G1 X142.765 Y76.314 E9.05267
G1 X143.231 Y77.266 E9.08250
G1 X143.390 Y78.451 E9.11617
G1 X143.364 Y79.029 E9.13246
G1 X142.705 Y88.262 E9.39306
G1 X142.632 Y76.631 F12000.000
G1 X141.723 Y75.722 E9.42923 F2400.000
G1 X140.638 Y75.193 F12000.000
G1 X143.048 Y77.603 E9.52520 F2400.000
G1 X143.134 Y78.244 E9.54343
G1 X139.905 Y75.015 E9.67205
G1 X139.211 Y74.877 E9.69197
G1 X143.162 Y78.828 E9.84934
G1 X143.132 Y79.353 E9.86416
G1 X138.615 Y74.836 E10.04404
G1 X138.019 Y74.796 E10.06085
G1 X143.095 Y79.872 E10.26299
G1 X143.058 Y80.390 E10.27763
G1 X137.450 Y74.782 E10.50097
G1 X136.894 Y74.782 E10.51662
G1 X143.021 Y80.909 E10.76061
G1 X142.984 Y81.427 E10.77525
G1 X136.339 Y74.782 E11.03990
G1 X135.783 Y74.782 E11.05554
G1 X142.947 Y81.946 E11.34084
G1 X142.910 Y82.464 E11.35548
G1 X135.228 Y74.782 E11.66143
G1 X134.672 Y74.782 E11.67707
G1 X142.873 Y82.983 E12.00367
G1 X142.836 Y83.501 E12.01831
G1 X134.116 Y74.782 E12.36556
G1 X133.561 Y74.782 E12.38121
G1 X142.799 Y84.020 E12.74911
G1 X142.762 Y84.538 E12.76375
G1 X133.005 Y74.782 E13.15231
G1 X132.450 Y74.782 E13.16795
G1 X142.725 Y85.057 E13.57716
G1 X142.687 Y85.575 E13.59180
G1 X131.894 Y74.782 E14.02166
G1 X131.338 Y74.782 E14.03730
G1 X142.650 Y86.094 E14.48781
G1 X142.613 Y86.612 E14.50245
G1 X130.783 Y74.782 E14.97361
G1 X130.227 Y74.782 E14.98926
G1 X142.576 Y87.131 E15.48107
G1 X142.539 Y87.649 E15.49571
G1 X129.672 Y74.782 E16.00817
G1 X129.116 Y74.782 E16.02382
G1 X142.502 Y88.167 E16.55691
G1 X142.097 Y88.318 E16.56907
G1 X128.561 Y74.782 E17.10818
G1 X128.005 Y74.781 E17.12383
G1 X141.658 Y88.435 E17.66759
G1 X141.217 Y88.549 E17.68042
G1 X127.449 Y74.781 E18.22873
G1 X126.894 Y74.781 E18.24438
G1 X140.776 Y88.663 E18.79723
G1 X140.334 Y88.777 E18.81007
G1 X126.338 Y74.781 E19.36747
G1 X125.783 Y74.781 E19.38312
G1 X139.893 Y88.892 E19.94507
G1 X139.451 Y89.006 E19.95791
G1 X125.227 Y74.781 E20.52441
G1 X124.671 Y74.781 E20.54005
G1 X139.010 Y89.120 E21.11110
G1 X138.569 Y89.234 E21.12394
G1 X124.116 Y74.781 E21.69954
G1 X123.560 Y74.781 E21.71518
G1 X138.127 Y89.348 E22.29533
G1 X137.686 Y89.462 E22.30817
G1 X123.005 Y74.781 E22.89286
G1 X122.449 Y74.781 E22.90851
G1 X137.245 Y89.577 E23.49775
G1 X136.803 Y89.691 E23.51059
G1 X121.894 Y74.781 E24.10438
G1 X121.338 Y74.781 E24.12003
G1 X136.362 Y89.805 E24.71837
G1 X135.921 Y89.919 E24.73121
G1 X120.782 Y74.781 E25.33409
G1 X120.227 Y74.781 E25.34974
G1 X135.479 Y90.033 E25.95718
G1 X135.038 Y90.147 E25.97002
G1 X119.671 Y74.781 E26.58200
G1 X119.116 Y74.781 E26.59765
G1 X134.596 Y90.262 E27.21418
G1 X134.155 Y90.376 E27.22702
G1 X118.560 Y74.781 E27.84810
G1 X118.004 Y74.781 E27.86375
G1 X133.714 Y90.490 E28.48938
G1 X133.272 Y90.604 E28.50222
G1 X117.449 Y74.781 E29.13240
G1 X116.893 Y74.781 E29.14805
G1 X132.831 Y90.718 E29.78277
G1 X132.390 Y90.832 E29.79561
G1 X116.338 Y74.781 E30.43489
G1 X115.782 Y74.781 E30.45054
G1 X131.948 Y90.947 E31.09436
G1 X131.507 Y91.061 E31.10720
G1 X115.227 Y74.781 E31.75558
G1 X114.671 Y74.781 E31.77122
G1 X131.065 Y91.175 E32.42414
G1 X130.624 Y91.289 E32.43698
G1 X114.115 Y74.780 E33.09445
G1 X113.560 Y74.780 E33.11010
G1 X130.183 Y91.403 E33.77212
G1 X129.741 Y91.518 E33.78496
G1 X113.004 Y74.780 E34.45153
G1 X112.449 Y74.780 E34.46717
G1 X129.300 Y91.632 E35.13829
G1 X128.859 Y91.746 E35.15113
G1 X111.893 Y74.780 E35.82680
G1 X111.337 Y74.780 E35.84244
G1 X128.417 Y91.860 E36.52266
G1 X127.976 Y91.974 E36.53550
G1 X110.782 Y74.780 E37.22026
G1 X110.226 Y74.780 E37.23590
G1 X127.535 Y92.088 E37.92522
G1 X127.093 Y92.203 E37.93805
G1 X109.671 Y74.780 E38.63192
G1 X109.115 Y74.780 E38.64756
G1 X126.652 Y92.317 E39.34597
G1 X126.210 Y92.431 E39.35881
G1 X108.560 Y74.780 E40.06177
G1 X108.004 Y74.780 E40.07741
G1 X125.769 Y92.545 E40.78492
G1 X125.328 Y92.659 E40.79776
G1 X107.448 Y74.780 E41.50981
G1 X106.893 Y74.780 E41.52546
G1 X124.886 Y92.773 E42.24206
G1 X124.445 Y92.888 E42.25490
G1 X106.337 Y74.780 E42.97605
G1 X105.782 Y74.780 E42.99170
G1 X124.004 Y93.002 E43.71740
G1 X123.562 Y93.116 E43.73024
G1 X105.226 Y74.780 E44.46048
G1 X104.671 Y74.780 E44.47613
G1 X123.121 Y93.230 E45.21093
G1 X122.679 Y93.344 E45.22377
G1 X104.115 Y74.780 E45.96311
G1 X103.559 Y74.780 E45.97876
G1 X122.238 Y93.458 E46.72265
G1 X121.797 Y93.573 E46.73549
G1 X103.004 Y74.780 E47.48394
G1 X102.448 Y74.780 E47.49958
G1 X121.355 Y93.687 E48.25257
G1 X120.914 Y93.801 E48.26541
G1 X101.893 Y74.780 E49.02295
G1 X101.337 Y74.780 E49.03860
G1 X120.473 Y93.915 E49.80069
G1 X120.031 Y94.029 E49.81353
G1 X100.781 Y74.780 E50.58016
G1 X100.226 Y74.779 E50.59581
G1 X119.590 Y94.143 E51.36700
G1 X119.148 Y94.258 E51.37983
G1 X99.670 Y74.779 E52.15557
G1 X99.115 Y74.779 E52.17122
G1 X118.707 Y94.372 E52.95150
G1 X118.266 Y94.486 E52.96434
G1 X98.559 Y74.779 E53.74917
G1 X98.004 Y74.779 E53.76482
G1 X117.824 Y94.600 E54.55420
G1 X117.383 Y94.714 E54.56703
G1 X97.448 Y74.779 E55.36096
G1 X96.892 Y74.779 E55.37661
G1 X116.942 Y94.829 E56.17509
G1 X116.500 Y94.943 E56.18793
G1 X96.337 Y74.779 E56.99095
G1 X95.781 Y74.779 E57.00660
G1 X116.059 Y95.057 E57.81417
G1 X115.618 Y95.171 E57.82701
G1 X95.226 Y74.779 E58.63914
G1 X94.670 Y74.779 E58.65478
G1 X115.105 Y95.214 E59.46861
G1 X114.535 Y95.199 E59.48467
G1 X94.114 Y74.779 E60.29791
G1 X93.559 Y74.779 E60.31356
G1 X113.964 Y95.185 E61.12623
G1 X113.394 Y95.170 E61.14229
G1 X93.003 Y74.779 E61.95438
G1 X92.448 Y74.779 E61.97002
G1 X112.824 Y95.155 E62.78153
G1 X112.254 Y95.141 E62.79759
G1 X91.892 Y74.779 E63.60852
G1 X91.337 Y74.779 E63.62417
G1 X111.684 Y95.126 E64.43452
G1 X111.114 Y95.112 E64.45058
G1 X90.781 Y74.779 E65.26035
G1 X90.225 Y74.779 E65.27599
G1 X110.544 Y95.097 E66.08519
G1 X109.974 Y95.082 E66.10125
G1 X89.670 Y74.779 E66.90986
G1 X89.114 Y74.779 E66.92550
G1 X109.403 Y95.068 E67.73354
G1 X108.833 Y95.053 E67.74960
G1 X88.559 Y74.779 E68.55705
G1 X88.003 Y74.779 E68.57270
G1 X108.263 Y95.039 E69.37957
G1 X107.693 Y95.024 E69.39563
G1 X87.447 Y74.779 E70.20193
G1 X86.892 Y74.779 E70.21757
G1 X107.123 Y95.010 E71.02329
G1 X106.553 Y94.995 E71.03935
G1 X86.336 Y74.779 E71.84449
G1 X85.781 Y74.778 E71.86013
G1 X105.983 Y94.980 E72.66469
G1 X105.413 Y94.966 E72.68075
G1 X85.225 Y74.778 E73.48473
G1 X84.670 Y74.778 E73.50038
G1 X104.842 Y94.951 E74.30378
G1 X104.272 Y94.937 E74.31984
G1 X84.114 Y74.778 E75.12266
G1 X83.558 Y74.778 E75.13830
G1 X103.702 Y94.922 E75.94054
G1 X103.132 Y94.907 E75.95660
G1 X83.003 Y74.778 E76.75827
G1 X82.447 Y74.778 E76.77391
G1 X102.562 Y94.893 E77.57499
G1 X101.992 Y94.878 E77.59105
G1 X81.892 Y74.778 E78.39156
G1 X81.336 Y74.778 E78.40720
G1 X101.422 Y94.864 E79.20713
G1 X100.852 Y94.849 E79.22319
G1 X80.781 Y74.778 E80.02253
G1 X80.225 Y74.778 E80.03818
G1 X100.281 Y94.835 E80.83694
G1 X99.711 Y94.820 E80.85300
G1 X79.669 Y74.778 E81.65119
G1 X79.114 Y74.778 E81.66683
G1 X99.141 Y94.805 E82.46444
G1 X98.571 Y94.791 E82.48050
G1 X78.558 Y74.778 E83.27753
G1 X78.003 Y74.778 E83.29318
G1 X98.001 Y94.776 E84.08962
G1 X97.431 Y94.762 E84.10568
G1 X77.447 Y74.778 E84.90155
G1 X76.891 Y74.778 E84.91720
G1 X96.861 Y94.747 E85.71249
G1 X96.291 Y94.732 E85.72855
G1 X76.336 Y74.778 E86.52326
G1 X75.780 Y74.778 E86.53891
G1 X95.720 Y94.718 E87.33304
G1 X95.150 Y94.703 E87.34910
G1 X75.225 Y74.778 E88.14265
G1 X74.669 Y74.778 E88.15829
G1 X94.580 Y94.689 E88.95127
G1 X94.010 Y94.674 E88.96733
G1 X74.114 Y74.778 E89.75972
G1 X73.558 Y74.778 E89.77537
G1 X93.440 Y94.660 E90.56718
G1 X92.870 Y94.645 E90.58324
G1 X73.002 Y74.778 E91.37448
G1 X72.447 Y74.778 E91.39012
G1 X92.300 Y94.630 E92.18078
G1 X91.730 Y94.616 E92.19684
G1 X71.891 Y74.777 E92.98692
G1 X71.336 Y74.777 E93.00256
G1 X91.159 Y94.601 E93.79206
G1 X90.589 Y94.587 E93.80812
G1 X70.780 Y74.777 E94.59704
G1 X70.224 Y74.777 E94.61268
G1 X90.019 Y94.572 E95.40102
G1 X89.449 Y94.557 E95.41708
G1 X69.669 Y74.777 E96.20484
G1 X69.113 Y74.777 E96.22049
G1 X88.879 Y94.543 E97.00767
G1 X88.309 Y94.528 E97.02373
G1 X68.558 Y74.777 E97.81033
G1 X68.002 Y74.777 E97.82598
G1 X87.739 Y94.514 E98.61200
G1 X87.168 Y94.499 E98.62806
G1 X67.447 Y74.777 E99.41350
G1 X66.891 Y74.777 E99.42915
G1 X86.598 Y94.485 E100.21401
G1 X86.028 Y94.470 E100.23007
G1 X66.335 Y74.777 E101.01435
G1 X65.780 Y74.777 E101.03000
G1 X85.458 Y94.455 E101.81370
G1 X84.888 Y94.441 E101.82976
G1 X65.224 Y74.777 E102.61289
G1 X64.669 Y74.777 E102.62854
G1 X84.318 Y94.426 E103.41108
G1 X83.748 Y94.412 E103.42714
G1 X64.113 Y74.777 E104.20911
G1 X63.557 Y74.777 E104.22476
G1 X83.178 Y94.397 E105.00614
G1 X82.607 Y94.382 E105.02220
G1 X63.002 Y74.777 E105.80301
G1 X62.446 Y74.777 E105.81866
G1 X82.037 Y94.368 E106.59889
G1 X81.467 Y94.353 E106.61495
G1 X61.891 Y74.777 E107.39460
G1 X61.335 Y74.777 E107.41024
G1 X80.897 Y94.339 E108.18931
G1 X80.327 Y94.324 E108.20537
G1 X60.780 Y74.777 E108.98387
G1 X60.224 Y74.777 E108.99951
G1 X79.757 Y94.310 E109.77742
G1 X79.187 Y94.295 E109.79348
G1 X59.668 Y74.777 E110.57082
G1 X59.113 Y74.777 E110.58646
G1 X78.617 Y94.280 E111.36322
G1 X78.046 Y94.266 E111.37928
G1 X58.557 Y74.777 E112.15545
G1 X58.002 Y74.776 E112.17110
G1 X77.476 Y94.251 E112.94669
G1 X76.906 Y94.237 E112.96275
G1 X57.446 Y74.776 E113.73777
G1 X56.890 Y74.776 E113.75341
G1 X76.336 Y94.222 E114.52785
G1 X75.766 Y94.207 E114.54391
G1 X56.338 Y74.779 E115.31766
G1 X55.789 Y74.786 E115.33311
G1 X75.196 Y94.193 E116.10600
G1 X74.626 Y94.178 E116.12206
G1 X55.240 Y74.793 E116.89410
G1 X54.692 Y74.800 E116.90955
G1 X74.056 Y94.164 E117.68072
G1 X73.485 Y94.149 E117.69678
G1 X54.143 Y74.807 E118.46710
G1 X53.595 Y74.814 E118.48255
G1 X72.915 Y94.134 E119.25201
G1 X72.345 Y94.120 E119.26807
G1 X53.046 Y74.821 E120.03667
G1 X52.498 Y74.828 E120.05212
G1 X71.775 Y94.105 E120.81986
G1 X71.205 Y94.091 E120.83592
G1 X51.949 Y74.835 E121.60281
G1 X51.400 Y74.842 E121.61826
G1 X70.635 Y94.076 E122.38429
G1 X70.065 Y94.062 E122.40035
G1 X50.852 Y74.849 E123.16552
G1 X50.303 Y74.856 E123.18097
G1 X69.495 Y94.047 E123.94528
G1 X68.924 Y94.032 E123.96134
G1 X49.755 Y74.863 E124.72479
G1 X49.206 Y74.870 E124.74024
G1 X68.354 Y94.018 E125.50284
G1 X67.784 Y94.003 E125.51890
G1 X48.657 Y74.877 E126.28063
G1 X48.109 Y74.883 E126.29608
G1 X67.214 Y93.989 E127.05696
G1 X66.644 Y93.974 E127.07302
G1 X47.560 Y74.890 E127.83305
G1 X47.012 Y74.897 E127.84850
G1 X66.074 Y93.959 E128.60766
G1 X65.504 Y93.945 E128.62372
G1 X46.463 Y74.904 E129.38203
G1 X45.915 Y74.911 E129.39748
G1 X64.934 Y93.930 E130.15492
G1 X64.363 Y93.916 E130.17098
G1 X45.366 Y74.918 E130.92757
G1 X44.817 Y74.925 E130.94302
G1 X63.793 Y93.901 E131.69875
G1 X63.223 Y93.887 E131.71482
G1 X44.269 Y74.932 E132.46969
G1 X43.720 Y74.939 E132.48514
G1 X62.653 Y93.872 E133.23915
G1 X62.083 Y93.857 E133.25522
G1 X43.172 Y74.946 E134.00837
G1 X42.623 Y74.953 E134.02382
G1 X61.513 Y93.843 E134.77612
G1 X60.943 Y93.828 E134.79218
G1 X42.074 Y74.960 E135.54363
G1 X41.526 Y74.967 E135.55908
G1 X60.373 Y93.814 E136.30966
G1 X59.802 Y93.799 E136.32572
G1 X40.977 Y74.974 E137.07545
G1 X40.429 Y74.981 E137.09090
G1 X59.232 Y93.784 E137.83976
G1 X58.662 Y93.770 E137.85582
G1 X39.880 Y74.988 E138.60383
G1 X39.332 Y74.995 E138.61928
G1 X58.092 Y93.755 E139.36644
G1 X57.522 Y93.741 E139.38250
G1 X38.783 Y75.002 E140.12879
G1 X38.234 Y75.009 E140.14424
G1 X56.952 Y93.726 E140.88968
G1 X56.382 Y93.712 E140.90574
G1 X37.686 Y75.016 E141.65032
G1 X37.137 Y75.023 E141.66577
G1 X55.812 Y93.697 E142.40949
G1 X55.241 Y93.682 E142.42555
G1 X36.589 Y75.030 E143.16841
G1 X36.040 Y75.037 E143.18386
G1 X54.671 Y93.668 E143.92586
G1 X54.101 Y93.653 E143.94192
G1 X35.491 Y75.044 E144.68307
G1 X34.943 Y75.050 E144.69852
G1 X53.531 Y93.639 E145.43881
G1 X52.961 Y93.624 E145.45487
G1 X34.394 Y75.057 E146.19430
G1 X33.846 Y75.064 E146.20975
G1 X52.391 Y93.609 E146.94832
G1 X51.821 Y93.595 E146.96438
G1 X33.297 Y75.071 E147.70210
G1 X32.749 Y75.078 E147.71755
G1 X51.251 Y93.580 E148.45440
G1 X50.680 Y93.566 E148.47046
G1 X32.200 Y75.085 E149.20646
G1 X31.651 Y75.092 E149.22191
G1 X50.110 Y93.551 E149.95705
G1 X49.540 Y93.537 E149.97311
G1 X31.103 Y75.099 E150.70740
G1 X30.554 Y75.106 E150.72285
G1 X48.970 Y93.522 E151.45627
G1 X48.400 Y93.507 E151.47233
G1 X30.006 Y75.113 E152.20490
G1 X29.457 Y75.120 E152.22035
G1 X47.830 Y93.493 E152.95206
G1 X47.260 Y93.478 E152.96812
G1 X28.908 Y75.127 E153.69897
G1 X28.360 Y75.134 E153.71442
G1 X46.690 Y93.464 E154.44441
G1 X46.119 Y93.449 E154.46047
G1 X27.811 Y75.141 E155.18961
G1 X27.263 Y75.148 E155.20506
G1 X45.549 Y93.434 E155.93333
G1 X44.979 Y93.420 E155.94939
G1 X26.862 Y75.303 E156.67092
G1 X26.894 Y75.891 E156.68750
G1 X44.409 Y93.405 E157.38503
G1 X43.839 Y93.391 E157.40110
G1 X26.927 Y76.478 E158.07464
G1 X26.959 Y77.066 E158.09122
G1 X43.269 Y93.376 E158.74078
G1 X42.699 Y93.362 E158.75684
G1 X26.991 Y77.654 E159.38241
G1 X27.023 Y78.242 E159.39899
G1 X42.129 Y93.347 E160.00057
G1 X41.558 Y93.332 E160.01663
G1 X27.055 Y78.829 E160.59423
G1 X27.088 Y79.417 E160.61081
G1 X40.988 Y93.318 E161.16441
G1 X40.418 Y93.303 E161.18047
G1 X27.127 Y80.012 E161.70980
G1 X27.166 Y80.607 E161.72658
G1 X39.848 Y93.289 E162.23164
G1 X39.278 Y93.274 E162.24770
G1 X27.205 Y81.201 E162.72850
G1 X27.244 Y81.796 E162.74529
G1 X38.708 Y93.259 E163.20182
G1 X38.138 Y93.245 E163.21788
G1 X27.284 Y82.391 E163.65015
G1 X27.326 Y82.988 E163.66702
G1 X37.567 Y93.230 E164.07491
G1 X36.997 Y93.216 E164.09097
G1 X27.370 Y83.589 E164.47437
G1 X27.415 Y84.189 E164.49133
G1 X36.427 Y93.201 E164.85024
G1 X35.857 Y93.187 E164.86630
G1 X27.460 Y84.789 E165.20072
G1 X27.505 Y85.390 E165.21767
G1 X35.287 Y93.172 E165.52761
G1 X34.717 Y93.157 E165.54367
G1 X27.550 Y85.991 E165.82908
G1 X27.604 Y86.600 E165.84631
G1 X34.147 Y93.143 E166.10686
G1 X33.577 Y93.128 E166.12292
