; generated by Slic3r 0.9.10b on 2013-11-07 at 15:08:43

; layer_height = 0.3
; perimeters = 1
; top_solid_layers = 2
; bottom_solid_layers = 2
; fill_density = 0.5
; perimeter_speed = 30
; infill_speed = 30
; travel_speed = 200
; nozzle_diameter = 0.5
; filament_diameter = 2.98
; extrusion_multiplier = 0.9
; perimeters extrusion width = 0.70mm
; infill extrusion width = 0.70mm
; solid infill extrusion width = 0.70mm
; top infill extrusion width = 0.70mm

G21 ; set units to millimeters
M107
M104 S190 ; set temperature
G28 ; home all axes
G1 Z15 F120 ; lift nozzle
M109 S190 ; wait for temperature to be reached
G90 ; use absolute coordinates
G92 E0
M82 ; use absolute distances for extrusion
G1 F1680.000 E-2.00000
G92 E0
G1 Z0.450 F12000.000
G1 X58.870 Y58.870
G1 F1680.000 E2.00000
G1 X59.880 Y58.050 F900.000 E2.04944
G1 X61.030 Y57.430 E2.09910
G1 X62.280 Y57.050 E2.14875
G1 X63.580 Y56.930 E2.19837
G1 X106.420 Y56.930 E3.82650
G1 X107.720 Y57.050 E3.87612
G1 X108.970 Y57.430 E3.92577
G1 X110.120 Y58.050 E3.97542
G1 X111.130 Y58.870 E4.02487
G1 X111.950 Y59.880 E4.07431
G1 X112.570 Y61.030 E4.12396
G1 X112.950 Y62.280 E4.17362
G1 X113.070 Y63.580 E4.22323
G1 X113.070 Y75.810 E4.68803
G1 X112.950 Y77.110 E4.73765
G1 X112.570 Y78.360 E4.78730
G1 X111.950 Y79.510 E4.83696
G1 X111.130 Y80.520 E4.88640
G1 X80.520 Y111.130 E6.53160
G1 X79.510 Y111.950 E6.58105
G1 X78.360 Y112.570 E6.63070
G1 X77.110 Y112.950 E6.68035
G1 X75.810 Y113.070 E6.72997
G1 X63.580 Y113.070 E7.19477
G1 X62.280 Y112.950 E7.24439
G1 X61.030 Y112.570 E7.29404
G1 X59.880 Y111.950 E7.34369
G1 X58.870 Y111.130 E7.39314
G1 X58.050 Y110.120 E7.44258
G1 X57.430 Y108.970 E7.49223
G1 X57.050 Y107.720 E7.54189
G1 X56.930 Y106.420 E7.59150
G1 X56.930 Y63.580 E9.21964
G1 X57.050 Y62.280 E9.26925
G1 X57.430 Y61.030 E9.31891
G1 X58.050 Y59.880 E9.36856
G1 X58.808 Y58.946 E9.41427
G1 F1680.000 E7.41427
G92 E0
G1 X105.438 Y64.562 F12000.000
G1 F1680.000 E2.00000
G1 X105.438 Y75.403 F900.000 E2.41204
G1 X104.669 Y76.094 E2.45132
G1 X104.107 Y76.531 E2.47839
G1 X103.522 Y76.937 E2.50546
G1 X102.916 Y77.312 E2.53253
G1 X102.291 Y77.654 E2.55959
G1 X101.649 Y77.961 E2.58666
G1 X100.991 Y78.234 E2.61373
G1 X100.319 Y78.471 E2.64080
G1 X99.636 Y78.672 E2.66787
G1 X98.943 Y78.836 E2.69493
G1 X98.229 Y78.965 E2.72250
G1 X88.144 Y80.511 E3.11027
G1 X87.561 Y80.621 E3.13281
G1 X86.971 Y80.773 E3.15597
G1 X86.392 Y80.964 E3.17913
G1 X85.828 Y81.193 E3.20228
G1 X85.279 Y81.459 E3.22544
G1 X84.750 Y81.761 E3.24860
G1 X84.242 Y82.098 E3.27176
G1 X83.758 Y82.467 E3.29491
G1 X83.299 Y82.868 E3.31807
G1 X81.904 Y84.264 E3.39306
G1 X82.039 Y84.264 E3.39817
G1 X81.459 Y85.279 E3.44262
G1 X81.193 Y85.828 E3.46578
G1 X80.963 Y86.392 E3.48894
G1 X80.789 Y86.921 E3.51009
G1 X80.621 Y87.561 E3.53525
G1 X80.511 Y88.144 E3.55778
G1 X78.965 Y98.229 E3.94556
G1 X78.836 Y98.943 E3.97312
G1 X78.672 Y99.636 E4.00019
G1 X78.471 Y100.319 E4.02726
G1 X78.234 Y100.991 E4.05433
G1 X77.961 Y101.649 E4.08139
G1 X77.654 Y102.291 E4.10846
G1 X77.312 Y102.916 E4.13553
G1 X76.937 Y103.522 E4.16260
G1 X76.531 Y104.107 E4.18966
G1 X76.094 Y104.669 E4.21673
G1 X75.403 Y105.438 E4.25602
G1 X64.562 Y105.438 E4.66806
G1 X64.562 Y64.562 E6.22157
G1 X105.340 Y64.562 E7.77135
G1 X106.093 Y63.907 F12000.000
G1 X106.093 Y75.681 F720.000 E8.21882
G1 X105.649 Y76.110 E8.24227
G1 X105.084 Y76.600 E8.27067
G1 X104.494 Y77.058 E8.29907
G1 X103.881 Y77.485 E8.32747
G1 X103.245 Y77.878 E8.35587
G1 X102.590 Y78.236 E8.38427
G1 X101.916 Y78.559 E8.41267
G1 X101.225 Y78.845 E8.44107
G1 X100.521 Y79.094 E8.46947
G1 X99.804 Y79.305 E8.49788
G1 X99.077 Y79.477 E8.52628
G1 X98.337 Y79.611 E8.55484
G1 X88.254 Y81.157 E8.94253
G1 X87.703 Y81.260 E8.96383
G1 X87.155 Y81.401 E8.98533
G1 X86.618 Y81.578 E9.00683
G1 X86.094 Y81.791 E9.02832
G1 X85.585 Y82.038 E9.04982
G1 X85.094 Y82.318 E9.07132
G1 X84.622 Y82.631 E9.09282
G1 X84.173 Y82.974 E9.11432
G1 X83.747 Y83.347 E9.13582
G1 X83.347 Y83.747 E9.15732
G1 X82.974 Y84.173 E9.17882
G1 X82.631 Y84.622 E9.20032
G1 X82.318 Y85.094 E9.22182
G1 X82.053 Y85.558 E9.24214
G1 X81.791 Y86.094 E9.26482
G1 X81.578 Y86.618 E9.28631
G1 X81.401 Y87.155 E9.30781
G1 X81.260 Y87.703 E9.32931
G1 X81.157 Y88.254 E9.35060
G1 X79.611 Y98.337 E9.73830
G1 X79.477 Y99.077 E9.76686
G1 X79.305 Y99.804 E9.79526
G1 X79.094 Y100.521 E9.82366
G1 X78.845 Y101.225 E9.85206
G1 X78.559 Y101.916 E9.88046
G1 X78.236 Y102.590 E9.90886
G1 X77.887 Y103.228 E9.93653
G1 X77.485 Y103.881 E9.96566
G1 X77.058 Y104.494 E9.99407
G1 X76.600 Y105.084 E10.02246
G1 X76.110 Y105.649 E10.05087
G1 X75.681 Y106.093 E10.07432
G1 X63.907 Y106.093 E10.52179
G1 X63.907 Y63.907 E12.12505
G1 X105.995 Y63.907 E13.72458
G1 X104.183 Y65.036 F12000.000
G1 X104.964 Y65.817 F1200.000 E13.76682
G1 X104.964 Y66.749 E13.80249
G1 X103.251 Y65.036 E13.89518
G1 X102.319 Y65.036 E13.93085
G1 X104.964 Y67.681 E14.07399
G1 X104.964 Y68.613 E14.10966
G1 X101.387 Y65.036 E14.30324
G1 X100.455 Y65.036 E14.33892
G1 X104.964 Y69.545 E14.58295
G1 X104.964 Y70.477 E14.61862
G1 X99.523 Y65.036 E14.91309
G1 X98.591 Y65.036 E14.94877
G1 X104.964 Y71.409 E15.29369
G1 X104.964 Y72.341 E15.32936
G1 X97.659 Y65.036 E15.72473
G1 X96.727 Y65.036 E15.76040
G1 X104.964 Y73.273 E16.20622
G1 X104.964 Y74.205 E16.24189
G1 X95.795 Y65.036 E16.73816
G1 X94.863 Y65.036 E16.77383
G1 X104.964 Y75.137 E17.32054
G1 X104.503 Y75.609 E17.34577
G1 X93.931 Y65.036 E17.91801
G1 X92.998 Y65.036 E17.95368
G1 X103.986 Y76.024 E18.54836
G1 X103.444 Y76.414 E18.57391
G1 X92.066 Y65.036 E19.18970
G1 X91.134 Y65.036 E19.22538
G1 X102.877 Y76.778 E19.86091
G1 X102.283 Y77.117 E19.88706
G1 X90.202 Y65.036 E20.54092
G1 X89.270 Y65.036 E20.57659
G1 X101.663 Y77.429 E21.24731
G1 X101.013 Y77.711 E21.27442
G1 X88.338 Y65.036 E21.96043
G1 X87.406 Y65.036 E21.99610
G1 X100.333 Y77.963 E22.69576
G1 X99.620 Y78.182 E22.72431
G1 X86.474 Y65.036 E23.43583
G1 X85.542 Y65.036 E23.47150
G1 X98.871 Y78.366 E24.19294
G1 X98.082 Y78.508 E24.22365
G1 X84.610 Y65.036 E24.95279
G1 X83.678 Y65.036 E24.98846
G1 X97.273 Y78.632 E25.72431
G1 X96.465 Y78.756 E25.75560
G1 X82.746 Y65.036 E26.49815
G1 X81.814 Y65.036 E26.53382
G1 X95.657 Y78.880 E27.28308
G1 X94.849 Y79.004 E27.31437
G1 X80.881 Y65.036 E28.07033
G1 X79.949 Y65.036 E28.10600
G1 X94.041 Y79.127 E28.86867
G1 X93.232 Y79.251 E28.89996
G1 X79.017 Y65.036 E29.66933
G1 X78.085 Y65.036 E29.70500
G1 X92.424 Y79.375 E30.48108
G1 X91.616 Y79.499 E30.51237
G1 X77.153 Y65.036 E31.29515
G1 X76.221 Y65.036 E31.33082
G1 X90.808 Y79.623 E32.12030
G1 X90.000 Y79.747 E32.15160
G1 X75.289 Y65.036 E32.94779
G1 X74.357 Y65.036 E32.98346
G1 X89.191 Y79.871 E33.78635
G1 X88.383 Y79.995 E33.81764
G1 X73.425 Y65.036 E34.62724
G1 X72.493 Y65.036 E34.66291
G1 X87.589 Y80.133 E35.47998
G1 X86.841 Y80.316 E35.50948
G1 X71.561 Y65.036 E36.33648
G1 X70.629 Y65.036 E36.37215
G1 X86.145 Y80.552 E37.21192
G1 X85.490 Y80.829 E37.23914
G1 X69.697 Y65.036 E38.09391
G1 X68.764 Y65.036 E38.12959
G1 X84.873 Y81.145 E39.00143
G1 X84.292 Y81.496 E39.02741
G1 X67.832 Y65.036 E39.91825
G1 X66.900 Y65.036 E39.95392
G1 X83.745 Y81.881 E40.86559
G1 X83.231 Y82.298 E40.89095
G1 X65.968 Y65.036 E41.82524
G1 X65.036 Y65.036 E41.86092
G1 X82.749 Y82.749 E42.81957
G1 X82.283 Y83.215 E42.84479
G1 X65.036 Y65.968 E43.77822
G1 X65.036 Y66.900 E43.81389
G1 X81.816 Y83.681 E44.72210
G1 X81.350 Y84.147 E44.74732
G1 X65.036 Y67.832 E45.63030
G1 X65.036 Y68.764 E45.66598
G1 X80.884 Y84.613 E46.52374
G1 X81.010 Y84.738 F12000.000
G1 X81.134 Y84.862 F1200.000 E46.53045
G1 X80.829 Y85.490 E46.55715
G1 X65.036 Y69.696 E47.41192
G1 X65.036 Y70.629 E47.44760
G1 X80.552 Y86.144 E48.28737
G1 X80.316 Y86.841 E48.31550
G1 X65.036 Y71.561 E49.14251
G1 X65.036 Y72.493 E49.17818
G1 X80.133 Y87.589 E49.99525
G1 X79.995 Y88.383 E50.02609
G1 X65.036 Y73.425 E50.83569
G1 X65.036 Y74.357 E50.87136
G1 X79.871 Y89.191 E51.67426
G1 X79.747 Y90.000 E51.70555
G1 X65.036 Y75.289 E52.50174
G1 X65.036 Y76.221 E52.53741
G1 X79.623 Y90.808 E53.32690
G1 X79.499 Y91.616 E53.35819
G1 X65.036 Y77.153 E54.14097
G1 X65.036 Y78.085 E54.17664
G1 X79.375 Y92.424 E54.95272
G1 X79.251 Y93.232 E54.98401
G1 X65.036 Y79.017 E55.75338
G1 X65.036 Y79.949 E55.78905
G1 X79.127 Y94.041 E56.55172
G1 X79.004 Y94.849 E56.58301
G1 X65.036 Y80.881 E57.33897
G1 X65.036 Y81.813 E57.37464
G1 X78.880 Y95.657 E58.12390
G1 X78.756 Y96.465 E58.15519
G1 X65.036 Y82.746 E58.89774
G1 X65.036 Y83.678 E58.93341
G1 X78.632 Y97.273 E59.66926
G1 X78.508 Y98.082 E59.70055
G1 X65.036 Y84.610 E60.42969
G1 X65.036 Y85.542 E60.46536
G1 X78.366 Y98.871 E61.18680
G1 X78.182 Y99.620 E61.21631
G1 X65.036 Y86.474 E61.92783
G1 X65.036 Y87.406 E61.96350
G1 X77.963 Y100.333 E62.66316
G1 X77.711 Y101.013 E62.69091
G1 X65.036 Y88.338 E63.37693
G1 X65.036 Y89.270 E63.41260
G1 X77.429 Y101.663 E64.08332
G1 X77.117 Y102.283 E64.10990
G1 X65.036 Y90.202 E64.76376
G1 X65.036 Y91.134 E64.79943
G1 X76.778 Y102.877 E65.43497
G1 X76.414 Y103.444 E65.46078
G1 X65.036 Y92.066 E66.07657
G1 X65.036 Y92.998 E66.11224
G1 X76.024 Y103.986 E66.70693
G1 X75.609 Y104.503 E66.73230
G1 X65.036 Y93.930 E67.30454
G1 X65.036 Y94.863 E67.34022
G1 X75.137 Y104.964 E67.88693
G1 X74.205 Y104.964 E67.92260
G1 X65.036 Y95.795 E68.41887
G1 X65.036 Y96.727 E68.45455
G1 X73.273 Y104.964 E68.90037
G1 X72.341 Y104.964 E68.93604
G1 X65.036 Y97.659 E69.33142
G1 X65.036 Y98.591 E69.36709
G1 X71.409 Y104.964 E69.71202
G1 X70.477 Y104.964 E69.74769
G1 X65.036 Y99.523 E70.04217
G1 X65.036 Y100.455 E70.07784
G1 X69.545 Y104.964 E70.32187
G1 X68.613 Y104.964 E70.35755
G1 X65.036 Y101.387 E70.55113
G1 X65.036 Y102.319 E70.58681
G1 X67.681 Y104.964 E70.72995
G1 X66.749 Y104.964 E70.76562
G1 X65.036 Y103.251 E70.85831
G1 X65.036 Y104.183 E70.89398
G1 X65.817 Y104.964 E70.93623
M106 S151
M104 S185 ; set temperature
G1 F1680.000 E68.93623
G92 E0
G1 Z0.750 F12000.000
G1 X64.562 Y105.438
G1 F1680.000 E2.00000
G1 X64.562 Y64.562 F1800.000 E3.03568
G1 X105.438 Y64.562 E4.07135
G1 X105.438 Y75.403 E4.34604
G1 X104.669 Y76.094 E4.37223
G1 X104.107 Y76.531 E4.39028
G1 X103.522 Y76.937 E4.40832
G1 X102.916 Y77.312 E4.42637
G1 X102.291 Y77.654 E4.44441
G1 X101.649 Y77.961 E4.46246
G1 X100.991 Y78.234 E4.48050
G1 X100.319 Y78.471 E4.49855
G1 X99.636 Y78.672 E4.51659
G1 X98.943 Y78.836 E4.53464
G1 X98.229 Y78.965 E4.55302
G1 X88.144 Y80.511 E4.81153
G1 X87.561 Y80.621 E4.82656
G1 X86.971 Y80.773 E4.84200
G1 X86.392 Y80.963 E4.85743
G1 X85.828 Y81.193 E4.87287
G1 X85.279 Y81.459 E4.88831
G1 X84.750 Y81.761 E4.90375
G1 X84.242 Y82.098 E4.91919
G1 X83.758 Y82.467 E4.93463
G1 X83.299 Y82.869 E4.95007
G1 X82.869 Y83.299 E4.96551
G1 X82.467 Y83.758 E4.98094
G1 X82.150 Y84.174 E4.99420
G1 X81.761 Y84.750 E5.01182
G1 X81.459 Y85.279 E5.02726
G1 X81.193 Y85.828 E5.04270
G1 X80.963 Y86.392 E5.05813
G1 X80.773 Y86.971 E5.07357
G1 X80.621 Y87.561 E5.08901
G1 X80.511 Y88.144 E5.10404
G1 X78.965 Y98.229 E5.36255
G1 X78.836 Y98.943 E5.38093
G1 X78.672 Y99.636 E5.39897
G1 X78.471 Y100.319 E5.41702
G1 X78.234 Y100.991 E5.43507
G1 X77.961 Y101.649 E5.45311
G1 X77.654 Y102.291 E5.47116
G1 X77.312 Y102.916 E5.48920
G1 X76.937 Y103.522 E5.50725
G1 X76.531 Y104.107 E5.52529
G1 X76.094 Y104.669 E5.54334
G1 X75.403 Y105.438 E5.56953
G1 X64.660 Y105.438 E5.84173
G1 X63.907 Y106.093 F12000.000
G1 X63.907 Y63.907 F1440.000 E6.91057
G1 X106.093 Y63.907 E7.97941
G1 X106.093 Y75.681 E8.27772
G1 X105.649 Y76.110 E8.29336
G1 X105.084 Y76.600 E8.31229
G1 X104.494 Y77.058 E8.33123
G1 X103.881 Y77.485 E8.35016
G1 X103.245 Y77.878 E8.36910
G1 X102.590 Y78.236 E8.38803
G1 X101.916 Y78.559 E8.40696
G1 X101.225 Y78.845 E8.42590
G1 X100.521 Y79.094 E8.44483
G1 X99.804 Y79.305 E8.46376
G1 X99.077 Y79.477 E8.48270
G1 X98.337 Y79.611 E8.50174
G1 X88.254 Y81.157 E8.76020
G1 X87.703 Y81.260 E8.77440
G1 X87.155 Y81.401 E8.78873
G1 X86.618 Y81.578 E8.80306
G1 X86.094 Y81.791 E8.81740
G1 X85.585 Y82.038 E8.83173
G1 X85.094 Y82.318 E8.84606
G1 X84.622 Y82.631 E8.86039
G1 X84.173 Y82.974 E8.87473
G1 X83.747 Y83.347 E8.88906
G1 X83.347 Y83.747 E8.90339
G1 X82.974 Y84.173 E8.91773
G1 X82.670 Y84.571 E8.93043
G1 X82.318 Y85.094 E8.94639
G1 X82.038 Y85.585 E8.96072
G1 X81.791 Y86.094 E8.97505
G1 X81.578 Y86.618 E8.98939
G1 X81.401 Y87.155 E9.00372
G1 X81.260 Y87.703 E9.01805
G1 X81.157 Y88.254 E9.03225
G1 X79.611 Y98.337 E9.29071
G1 X79.477 Y99.077 E9.30975
G1 X79.305 Y99.804 E9.32869
G1 X79.094 Y100.521 E9.34762
G1 X78.845 Y101.225 E9.36655
G1 X78.559 Y101.916 E9.38549
G1 X78.236 Y102.590 E9.40442
G1 X77.910 Y103.187 E9.42168
G1 X77.485 Y103.881 E9.44229
G1 X77.058 Y104.494 E9.46122
G1 X76.600 Y105.084 E9.48015
G1 X76.110 Y105.649 E9.49909
G1 X75.681 Y106.093 E9.51472
G1 X64.005 Y106.093 E9.81055
G1 X65.036 Y100.339 F12000.000
G1 X100.339 Y65.036 F2400.000 E11.08435
G1 X99.407 Y65.036 E11.10813
G1 X65.036 Y99.407 E12.34830
G1 X65.036 Y98.475 E12.37208
G1 X98.475 Y65.036 E13.57862
G1 X97.543 Y65.036 E13.60240
G1 X65.036 Y97.543 E14.77530
G1 X65.036 Y96.611 E14.79908
G1 X96.611 Y65.036 E15.93836
G1 X95.679 Y65.036 E15.96214
G1 X65.036 Y95.679 E17.06778
G1 X65.036 Y94.746 E17.09157
G1 X94.746 Y65.036 E18.16358
G1 X93.814 Y65.036 E18.18736
G1 X65.036 Y93.814 E19.22574
G1 X65.036 Y92.882 E19.24952
G1 X92.882 Y65.036 E20.25427
G1 X91.950 Y65.036 E20.27805
G1 X65.036 Y91.950 E21.24917
G1 X65.036 Y91.018 E21.27295
G1 X91.018 Y65.036 E22.21044
G1 X90.086 Y65.036 E22.23422
G1 X65.036 Y90.086 E23.13808
G1 X65.036 Y89.154 E23.16186
G1 X89.154 Y65.036 E24.03208
G1 X88.222 Y65.036 E24.05586
G1 X65.036 Y88.222 E24.89246
G1 X65.036 Y87.290 E24.91624
G1 X87.290 Y65.036 E25.71920
G1 X86.358 Y65.036 E25.74298
G1 X65.036 Y86.358 E26.51231
G1 X65.036 Y85.426 E26.53609
G1 X85.426 Y65.036 E27.27179
G1 X84.494 Y65.036 E27.29557
G1 X65.036 Y84.494 E27.99764
G1 X65.036 Y83.562 E28.02142
G1 X83.562 Y65.036 E28.68986
G1 X82.629 Y65.036 E28.71364
G1 X65.036 Y82.629 E29.34844
G1 X65.036 Y81.697 E29.37222
G1 X81.697 Y65.036 E29.97340
G1 X80.765 Y65.036 E29.99718
G1 X65.036 Y80.765 E30.56472
G1 X65.036 Y79.833 E30.58850
G1 X79.833 Y65.036 E31.12241
G1 X78.901 Y65.036 E31.14619
G1 X65.036 Y78.901 E31.64647
G1 X65.036 Y77.969 E31.67025
G1 X77.969 Y65.036 E32.13690
G1 X77.037 Y65.036 E32.16068
G1 X65.036 Y77.037 E32.59370
G1 X65.036 Y76.105 E32.61748
G1 X76.105 Y65.036 E33.01687
G1 X75.173 Y65.036 E33.04065
G1 X65.036 Y75.173 E33.40640
G1 X65.036 Y74.241 E33.43018
G1 X74.241 Y65.036 E33.76231
G1 X73.309 Y65.036 E33.78609
G1 X65.036 Y73.309 E34.08458
G1 X65.036 Y72.377 E34.10836
G1 X72.377 Y65.036 E34.37322
G1 X71.445 Y65.036 E34.39700
G1 X65.036 Y71.445 E34.62823
G1 X65.036 Y70.512 E34.65201
G1 X70.512 Y65.036 E34.84961
G1 X69.580 Y65.036 E34.87339
G1 X65.036 Y69.580 E35.03736
G1 X65.036 Y68.648 E35.06114
G1 X68.648 Y65.036 E35.19147
G1 X67.716 Y65.036 E35.21525
G1 X65.036 Y67.716 E35.31196
G1 X65.036 Y66.784 E35.33574
G1 X66.784 Y65.036 E35.39881
G1 X65.852 Y65.036 E35.42259
G1 X65.036 Y65.852 E35.45203
G1 X80.840 Y85.467 F12000.000
G1 X65.036 Y101.271 F2400.000 E36.02229
G1 X65.036 Y102.203 E36.04607
G1 X80.288 Y86.952 E36.59637
G1 X80.032 Y88.139 E36.62737
G1 X65.036 Y103.135 E37.16845
G1 X65.036 Y104.067 E37.19223
G1 X79.863 Y89.240 E37.72723
G1 X79.695 Y90.341 E37.75564
G1 X65.072 Y104.964 E38.28327
G1 X66.004 Y104.964 E38.30705
G1 X79.526 Y91.442 E38.79496
G1 X79.357 Y92.543 E38.82337
G1 X66.936 Y104.964 E39.27156
G1 X67.868 Y104.964 E39.29534
G1 X79.188 Y93.643 E39.70381
G1 X79.020 Y94.744 E39.73223
G1 X68.800 Y104.964 E40.10097
G1 X69.732 Y104.964 E40.12476
