; generated by Slic3r 0.9.9 on 2013-04-11 at 00:40:05

; layer_height = 0.3
; perimeters = 3
; top_solid_layers = 3
; bottom_solid_layers = 3
; fill_density = 0.2
; perimeter_speed = 30
; infill_speed = 60
; travel_speed = 130
; nozzle_diameter = 0.5
; filament_diameter = 3
; extrusion_multiplier = 1
; perimeters extrusion width = 0.70mm
; infill extrusion width = 0.70mm
; solid infill extrusion width = 0.70mm
; top infill extrusion width = 0.70mm
; first layer extrusion width = 1.00mm

G21 ; set units to millimeters
M107
M190 S85 ; wait for bed temperature to be reached
M104 S225 ; set temperature
G28 ; home all axes
G1 Z5 F1000 ; lift nozzle
M109 S225 ; wait for temperature to be reached
G90 ; use absolute coordinates
G92 E0
M82 ; use absolute distances for extrusion
G1 F1800.000 E-1.00000
G92 E0
G1 Z0.500 F7800.000
G1 X51.729 Y68.380
G1 F1800.000 E1.00000
G1 X52.019 Y68.170 F540.000 E1.02261
G1 X52.639 Y67.790 E1.06853
G1 X53.299 Y67.480 E1.11457
G1 X54.079 Y67.170 E1.16757
G1 X54.779 Y66.970 E1.21354
G1 X55.499 Y66.840 E1.25974
G1 X55.979 Y66.780 E1.29029
G1 X56.829 Y66.730 E1.34406
G1 X143.159 Y66.730 E6.79541
G1 X144.009 Y66.780 E6.84918
G1 X144.489 Y66.840 E6.87972
G1 X145.209 Y66.970 E6.92592
G1 X145.559 Y67.060 E6.94874
G1 X145.909 Y67.170 E6.97191
G1 X146.689 Y67.480 E7.02491
G1 X147.349 Y67.790 E7.07095
G1 X147.659 Y67.970 E7.09359
G1 X148.259 Y68.380 E7.13948
G1 X148.879 Y68.860 E7.18899
G1 X149.109 Y69.060 E7.20824
G1 X149.549 Y69.500 E7.24753
G1 X149.939 Y69.970 E7.28609
G1 X150.439 Y70.640 E7.33888
G1 X150.819 Y71.260 E7.38480
G1 X151.129 Y71.920 E7.43085
G1 X151.309 Y72.360 E7.46087
G1 X151.429 Y72.670 E7.48186
G1 X151.619 Y73.320 E7.52462
G1 X151.749 Y73.980 E7.56710
G1 X151.819 Y74.460 E7.59773
G1 X151.889 Y75.450 E7.66040
G1 X151.889 Y124.540 E10.76021
G1 X151.819 Y125.530 E10.82288
G1 X151.749 Y126.010 E10.85351
G1 X151.619 Y126.670 E10.89599
G1 X151.529 Y127.000 E10.91759
G1 X151.429 Y127.320 E10.93876
G1 X151.129 Y128.070 E10.98977
G1 X150.819 Y128.730 E11.03581
G1 X150.639 Y129.040 E11.05845
G1 X150.229 Y129.640 E11.10433
G1 X149.749 Y130.260 E11.15385
G1 X149.549 Y130.490 E11.17309
G1 X149.109 Y130.930 E11.21238
G1 X148.639 Y131.320 E11.25095
G1 X147.969 Y131.820 E11.30374
G1 X147.349 Y132.200 E11.34966
G1 X146.689 Y132.510 E11.39570
G1 X146.249 Y132.690 E11.42572
G1 X145.909 Y132.820 E11.44871
G1 X145.209 Y133.020 E11.49468
G1 X144.489 Y133.150 E11.54088
G1 X144.009 Y133.210 E11.57142
G1 X143.159 Y133.260 E11.62519
G1 X56.829 Y133.260 E17.07654
G1 X55.979 Y133.210 E17.13031
G1 X55.499 Y133.150 E17.16086
G1 X54.779 Y133.020 E17.20706
G1 X54.429 Y132.930 E17.22988
G1 X54.079 Y132.820 E17.25304
G1 X53.299 Y132.510 E17.30604
G1 X52.639 Y132.200 E17.35209
G1 X52.329 Y132.020 E17.37472
G1 X51.729 Y131.610 E17.42061
G1 X51.109 Y131.130 E17.47012
G1 X50.879 Y130.930 E17.48937
G1 X50.439 Y130.490 E17.52866
G1 X50.049 Y130.020 E17.56723
G1 X49.549 Y129.350 E17.62002
G1 X49.169 Y128.730 E17.66594
G1 X48.859 Y128.070 E17.71198
G1 X48.679 Y127.630 E17.74200
G1 X48.549 Y127.290 E17.76499
G1 X48.349 Y126.590 E17.81096
G1 X48.219 Y125.870 E17.85716
G1 X48.159 Y125.390 E17.88770
G1 X48.109 Y124.540 E17.94147
G1 X48.109 Y75.450 E21.04128
G1 X48.159 Y74.600 E21.09505
G1 X48.279 Y73.760 E21.14863
G1 X48.439 Y73.050 E21.19459
G1 X48.679 Y72.360 E21.24072
G1 X48.859 Y71.920 E21.27074
G1 X49.169 Y71.260 E21.31678
G1 X49.549 Y70.640 E21.36270
G1 X50.049 Y69.970 E21.41549
G1 X50.439 Y69.500 E21.45406
G1 X50.879 Y69.060 E21.49335
G1 X51.623 Y68.461 E21.55363
G1 F1800.000 E20.55363
G92 E0
G1 X57.231 Y75.852 F7800.000
G1 F1800.000 E1.00000
G1 X142.769 Y75.852 F540.000 E6.40135
G1 X142.769 Y124.148 E9.45104
G1 X57.231 Y124.148 E14.85239
G1 X57.231 Y75.986 E17.89362
G1 X56.338 Y75.541 F7800.000
G1 X56.366 Y75.328 F540.000 E17.90715
G1 X56.414 Y75.212 E17.91509
G1 X56.491 Y75.112 E17.92304
G1 X56.591 Y75.035 E17.93099
G1 X56.707 Y74.987 E17.93893
G1 X56.920 Y74.959 E17.95247
G1 X143.080 Y74.959 E23.39315
G1 X143.293 Y74.987 E23.40668
G1 X143.409 Y75.035 E23.41462
G1 X143.509 Y75.112 E23.42257
G1 X143.586 Y75.212 E23.43052
G1 X143.634 Y75.328 E23.43846
G1 X143.662 Y75.541 E23.45200
G1 X143.662 Y124.459 E26.54100
G1 X143.634 Y124.672 E26.55454
G1 X143.586 Y124.788 E26.56249
G1 X143.509 Y124.888 E26.57043
G1 X143.409 Y124.965 E26.57838
G1 X143.293 Y125.013 E26.58632
G1 X143.080 Y125.041 E26.59986
G1 X56.920 Y125.041 E32.04053
G1 X56.707 Y125.013 E32.05407
G1 X56.591 Y124.965 E32.06201
G1 X56.491 Y124.888 E32.06996
G1 X56.414 Y124.788 E32.07790
G1 X56.366 Y124.672 E32.08585
G1 X56.338 Y124.459 E32.09939
G1 X56.338 Y75.674 E35.17994
G1 X55.446 Y75.482 F7800.000
G1 X55.496 Y75.095 F378.000 E35.20459
G1 X55.635 Y74.762 E35.22738
G1 X55.854 Y74.475 E35.25017
G1 X56.141 Y74.256 E35.27295
G1 X56.474 Y74.118 E35.29574
G1 X56.861 Y74.067 E35.32039
G1 X143.139 Y74.067 E40.76846
G1 X143.526 Y74.118 E40.79311
G1 X143.859 Y74.256 E40.81590
G1 X144.146 Y74.475 E40.83869
G1 X144.365 Y74.762 E40.86148
G1 X144.504 Y75.095 E40.88426
G1 X144.554 Y75.482 E40.90891
G1 X144.554 Y124.518 E44.00531
G1 X144.504 Y124.905 E44.02996
G1 X144.365 Y125.238 E44.05275
G1 X144.146 Y125.525 E44.07554
G1 X143.859 Y125.744 E44.09833
G1 X143.526 Y125.882 E44.12111
G1 X143.139 Y125.933 E44.14576
G1 X56.861 Y125.933 E49.59383
G1 X56.474 Y125.882 E49.61848
G1 X56.141 Y125.744 E49.64127
G1 X55.854 Y125.525 E49.66406
G1 X55.635 Y125.238 E49.68685
G1 X55.496 Y124.905 E49.70964
G1 X55.446 Y124.518 E49.73429
G1 X55.446 Y75.616 E52.82223
G1 X55.799 Y75.317 F7800.000
G1 X57.878 Y123.501
G1 X57.878 Y122.227 F1080.000 E52.90345
G1 X59.152 Y123.501 E53.01832
G1 X60.427 Y123.501 E53.09953
G1 X57.878 Y120.952 E53.32925
G1 X57.878 Y119.678 E53.41046
G1 X61.701 Y123.501 E53.75503
G1 X62.975 Y123.501 E53.83624
G1 X57.878 Y118.404 E54.29566
G1 X57.878 Y117.130 E54.37687
G1 X64.249 Y123.501 E54.95114
G1 X65.524 Y123.501 E55.03235
G1 X57.878 Y115.855 E55.72147
G1 X57.878 Y114.581 E55.80268
G1 X66.798 Y123.501 E56.60665
G1 X68.072 Y123.501 E56.68786
G1 X57.878 Y113.307 E57.60669
G1 X57.878 Y112.033 E57.68790
G1 X69.346 Y123.501 E58.72157
G1 X70.620 Y123.501 E58.80278
G1 X57.878 Y110.758 E59.95130
G1 X57.878 Y109.484 E60.03251
G1 X71.895 Y123.501 E61.29588
G1 X73.169 Y123.501 E61.37709
G1 X57.878 Y108.210 E62.75531
G1 X57.878 Y106.936 E62.83653
G1 X74.443 Y123.501 E64.32960
G1 X75.717 Y123.501 E64.41081
G1 X57.878 Y105.662 E66.01873
G1 X57.878 Y104.387 E66.09994
G1 X76.992 Y123.501 E67.82271
G1 X78.266 Y123.501 E67.90393
G1 X57.878 Y103.113 E69.74155
G1 X57.878 Y101.839 E69.82276
G1 X79.540 Y123.501 E71.77523
G1 X80.814 Y123.501 E71.85644
G1 X57.878 Y100.565 E73.92377
G1 X57.878 Y99.290 E74.00498
G1 X82.089 Y123.501 E76.18715
G1 X83.363 Y123.501 E76.26836
G1 X57.878 Y98.016 E78.56539
G1 X57.878 Y96.742 E78.64660
G1 X84.637 Y123.501 E81.05847
G1 X85.911 Y123.501 E81.13968
G1 X57.878 Y95.468 E83.66641
G1 X57.878 Y94.194 E83.74762
G1 X87.185 Y123.501 E86.38919
G1 X88.460 Y123.501 E86.47040
G1 X57.878 Y92.919 E89.22683
G1 X57.878 Y91.645 E89.30804
G1 X89.734 Y123.501 E92.17931
G1 X91.008 Y123.501 E92.26053
G1 X57.878 Y90.371 E95.24665
G1 X57.878 Y89.097 E95.32786
G1 X92.282 Y123.501 E98.42884
G1 X93.557 Y123.501 E98.51005
G1 X57.878 Y87.822 E101.72587
G1 X57.878 Y86.548 E101.80709
G1 X94.831 Y123.501 E105.13776
G1 X96.105 Y123.501 E105.21897
G1 X57.878 Y85.274 E108.66450
G1 X57.878 Y84.000 E108.74571
G1 X97.379 Y123.501 E112.30609
G1 X98.654 Y123.501 E112.38730
G1 X57.878 Y82.725 E116.06252
G1 X57.878 Y81.451 E116.14374
G1 X99.928 Y123.501 E119.93381
G1 X101.202 Y123.501 E120.01502
G1 X57.878 Y80.177 E123.91995
G1 X57.878 Y78.903 E124.00116
G1 X102.476 Y123.501 E128.02094
G1 X103.750 Y123.501 E128.10215
G1 X57.878 Y77.629 E132.23678
G1 X58.023 Y76.499 E132.30936
G1 X105.025 Y123.501 E136.54579
G1 X106.299 Y123.501 E136.62700
G1 X59.297 Y76.499 E140.86343
G1 X60.571 Y76.499 E140.94465
G1 X107.573 Y123.501 E145.18108
G1 X108.847 Y123.501 E145.26229
G1 X61.845 Y76.499 E149.49872
G1 X63.120 Y76.499 E149.57993
G1 X110.122 Y123.501 E153.81637
G1 X111.396 Y123.501 E153.89758
G1 X64.394 Y76.499 E158.13401
G1 X65.668 Y76.499 E158.21522
G1 X112.670 Y123.501 E162.45166
G1 X113.944 Y123.501 E162.53287
G1 X66.942 Y76.499 E166.76930
G1 X68.217 Y76.499 E166.85051
G1 X115.218 Y123.501 E171.08695
G1 X116.493 Y123.501 E171.16816
G1 X69.491 Y76.499 E175.40459
G1 X70.765 Y76.499 E175.48580
G1 X117.767 Y123.501 E179.72224
G1 X119.041 Y123.501 E179.80345
G1 X72.039 Y76.499 E184.03988
G1 X73.313 Y76.499 E184.12109
G1 X120.315 Y123.501 E188.35753
G1 X121.590 Y123.501 E188.43874
G1 X74.588 Y76.499 E192.67517
G1 X75.862 Y76.499 E192.75638
G1 X122.864 Y123.501 E196.99281
G1 X124.138 Y123.501 E197.07403
G1 X77.136 Y76.499 E201.31046
G1 X78.410 Y76.499 E201.39167
G1 X125.412 Y123.501 E205.62810
G1 X126.687 Y123.501 E205.70932
G1 X79.685 Y76.499 E209.94575
G1 X80.959 Y76.499 E210.02696
G1 X127.961 Y123.501 E214.26339
G1 X129.235 Y123.501 E214.34460
G1 X82.233 Y76.499 E218.58104
G1 X83.507 Y76.499 E218.66225
G1 X130.509 Y123.501 E222.89868
G1 X131.783 Y123.501 E222.97989
G1 X84.782 Y76.499 E227.21633
G1 X86.056 Y76.499 E227.29754
G1 X133.058 Y123.501 E231.53397
G1 X134.332 Y123.501 E231.61518
G1 X87.330 Y76.499 E235.85162
G1 X88.604 Y76.499 E235.93283
G1 X135.606 Y123.501 E240.16926
G1 X136.880 Y123.501 E240.25047
G1 X89.878 Y76.499 E244.48691
G1 X91.153 Y76.499 E244.56812
G1 X138.155 Y123.501 E248.80455
G1 X139.429 Y123.501 E248.88576
G1 X92.427 Y76.499 E253.12220
G1 X93.701 Y76.499 E253.20341
G1 X140.703 Y123.501 E257.43984
G1 X141.977 Y123.501 E257.52105
G1 X94.975 Y76.499 E261.75748
G1 X96.250 Y76.499 E261.83870
G1 X142.122 Y122.371 E265.97332
G1 X142.122 Y121.097 E266.05453
G1 X97.524 Y76.499 E270.07431
G1 X98.798 Y76.499 E270.15552
G1 X142.122 Y119.823 E274.06045
G1 X142.122 Y118.549 E274.14166
G1 X100.072 Y76.499 E277.93174
G1 X101.346 Y76.499 E278.01295
G1 X142.122 Y117.275 E281.68817
G1 X142.122 Y116.000 E281.76938
G1 X102.621 Y76.499 E285.32976
G1 X103.895 Y76.499 E285.41097
G1 X142.122 Y114.726 E288.85650
G1 X142.122 Y113.452 E288.93771
G1 X105.169 Y76.499 E292.26838
G1 X106.443 Y76.499 E292.34959
G1 X142.122 Y112.178 E295.56542
G1 X142.122 Y110.903 E295.64663
G1 X107.718 Y76.499 E298.74761
G1 X108.992 Y76.499 E298.82882
G1 X142.122 Y109.629 E301.81494
G1 X142.122 Y108.355 E301.89615
G1 X110.266 Y76.499 E304.76743
G1 X111.540 Y76.499 E304.84864
G1 X142.122 Y107.081 E307.60506
G1 X142.122 Y105.806 E307.68627
G1 X112.815 Y76.499 E310.32785
G1 X114.089 Y76.499 E310.40906
G1 X142.122 Y104.532 E312.93578
G1 X142.122 Y103.258 E313.01699
G1 X115.363 Y76.499 E315.42887
G1 X116.637 Y76.499 E315.51008
G1 X142.122 Y101.984 E317.80710
G1 X142.122 Y100.710 E317.88831
G1 X117.911 Y76.499 E320.07048
G1 X119.186 Y76.499 E320.15169
G1 X142.122 Y99.435 E322.21902
G1 X142.122 Y98.161 E322.30023
G1 X120.460 Y76.499 E324.25270
G1 X121.734 Y76.499 E324.33391
G1 X142.122 Y96.887 E326.17153
G1 X142.122 Y95.613 E326.25274
G1 X123.008 Y76.499 E327.97551
G1 X124.283 Y76.499 E328.05673
G1 X142.122 Y94.338 E329.66465
G1 X142.122 Y93.064 E329.74586
G1 X125.557 Y76.499 E331.23893
G1 X126.831 Y76.499 E331.32014
G1 X142.122 Y91.790 E332.69836
G1 X142.122 Y90.516 E332.77957
G1 X128.105 Y76.499 E334.04294
G1 X129.380 Y76.499 E334.12415
G1 X142.122 Y89.242 E335.27267
G1 X142.122 Y87.967 E335.35389
G1 X130.654 Y76.499 E336.38755
G1 X131.928 Y76.499 E336.46877
G1 X142.122 Y86.693 E337.38759
G1 X142.122 Y85.419 E337.46880
G1 X133.202 Y76.499 E338.27277
G1 X134.476 Y76.499 E338.35398
G1 X142.122 Y84.145 E339.04310
G1 X142.122 Y82.870 E339.12431
G1 X135.751 Y76.499 E339.69858
G1 X137.025 Y76.499 E339.77979
G1 X142.122 Y81.596 E340.23921
G1 X142.122 Y80.322 E340.32042
G1 X138.299 Y76.499 E340.66498
G1 X139.573 Y76.499 E340.74620
G1 X142.122 Y79.048 E340.97591
G1 X142.122 Y77.773 E341.05713
G1 X140.848 Y76.499 E341.17199
G1 X142.122 Y76.499 E341.25322
M104 S220 ; set temperature
M140 S80 ; set bed temperature
G1 F1800.000 E340.25322
G92 E0
G1 Z0.800 F7800.000
G1 X143.365 Y75.256
G1 F1800.000 E1.00000
G1 X143.365 Y124.744 F1800.000 E2.37464
G1 X56.635 Y124.744 E4.78378
G1 X56.635 Y75.256 E6.15843
G1 X143.266 Y75.256 E8.56484
G1 X143.589 Y74.723 F7800.000
G1 X143.764 Y74.857 F1800.000 E8.57095
G1 X143.898 Y75.032 E8.57706
G1 X143.982 Y75.235 E8.58317
G1 X144.019 Y75.517 E8.59108
G1 X144.019 Y124.483 E9.95124
G1 X143.982 Y124.765 E9.95915
G1 X143.898 Y124.968 E9.96526
G1 X143.764 Y125.143 E9.97137
G1 X143.589 Y125.277 E9.97747
G1 X143.386 Y125.361 E9.98358
G1 X143.104 Y125.398 E9.99149
G1 X56.896 Y125.398 E12.38615
G1 X56.614 Y125.361 E12.39407
G1 X56.411 Y125.277 E12.40017
G1 X56.236 Y125.143 E12.40628
G1 X56.102 Y124.968 E12.41239
G1 X56.018 Y124.765 E12.41850
G1 X55.981 Y124.483 E12.42641
G1 X55.981 Y75.517 E13.78657
G1 X56.018 Y75.235 E13.79448
G1 X56.102 Y75.032 E13.80059
G1 X56.236 Y74.857 E13.80670
G1 X56.411 Y74.723 E13.81281
G1 X56.614 Y74.639 E13.81891
G1 X56.896 Y74.602 E13.82683
G1 X143.104 Y74.602 E16.22149
G1 X143.386 Y74.639 E16.22940
G1 X143.499 Y74.686 E16.23278
G1 X143.596 Y74.017 F7800.000
G1 X143.919 Y74.152 F1260.000 E16.24251
G1 X144.231 Y74.390 E16.25341
G1 X144.469 Y74.702 E16.26430
G1 X144.620 Y75.064 E16.27520
G1 X144.674 Y75.474 E16.28670
G1 X144.674 Y124.526 E17.64924
G1 X144.620 Y124.936 E17.66073
G1 X144.469 Y125.298 E17.67163
G1 X144.231 Y125.610 E17.68252
G1 X143.919 Y125.848 E17.69342
G1 X143.557 Y125.999 E17.70432
G1 X143.147 Y126.053 E17.71581
G1 X56.853 Y126.053 E20.11285
G1 X56.443 Y125.999 E20.12435
G1 X56.081 Y125.848 E20.13525
G1 X55.769 Y125.610 E20.14614
G1 X55.531 Y125.298 E20.15704
G1 X55.380 Y124.936 E20.16793
G1 X55.326 Y124.526 E20.17943
G1 X55.326 Y75.596 E21.53858
G1 X55.310 Y75.596 E21.53903
G1 X55.380 Y75.064 E21.55394
G1 X55.531 Y74.702 E21.56484
G1 X55.769 Y74.390 E21.57573
G1 X56.081 Y74.152 E21.58663
G1 X56.443 Y74.001 E21.59752
G1 X56.853 Y73.947 E21.60902
G1 X143.147 Y73.947 E24.00607
G1 X143.501 Y73.994 E24.01599
G1 X143.669 Y74.360 F7800.000
G1 X142.890 Y124.269
G1 X141.964 Y124.269 F3600.000 E24.04175
G1 X142.890 Y123.343 E24.07818
G1 X142.890 Y122.416 E24.10393
G1 X141.037 Y124.269 E24.17678
G1 X140.111 Y124.269 E24.20253
G1 X142.890 Y121.490 E24.31179
G1 X142.890 Y120.564 E24.33754
G1 X139.185 Y124.269 E24.48323
G1 X138.258 Y124.269 E24.50898
G1 X142.890 Y119.637 E24.69108
G1 X142.890 Y118.711 E24.71683
G1 X137.332 Y124.269 E24.93535
G1 X136.406 Y124.269 E24.96110
G1 X142.890 Y117.785 E25.21604
G1 X142.890 Y116.858 E25.24179
G1 X135.479 Y124.269 E25.53315
G1 X134.553 Y124.269 E25.55890
G1 X142.890 Y115.932 E25.88668
G1 X142.890 Y115.006 E25.91243
G1 X133.627 Y124.269 E26.27662
G1 X132.700 Y124.269 E26.30237
G1 X142.890 Y114.079 E26.70299
G1 X142.890 Y113.153 E26.72874
G1 X131.774 Y124.269 E27.16577
G1 X130.848 Y124.269 E27.19152
G1 X142.890 Y112.227 E27.66497
G1 X142.890 Y111.300 E27.69073
G1 X129.921 Y124.269 E28.20059
G1 X128.995 Y124.269 E28.22635
G1 X142.890 Y110.374 E28.77263
G1 X142.890 Y109.448 E28.79839
G1 X128.069 Y124.269 E29.38109
G1 X127.142 Y124.269 E29.40684
G1 X142.890 Y108.521 E30.02597
G1 X142.890 Y107.595 E30.05172
G1 X126.216 Y124.269 E30.70726
G1 X125.290 Y124.269 E30.73301
G1 X142.890 Y106.669 E31.42498
G1 X142.890 Y105.742 E31.45073
G1 X124.363 Y124.269 E32.17911
G1 X123.437 Y124.269 E32.20486
G1 X142.890 Y104.816 E32.96966
G1 X142.890 Y103.890 E32.99541
G1 X122.511 Y124.269 E33.79663
G1 X121.584 Y124.269 E33.82238
G1 X142.890 Y102.963 E34.66002
G1 X142.890 Y102.037 E34.68577
G1 X120.658 Y124.269 E35.55983
G1 X119.732 Y124.269 E35.58558
G1 X142.890 Y101.111 E36.49605
G1 X142.890 Y100.184 E36.52180
G1 X118.805 Y124.269 E37.46870
G1 X117.879 Y124.269 E37.49445
G1 X142.890 Y99.258 E38.47776
G1 X142.890 Y98.332 E38.50351
G1 X116.953 Y124.269 E39.52324
G1 X116.026 Y124.269 E39.54899
G1 X142.890 Y97.405 E40.60514
G1 X142.890 Y96.479 E40.63089
G1 X115.100 Y124.269 E41.72346
G1 X114.174 Y124.269 E41.74921
G1 X142.890 Y95.553 E42.87820
G1 X142.890 Y94.626 E42.90395
G1 X113.247 Y124.269 E44.06935
G1 X112.321 Y124.269 E44.09511
