; generated by Slic3r 1.2.9 on 2016-03-06 at 12:22:01

; external perimeters extrusion width = 0.50mm
; perimeters extrusion width = 0.50mm
; infill extrusion width = 0.50mm
; solid infill extrusion width = 0.50mm
; top infill extrusion width = 0.50mm
; support material extrusion width = 0.50mm

M104 S190 ; set temperature
G28 ; home all axes
G1 Z15 F120 ; lift nozzle
M109 S190 ; wait for temperature to be reached
G21 ; set units to millimeters
G90 ; use absolute coordinates
M82 ; use absolute distances for extrusion
G92 E0
M106 S102
G1 E-2.00000 F1680.00000
G92 E0
G1 Z0.350 F12000.000
G1 X77.341 Y67.537 F12000.000
G1 E2.00000 F1680.00000
G1 X79.236 Y66.304 E2.06363 F1200.000
G1 X81.743 Y65.796 E2.13566
G1 X98.891 Y65.796 E2.61841
G1 X101.116 Y66.193 E2.68204
G1 X103.067 Y67.335 E2.74567 F1200.000
G1 X104.503 Y69.080 E2.80930
G1 X105.276 Y71.418 E2.87862
G1 X107.741 Y91.971 E3.46136
G1 X107.780 Y92.445 E3.47476
G1 X107.826 Y93.466 E3.50354
G1 X107.827 Y94.014 E3.51897
G1 X107.790 Y94.931 E3.54481
G1 X107.749 Y95.448 E3.55940
G1 X107.638 Y96.359 E3.58523
G1 X107.555 Y96.871 E3.59983
G1 X107.371 Y97.770 E3.62566
G1 X107.247 Y98.273 E3.64025
G1 X106.992 Y99.155 E3.66609
G1 X106.736 Y99.910 E3.68854
G1 X106.459 Y100.615 E3.70986
G1 X106.129 Y101.358 E3.73276
G1 X105.841 Y101.944 E3.75113
G1 X105.397 Y102.748 E3.77698
G1 X105.155 Y103.146 E3.79011
G1 X104.591 Y103.999 E3.81890
G1 X104.252 Y104.467 E3.83516
G1 X103.614 Y105.266 E3.86395
G1 X103.239 Y105.696 E3.88000
G1 X102.552 Y106.417 E3.90805
G1 X102.163 Y106.792 E3.92326
G1 X101.476 Y107.400 E3.94910
G1 X101.074 Y107.728 E3.96369
G1 X100.340 Y108.280 E3.98953
G1 X99.914 Y108.574 E4.00412
G1 X98.833 Y109.246 E4.03996
G1 X98.306 Y109.534 E4.05686
G1 X97.530 Y109.919 E4.08123
G1 X96.448 Y110.380 E4.11436
G1 X95.658 Y110.665 E4.13800
G1 X95.061 Y110.854 E4.15563
G1 X94.148 Y111.097 E4.18222
G1 X93.685 Y111.199 E4.19556
G1 X92.679 Y111.381 E4.22435
G1 X92.107 Y111.459 E4.24061
G1 X91.088 Y111.550 E4.26940
G1 X90.526 Y111.576 E4.28524
G1 X89.556 Y111.578 E4.31255
G1 X89.023 Y111.558 E4.32756
G1 X88.108 Y111.484 E4.35340
G1 X87.594 Y111.421 E4.36799
G1 X86.688 Y111.274 E4.39383
G1 X86.180 Y111.170 E4.40842
G1 X85.289 Y110.951 E4.43425
G1 X84.588 Y110.746 E4.45481
G1 X83.823 Y110.482 E4.47761
G1 X83.114 Y110.204 E4.49903
G1 X82.470 Y109.919 E4.51888
G1 X81.694 Y109.534 E4.54325
G1 X81.167 Y109.246 E4.56014
G1 X80.338 Y108.741 E4.58747
G1 X79.939 Y108.473 E4.60102
G1 X79.111 Y107.872 E4.62981
G1 X78.660 Y107.512 E4.64606
G1 X77.890 Y106.839 E4.67485
G1 X77.488 Y106.456 E4.69049
G1 X76.833 Y105.776 E4.71706
G1 X76.484 Y105.383 E4.73186
G1 X75.904 Y104.672 E4.75770
G1 X75.592 Y104.258 E4.77229
G1 X75.071 Y103.502 E4.79813
G1 X74.794 Y103.064 E4.81272
G1 X74.159 Y101.944 E4.84898
G1 X73.871 Y101.358 E4.86735
G1 X73.541 Y100.615 E4.89025
G1 X73.264 Y99.910 E4.91157
G1 X73.033 Y99.240 E4.93151
G1 X72.739 Y98.219 E4.96141
G1 X72.512 Y97.222 E4.99020
G1 X72.409 Y96.654 E5.00646
G1 X72.271 Y95.641 E5.03525
G1 X72.220 Y95.065 E5.05151
G1 X72.174 Y94.044 E5.08030
G1 X72.173 Y93.496 E5.09572
G1 X72.210 Y92.579 E5.12156
G1 X72.250 Y92.068 E5.13597
G1 X74.536 Y73.093 E5.67402
G1 X75.172 Y70.979 E5.73618
G1 X75.989 Y69.348 E5.78753
G1 X77.296 Y67.597 E5.84905
G1 E3.84905 F1680.00000
G92 E0
G1 X82.014 Y100.936 F12000.000
G1 E2.00000 F1680.00000
G1 X81.412 Y100.208 E2.02458 F900.000
G1 X80.921 Y99.496 E2.04710
G1 X80.484 Y98.741 E2.06981
G1 X80.119 Y97.971 E2.09199
G1 X79.809 Y97.153 E2.11477
G1 X79.646 Y96.619 E2.12929
G1 X79.430 Y95.673 E2.15454
G1 X79.301 Y94.718 E2.17963
G1 X79.258 Y93.754 E2.20476
G1 X79.292 Y92.891 E2.22724
G1 X79.397 Y92.032 E2.24975
G1 X79.570 Y91.184 E2.27227
G1 X79.812 Y90.346 E2.29497
G1 X80.115 Y89.550 E2.31715
G1 X80.490 Y88.759 E2.33993
G1 X80.775 Y88.250 E2.35512
G1 X81.309 Y87.441 E2.38036
G1 X81.911 Y86.687 E2.40546
G1 X82.559 Y86.007 E2.42992
G1 X83.206 Y85.434 E2.45241
G1 X83.898 Y84.914 E2.47493
G1 X84.901 Y84.300 E2.50555
G1 X85.785 Y83.874 E2.53110
G1 X86.185 Y83.713 E2.54231
G1 X87.015 Y83.436 E2.56509
G1 X87.604 Y83.283 E2.58094
G1 X88.558 Y83.110 E2.60617
G1 X89.519 Y83.024 E2.63128
G1 X90.433 Y83.021 E2.65508
G1 X91.131 Y83.078 E2.67330
G1 X92.149 Y83.230 E2.70009 F900.000
G1 X92.989 Y83.437 E2.72261
G1 X93.815 Y83.713 E2.74529
G1 X94.215 Y83.874 E2.75650
G1 X95.090 Y84.296 E2.78180
G1 X95.918 Y84.790 E2.80688
G1 X96.698 Y85.356 E2.83197
G1 X97.424 Y85.991 E2.85709
G1 X98.041 Y86.632 E2.88023
G1 X98.588 Y87.302 E2.90274
G1 X99.079 Y88.014 E2.92526
G1 X99.516 Y88.769 E2.94797
G1 X99.881 Y89.539 E2.97015
G1 X100.191 Y90.358 E2.99293
G1 X100.354 Y90.891 E3.00746
G1 X100.570 Y91.837 E3.03270
G1 X100.699 Y92.792 E3.05779
G1 X100.742 Y93.757 E3.08292
G1 X100.708 Y94.619 E3.10540
G1 X100.603 Y95.478 E3.12792
G1 X100.430 Y96.326 E3.15043
G1 X100.190 Y97.157 E3.17295
G1 X99.883 Y97.966 E3.19547
G1 X99.510 Y98.751 E3.21810
G1 X99.225 Y99.260 E3.23328
G1 X98.691 Y100.069 E3.25852
G1 X98.089 Y100.823 E3.28362
G1 X97.441 Y101.503 E3.30809
G1 X96.794 Y102.076 E3.33057
G1 X96.102 Y102.596 E3.35309
G1 X95.099 Y103.210 E3.38371
G1 X94.215 Y103.636 E3.40926
G1 X93.815 Y103.797 E3.42047
G1 X92.985 Y104.074 E3.44326
G1 X92.396 Y104.227 E3.45911
G1 X91.442 Y104.400 E3.48433
G1 X90.481 Y104.487 E3.50944
G1 X89.567 Y104.489 E3.53325
G1 X88.705 Y104.419 E3.55574
G1 X87.851 Y104.280 E3.57826
G1 X87.004 Y104.071 E3.60099
G1 X86.689 Y103.975 E3.60954
G1 X85.778 Y103.633 E3.63488
G1 X84.910 Y103.215 E3.65997
G1 X84.082 Y102.720 E3.68506
G1 X83.302 Y102.154 E3.71015
G1 X82.576 Y101.519 E3.73527
G1 X82.066 Y100.990 E3.75438
G1 X81.776 Y101.270 F12000.000
G1 X81.089 Y100.451 E3.78218 F720.000
G1 X80.579 Y99.712 E3.80555
G1 X80.129 Y98.932 E3.82899
G1 X79.747 Y98.126 E3.85222
G1 X79.427 Y97.283 E3.87569
G1 X79.256 Y96.723 E3.89094
G1 X79.033 Y95.745 E3.91703
G1 X78.899 Y94.754 E3.94306
G1 X78.854 Y93.754 E3.96911
G1 X78.890 Y92.858 E3.99246
G1 X78.998 Y91.967 E4.01582
G1 X79.178 Y91.088 E4.03919
G1 X79.428 Y90.223 E4.06262
G1 X79.745 Y89.388 E4.08585
G1 X80.131 Y88.574 E4.10932
G1 X80.430 Y88.040 E4.12525
G1 X80.983 Y87.204 E4.15133
G1 X81.606 Y86.422 E4.17737
G1 X82.279 Y85.716 E4.20274
G1 X82.951 Y85.121 E4.22610
G1 X83.668 Y84.582 E4.24946
G1 X84.430 Y84.101 E4.27291
G1 X84.715 Y83.942 E4.28141
G1 X85.622 Y83.505 E4.30762
G1 X86.045 Y83.334 E4.31949
G1 X86.900 Y83.049 E4.34296
G1 X87.518 Y82.889 E4.35956
G1 X88.504 Y82.710 E4.38564
G1 X89.500 Y82.620 E4.41168
G1 X90.449 Y82.618 E4.43638
G1 X91.163 Y82.676 E4.45504
G1 X92.230 Y82.834 E4.48309 F720.000
G1 X93.101 Y83.049 E4.50645
G1 X93.955 Y83.334 E4.52988
G1 X94.378 Y83.505 E4.54176
G1 X95.282 Y83.940 E4.56787
G1 X96.140 Y84.453 E4.59390
G1 X96.949 Y85.041 E4.61993
G1 X97.703 Y85.699 E4.64598
G1 X98.343 Y86.364 E4.67000
G1 X98.911 Y87.059 E4.69336
G1 X99.421 Y87.798 E4.71673
G1 X99.871 Y88.578 E4.74016
G1 X100.253 Y89.384 E4.76340
G1 X100.573 Y90.227 E4.78686
G1 X100.744 Y90.788 E4.80211
G1 X100.967 Y91.765 E4.82821
G1 X101.101 Y92.756 E4.85424
G1 X101.146 Y93.756 E4.88029
G1 X101.110 Y94.652 E4.90364
G1 X101.002 Y95.543 E4.92700
G1 X100.822 Y96.423 E4.95036
G1 X100.572 Y97.285 E4.97373
G1 X100.254 Y98.124 E4.99709
G1 X99.869 Y98.936 E5.02050
G1 X99.570 Y99.470 E5.03642
G1 X99.017 Y100.307 E5.06251
G1 X98.394 Y101.089 E5.08855
G1 X97.721 Y101.794 E5.11392
G1 X97.049 Y102.389 E5.13727
G1 X96.332 Y102.928 E5.16064
G1 X95.570 Y103.410 E5.18408
G1 X95.285 Y103.569 E5.19258
G1 X94.378 Y104.005 E5.21879
G1 X93.955 Y104.176 E5.23067
G1 X93.100 Y104.462 E5.25413
G1 X92.482 Y104.621 E5.27074
G1 X91.496 Y104.800 E5.29682
G1 X90.500 Y104.890 E5.32286
G1 X89.551 Y104.892 E5.34756
G1 X88.656 Y104.820 E5.37092
G1 X87.770 Y104.676 E5.39428
G1 X86.896 Y104.460 E5.41772
G1 X86.559 Y104.357 E5.42690
G1 X85.619 Y104.004 E5.45302
G1 X84.718 Y103.570 E5.47906
G1 X83.860 Y103.057 E5.50509
G1 X83.051 Y102.469 E5.53112
G1 X82.297 Y101.811 E5.55716
G1 X81.828 Y101.324 E5.57478
G1 X81.936 Y100.796 F12000.000
G1 X82.092 Y100.550 F12000.000
G1 X83.108 Y101.566 E5.61257 F1200.000
G1 X85.113 Y102.995 F12000.000
G1 X80.769 Y98.650 E5.77419 F1200.000
G1 X80.256 Y97.561 F12000.000
G1 X86.192 Y103.497 E5.99502 F1200.000
G1 X79.939 Y96.667 F12000.000
G1 X87.092 Y103.820 E6.26111 F1200.000
G1 X87.864 Y104.015 E6.28206
G1 X79.747 Y95.899 E6.58401
G1 X79.617 Y95.192 E6.60290
G1 X88.566 Y104.141 E6.93581
G1 X89.217 Y104.215 E6.95303
G1 X79.534 Y94.533 E7.31323
G1 X79.507 Y93.929 E7.32913
G1 X89.829 Y104.251 E7.71311
G1 X90.404 Y104.250 E7.72824
G1 X79.508 Y93.353 E8.13360
G1 X79.533 Y92.801 E8.14813
G1 X90.945 Y104.214 E8.57269
G1 X91.474 Y104.166 E8.58666
G1 X79.595 Y92.287 E9.02857
G1 X79.673 Y91.788 E9.04184
G1 X91.963 Y104.078 E9.49904
G1 X92.449 Y103.987 E9.51204
G1 X79.771 Y91.310 E9.98366
G1 X79.891 Y90.854 E9.99607
G1 X92.907 Y103.869 E10.48025
G1 X93.343 Y103.729 E10.49230
G1 X80.021 Y90.407 E10.98790
G1 X80.177 Y89.986 E10.99970
G1 X93.775 Y103.584 E11.50558
G1 X94.186 Y103.419 E11.51723
G1 X80.337 Y89.569 E12.03244
G1 X80.522 Y89.178 E12.04382
G1 X94.575 Y103.231 E12.56660
G1 X94.964 Y103.044 E12.57796
G1 X80.710 Y88.789 E13.10824
G1 X80.917 Y88.420 E13.11939
G1 X95.327 Y102.830 E13.65546
G1 X95.685 Y102.611 E13.66649
G1 X81.141 Y88.067 E14.20754
G1 X81.370 Y87.720 E14.21848
G1 X96.039 Y102.389 E14.76419
G1 X96.369 Y102.142 E14.77503
G1 X81.613 Y87.386 E15.32396
G1 X81.868 Y87.065 E15.33475
G1 X96.696 Y101.893 E15.88636
G1 X97.002 Y101.622 E15.89710
G1 X82.130 Y86.750 E16.45034
G1 X82.419 Y86.462 E16.46107
G1 X97.293 Y101.337 E17.01442
G1 X97.581 Y101.048 E17.02514
G1 X82.707 Y86.174 E17.57849
G1 X82.998 Y85.888 E17.58922
G1 X97.870 Y100.760 E18.14246
G1 X98.132 Y100.445 E18.15322
G1 X83.304 Y85.617 E18.70483
G1 X83.631 Y85.368 E18.71565
G1 X98.387 Y100.124 E19.26459
G1 X98.630 Y99.790 E19.27545
G1 X83.961 Y85.121 E19.82116
G1 X84.315 Y84.899 E19.83216
G1 X98.859 Y99.443 E20.37321
G1 X99.083 Y99.090 E20.38420
G1 X84.673 Y84.680 E20.92027
G1 X85.036 Y84.466 E20.93135
G1 X99.290 Y98.721 E21.46163
G1 X99.478 Y98.332 E21.47299
G1 X85.425 Y84.279 E21.99577
G1 X85.814 Y84.092 E22.00714
G1 X99.663 Y97.941 E22.52234
G1 X99.823 Y97.524 E22.53408
G1 X86.225 Y83.926 E23.03995
G1 X86.657 Y83.781 E23.05194
G1 X99.979 Y97.104 E23.54753
G1 X100.109 Y96.656 E23.55977
G1 X87.093 Y83.641 E24.04395
G1 X87.551 Y83.523 E24.05640
G1 X100.229 Y96.201 E24.52802
G1 X100.327 Y95.722 E24.54088
G1 X88.037 Y83.432 E24.99808
G1 X88.526 Y83.344 E25.01114
G1 X100.405 Y95.223 E25.45305
G1 X100.467 Y94.709 E25.46668
G1 X89.055 Y83.296 E25.89123
G1 X89.596 Y83.261 E25.90549
G1 X100.492 Y94.157 E26.31084
G1 X100.493 Y93.581 E26.32599
G1 X90.171 Y83.259 E26.70997
G1 X90.783 Y83.295 E26.72611
G1 X100.466 Y92.978 E27.08631
G1 X100.383 Y92.318 E27.10379
G1 X91.443 Y83.378 E27.43636
G1 X92.136 Y83.495 E27.45486
G1 X100.253 Y91.612 E27.75681
G1 X100.061 Y90.843 E27.77765
G1 X92.913 Y83.695 E28.04355
G1 X93.797 Y84.003 F12000.000
G1 X99.744 Y89.950 E28.26479 F1200.000
G1 X99.231 Y88.860 F12000.000
G1 X94.887 Y84.515 E28.42642 F1200.000
G1 X96.892 Y85.944 F12000.000
G1 X97.908 Y86.960 E28.46421 F1200.000
G1 E26.46421 F1680.00000
G92 E0
G1 Z0.350 F12000.000
G1 X98.390 Y84.036 F12000.000
G1 E2.00000 F1680.00000
G1 X99.074 Y82.671 E2.03973 F1200.000
G1 X97.757 Y83.498 E2.08020
G1 X99.074 Y80.871 E2.15669
G1 X99.074 Y79.070 E2.20356
G1 X97.088 Y83.034 E2.31897
G1 X96.397 Y82.611 E2.34004
G1 X99.074 Y77.269 E2.49558
G1 X99.074 Y75.468 E2.54245
G1 X95.685 Y82.230 E2.73933
G1 X94.953 Y81.891 E2.76034
G1 X99.074 Y73.668 E2.99976
G1 X98.891 Y72.232 E3.03742
G1 X94.194 Y81.603 E3.31027
G1 X93.412 Y81.364 E3.33157
G1 X97.989 Y72.232 E3.59745
G1 X97.086 Y72.232 E3.62094
G1 X92.607 Y81.169 E3.88114
G1 X91.779 Y81.021 E3.90304
G1 X96.184 Y72.232 E4.15891
G1 X95.281 Y72.232 E4.18240
G1 X90.926 Y80.922 E4.43542
G1 X90.041 Y80.887 E4.45846
G1 X94.379 Y72.232 E4.71044
G1 X93.476 Y72.232 E4.73393
G1 X89.124 Y80.916 E4.98676
G1 X88.172 Y81.013 E5.01165
G1 X92.573 Y72.232 E5.26732
G1 X91.671 Y72.232 E5.29081
G1 X87.181 Y81.190 E5.55162
G1 X86.143 Y81.462 E5.57956
G1 X90.768 Y72.232 E5.84828
G1 X89.866 Y72.232 E5.87178
G1 X85.045 Y81.850 E6.15181
G1 X83.870 Y82.395 E6.18554
G1 X88.963 Y72.232 E6.48144
G1 X88.061 Y72.232 E6.50494
G1 X82.564 Y83.199 E6.82422
G1 X80.926 Y82.867 F12000.000
G1 X86.256 Y72.232 E7.13385 F1200.000
G1 X85.353 Y72.232 E7.15734
G1 X80.926 Y81.066 E7.41453
G1 X80.926 Y79.265 E7.46140
G1 X84.451 Y72.232 E7.66617
G1 X83.548 Y72.232 E7.68966
G1 X80.926 Y77.464 E7.84200
G1 X80.926 Y75.664 E7.88887
G1 X82.646 Y72.232 E7.98878
G1 X81.743 Y72.232 E8.01227
G1 X80.926 Y73.863 E8.05975
G1 X87.158 Y72.232 F12000.000
G1 X81.050 Y84.419 E8.41459 F1200.000
M106 S255
M104 S188 ; set temperature
G1 E6.41459 F1680.00000
G92 E0
G1 Z0.400 F12000.000
G1 X82.579 Y82.614 F12000.000
G1 E2.00000 F1680.00000
G1 X81.359 Y82.614 E2.00428 F2333.820
G1 X81.359 Y79.678 E2.01458
G1 X98.661 Y79.678 E2.07527
G1 X98.661 Y76.742 E2.08556
G1 X81.359 Y76.742 E2.14625
G1 X81.359 Y73.807 E2.15655
G1 X98.661 Y73.807 E2.21724
G1 E0.21724 F1680.00000
G92 E0
G1 X98.661 Y82.614 F12000.000
G1 E2.00000 F1680.00000
G1 X97.421 Y82.614 E2.00435 F2333.820
G1 X99.000 Y84.374 F12000.000
G1 X99.000 Y72.360 E2.04649 F2333.820
G1 X81.000 Y72.360 E2.10962
G1 X81.000 Y84.374 E2.15176
G1 X82.181 Y83.369 E2.15719
G1 X83.050 Y82.769 E2.16090
G1 X83.978 Y82.234 E2.16466
G1 X84.923 Y81.787 E2.16832
G1 X85.901 Y81.418 E2.17199
G1 X86.906 Y81.129 E2.17566
G1 X87.931 Y80.921 E2.17932
G1 X88.968 Y80.796 E2.18299
G1 X89.987 Y80.755 E2.18657
G1 X91.032 Y80.796 E2.19023
G1 X92.095 Y80.925 E2.19399
G1 X93.094 Y81.129 E2.19757
G1 X94.099 Y81.418 E2.20123
G1 X95.077 Y81.787 E2.20490
G1 X96.022 Y82.234 E2.20857
G1 X96.950 Y82.769 E2.21233
G1 X97.819 Y83.369 E2.21603
G1 X99.000 Y84.374 E2.22147
G1 E0.22147 F1680.00000
G92 E0
G1 Z0.650 F12000.000
G1 X97.807 Y101.838 F12000.000
G1 E2.00000 F1680.00000
G1 X97.133 Y102.439 E2.01692 F1750.365
G1 X96.384 Y103.005 E2.03452
G1 X95.612 Y103.493 E2.05162
G1 X95.335 Y103.647 E2.05757
G1 X94.417 Y104.089 E2.07665
G1 X93.473 Y104.444 E2.09555
G1 X92.501 Y104.712 E2.11444
G1 X91.509 Y104.892 E2.13334
G1 X90.503 Y104.983 E2.15225
G1 X89.547 Y104.985 E2.17018
G1 X88.645 Y104.912 E2.18712
G1 X87.752 Y104.767 E2.20408
G1 X86.865 Y104.548 E2.22120
G1 X86.529 Y104.445 E2.22777
G1 X86.020 Y104.266 E2.23790
G1 X85.182 Y103.909 E2.25496
G1 X84.377 Y103.487 E2.27199
G1 X83.813 Y103.138 E2.28442
G1 X82.993 Y102.542 E2.30342
G1 X82.232 Y101.878 E2.32233
G1 X81.587 Y101.208 E2.33976
G1 X81.015 Y100.507 E2.35671
G1 X80.501 Y99.762 E2.37367
G1 X80.048 Y98.978 E2.39063
G1 X79.660 Y98.160 E2.40759
G1 X79.338 Y97.310 E2.42464
G1 X79.168 Y96.751 E2.43558
G1 X78.942 Y95.762 E2.45459
G1 X78.806 Y94.763 E2.47349
G1 X78.761 Y93.753 E2.49241
G1 X78.797 Y92.851 E2.50934
G1 X78.907 Y91.952 E2.52630
G1 X79.088 Y91.065 E2.54326
G1 X79.342 Y90.189 E2.56036
G1 X79.658 Y89.355 E2.57706
G1 X80.050 Y88.528 E2.59422
G1 X80.349 Y87.996 E2.60566
G1 X80.908 Y87.149 E2.62467
G1 X81.537 Y86.360 E2.64357
G1 X82.215 Y85.649 E2.66200
G1 X82.892 Y85.049 E2.67893
G1 X83.616 Y84.506 E2.69589
G1 X84.388 Y84.017 E2.71301
G1 X84.665 Y83.863 E2.71896
G1 X85.583 Y83.421 E2.73805
G1 X86.527 Y83.066 E2.75694
G1 X87.499 Y82.798 E2.77584
G1 X88.491 Y82.618 E2.79473
G1 X89.496 Y82.528 E2.81363
G1 X90.486 Y82.528 E2.83219
G1 X91.355 Y82.598 E2.84851 F1750.365
G1 X92.248 Y82.743 E2.86547
G1 X93.127 Y82.960 E2.88243
G1 X93.985 Y83.246 E2.89939
G1 X94.818 Y83.601 E2.91635
G1 X95.623 Y84.024 E2.93337
G1 X96.187 Y84.372 E2.94581
G1 X97.007 Y84.968 E2.96480
G1 X97.768 Y85.632 E2.98372
G1 X98.413 Y86.303 E3.00115
G1 X98.985 Y87.003 E3.01810
G1 X99.499 Y87.748 E3.03506
G1 X99.956 Y88.539 E3.05217
G1 X100.337 Y89.344 E3.06887
G1 X100.662 Y90.200 E3.08603
G1 X100.832 Y90.759 E3.09697
G1 X101.058 Y91.748 E3.11598
G1 X101.194 Y92.748 E3.13488
G1 X101.239 Y93.757 E3.15380
G1 X101.203 Y94.659 E3.17073
G1 X101.093 Y95.558 E3.18769
G1 X100.912 Y96.445 E3.20465
G1 X100.658 Y97.321 E3.22175
G1 X100.342 Y98.155 E3.23845
G1 X99.950 Y98.982 E3.25561
G1 X99.651 Y99.514 E3.26705
