; generated by Slic3r 1.2.9 on 2016-03-06 at 14:53:29

; external perimeters extrusion width = 0.50mm
; perimeters extrusion width = 0.50mm
; infill extrusion width = 0.50mm
; solid infill extrusion width = 0.50mm
; top infill extrusion width = 0.50mm
; support material extrusion width = 0.50mm

M104 S190 ; set temperature
G28 ; home all axes
G1 Z15 F120 ; lift nozzle
M109 S190 ; wait for temperature to be reached
G21 ; set units to millimeters
G90 ; use absolute coordinates
M82 ; use absolute distances for extrusion
G92 E0
M106 S255
G1 E-2.00000 F1680.00000
G92 E0
G1 Z0.350 F12000.000
G1 X78.199 Y69.426 F12000.000
G1 E2.00000 F1680.00000
G1 X80.094 Y68.194 E2.06363 F782.647
G1 X82.601 Y67.685 E2.13566
G1 X97.944 Y67.685 E2.56759
G1 X100.169 Y68.082 E2.63122 F782.647
G1 X102.120 Y69.224 E2.69486
G1 X103.556 Y70.970 E2.75849
G1 X104.358 Y73.580 E2.83536
G1 X104.488 Y75.121 E2.87890
G1 X104.511 Y75.663 E2.89416
G1 X104.511 Y77.464 E2.94486
G1 X104.374 Y78.781 E2.98214
G1 X100.812 Y95.820 E3.47220
G1 X100.565 Y96.815 E3.50105
G1 X100.220 Y97.821 E3.53098
G1 X99.917 Y98.512 E3.55225
G1 X99.411 Y99.447 E3.58217
G1 X98.998 Y100.080 E3.60344
G1 X98.345 Y100.919 E3.63336
G1 X97.833 Y101.474 E3.65463
G1 X97.051 Y102.194 E3.68456
G1 X96.455 Y102.658 E3.70582
G1 X95.565 Y103.240 E3.73575
G1 X94.901 Y103.599 E3.75701
G1 X93.927 Y104.026 E3.78694
G1 X93.213 Y104.271 E3.80821
G1 X92.182 Y104.532 E3.83813
G1 X91.437 Y104.657 E3.85940
G1 X90.378 Y104.745 E3.88932
G1 X89.622 Y104.745 E3.91059
G1 X88.563 Y104.657 E3.94052
G1 X87.818 Y104.532 E3.96178
G1 X86.787 Y104.271 E3.99171
G1 X86.073 Y104.026 E4.01298
G1 X85.099 Y103.599 E4.04290
G1 X84.435 Y103.240 E4.06417
G1 X83.545 Y102.658 E4.09409
G1 X82.949 Y102.194 E4.11536
G1 X82.167 Y101.474 E4.14529
G1 X81.655 Y100.919 E4.16655
G1 X81.002 Y100.080 E4.19648
G1 X80.589 Y99.447 E4.21774
G1 X80.083 Y98.512 E4.24767
G1 X79.780 Y97.821 E4.26894
G1 X79.435 Y96.815 E4.29886
G1 X79.186 Y95.806 E4.32812
G1 X75.623 Y78.573 E4.82352
G1 X75.489 Y77.270 E4.86040
G1 X75.489 Y75.469 E4.91109
G1 X76.172 Y72.585 E4.99452
G1 X76.847 Y71.238 E5.03695
G1 X78.154 Y69.486 E5.09847
G1 E3.09847 F1680.00000
G92 E0
G1 X87.238 Y90.990 F12000.000
G1 E2.00000 F1680.00000
G1 X87.350 Y90.864 E2.00439 F600.000
G1 X87.857 Y90.470 E2.02110
G1 X88.426 Y90.162 E2.03794
G1 X89.038 Y89.952 E2.05478
G1 X89.676 Y89.845 E2.07163
G1 X90.324 Y89.845 E2.08847
G1 X90.886 Y89.939 E2.10332
G1 X91.579 Y90.164 E2.12227 F600.000
G1 X92.143 Y90.470 E2.13898
G1 X92.654 Y90.867 E2.15582
G1 X93.092 Y91.343 E2.17266
G1 X93.446 Y91.885 E2.18951
G1 X93.706 Y92.478 E2.20635
G1 X93.865 Y93.105 E2.22320
G1 X93.918 Y93.750 E2.24004
G1 X93.865 Y94.395 E2.25688
G1 X93.706 Y95.022 E2.27373
G1 X93.446 Y95.615 E2.29057
G1 X93.092 Y96.157 E2.30742
G1 X92.654 Y96.633 E2.32426
G1 X92.143 Y97.030 E2.34110
G1 X91.574 Y97.338 E2.35795
G1 X90.962 Y97.548 E2.37479
G1 X90.324 Y97.655 E2.39163
G1 X89.676 Y97.655 E2.40848
G1 X89.038 Y97.548 E2.42532
G1 X88.426 Y97.338 E2.44217
G1 X87.857 Y97.030 E2.45901
G1 X87.346 Y96.633 E2.47585
G1 X86.908 Y96.157 E2.49270
G1 X86.554 Y95.615 E2.50954
G1 X86.294 Y95.022 E2.52638
G1 X86.135 Y94.395 E2.54323
G1 X86.088 Y93.826 E2.55808
G1 X86.137 Y93.100 E2.57703
G1 X86.294 Y92.478 E2.59373
G1 X86.554 Y91.885 E2.61058
G1 X86.866 Y91.408 E2.62543
G1 X87.188 Y91.046 E2.63803
G1 X86.887 Y90.778 F12000.000
G1 X87.074 Y90.568 E2.64533 F600.000
G1 X87.636 Y90.131 E2.66386
G1 X88.263 Y89.791 E2.68245
G1 X88.939 Y89.559 E2.70103
G1 X89.643 Y89.442 E2.71962
G1 X90.357 Y89.442 E2.73820
G1 X90.982 Y89.546 E2.75471
G1 X91.738 Y89.792 E2.77539 F600.000
G1 X92.364 Y90.131 E2.79393
G1 X92.928 Y90.569 E2.81251
G1 X93.411 Y91.095 E2.83109
G1 X93.802 Y91.692 E2.84968
G1 X94.089 Y92.346 E2.86826
G1 X94.264 Y93.038 E2.88685
G1 X94.323 Y93.750 E2.90543
G1 X94.264 Y94.462 E2.92401
G1 X94.089 Y95.154 E2.94260
G1 X93.802 Y95.808 E2.96118
G1 X93.411 Y96.405 E2.97977
G1 X92.928 Y96.931 E2.99835
G1 X92.364 Y97.369 E3.01693
G1 X91.737 Y97.709 E3.03552
G1 X91.061 Y97.941 E3.05410
G1 X90.357 Y98.058 E3.07269
G1 X89.643 Y98.058 E3.09127
G1 X88.939 Y97.941 E3.10985
G1 X88.263 Y97.709 E3.12844
G1 X87.636 Y97.369 E3.14702
G1 X87.072 Y96.931 E3.16561
G1 X86.589 Y96.405 E3.18419
G1 X86.198 Y95.808 E3.20278
G1 X85.911 Y95.154 E3.22136
G1 X85.736 Y94.462 E3.23994
G1 X85.684 Y93.830 E3.25645
G1 X85.736 Y93.036 E3.27714
G1 X85.911 Y92.346 E3.29567
G1 X86.198 Y91.692 E3.31425
G1 X86.545 Y91.162 E3.33076
G1 X86.837 Y90.834 E3.34220
G1 X87.162 Y90.834 F12000.000
G1 X86.478 Y94.684 F12000.000
G1 X89.067 Y97.273 E3.44145 F782.647
G1 X89.806 Y97.417 E3.46186
G1 X86.344 Y93.956 E3.59453
G1 X86.351 Y93.369 E3.61046
G1 X90.397 Y97.415 E3.76557
G1 X90.906 Y97.330 E3.77956
G1 X86.426 Y92.849 E3.95132
G1 X86.562 Y92.391 E3.96427
G1 X91.357 Y97.186 E4.14809
G1 X91.764 Y97.000 E4.16024
G1 X86.743 Y91.978 E4.35274
G1 X86.974 Y91.616 E4.36440
G1 X92.137 Y96.778 E4.56229
G1 X92.462 Y96.509 E4.57373
G1 X87.242 Y91.289 E4.77383
G1 X87.539 Y90.991 E4.78522
G1 X92.759 Y96.212 E4.98535
G1 X93.026 Y95.884 E4.99680
G1 X87.863 Y90.722 E5.19469
G1 X88.236 Y90.500 E5.20644
G1 X93.257 Y95.522 E5.39894
G1 X93.438 Y95.109 E5.41116
G1 X88.643 Y90.314 E5.59498
G1 X89.094 Y90.170 E5.60779
G1 X93.574 Y94.651 E5.77955
G1 X93.655 Y94.137 E5.79364
G1 X89.603 Y90.085 E5.94896
G1 X90.194 Y90.083 E5.96500
G1 X93.656 Y93.544 E6.09768
G1 X93.522 Y92.816 E6.11772
G1 X90.947 Y90.241 E6.21646
G1 X92.221 Y90.921 F12000.000
G1 X92.848 Y91.548 E6.24052 F782.647
G1 X87.779 Y96.579 F12000.000
G1 X87.152 Y95.952 E6.26458 F782.647
G1 E4.26458 F1680.00000
G92 E0
G1 Z0.350 F12000.000
G1 X97.616 Y78.378 F12000.000
G1 E2.00000 F1680.00000
G1 X98.074 Y77.464 E2.02663 F782.647
G1 X96.713 Y78.378 E2.06931
G1 X98.074 Y75.663 E2.14836
G1 X97.944 Y74.122 E2.18862
G1 X95.811 Y78.378 E2.31255
G1 X94.908 Y78.378 E2.33604
G1 X97.042 Y74.122 E2.45996
G1 X96.139 Y74.122 E2.48346
G1 X94.006 Y78.378 E2.60738
G1 X93.103 Y78.378 E2.63087
G1 X95.237 Y74.122 E2.75480
G1 X94.334 Y74.122 E2.77829
G1 X92.201 Y78.378 E2.90222
G1 X91.298 Y78.378 E2.92571
G1 X93.431 Y74.122 E3.04964
G1 X92.529 Y74.122 E3.07313
G1 X90.396 Y78.378 E3.19706
G1 X89.493 Y78.378 E3.22055
G1 X91.626 Y74.122 E3.34447
G1 X90.724 Y74.122 E3.36797
G1 X88.591 Y78.378 E3.49189
G1 X87.688 Y78.378 E3.51538
G1 X89.821 Y74.122 E3.63931
G1 X88.919 Y74.122 E3.66280
G1 X86.785 Y78.378 E3.78673
G1 X85.883 Y78.378 E3.81022
G1 X88.016 Y74.122 E3.93415
G1 X87.114 Y74.122 E3.95764
G1 X84.980 Y78.378 E4.08157
G1 X84.078 Y78.378 E4.10506
G1 X86.211 Y74.122 E4.22898
G1 X85.309 Y74.122 E4.25248
G1 X83.175 Y78.378 E4.37640
G1 X82.273 Y78.378 E4.39989
G1 X84.406 Y74.122 E4.52382
G1 X83.504 Y74.122 E4.54731
G1 X81.926 Y77.270 E4.63897
G1 X81.926 Y75.469 E4.68584
G1 X82.601 Y74.122 E4.72507
M104 S188 ; set temperature
G1 E2.72507 F1680.00000
G92 E0
G1 Z0.400 F12000.000
G1 X82.359 Y76.742 F12000.000
G1 E2.00000 F1680.00000
G1 X97.661 Y76.742 E2.05367 F600.000
G1 X98.000 Y78.250 F12000.000
G1 X98.000 Y74.250 E2.06770 F600.000
G1 X82.000 Y74.250 E2.12382
G1 X82.000 Y78.250 E2.13785
G1 X98.000 Y78.250 E2.19397
G1 E0.19397 F1680.00000
G92 E0
G1 Z0.650 F12000.000
G1 X94.394 Y90.985 F12000.000
G1 E2.00000 F1680.00000
M106 S255
G1 X94.581 Y91.271 E2.00960 F1800.000
G1 X94.926 Y92.059 E2.03382
G1 X95.138 Y92.893 E2.05804
G1 X95.209 Y93.750 E2.08225
G1 X95.138 Y94.607 E2.10647
G1 X94.926 Y95.441 E2.13069
G1 X94.581 Y96.229 E2.15491
G1 X94.110 Y96.949 E2.17912
G1 X93.528 Y97.582 E2.20334
G1 X92.849 Y98.110 E2.22756
G1 X92.092 Y98.520 E2.25178
G1 X91.279 Y98.799 E2.27599
G1 X90.430 Y98.941 E2.30021
G1 X89.570 Y98.941 E2.32443
G1 X88.721 Y98.799 E2.34865
G1 X87.908 Y98.520 E2.37286
G1 X87.151 Y98.110 E2.39708
G1 X86.472 Y97.582 E2.42130
G1 X85.890 Y96.949 E2.44552
G1 X85.419 Y96.229 E2.46973
G1 X85.074 Y95.441 E2.49395
G1 X84.862 Y94.607 E2.51817
G1 X84.791 Y93.750 E2.54239
G1 X84.862 Y92.893 E2.56660
G1 X85.074 Y92.059 E2.59082
G1 X85.419 Y91.271 E2.61504
G1 X85.890 Y90.551 E2.63926
G1 X86.472 Y89.918 E2.66347
G1 X87.151 Y89.390 E2.68769
G1 X87.908 Y88.980 E2.71191
G1 X88.721 Y88.701 E2.73612
G1 X89.570 Y88.559 E2.76034
G1 X90.475 Y88.567 E2.78582
M106 S255
M106 S255
G1 X91.279 Y88.701 E2.80876 F1800.000
G1 X92.092 Y88.980 E2.83298
G1 X92.849 Y89.390 E2.85720
G1 X93.528 Y89.918 E2.88141
G1 X94.110 Y90.551 E2.90563
G1 X94.353 Y90.923 E2.91813
M106 S255
G1 X94.718 Y90.684 F12000.000
M106 S255
G1 X94.965 Y91.063 E2.93086 F1800.000
G1 X95.340 Y91.917 E2.95711
G1 X95.569 Y92.821 E2.98336
G1 X95.646 Y93.750 E3.00961
G1 X95.569 Y94.679 E3.03586
G1 X95.340 Y95.583 E3.06211
G1 X94.965 Y96.437 E3.08836
G1 X94.455 Y97.218 E3.11461
G1 X93.824 Y97.904 E3.14086
G1 X93.088 Y98.476 E3.16711
G1 X92.268 Y98.920 E3.19336
G1 X91.386 Y99.223 E3.21961
G1 X90.466 Y99.376 E3.24586
G1 X89.534 Y99.376 E3.27211
G1 X88.614 Y99.223 E3.29836
G1 X87.732 Y98.920 E3.32461
G1 X86.912 Y98.476 E3.35086
G1 X86.176 Y97.904 E3.37711
G1 X85.545 Y97.218 E3.40336
G1 X85.035 Y96.437 E3.42961
G1 X84.660 Y95.583 E3.45586
G1 X84.431 Y94.679 E3.48211
G1 X84.354 Y93.750 E3.50836
G1 X84.431 Y92.821 E3.53461
G1 X84.660 Y91.917 E3.56086
G1 X85.035 Y91.063 E3.58711
G1 X85.545 Y90.282 E3.61336
G1 X86.176 Y89.596 E3.63961
G1 X86.912 Y89.024 E3.66586
G1 X87.732 Y88.580 E3.69211
G1 X88.614 Y88.277 E3.71836
G1 X89.534 Y88.124 E3.74461
G1 X90.547 Y88.137 E3.77312
M106 S255
M106 S255
G1 X91.386 Y88.277 E3.79708 F1800.000
G1 X92.268 Y88.580 E3.82333
G1 X93.088 Y89.024 E3.84958
G1 X93.824 Y89.596 E3.87583
G1 X94.455 Y90.282 E3.90208
G1 X94.677 Y90.622 E3.91349
M106 S255
G1 E1.91349 F1680.00000
G92 E0
G1 X89.296 Y92.554 F12000.000
G1 E2.00000 F1680.00000
G1 X88.802 Y93.048 E2.01346 F600.000
G1 X88.550 Y93.933 E2.03119
G1 X90.186 Y92.297 E2.07577
G1 X90.685 Y92.431 E2.08573
G1 X88.682 Y94.435 E2.14032
G1 X88.957 Y94.793 E2.14902
G1 X91.043 Y92.707 E2.20584
G1 X91.318 Y93.065 E2.21455
G1 X89.315 Y95.069 E2.26913
G1 X89.814 Y95.203 E2.27909
G1 X91.450 Y93.567 E2.32367
G1 X91.198 Y94.452 E2.34140
G1 X90.704 Y94.946 E2.35486
G1 E0.35486 F1680.00000
G92 E0
G1 X93.006 Y97.498 F12000.000
G1 E2.00000 F1680.00000
M106 S255
G1 X93.696 Y96.808 E2.02878 F2400.000
M106 S255
G1 X94.703 Y95.006 F12000.000
M106 S255
G1 X91.257 Y98.453 E2.17259 F2400.000
G1 X90.265 Y98.650 E2.20242
G1 X94.883 Y94.031 E2.39512
G1 X94.884 Y93.237 E2.41856
G1 X89.472 Y98.648 E2.64431
G1 X88.792 Y98.534 E2.66467
G1 X94.776 Y92.549 E2.91436
G1 X94.595 Y91.936 E2.93323
G1 X88.189 Y98.342 E3.20051
G1 X87.643 Y98.093 E3.21820
G1 X90.294 Y95.442 E3.32881
G1 X89.577 Y95.365 E3.35010
G1 X87.145 Y97.797 E3.45155
G1 X86.705 Y97.442 E3.46822
G1 X89.048 Y95.099 E3.56596
G1 X88.650 Y94.703 E3.58254
G1 X86.308 Y97.045 E3.68024
G1 X85.956 Y96.602 E3.69692
G1 X88.383 Y94.175 E3.79817
G1 X88.312 Y93.451 E3.81961
G1 X85.647 Y96.117 E3.93081
G1 X85.405 Y95.564 E3.94860
G1 X91.811 Y89.158 E4.21588
G1 X92.357 Y89.407 E4.23357
G1 X89.706 Y92.058 E4.34418
G1 X90.423 Y92.135 E4.36547
G1 X92.855 Y89.703 E4.46692
G1 X93.295 Y90.058 E4.48359
G1 X90.952 Y92.401 E4.58133
G1 X91.350 Y92.797 E4.59791
G1 X93.692 Y90.455 E4.69561
G1 X94.044 Y90.898 E4.71229
G1 X91.617 Y93.325 E4.81354
G1 X91.688 Y94.049 E4.83498
G1 X94.353 Y91.383 E4.94618
M106 S255
G1 E2.94618 F1680.00000
G92 E0
G1 X91.208 Y88.966 F12000.000
G1 E2.00000 F1680.00000
M106 S255
G1 X85.224 Y94.951 E2.24969 F2400.000
G1 X85.116 Y94.263 E2.27021
G1 X90.523 Y88.857 E2.49577
G1 X89.735 Y88.850 E2.51902
G1 X85.117 Y93.469 E2.71170
G1 X85.297 Y92.494 E2.74093
G1 X88.743 Y89.047 E2.88474
M106 S255
G1 X86.994 Y90.002 F12000.000
M106 S255
G1 X86.304 Y90.692 E2.91352 F2400.000
M106 S255
G1 E0.91352 F1680.00000
G92 E0
G1 Z0.850 F12000.000
G1 X82.273 Y76.742 F12000.000
G1 E2.00000 F1680.00000
G1 X97.747 Y76.742 E2.40279 F787.307
G1 X98.000 Y78.250 F12000.000
G1 X98.000 Y74.250 E2.50690 F787.307
G1 X82.000 Y74.250 E2.92337
G1 X82.000 Y78.250 E3.02748
G1 X98.000 Y78.250 E3.44395
G1 E1.44395 F1680.00000
G92 E0
G1 Z0.950 F12000.000
G1 X95.910 Y94.025 F12000.000
G1 E2.00000 F1680.00000
G1 X95.852 Y94.727 E2.01320 F600.000
G1 X95.611 Y95.676 E2.03156
G1 X95.218 Y96.574 E2.04992
G1 X94.682 Y97.394 E2.06828
G1 X94.018 Y98.115 E2.08664
G1 X93.245 Y98.717 E2.10500
G1 X92.383 Y99.183 E2.12336
G1 X91.456 Y99.501 E2.14172
G1 X90.490 Y99.663 E2.16008
G1 X89.510 Y99.663 E2.17844
G1 X88.544 Y99.501 E2.19680
G1 X87.617 Y99.183 E2.21516
G1 X86.755 Y98.717 E2.23352
G1 X85.982 Y98.115 E2.25188
G1 X85.318 Y97.394 E2.27024
G1 X84.782 Y96.574 E2.28860
G1 X84.389 Y95.676 E2.30696
G1 X84.148 Y94.727 E2.32532
G1 X84.067 Y93.750 E2.34368
G1 X84.148 Y92.773 E2.36204
G1 X84.389 Y91.824 E2.38040
G1 X84.782 Y90.926 E2.39876
G1 X85.318 Y90.106 E2.41711
G1 X85.982 Y89.385 E2.43547
G1 X86.755 Y88.783 E2.45383
G1 X87.617 Y88.317 E2.47219
G1 X88.544 Y87.999 E2.49055
G1 X89.510 Y87.837 E2.50891
G1 X90.490 Y87.837 E2.52727
G1 X91.272 Y87.968 E2.54213
G1 X91.456 Y87.999 E2.54563 F600.000
G1 X92.383 Y88.317 E2.56399
G1 X93.245 Y88.783 E2.58235
G1 X94.018 Y89.385 E2.60071
G1 X94.682 Y90.106 E2.61907
G1 X95.218 Y90.926 E2.63743
G1 X95.611 Y91.824 E2.65579
G1 X95.852 Y92.773 E2.67415
G1 X95.933 Y93.750 E2.69251
G1 X95.916 Y93.950 E2.69627
G1 X96.350 Y93.986 F12000.000
M106 S255
G1 X96.283 Y94.798 E2.71923 F1800.000
G1 X96.025 Y95.818 E2.74884
G1 X95.602 Y96.782 E2.77846
G1 X95.027 Y97.662 E2.80808
G1 X94.314 Y98.437 E2.83770
G1 X93.484 Y99.083 E2.86731
G1 X92.559 Y99.583 E2.89693
G1 X91.564 Y99.925 E2.92655
G1 X90.526 Y100.098 E2.95616
G1 X89.474 Y100.098 E2.98578
G1 X88.436 Y99.925 E3.01540
G1 X87.441 Y99.583 E3.04502
G1 X86.516 Y99.083 E3.07463
G1 X85.686 Y98.437 E3.10425
G1 X84.973 Y97.663 E3.13387
G1 X84.398 Y96.782 E3.16349
G1 X83.975 Y95.818 E3.19310
G1 X83.717 Y94.798 E3.22272
G1 X83.630 Y93.750 E3.25234
G1 X83.717 Y92.702 E3.28195
G1 X83.975 Y91.682 E3.31157
G1 X84.398 Y90.718 E3.34119
G1 X84.973 Y89.837 E3.37081
G1 X85.686 Y89.063 E3.40042
G1 X86.516 Y88.417 E3.43004
G1 X87.441 Y87.917 E3.45966
G1 X88.436 Y87.575 E3.48928
G1 X89.474 Y87.402 E3.51889
G1 X90.526 Y87.402 E3.54851
G1 X91.344 Y87.538 E3.57184
M106 S255
M106 S255
G1 X91.564 Y87.575 E3.57813 F1800.000
G1 X92.559 Y87.917 E3.60774
G1 X93.484 Y88.417 E3.63736
G1 X94.314 Y89.063 E3.66698
G1 X95.027 Y89.837 E3.69660
G1 X95.602 Y90.718 E3.72621
G1 X96.025 Y91.682 E3.75583
G1 X96.283 Y92.702 E3.78545
G1 X96.370 Y93.750 E3.81507
G1 X96.357 Y93.911 E3.81962
M106 S255
G1 E1.81962 F1680.00000
G92 E0
G1 X94.981 Y96.530 F12000.000
G1 E2.00000 F1680.00000
G1 X91.587 Y93.137 E2.09176 F787.307
G1 X91.655 Y93.833 E2.10514
G1 X94.732 Y96.911 E2.18834
G1 X94.481 Y97.288 E2.19701
G1 X91.528 Y94.335 E2.27686
G1 X91.301 Y94.736 E2.28568
G1 X94.179 Y97.614 E2.36350
G1 X93.864 Y97.929 E2.37200
G1 X90.982 Y95.046 E2.44993
G1 X90.588 Y95.281 E2.45871
G1 X93.526 Y98.219 E2.53815
G1 X93.172 Y98.494 E2.54671
G1 X90.086 Y95.408 E2.63015
G1 X89.384 Y95.335 E2.64365
G1 X92.768 Y98.719 E2.73516
G1 X92.361 Y98.940 E2.74403
G1 X84.823 Y91.402 E2.94785
G1 X85.019 Y90.970 E2.95692
G1 X88.413 Y94.363 E3.04868
G1 X88.345 Y93.667 E3.06206
G1 X85.268 Y90.589 E3.14527
G1 X85.519 Y90.212 E3.15394
G1 X88.472 Y93.165 E3.23378
G1 X88.699 Y92.764 E3.24260
G1 X85.821 Y89.886 E3.32043
G1 X86.136 Y89.571 E3.32893
G1 X89.018 Y92.454 E3.40686
G1 X89.412 Y92.219 E3.41563
G1 X86.474 Y89.281 E3.49507
G1 X86.828 Y89.006 E3.50364
G1 X89.914 Y92.092 E3.58708
G1 X90.616 Y92.165 E3.60058
G1 X87.231 Y88.781 E3.69209
G1 X87.639 Y88.560 E3.70095
G1 X95.177 Y96.098 E3.90477
G1 X95.369 Y95.661 E3.91389
G1 X88.104 Y88.396 E4.11034
G1 X88.577 Y88.240 E4.11987
G1 X95.497 Y95.160 E4.30698
G1 X95.607 Y94.643 E4.31710
G1 X89.115 Y88.151 E4.49265
G1 X89.689 Y88.095 E4.50366
G1 X95.656 Y94.062 E4.66501
G1 X95.638 Y93.416 E4.67736
G1 X90.317 Y88.095 E4.82124
G1 X91.062 Y88.211 E4.83564
G1 X95.538 Y92.687 E4.95667
G1 X95.263 Y91.784 E4.97472
G1 X91.961 Y88.482 E5.06401
G1 X93.560 Y89.452 F12000.000
G1 X94.201 Y90.093 E5.08135 F787.307
G1 X91.896 Y99.104 F12000.000
G1 X84.631 Y91.839 E5.27780 F787.307
G1 X84.503 Y92.340 E5.28768
G1 X91.423 Y99.260 E5.47480
G1 X90.885 Y99.349 E5.48524
