; generated by Slic3r 1.2.9 on 2015-10-29 at 20:38:32

; external perimeters extrusion width = 0.50mm
; perimeters extrusion width = 0.50mm
; infill extrusion width = 0.50mm
; solid infill extrusion width = 0.50mm
; top infill extrusion width = 0.50mm

M104 S190 ; set temperature
G28 ; home all axes
G1 Z15 F120 ; lift nozzle
M109 S190 ; wait for temperature to be reached
G21 ; set units to millimeters
G90 ; use absolute coordinates
M82 ; use absolute distances for extrusion
G92 E0
M106 S102
G1 E-2.00000 F1680.00000
G92 E0
G1 Z0.400 F12000.000
G1 X27.866 Y37.900 F12000.000
G1 E2.00000 F1680.00000
G1 X31.000 Y37.082 E2.09699 F1200.000
G1 X139.000 Y37.082 E5.33095
G1 X141.222 Y37.479 E5.39854
G1 X143.169 Y38.621 E5.46612 F1200.000
G1 X144.600 Y40.366 E5.53371
G1 X145.418 Y43.500 E5.63069
G1 X145.418 Y126.500 E8.11605
G1 X145.021 Y128.722 E8.18364
G1 X143.879 Y130.669 E8.25122
G1 X142.134 Y132.100 E8.31881
G1 X139.000 Y132.918 E8.41580
G1 X31.000 Y132.918 E11.64976
G1 X28.778 Y132.521 E11.71734
G1 X26.831 Y131.379 E11.78493
G1 X25.400 Y129.634 E11.85251
G1 X24.582 Y126.500 E11.94950
G1 X24.582 Y43.500 E14.43486
G1 X24.979 Y41.278 E14.50245
G1 X26.121 Y39.331 E14.57003
G1 X27.808 Y37.947 E14.63537
G1 E12.63537 F1680.00000
G92 E0
G1 X31.643 Y44.143 F12000.000
G1 E2.00000 F1680.00000
G1 X138.357 Y44.143 E5.00422 F900.000
G1 X138.357 Y125.857 E7.30464
G1 X31.643 Y125.857 E10.30885
G1 X31.643 Y44.218 E12.60716
G1 X31.250 Y43.750 F12000.000
G1 X138.750 Y43.750 E15.63349 F720.000
G1 X138.750 Y126.250 E17.95602
G1 X31.250 Y126.250 E20.98235
G1 X31.250 Y43.825 E23.30277
G1 X31.683 Y44.000 F12000.000
G1 X31.873 Y125.420 F12000.000
G1 X32.080 Y125.627 E23.31101 F1200.000
G1 X32.637 Y125.627 E23.32673
G1 X31.873 Y124.863 E23.35720
G1 X31.873 Y124.307 E23.37292
G1 X33.193 Y125.627 E23.42562
G1 X33.750 Y125.627 E23.44134
G1 X31.873 Y123.750 E23.51627
G1 X31.873 Y123.193 E23.53198
G1 X34.307 Y125.627 E23.62914
G1 X34.864 Y125.627 E23.64486
G1 X31.873 Y122.636 E23.76424
G1 X31.873 Y122.079 E23.77996
G1 X35.421 Y125.627 E23.92157
G1 X35.978 Y125.627 E23.93728
G1 X31.873 Y121.522 E24.10112
G1 X31.873 Y120.966 E24.11684
G1 X36.534 Y125.627 E24.30290
G1 X37.091 Y125.627 E24.31862
G1 X31.873 Y120.409 E24.52691
G1 X31.873 Y119.852 E24.54263
G1 X37.648 Y125.627 E24.77315
G1 X38.205 Y125.627 E24.78887
G1 X31.873 Y119.295 E25.04162
G1 X31.873 Y118.738 E25.05733
G1 X38.762 Y125.627 E25.33231
G1 X39.318 Y125.627 E25.34802
G1 X31.873 Y118.182 E25.64523
G1 X31.873 Y117.625 E25.66094
G1 X39.875 Y125.627 E25.98037
G1 X40.432 Y125.627 E25.99609
G1 X31.873 Y117.068 E26.33775
G1 X31.873 Y116.511 E26.35347
G1 X40.989 Y125.627 E26.71735
G1 X41.546 Y125.627 E26.73307
G1 X31.873 Y115.954 E27.11918
G1 X31.873 Y115.397 E27.13490
G1 X42.103 Y125.627 E27.54324
G1 X42.659 Y125.627 E27.55895
G1 X31.873 Y114.841 E27.98952
G1 X31.873 Y114.284 E28.00524
G1 X43.216 Y125.627 E28.45803
G1 X43.773 Y125.627 E28.47375
G1 X31.873 Y113.727 E28.94877
G1 X31.873 Y113.170 E28.96449
G1 X44.330 Y125.627 E29.46174
G1 X44.887 Y125.627 E29.47745
G1 X31.873 Y112.613 E29.99693
G1 X31.873 Y112.056 E30.01265
G1 X45.444 Y125.627 E30.55435
G1 X46.000 Y125.627 E30.57007
G1 X31.873 Y111.500 E31.13400
G1 X31.873 Y110.943 E31.14972
G1 X46.557 Y125.627 E31.73588
G1 X47.114 Y125.627 E31.75159
G1 X31.873 Y110.386 E32.35998
G1 X31.873 Y109.829 E32.37570
G1 X47.671 Y125.627 E33.00631
G1 X48.228 Y125.627 E33.02203
G1 X31.873 Y109.272 E33.67487
G1 X31.873 Y108.715 E33.69059
G1 X48.785 Y125.627 E34.36566
G1 X49.341 Y125.627 E34.38137
G1 X31.873 Y108.159 E35.07867
G1 X31.873 Y107.602 E35.09439
G1 X49.898 Y125.627 E35.81391
G1 X50.455 Y125.627 E35.82963
G1 X31.873 Y107.045 E36.57138
G1 X31.873 Y106.488 E36.58710
G1 X51.012 Y125.627 E37.35108
G1 X51.569 Y125.627 E37.36679
G1 X31.873 Y105.931 E38.15300
G1 X31.873 Y105.374 E38.16872
G1 X52.126 Y125.627 E38.97715
G1 X52.682 Y125.627 E38.99287
G1 X31.873 Y104.818 E39.82353
G1 X31.873 Y104.261 E39.83924
G1 X53.239 Y125.627 E40.69213
G1 X53.796 Y125.627 E40.70785
G1 X31.873 Y103.704 E41.58297
G1 X31.873 Y103.147 E41.59868
G1 X54.353 Y125.627 E42.49603
G1 X54.910 Y125.627 E42.51174
G1 X31.873 Y102.590 E43.43131
G1 X31.873 Y102.033 E43.44703
G1 X55.466 Y125.627 E44.38883
G1 X56.023 Y125.627 E44.40455
G1 X31.873 Y101.477 E45.36857
G1 X31.873 Y100.920 E45.38429
G1 X56.580 Y125.627 E46.37054
G1 X57.137 Y125.627 E46.38626
G1 X31.873 Y100.363 E47.39474
G1 X31.873 Y99.806 E47.41046
G1 X57.694 Y125.627 E48.44116
G1 X58.251 Y125.627 E48.45688
G1 X31.873 Y99.249 E49.50982
G1 X31.873 Y98.693 E49.52553
G1 X58.807 Y125.627 E50.60070
G1 X59.364 Y125.627 E50.61641
G1 X31.873 Y98.136 E51.71380
G1 X31.873 Y97.579 E51.72952
G1 X59.921 Y125.627 E52.84914
G1 X60.478 Y125.627 E52.86486
G1 X31.873 Y97.022 E54.00670
G1 X31.873 Y96.465 E54.02242
G1 X61.035 Y125.627 E55.18649
G1 X61.592 Y125.627 E55.20221
G1 X31.873 Y95.908 E56.38851
G1 X31.873 Y95.352 E56.40423
G1 X62.148 Y125.627 E57.61275
G1 X62.705 Y125.627 E57.62847
G1 X31.873 Y94.795 E58.85923
G1 X31.873 Y94.238 E58.87494
G1 X63.262 Y125.627 E60.12792
G1 X63.819 Y125.627 E60.14364
G1 X31.873 Y93.681 E61.41885
G1 X31.873 Y93.124 E61.43457
G1 X64.376 Y125.627 E62.73201
G1 X64.933 Y125.627 E62.74772
G1 X31.873 Y92.567 E64.06739
G1 X31.873 Y92.011 E64.08310
G1 X65.489 Y125.627 E65.42500
G1 X66.046 Y125.627 E65.44071
G1 X31.873 Y91.454 E66.80483
G1 X31.873 Y90.897 E66.82055
G1 X66.603 Y125.627 E68.20690
G1 X67.160 Y125.627 E68.22261
G1 X31.873 Y90.340 E69.63119
G1 X31.873 Y89.783 E69.64691
G1 X67.717 Y125.627 E71.07771
G1 X68.274 Y125.627 E71.09343
G1 X31.873 Y89.226 E72.54645
G1 X31.873 Y88.670 E72.56217
G1 X68.830 Y125.627 E74.03743
G1 X69.387 Y125.627 E74.05315
G1 X31.873 Y88.113 E75.55063
G1 X31.873 Y87.556 E75.56635
G1 X69.944 Y125.627 E77.08606
G1 X70.501 Y125.627 E77.10178
G1 X31.873 Y86.999 E78.64371
G1 X31.873 Y86.442 E78.65943
G1 X71.058 Y125.627 E80.22360
G1 X71.615 Y125.627 E80.23932
G1 X31.873 Y85.885 E81.82571
G1 X31.873 Y85.329 E81.84143
G1 X72.171 Y125.627 E83.45005
G1 X72.728 Y125.627 E83.46577
G1 X31.873 Y84.772 E85.09661
G1 X31.873 Y84.215 E85.11233
G1 X73.285 Y125.627 E86.76541
G1 X73.842 Y125.627 E86.78112
G1 X31.873 Y83.658 E88.45643
G1 X31.873 Y83.101 E88.47215
G1 X74.399 Y125.627 E90.16968
G1 X74.955 Y125.627 E90.18539
G1 X31.873 Y82.545 E91.90515
G1 X31.873 Y81.988 E91.92087
G1 X75.512 Y125.627 E93.66286
G1 X76.069 Y125.627 E93.67857
G1 X31.873 Y81.431 E95.44279
G1 X31.873 Y80.874 E95.45850
G1 X76.626 Y125.627 E97.24494
G1 X77.183 Y125.627 E97.26066
G1 X31.873 Y80.317 E99.06933
G1 X31.873 Y79.760 E99.08505
G1 X77.740 Y125.627 E100.91594
G1 X78.296 Y125.627 E100.93166
G1 X31.873 Y79.204 E102.78478
G1 X31.873 Y78.647 E102.80050
G1 X78.853 Y125.627 E104.67585
G1 X79.410 Y125.627 E104.69157
G1 X31.873 Y78.090 E106.58915
G1 X31.873 Y77.533 E106.60486
G1 X79.967 Y125.627 E108.52467
G1 X80.524 Y125.627 E108.54039
G1 X31.873 Y76.976 E110.48242
G1 X31.873 Y76.419 E110.49814
G1 X81.081 Y125.627 E112.46240
G1 X81.637 Y125.627 E112.47811
G1 X31.873 Y75.863 E114.46460
G1 X31.873 Y75.306 E114.48032
G1 X82.194 Y125.627 E116.48903
G1 X82.751 Y125.627 E116.50475
G1 X31.873 Y74.749 E118.53569
G1 X31.873 Y74.192 E118.55141
G1 X83.308 Y125.627 E120.60458
G1 X83.865 Y125.627 E120.62030
G1 X31.873 Y73.635 E122.69570
G1 X31.873 Y73.078 E122.71141
G1 X84.422 Y125.627 E124.80904
G1 X84.978 Y125.627 E124.82476
G1 X31.873 Y72.522 E126.94461
G1 X31.873 Y71.965 E126.96032
G1 X85.535 Y125.627 E129.10240
G1 X86.092 Y125.627 E129.11812
G1 X31.873 Y71.408 E131.28243
G1 X31.873 Y70.851 E131.29815
G1 X86.649 Y125.627 E133.48468
G1 X87.206 Y125.627 E133.50040
G1 X31.873 Y70.294 E135.70916
G1 X31.873 Y69.737 E135.72488
G1 X87.763 Y125.627 E137.95587
G1 X88.319 Y125.627 E137.97158
G1 X31.873 Y69.181 E140.22480
G1 X31.873 Y68.624 E140.24052
G1 X88.876 Y125.627 E142.51596
G1 X89.433 Y125.627 E142.53168
G1 X31.873 Y68.067 E144.82935
G1 X31.873 Y67.510 E144.84507
G1 X89.990 Y125.627 E147.16497
G1 X90.547 Y125.627 E147.18069
G1 X31.873 Y66.953 E149.52281
G1 X31.873 Y66.397 E149.53853
G1 X91.103 Y125.627 E151.90289
G1 X91.660 Y125.627 E151.91860
G1 X31.873 Y65.840 E154.30518
G1 X31.873 Y65.283 E154.32090
G1 X92.217 Y125.627 E156.72971
G1 X92.774 Y125.627 E156.74543
G1 X31.873 Y64.726 E159.17646
G1 X31.873 Y64.169 E159.19218
G1 X93.331 Y125.627 E161.64545
G1 X93.888 Y125.627 E161.66116
G1 X31.873 Y63.612 E164.13665
G1 X31.873 Y63.056 E164.15237
G1 X94.444 Y125.627 E166.65009
G1 X95.001 Y125.627 E166.66581
G1 X31.873 Y62.499 E169.18575
G1 X31.873 Y61.942 E169.20147
G1 X95.558 Y125.627 E171.74365
G1 X96.115 Y125.627 E171.75936
G1 X31.873 Y61.385 E174.32376
G1 X31.873 Y60.828 E174.33948
G1 X96.672 Y125.627 E176.92611
G1 X97.229 Y125.627 E176.94183
G1 X31.873 Y60.271 E179.55068
G1 X31.873 Y59.715 E179.56640
G1 X97.785 Y125.627 E182.19748
G1 X98.342 Y125.627 E182.21320
G1 X31.873 Y59.158 E184.86651
G1 X31.873 Y58.601 E184.88223
G1 X98.899 Y125.627 E187.55777
G1 X99.456 Y125.627 E187.57349
G1 X31.873 Y58.044 E190.27125
G1 X31.873 Y57.487 E190.28697
G1 X100.013 Y125.627 E193.00696
G1 X100.570 Y125.627 E193.02268
G1 X31.873 Y56.930 E195.76490
G1 X31.873 Y56.374 E195.78062
G1 X101.126 Y125.627 E198.54507
G1 X101.683 Y125.627 E198.56078
G1 X31.873 Y55.817 E201.34746
G1 X31.873 Y55.260 E201.36318
G1 X102.240 Y125.627 E204.17208
G1 X102.797 Y125.627 E204.18780
G1 X31.873 Y54.703 E207.01893
G1 X31.873 Y54.146 E207.03464
G1 X103.354 Y125.627 E209.88800
G1 X103.911 Y125.627 E209.90372
G1 X31.873 Y53.589 E212.77930
G1 X31.873 Y53.033 E212.79502
G1 X104.467 Y125.627 E215.69283
G1 X105.024 Y125.627 E215.70855
G1 X31.873 Y52.476 E218.62859
G1 X31.873 Y51.919 E218.64431
G1 X105.581 Y125.627 E221.58658
G1 X106.138 Y125.627 E221.60229
G1 X31.873 Y51.362 E224.56679
G1 X31.873 Y50.805 E224.58251
G1 X106.695 Y125.627 E227.56923
G1 X107.251 Y125.627 E227.58495
G1 X31.873 Y50.249 E230.59390
G1 X31.873 Y49.692 E230.60961
G1 X107.808 Y125.627 E233.64079
G1 X108.365 Y125.627 E233.65651
G1 X31.873 Y49.135 E236.70991
G1 X31.873 Y48.578 E236.72563
G1 X108.922 Y125.627 E239.80126
G1 X109.479 Y125.627 E239.81698
G1 X31.873 Y48.021 E242.91484
G1 X31.873 Y47.464 E242.93056
G1 X110.036 Y125.627 E246.05064
G1 X110.592 Y125.627 E246.06636
G1 X31.873 Y46.908 E249.20868
G1 X31.873 Y46.351 E249.22439
G1 X111.149 Y125.627 E252.38894
G1 X111.706 Y125.627 E252.40465
G1 X31.873 Y45.794 E255.59142
G1 X31.873 Y45.237 E255.60714
G1 X112.263 Y125.627 E258.81614
G1 X112.820 Y125.627 E258.83185
G1 X31.873 Y44.680 E262.06308
G1 X32.123 Y44.373 E262.07425
G1 X113.377 Y125.627 E265.31773
G1 X113.933 Y125.627 E265.33345
G1 X32.680 Y44.373 E268.57693
G1 X33.237 Y44.373 E268.59265
G1 X114.490 Y125.627 E271.83613
G1 X115.047 Y125.627 E271.85185
G1 X33.793 Y44.373 E275.09533
G1 X34.350 Y44.373 E275.11105
G1 X115.604 Y125.627 E278.35453
G1 X116.161 Y125.627 E278.37025
G1 X34.907 Y44.373 E281.61373
G1 X35.464 Y44.373 E281.62945
G1 X116.718 Y125.627 E284.87293
G1 X117.274 Y125.627 E284.88864
G1 X36.021 Y44.373 E288.13213
G1 X36.578 Y44.373 E288.14784
G1 X117.831 Y125.627 E291.39133
G1 X118.388 Y125.627 E291.40704
G1 X37.134 Y44.373 E294.65052
G1 X37.691 Y44.373 E294.66624
G1 X118.945 Y125.627 E297.90972
G1 X119.502 Y125.627 E297.92544
G1 X38.248 Y44.373 E301.16892
G1 X38.805 Y44.373 E301.18464
G1 X120.059 Y125.627 E304.42812
G1 X120.615 Y125.627 E304.44384
G1 X39.362 Y44.373 E307.68732
G1 X39.919 Y44.373 E307.70304
G1 X121.172 Y125.627 E310.94652
G1 X121.729 Y125.627 E310.96224
G1 X40.475 Y44.373 E314.20572
G1 X41.032 Y44.373 E314.22144
G1 X122.286 Y125.627 E317.46492
G1 X122.843 Y125.627 E317.48063
G1 X41.589 Y44.373 E320.72412
G1 X42.146 Y44.373 E320.73983
G1 X123.399 Y125.627 E323.98332
G1 X123.956 Y125.627 E323.99903
G1 X42.703 Y44.373 E327.24251
G1 X43.259 Y44.373 E327.25823
G1 X124.513 Y125.627 E330.50171
G1 X125.070 Y125.627 E330.51743
G1 X43.816 Y44.373 E333.76091
G1 X44.373 Y44.373 E333.77663
G1 X125.627 Y125.627 E337.02011
G1 X126.184 Y125.627 E337.03583
G1 X44.930 Y44.373 E340.27931
G1 X45.487 Y44.373 E340.29503
G1 X126.740 Y125.627 E343.53851
G1 X127.297 Y125.627 E343.55423
G1 X46.044 Y44.373 E346.79771
G1 X46.600 Y44.373 E346.81343
G1 X127.854 Y125.627 E350.05691
G1 X128.411 Y125.627 E350.07262
G1 X47.157 Y44.373 E353.31611
G1 X47.714 Y44.373 E353.33182
G1 X128.968 Y125.627 E356.57531
G1 X129.525 Y125.627 E356.59102
G1 X48.271 Y44.373 E359.83450
G1 X48.828 Y44.373 E359.85022
G1 X130.081 Y125.627 E363.09370
G1 X130.638 Y125.627 E363.10942
G1 X49.385 Y44.373 E366.35290
G1 X49.941 Y44.373 E366.36862
G1 X131.195 Y125.627 E369.61210
G1 X131.752 Y125.627 E369.62782
G1 X50.498 Y44.373 E372.87130
G1 X51.055 Y44.373 E372.88702
G1 X132.309 Y125.627 E376.13050
G1 X132.866 Y125.627 E376.14622
G1 X51.612 Y44.373 E379.38970
G1 X52.169 Y44.373 E379.40542
G1 X133.422 Y125.627 E382.64890
G1 X133.979 Y125.627 E382.66462
G1 X52.726 Y44.373 E385.90810
G1 X53.282 Y44.373 E385.92381
G1 X134.536 Y125.627 E389.16730
G1 X135.093 Y125.627 E389.18301
G1 X53.839 Y44.373 E392.42650
G1 X54.396 Y44.373 E392.44221
G1 X135.650 Y125.627 E395.68569
G1 X136.207 Y125.627 E395.70141
G1 X54.953 Y44.373 E398.94489
G1 X55.510 Y44.373 E398.96061
G1 X136.763 Y125.627 E402.20409
G1 X137.320 Y125.627 E402.21981
G1 X56.067 Y44.373 E405.46329
G1 X56.623 Y44.373 E405.47901
G1 X137.877 Y125.627 E408.72249
G1 X138.127 Y125.320 E408.73366
G1 X57.180 Y44.373 E411.96489
G1 X57.737 Y44.373 E411.98061
G1 X138.127 Y124.763 E415.18960
G1 X138.127 Y124.206 E415.20532
G1 X58.294 Y44.373 E418.39209
G1 X58.851 Y44.373 E418.40781
G1 X138.127 Y123.649 E421.57235
G1 X138.127 Y123.093 E421.58807
G1 X59.407 Y44.373 E424.73039
G1 X59.964 Y44.373 E424.74611
G1 X138.127 Y122.536 E427.86619
G1 X138.127 Y121.979 E427.88191
G1 X60.521 Y44.373 E430.97977
G1 X61.078 Y44.373 E430.99549
G1 X138.127 Y121.422 E434.07112
G1 X138.127 Y120.865 E434.08684
G1 X61.635 Y44.373 E437.14025
G1 X62.192 Y44.373 E437.15597
G1 X138.127 Y120.308 E440.18715
G1 X138.127 Y119.752 E440.20286
G1 X62.748 Y44.373 E443.21181
G1 X63.305 Y44.373 E443.22753
G1 X138.127 Y119.195 E446.21426
G1 X138.127 Y118.638 E446.22997
G1 X63.862 Y44.373 E449.19447
G1 X64.419 Y44.373 E449.21019
G1 X138.127 Y118.081 E452.15246
G1 X138.127 Y117.524 E452.16817
G1 X64.976 Y44.373 E455.08822
G1 X65.533 Y44.373 E455.10393
G1 X138.127 Y116.967 E458.00175
G1 X138.127 Y116.411 E458.01747
G1 X66.089 Y44.373 E460.89305
G1 X66.646 Y44.373 E460.90877
G1 X138.127 Y115.854 E463.76213
G1 X138.127 Y115.297 E463.77785
G1 X67.203 Y44.373 E466.60898
G1 X67.760 Y44.373 E466.62470
G1 X138.127 Y114.740 E469.43360
G1 X138.127 Y114.183 E469.44932
G1 X68.317 Y44.373 E472.23600
G1 X68.874 Y44.373 E472.25171
G1 X138.127 Y113.626 E475.01616
G1 X138.127 Y113.070 E475.03188
G1 X69.430 Y44.373 E477.77410
G1 X69.987 Y44.373 E477.78982
G1 X138.127 Y112.513 E480.50982
G1 X138.127 Y111.956 E480.52553
G1 X70.544 Y44.373 E483.22330
G1 X71.101 Y44.373 E483.23902
G1 X138.127 Y111.399 E485.91456
G1 X138.127 Y110.842 E485.93028
G1 X71.658 Y44.373 E488.58359
G1 X72.215 Y44.373 E488.59931
G1 X138.127 Y110.285 E491.23039
G1 X138.127 Y109.729 E491.24611
G1 X72.771 Y44.373 E493.85497
G1 X73.328 Y44.373 E493.87068
G1 X138.127 Y109.172 E496.45731
G1 X138.127 Y108.615 E496.47303
G1 X73.885 Y44.373 E499.03743
G1 X74.442 Y44.373 E499.05315
G1 X138.127 Y108.058 E501.59533
G1 X138.127 Y107.501 E501.61104
G1 X74.999 Y44.373 E504.13099
G1 X75.556 Y44.373 E504.14671
G1 X138.127 Y106.944 E506.64443
G1 X138.127 Y106.388 E506.66015
G1 X76.112 Y44.373 E509.13564
G1 X76.669 Y44.373 E509.15136
G1 X138.127 Y105.831 E511.60462
G1 X138.127 Y105.274 E511.62034
G1 X77.226 Y44.373 E514.05138
G1 X77.783 Y44.373 E514.06710
G1 X138.127 Y104.717 E516.47591
G1 X138.127 Y104.160 E516.49162
G1 X78.340 Y44.373 E518.87821
G1 X78.896 Y44.373 E518.89393
G1 X138.127 Y103.604 E521.25828
G1 X138.127 Y103.047 E521.27400
G1 X79.453 Y44.373 E523.61613
G1 X80.010 Y44.373 E523.63184
G1 X138.127 Y102.490 E525.95175
G1 X138.127 Y101.933 E525.96746
G1 X80.567 Y44.373 E528.26514
G1 X81.124 Y44.373 E528.28085
G1 X138.127 Y101.376 E530.55630
G1 X138.127 Y100.819 E530.57202
