; generated by Slic3r 1.2.9 on 2015-09-03 at 17:25:40

; external perimeters extrusion width = 0.50mm
; perimeters extrusion width = 0.50mm
; infill extrusion width = 0.50mm
; solid infill extrusion width = 0.50mm
; top infill extrusion width = 0.50mm

M104 S190 ; set temperature
G28 ; home all axes
G1 Z15 F120 ; lift nozzle
M109 S190 ; wait for temperature to be reached
G21 ; set units to millimeters
G90 ; use absolute coordinates
M82 ; use absolute distances for extrusion
G92 E0
M106 S102
G1 E-2.00000 F1680.00000
G92 E0
G1 Z0.350 F12000.000
G1 X46.778 Y51.013 F12000.000
G1 E2.00000 F1680.00000
G1 X48.663 Y49.351 E2.07075 F1200.000
G1 X50.960 Y47.554 E2.15286
G1 X51.287 Y47.316 E2.16425
G1 X53.707 Y45.687 E2.24637
G1 X55.870 Y44.408 E2.31711
G1 X58.463 Y43.072 E2.39923
G1 X61.109 Y41.913 E2.48055
G1 X61.511 Y41.753 E2.49273
G1 X63.875 Y40.902 E2.56348
G1 X66.673 Y40.076 E2.64560
G1 X69.517 Y39.427 E2.72771
G1 X69.914 Y39.351 E2.73910
G1 X72.396 Y38.958 E2.80984
G1 X75.299 Y38.671 E2.89196
G1 X75.702 Y38.646 E2.90334
G1 X78.618 Y38.567 E2.98546
G1 X81.534 Y38.671 E3.06758 F1200.000
G1 X84.035 Y38.908 E3.13833
G1 X86.918 Y39.351 E3.22044
G1 X87.316 Y39.427 E3.23183
G1 X90.159 Y40.076 E3.31394
G1 X92.572 Y40.777 E3.38468
G1 X95.321 Y41.753 E3.46681
G1 X98.079 Y42.933 E3.55126
G1 X134.216 Y59.126 E4.66604
G1 X136.084 Y60.399 E4.72967
G1 X137.398 Y62.238 E4.79330
G1 X138.020 Y65.000 E4.87301
G1 X138.020 Y105.000 E5.99908
G1 X137.623 Y107.225 E6.06271
G1 X136.482 Y109.176 E6.12635
G1 X134.216 Y110.874 E6.20605
G1 X98.004 Y127.100 E7.32316
G1 X95.321 Y128.247 E7.40528
G1 X92.573 Y129.223 E7.48739
G1 X89.768 Y130.025 E7.56952
G1 X86.919 Y130.649 E7.65163
G1 X84.036 Y131.092 E7.73374
G1 X81.534 Y131.329 E7.80450
G1 X81.130 Y131.354 E7.81589
G1 X78.214 Y131.433 E7.89800
G1 X75.702 Y131.354 E7.96874
G1 X72.797 Y131.092 E8.05087
G1 X69.914 Y130.649 E8.13299
G1 X69.517 Y130.573 E8.14437
G1 X67.064 Y130.025 E8.21511
G1 X64.260 Y129.223 E8.29723
G1 X63.875 Y129.098 E8.30861
G1 X61.136 Y128.098 E8.39072
G1 X58.463 Y126.928 E8.47284
G1 X56.224 Y125.787 E8.54360
G1 X53.707 Y124.313 E8.62572
G1 X53.365 Y124.096 E8.63710
G1 X50.960 Y122.446 E8.71922
G1 X48.663 Y120.649 E8.80133
G1 X46.483 Y118.710 E8.88345
G1 X44.430 Y116.638 E8.96558
G1 X42.510 Y114.442 E9.04769
G1 X40.970 Y112.456 E9.11844
G1 X39.320 Y110.051 E9.20056
G1 X37.824 Y107.546 E9.28268
G1 X36.488 Y104.953 E9.36480
G1 X35.318 Y102.281 E9.44692
G1 X34.318 Y99.541 E9.52904
G1 X34.193 Y99.156 E9.54043
G1 X33.392 Y96.352 E9.62254
G1 X32.768 Y93.502 E9.70466
G1 X32.324 Y90.619 E9.78678
G1 X32.087 Y88.117 E9.85752
G1 X31.983 Y85.202 E9.93965
G1 X32.062 Y82.286 E10.02176
G1 X32.087 Y81.883 E10.03315
G1 X32.374 Y78.980 E10.11527
G1 X32.843 Y76.101 E10.19739
G1 X33.492 Y73.257 E10.27950
G1 X34.318 Y70.459 E10.36163
G1 X35.169 Y68.095 E10.43237
G1 X36.285 Y65.484 E10.51229
G1 X36.488 Y65.047 E10.52587
G1 X37.824 Y62.454 E10.60799
G1 X39.319 Y59.949 E10.69010
G1 X40.970 Y57.544 E10.77223
G1 X42.768 Y55.247 E10.85435
G1 X44.706 Y53.067 E10.93647
G1 X46.723 Y51.065 E11.01648
G1 E9.01648 F1680.00000
G92 E0
G1 X55.731 Y60.843 F12000.000
G1 E2.00000 F1680.00000
G1 X57.293 Y59.466 E2.05419 F900.000
G1 X58.938 Y58.190 E2.10838
G1 X60.659 Y57.020 E2.16256
G1 X62.451 Y55.960 E2.21675
G1 X64.306 Y55.015 E2.27094
G1 X66.217 Y54.188 E2.32513
G1 X68.176 Y53.483 E2.37931
G1 X70.175 Y52.902 E2.43350
G1 X72.207 Y52.448 E2.48769
G1 X74.263 Y52.123 E2.54188
G1 X76.335 Y51.927 E2.59607
G1 X77.449 Y51.892 E2.62506
G1 X78.416 Y51.861 E2.65025 F900.000
G1 X80.497 Y51.927 E2.70444
G1 X82.570 Y52.123 E2.75863
G1 X84.626 Y52.448 E2.81282
G1 X86.661 Y52.903 E2.86711
G1 X88.657 Y53.483 E2.92120
G1 X90.615 Y54.188 E2.97538
G1 X92.530 Y55.017 E3.02967
G1 X94.381 Y55.960 E3.08376
G1 X96.173 Y57.020 E3.13794
G1 X97.895 Y58.190 E3.19213
G1 X99.540 Y59.466 E3.24632
G1 X101.101 Y60.843 E3.30051
G1 X102.573 Y62.315 E3.35470
G1 X103.950 Y63.877 E3.40888
G1 X105.226 Y65.522 E3.46307
G1 X106.396 Y67.243 E3.51726
G1 X107.456 Y69.035 E3.57145
G1 X108.401 Y70.890 E3.62564
G1 X109.228 Y72.801 E3.67983
G1 X109.933 Y74.759 E3.73401
G1 X110.514 Y76.759 E3.78820
G1 X110.968 Y78.790 E3.84239
G1 X111.294 Y80.847 E3.89657
G1 X111.490 Y82.919 E3.95076
G1 X111.555 Y85.000 E4.00495
G1 X111.490 Y87.081 E4.05914
G1 X111.294 Y89.153 E4.11333
G1 X110.968 Y91.210 E4.16751
G1 X110.514 Y93.241 E4.22170
G1 X109.933 Y95.240 E4.27589
G1 X109.228 Y97.199 E4.33008
G1 X108.401 Y99.110 E4.38426
G1 X107.456 Y100.965 E4.43845
G1 X106.396 Y102.757 E4.49264
G1 X105.226 Y104.478 E4.54683
G1 X103.950 Y106.123 E4.60102
G1 X102.573 Y107.685 E4.65521
G1 X101.117 Y109.141 E4.70881
G1 X99.540 Y110.534 E4.76357
G1 X97.895 Y111.810 E4.81777
G1 X96.173 Y112.980 E4.87196
G1 X94.381 Y114.040 E4.92614
G1 X92.542 Y114.977 E4.97986
G1 X90.615 Y115.812 E5.03451
G1 X88.657 Y116.517 E5.08870
G1 X86.657 Y117.098 E5.14289
G1 X84.626 Y117.552 E5.19708
G1 X82.570 Y117.877 E5.25127
G1 X80.497 Y118.073 E5.30546
G1 X78.416 Y118.139 E5.35965
G1 X76.335 Y118.073 E5.41383
G1 X74.263 Y117.877 E5.46802
G1 X72.207 Y117.552 E5.52221
G1 X70.175 Y117.098 E5.57640
G1 X68.176 Y116.517 E5.63059
G1 X66.217 Y115.812 E5.68477
G1 X65.211 Y115.376 E5.71330
G1 X64.306 Y114.985 E5.73896
G1 X62.451 Y114.040 E5.79315
G1 X60.659 Y112.980 E5.84734
G1 X58.938 Y111.810 E5.90152
G1 X57.290 Y110.531 E5.95582
G1 X55.731 Y109.157 E6.00990
G1 X54.259 Y107.685 E6.06409
G1 X52.882 Y106.123 E6.11828
G1 X51.606 Y104.478 E6.17246
G1 X50.436 Y102.757 E6.22665
G1 X49.376 Y100.965 E6.28084
G1 X48.431 Y99.110 E6.33503
G1 X47.605 Y97.199 E6.38922
G1 X46.899 Y95.240 E6.44340
G1 X46.318 Y93.241 E6.49759
G1 X45.864 Y91.210 E6.55178
G1 X45.539 Y89.153 E6.60597
G1 X45.343 Y87.081 E6.66015
G1 X45.277 Y85.000 E6.71434
G1 X45.343 Y82.919 E6.76853
G1 X45.539 Y80.847 E6.82272
G1 X45.864 Y78.790 E6.87691
G1 X46.318 Y76.759 E6.93109
G1 X46.899 Y74.759 E6.98528
G1 X47.605 Y72.801 E7.03947
G1 X48.431 Y70.890 E7.09366
G1 X49.376 Y69.035 E7.14784
G1 X50.436 Y67.243 E7.20203
G1 X51.606 Y65.522 E7.25622
G1 X52.882 Y63.877 E7.31041
G1 X54.259 Y62.315 E7.36460
G1 X55.678 Y60.896 E7.41683
G1 X55.963 Y61.181 F12000.000
G1 X57.550 Y59.777 E7.47198 F720.000
G1 X59.175 Y58.517 E7.52551
G1 X60.876 Y57.361 E7.57904
G1 X62.646 Y56.314 E7.63256
G1 X64.478 Y55.380 E7.68609
G1 X66.366 Y54.564 E7.73962
G1 X68.300 Y53.867 E7.79314
G1 X70.275 Y53.293 E7.84667
G1 X72.282 Y52.845 E7.90020
G1 X74.313 Y52.523 E7.95373
G1 X76.361 Y52.329 E8.00726
G1 X77.462 Y52.295 E8.03593
G1 X78.416 Y52.265 E8.06079 F720.000
G1 X80.472 Y52.329 E8.11431
G1 X82.519 Y52.523 E8.16784
G1 X84.550 Y52.845 E8.22137
G1 X86.561 Y53.294 E8.27500
G1 X88.532 Y53.867 E8.32843
G1 X90.467 Y54.564 E8.38195
G1 X92.358 Y55.382 E8.43559
G1 X94.186 Y56.314 E8.48901
G1 X95.957 Y57.361 E8.54254
G1 X97.657 Y58.517 E8.59606
G1 X99.282 Y59.777 E8.64959
G1 X100.825 Y61.137 E8.70312
G1 X102.279 Y62.591 E8.75665
G1 X103.639 Y64.134 E8.81018
G1 X104.899 Y65.759 E8.86370
G1 X106.055 Y67.460 E8.91723
G1 X107.102 Y69.230 E8.97076
G1 X108.036 Y71.062 E9.02429
G1 X108.852 Y72.949 E9.07782
G1 X109.549 Y74.884 E9.13134
G1 X110.123 Y76.859 E9.18487
G1 X110.571 Y78.866 E9.23840
G1 X110.893 Y80.897 E9.29193
G1 X111.087 Y82.945 E9.34545
G1 X111.151 Y85.000 E9.39898
G1 X111.087 Y87.055 E9.45251
G1 X110.893 Y89.103 E9.50604
G1 X110.571 Y91.134 E9.55957
G1 X110.123 Y93.141 E9.61309
G1 X109.549 Y95.116 E9.66662
G1 X108.852 Y97.051 E9.72015
G1 X108.036 Y98.938 E9.77368
G1 X107.102 Y100.770 E9.82720
G1 X106.055 Y102.540 E9.88073
G1 X104.899 Y104.241 E9.93426
G1 X103.639 Y105.866 E9.98779
G1 X102.279 Y107.409 E10.04132
G1 X100.841 Y108.847 E10.09427
G1 X99.282 Y110.223 E10.14837
G1 X97.657 Y111.483 E10.20190
G1 X95.957 Y112.639 E10.25543
G1 X94.186 Y113.686 E10.30896
G1 X92.370 Y114.611 E10.36201
G1 X90.467 Y115.436 E10.41601
G1 X88.532 Y116.133 E10.46954
G1 X86.557 Y116.707 E10.52307
G1 X84.550 Y117.155 E10.57659
G1 X82.519 Y117.477 E10.63012
G1 X80.472 Y117.671 E10.68365
G1 X78.416 Y117.735 E10.73718
G1 X76.361 Y117.671 E10.79070
G1 X74.313 Y117.477 E10.84423
G1 X72.282 Y117.155 E10.89776
G1 X70.275 Y116.707 E10.95129
G1 X68.300 Y116.133 E11.00482
G1 X66.366 Y115.436 E11.05834
G1 X65.371 Y115.006 E11.08654
G1 X64.478 Y114.620 E11.11187
G1 X62.646 Y113.686 E11.16540
G1 X60.876 Y112.639 E11.21893
G1 X59.175 Y111.483 E11.27245
G1 X57.547 Y110.220 E11.32609
G1 X56.007 Y108.863 E11.37951
G1 X54.553 Y107.409 E11.43304
G1 X53.193 Y105.866 E11.48657
G1 X51.933 Y104.241 E11.54010
G1 X50.777 Y102.540 E11.59362
G1 X49.730 Y100.770 E11.64715
G1 X48.796 Y98.938 E11.70068
G1 X47.980 Y97.051 E11.75421
G1 X47.283 Y95.116 E11.80773
G1 X46.709 Y93.141 E11.86126
G1 X46.261 Y91.134 E11.91479
G1 X45.939 Y89.103 E11.96832
G1 X45.746 Y87.055 E12.02185
G1 X45.681 Y85.000 E12.07537
G1 X45.746 Y82.945 E12.12890
G1 X45.939 Y80.897 E12.18243
G1 X46.261 Y78.866 E12.23596
G1 X46.709 Y76.859 E12.28948
G1 X47.283 Y74.884 E12.34301
G1 X47.980 Y72.949 E12.39654
G1 X48.796 Y71.062 E12.45007
G1 X49.730 Y69.230 E12.50360
G1 X50.777 Y67.460 E12.55712
G1 X51.933 Y65.759 E12.61065
G1 X53.193 Y64.134 E12.66418
G1 X54.553 Y62.591 E12.71771
G1 X55.910 Y61.234 E12.76766
G1 X55.854 Y60.693 F12000.000
G1 E10.76766 F1680.00000
G92 E0
G1 X41.266 Y97.911 F12000.000
G1 E2.00000 F1680.00000
G1 X40.996 Y97.159 E2.02080 F900.000
G1 X40.306 Y94.785 E2.08514
G1 X39.767 Y92.373 E2.14948
G1 X39.380 Y89.931 E2.21382
G1 X39.147 Y87.458 E2.27849
G1 X39.070 Y85.000 E2.34249
G1 X39.148 Y82.529 E2.40683
G1 X39.380 Y80.069 E2.47117
G1 X39.755 Y77.704 E2.53349
G1 X40.306 Y75.214 E2.59986
G1 X40.996 Y72.841 E2.66418
G1 X41.833 Y70.516 E2.72852
G1 X42.815 Y68.247 E2.79286
G1 X43.937 Y66.045 E2.85720
G1 X45.166 Y63.966 E2.92007
G1 X46.585 Y61.873 E2.98588
G1 X48.099 Y59.920 E3.05021
G1 X49.734 Y58.066 E3.11455
G1 X51.482 Y56.318 E3.17888
G1 X53.368 Y54.658 E3.24428
G1 X55.289 Y53.168 E3.30756
G1 X57.333 Y51.779 E3.37190
G1 X59.461 Y50.521 E3.43624
G1 X61.569 Y49.447 E3.49782
G1 X63.933 Y48.416 E3.56493
G1 X66.257 Y47.579 E3.62925
G1 X68.631 Y46.890 E3.69358
G1 X71.043 Y46.351 E3.75792
G1 X73.485 Y45.964 E3.82226
G1 X75.946 Y45.731 E3.88660
G1 X78.416 Y45.654 E3.95094
G1 X80.859 Y45.730 E4.01455
G1 X83.348 Y45.964 E4.07962 F900.000
G1 X85.789 Y46.351 E4.14395
G1 X88.201 Y46.890 E4.20829
G1 X90.575 Y47.579 E4.27263
G1 X92.900 Y48.417 E4.33696
G1 X95.169 Y49.398 E4.40130
G1 X97.371 Y50.521 E4.46564
G1 X99.499 Y51.779 E4.52998
G1 X101.543 Y53.168 E4.59432
G1 X103.496 Y54.683 E4.65866
G1 X105.351 Y56.318 E4.72300
G1 X107.098 Y58.066 E4.78733
G1 X108.733 Y59.920 E4.85167
G1 X110.248 Y61.873 E4.91601
G1 X111.637 Y63.917 E4.98035
G1 X112.664 Y65.653 E5.03285
G1 X130.250 Y65.653 E5.49060
G1 X129.903 Y66.101 E5.50532
G1 X128.768 Y67.771 E5.55790
G1 X127.740 Y69.510 E5.61048
G1 X126.818 Y71.320 E5.66335
G1 X126.020 Y73.163 E5.71563
G1 X125.336 Y75.064 E5.76821
G1 X124.773 Y77.004 E5.82079
G1 X124.332 Y78.975 E5.87336
G1 X124.016 Y80.970 E5.92594
G1 X123.826 Y82.981 E5.97852
G1 X123.762 Y85.000 E6.03110
G1 X123.826 Y87.019 E6.08367
G1 X124.016 Y89.030 E6.13625
G1 X124.332 Y91.025 E6.18883
G1 X124.773 Y92.996 E6.24140
G1 X125.336 Y94.936 E6.29398
G1 X126.020 Y96.837 E6.34656
G1 X126.818 Y98.680 E6.39884
G1 X127.740 Y100.490 E6.45171
G1 X128.768 Y102.229 E6.50429
G1 X129.903 Y103.899 E6.55687
G1 X130.250 Y104.347 E6.57160
G1 X112.664 Y104.347 E7.02934
G1 X111.637 Y106.083 E7.08185
G1 X110.248 Y108.127 E7.14618
G1 X108.733 Y110.080 E7.21052
G1 X107.098 Y111.934 E7.27486
G1 X105.351 Y113.682 E7.33920
G1 X103.496 Y115.317 E7.40353
G1 X101.543 Y116.832 E7.46787
G1 X99.499 Y118.221 E7.53221
G1 X97.371 Y119.479 E7.59655
G1 X95.169 Y120.602 E7.66089
G1 X92.901 Y121.583 E7.72522
G1 X90.548 Y122.428 E7.79029
G1 X88.201 Y123.110 E7.85390
G1 X85.789 Y123.649 E7.91824
G1 X83.348 Y124.036 E7.98258
G1 X80.887 Y124.269 E8.04692
G1 X78.416 Y124.346 E8.11125
G1 X75.946 Y124.269 E8.17559
G1 X73.485 Y124.036 E8.23993
G1 X71.043 Y123.649 E8.30427
G1 X68.631 Y123.110 E8.36861
G1 X66.257 Y122.421 E8.43295
G1 X63.932 Y121.583 E8.49728
G1 X61.638 Y120.589 E8.56235
G1 X59.461 Y119.479 E8.62596
G1 X57.333 Y118.221 E8.69030
G1 X55.289 Y116.832 E8.75464
G1 X53.336 Y115.317 E8.81897
G1 X51.467 Y113.667 E8.88387
G1 X49.734 Y111.934 E8.94765
G1 X48.099 Y110.080 E9.01199
G1 X46.584 Y108.127 E9.07633
G1 X45.195 Y106.083 E9.14066
G1 X43.937 Y103.955 E9.20500
G1 X42.815 Y101.753 E9.26934
G1 X41.833 Y99.484 E9.33368
G1 X41.292 Y97.981 E9.37526
G1 X40.912 Y98.118 F12000.000
G1 X40.612 Y97.283 E9.39835 F720.000
G1 X39.915 Y94.885 E9.46335
G1 X39.370 Y92.448 E9.52834
G1 X38.980 Y89.982 E9.59334
G1 X38.744 Y87.483 E9.65868
G1 X38.666 Y85.000 E9.72334
G1 X38.745 Y82.504 E9.78834
G1 X38.980 Y80.018 E9.85333
G1 X39.358 Y77.629 E9.91630
G1 X39.915 Y75.114 E9.98333
G1 X40.612 Y72.717 E10.04833
G1 X41.458 Y70.367 E10.11332
G1 X42.449 Y68.075 E10.17832
G1 X43.583 Y65.850 E10.24332
G1 X44.825 Y63.750 E10.30685
G1 X46.258 Y61.635 E10.37332
G1 X47.788 Y59.662 E10.43831
G1 X49.440 Y57.789 E10.50331
G1 X51.205 Y56.024 E10.56830
G1 X53.111 Y54.347 E10.63437
G1 X55.052 Y52.842 E10.69830
G1 X57.117 Y51.438 E10.76330
G1 X59.267 Y50.167 E10.82830
G1 X61.397 Y49.082 E10.89053
G1 X63.784 Y48.041 E10.95830
G1 X66.133 Y47.196 E11.02329
G1 X68.531 Y46.499 E11.08829
G1 X70.968 Y45.954 E11.15329
G1 X73.434 Y45.564 E11.21828
G1 X75.920 Y45.329 E11.28328
G1 X78.416 Y45.250 E11.34828
G1 X80.884 Y45.328 E11.41255
G1 X83.398 Y45.564 E11.47828 F720.000
G1 X85.865 Y45.954 E11.54327
G1 X88.302 Y46.499 E11.60827
G1 X90.700 Y47.196 E11.67327
G1 X93.049 Y48.041 E11.73827
G1 X95.341 Y49.033 E11.80327
G1 X97.566 Y50.167 E11.86826
G1 X99.715 Y51.438 E11.93326
G1 X101.781 Y52.842 E11.99826
G1 X103.754 Y54.372 E12.06326
G1 X105.627 Y56.024 E12.12826
G1 X107.393 Y57.789 E12.19326
G1 X109.044 Y59.662 E12.25825
G1 X110.575 Y61.636 E12.32325
G1 X111.978 Y63.701 E12.38825
G1 X112.894 Y65.250 E12.43509
G1 X131.074 Y65.250 E12.90829
G1 X130.230 Y66.338 E12.94412
G1 X129.109 Y67.987 E12.99604
G1 X128.093 Y69.704 E13.04795
G1 X127.183 Y71.492 E13.10016
G1 X126.396 Y73.312 E13.15179
G1 X125.720 Y75.189 E13.20370
G1 X125.163 Y77.104 E13.25562
G1 X124.728 Y79.051 E13.30754
G1 X124.416 Y81.021 E13.35946
G1 X124.229 Y83.006 E13.41137
G1 X124.166 Y85.000 E13.46329
G1 X124.229 Y86.994 E13.51521
G1 X124.416 Y88.979 E13.56712
G1 X124.728 Y90.949 E13.61904
G1 X125.163 Y92.896 E13.67096
G1 X125.720 Y94.811 E13.72288
G1 X126.396 Y96.688 E13.77479
G1 X127.183 Y98.508 E13.82642
G1 X128.093 Y100.296 E13.87862
G1 X129.109 Y102.013 E13.93054
G1 X130.230 Y103.662 E13.98246
G1 X131.074 Y104.750 E14.01829
G1 X112.894 Y104.750 E14.49149
G1 X111.978 Y106.299 E14.53833
G1 X110.574 Y108.364 E14.60333
G1 X109.044 Y110.338 E14.66833
G1 X107.393 Y112.211 E14.73332
G1 X105.627 Y113.976 E14.79832
G1 X103.754 Y115.628 E14.86332
G1 X101.781 Y117.158 E14.92832
G1 X99.715 Y118.562 E14.99332
G1 X97.566 Y119.833 E15.05832
G1 X95.341 Y120.967 E15.12331
G1 X93.049 Y121.959 E15.18831
G1 X90.672 Y122.812 E15.25404
G1 X88.302 Y123.501 E15.31831
G1 X85.865 Y124.046 E15.38330
G1 X83.398 Y124.436 E15.44830
G1 X80.912 Y124.671 E15.51330
G1 X78.416 Y124.750 E15.57830
G1 X75.920 Y124.671 E15.64330
G1 X73.434 Y124.436 E15.70830
G1 X70.968 Y124.046 E15.77329
G1 X68.531 Y123.501 E15.83829
G1 X66.133 Y122.804 E15.90329
G1 X63.783 Y121.959 E15.96829
G1 X61.466 Y120.954 E16.03402
G1 X59.267 Y119.833 E16.09828
G1 X57.117 Y118.562 E16.16328
G1 X55.052 Y117.158 E16.22828
G1 X53.079 Y115.628 E16.29328
G1 X51.190 Y113.961 E16.35884
G1 X49.440 Y112.211 E16.42327
G1 X47.788 Y110.338 E16.48827
G1 X46.258 Y108.364 E16.55327
G1 X44.854 Y106.299 E16.61827
G1 X43.583 Y104.150 E16.68327
G1 X42.449 Y101.925 E16.74826
G1 X41.458 Y99.633 E16.81326
G1 X40.938 Y98.188 E16.85322
G1 X41.235 Y97.736 F12000.000
G1 X41.674 Y98.241 F12000.000
G1 X65.176 Y121.743 E17.72064 F1200.000
G1 X66.069 Y122.064 F12000.000
G1 X41.352 Y97.347 E18.63293 F1200.000
G1 X41.081 Y96.504 E18.65603
G1 X66.912 Y122.335 E19.60942
G1 X67.719 Y122.569 E19.63134
G1 X40.847 Y95.698 E20.62313
G1 X40.612 Y94.891 E20.64504
G1 X68.525 Y122.804 E21.67524
