; generated by Slic3r 0.9.10b on 2013-10-30 at 10:07:47

; layer_height = 0.3
; perimeters = 2
; top_solid_layers = 2
; bottom_solid_layers = 2
; fill_density = 0.3
; perimeter_speed = 30
; infill_speed = 30
; travel_speed = 200
; nozzle_diameter = 0.5
; filament_diameter = 2.98
; extrusion_multiplier = 0.9
; perimeters extrusion width = 0.70mm
; infill extrusion width = 0.70mm
; solid infill extrusion width = 0.70mm
; top infill extrusion width = 0.70mm

G21 ; set units to millimeters
M107
M104 S190 ; set temperature
G28 ; home all axes
G1 Z15 F120 ; lift nozzle
M109 S190 ; wait for temperature to be reached
G90 ; use absolute coordinates
G92 E0
M82 ; use absolute distances for extrusion
G1 F1680.000 E-2.00000
G92 E0
G1 Z0.450 F12000.000
G1 X50.181 Y50.620
G1 F1680.000 E2.00000
G1 X50.821 Y50.020 F900.000 E2.03334
G1 X51.601 Y49.380 E2.07169
G1 X52.251 Y48.900 E2.10240
G1 X53.101 Y48.360 E2.14067
G1 X53.861 Y47.950 E2.17349
G1 X54.761 Y47.530 E2.21123
G1 X55.531 Y47.230 E2.24264
G1 X56.491 Y46.920 E2.28098
G1 X57.241 Y46.720 E2.31048
G1 X58.201 Y46.530 E2.34767
G1 X59.101 Y46.420 E2.38213
G1 X60.521 Y46.350 E2.43616
G1 X112.521 Y46.350 E4.41242
G1 X113.911 Y46.490 E4.46552
G1 X115.241 Y46.930 E4.51876
G1 X116.451 Y47.630 E4.57189
G1 X121.381 Y51.240 E4.80411
G1 X122.521 Y52.300 E4.86327
G1 X123.381 Y53.600 E4.92251
G1 X123.921 Y55.060 E4.98167
G1 X124.101 Y56.610 E5.04098
G1 X124.101 Y109.380 E7.04650
G1 X123.921 Y110.930 E7.10581
G1 X123.391 Y112.390 E7.16484
G1 X122.531 Y113.680 E7.22376
G1 X121.391 Y114.740 E7.28292
G1 X116.461 Y118.360 E7.51537
G1 X115.251 Y119.070 E7.56869
G1 X113.911 Y119.510 E7.62229
G1 X112.521 Y119.650 E7.67539
G1 X60.061 Y119.640 E9.66913
G1 X59.061 Y119.570 E9.70723
G1 X58.271 Y119.470 E9.73749
G1 X57.281 Y119.280 E9.77580
G1 X56.461 Y119.070 E9.80797
G1 X55.481 Y118.750 E9.84715
G1 X54.741 Y118.450 E9.87750
G1 X53.861 Y118.040 E9.91440
G1 X53.101 Y117.630 E9.94722
G1 X52.251 Y117.090 E9.98549
G1 X51.551 Y116.580 E10.01840
G1 X50.761 Y115.920 E10.05753
G1 X50.161 Y115.340 E10.08924
G1 X49.491 Y114.620 E10.12662
G1 X49.011 Y114.050 E10.15494
G1 X48.411 Y113.240 E10.19325
G1 X47.921 Y112.460 E10.22826
G1 X47.431 Y111.560 E10.26721
G1 X47.081 Y110.830 E10.29797
G1 X46.721 Y109.920 E10.33517
G1 X46.461 Y109.110 E10.36750
G1 X46.211 Y108.130 E10.40593
G1 X46.051 Y107.290 E10.43843
G1 X45.931 Y106.300 E10.47633
G1 X45.891 Y105.500 E10.50678
G1 X45.891 Y60.490 E12.21738
G1 X45.941 Y59.670 E12.24860
G1 X46.061 Y58.700 E12.28575
G1 X46.201 Y57.910 E12.31624
G1 X46.451 Y56.910 E12.35542
G1 X46.731 Y56.060 E12.38943
G1 X47.101 Y55.130 E12.42747
G1 X47.441 Y54.400 E12.45807
G1 X47.921 Y53.520 E12.49617
G1 X48.371 Y52.800 E12.52844
G1 X48.951 Y52.000 E12.56599
G1 X49.481 Y51.370 E12.59728
G1 X50.114 Y50.692 E12.63254
G1 F1680.000 E10.63254
G92 E0
G1 X58.110 Y57.363 F12000.000
G1 F1680.000 E2.00000
G1 X59.122 Y56.628 F900.000 E2.04753
G1 X60.285 Y56.167 E2.09507
G1 X61.464 Y56.018 E2.14023
G1 X103.587 Y56.018 E3.74114
G1 X104.766 Y56.167 E3.78631
G1 X105.929 Y56.628 E3.83384
G1 X106.941 Y57.363 E3.88137
G1 X107.738 Y58.326 E3.92891
G1 X108.271 Y59.458 E3.97644
G1 X108.505 Y60.687 E4.02397
G1 X108.427 Y61.935 E4.07151
G1 X108.040 Y63.125 E4.11904
G1 X107.370 Y64.180 E4.16657
G1 X106.458 Y65.037 E4.21411
G1 X105.362 Y65.639 E4.26164
G1 X104.507 Y65.859 E4.29519
G1 X104.507 Y65.982 E4.29987
G1 X60.544 Y65.982 E5.97070
G1 X60.544 Y65.859 E5.97538
G1 X59.689 Y65.639 E6.00893
G1 X58.593 Y65.037 E6.05646
G1 X57.681 Y64.180 E6.10400
G1 X57.011 Y63.124 E6.15153
G1 X56.624 Y61.935 E6.19906
G1 X56.546 Y60.687 E6.24660
G1 X56.780 Y59.458 E6.29413
G1 X57.313 Y58.326 E6.34166
G1 X58.047 Y57.438 E6.38546
G1 X58.561 Y57.844 F12000.000
G1 X59.440 Y57.206 F720.000 E6.42671
G1 X60.449 Y56.806 E6.46796
G1 X61.505 Y56.673 E6.50842
G1 X103.546 Y56.673 E8.10620
G1 X104.602 Y56.806 E8.14666
G1 X105.611 Y57.206 E8.18791
G1 X106.489 Y57.844 E8.22916
G1 X107.181 Y58.680 E8.27040
G1 X107.643 Y59.662 E8.31165
G1 X107.847 Y60.728 E8.35290
G1 X107.779 Y61.811 E8.39415
G1 X107.443 Y62.844 E8.43540
G1 X106.862 Y63.760 E8.47665
G1 X106.070 Y64.503 E8.51790
G1 X105.119 Y65.026 E8.55915
G1 X104.068 Y65.296 E8.60039
G1 X103.853 Y65.296 E8.60858
G1 X103.853 Y65.327 E8.60978
G1 X61.198 Y65.327 E10.23087
G1 X61.198 Y65.296 E10.23207
G1 X60.983 Y65.296 E10.24025
G1 X59.931 Y65.026 E10.28150
G1 X58.980 Y64.503 E10.32275
G1 X58.189 Y63.760 E10.36400
G1 X57.608 Y62.844 E10.40525
G1 X57.272 Y61.811 E10.44650
G1 X57.204 Y60.728 E10.48774
G1 X57.407 Y59.662 E10.52899
G1 X57.870 Y58.680 E10.57024
G1 X58.499 Y57.919 E10.60776
G1 X59.180 Y58.059 F12000.000
G1 F1680.000 E8.60776
G92 E0
G1 X61.464 Y78.018 F12000.000
G1 F1680.000 E2.00000
G1 X103.587 Y78.018 F900.000 E3.60091
G1 X104.766 Y78.167 E3.64607
G1 X105.929 Y78.628 E3.69361
G1 X106.941 Y79.363 E3.74114
G1 X107.738 Y80.326 E3.78867
G1 X108.271 Y81.458 E3.83621
G1 X108.505 Y82.687 E3.88374
G1 X108.427 Y83.935 E3.93128
G1 X108.040 Y85.125 E3.97881
G1 X107.370 Y86.180 E4.02634
G1 X106.458 Y87.037 E4.07388
G1 X105.362 Y87.639 E4.12141
G1 X104.507 Y87.859 E4.15496
G1 X104.507 Y87.982 E4.15963
G1 X60.544 Y87.982 E5.83047
G1 X60.544 Y87.859 E5.83514
G1 X59.689 Y87.639 E5.86869
G1 X58.593 Y87.037 E5.91623
G1 X57.681 Y86.180 E5.96376
G1 X57.011 Y85.124 E6.01129
G1 X56.965 Y84.985 E6.01687
G1 X56.624 Y83.935 E6.05883
G1 X56.546 Y82.687 E6.10636
G1 X56.780 Y81.458 E6.15390
G1 X57.313 Y80.326 E6.20143
G1 X58.110 Y79.363 E6.24896
G1 X59.122 Y78.628 E6.29649
G1 X60.285 Y78.167 E6.34403
G1 X61.366 Y78.031 E6.38547
G1 X61.462 Y78.678 F12000.000
G1 X103.546 Y78.673 F720.000 E7.98487
G1 X104.602 Y78.806 E8.02533
G1 X105.611 Y79.206 E8.06658
G1 X106.489 Y79.844 E8.10783
G1 X107.181 Y80.680 E8.14907
G1 X107.643 Y81.662 E8.19032
G1 X107.847 Y82.728 E8.23157
G1 X107.779 Y83.811 E8.27282
G1 X107.443 Y84.844 E8.31407
G1 X106.862 Y85.760 E8.35532
G1 X106.070 Y86.503 E8.39657
G1 X105.119 Y87.026 E8.43782
G1 X104.068 Y87.296 E8.47906
G1 X103.853 Y87.296 E8.48725
G1 X103.853 Y87.327 E8.48845
G1 X61.198 Y87.327 E10.10954
G1 X61.198 Y87.296 E10.11074
G1 X60.983 Y87.296 E10.11892
G1 X59.931 Y87.026 E10.16017
G1 X58.980 Y86.503 E10.20142
G1 X58.189 Y85.760 E10.24267
G1 X57.608 Y84.844 E10.28392
G1 X57.588 Y84.783 E10.28635
G1 X57.272 Y83.811 E10.32517
G1 X57.204 Y82.728 E10.36641
G1 X57.407 Y81.662 E10.40766
G1 X57.842 Y80.738 E10.44648
G1 X57.870 Y80.680 E10.44891
G1 X58.561 Y79.844 E10.49016
G1 X59.439 Y79.206 E10.53141
G1 X60.449 Y78.806 E10.57266
G1 X61.365 Y78.690 E10.60775
G1 X61.813 Y79.231 F12000.000
G1 F1680.000 E8.60775
G92 E0
G1 X61.464 Y100.018 F12000.000
G1 F1680.000 E2.00000
G1 X103.587 Y100.018 F900.000 E3.60091
G1 X104.766 Y100.167 E3.64607
G1 X105.929 Y100.628 E3.69361
G1 X106.941 Y101.363 E3.74114
G1 X107.738 Y102.326 E3.78867
G1 X108.271 Y103.458 E3.83621
G1 X108.505 Y104.687 E3.88374
G1 X108.427 Y105.935 E3.93127
G1 X108.040 Y107.125 E3.97881
G1 X107.370 Y108.180 E4.02634
G1 X106.458 Y109.037 E4.07388
G1 X105.362 Y109.639 E4.12141
G1 X104.507 Y109.859 E4.15496
G1 X104.507 Y109.982 E4.15963
G1 X60.544 Y109.982 E5.83047
G1 X60.544 Y109.859 E5.83514
G1 X59.689 Y109.639 E5.86869
G1 X58.593 Y109.037 E5.91623
G1 X57.681 Y108.180 E5.96376
G1 X57.011 Y107.124 E6.01129
G1 X56.965 Y106.985 E6.01687
G1 X56.624 Y105.935 E6.05883
G1 X56.546 Y104.687 E6.10636
G1 X56.780 Y103.458 E6.15390
G1 X57.250 Y102.459 E6.19586
G1 X57.313 Y102.326 E6.20143
G1 X58.110 Y101.363 E6.24896
G1 X59.122 Y100.628 E6.29650
G1 X60.285 Y100.167 E6.34403
G1 X61.366 Y100.031 E6.38546
G1 X61.462 Y100.678 F12000.000
G1 X103.546 Y100.673 F720.000 E7.98487
G1 X104.602 Y100.806 E8.02533
G1 X105.611 Y101.206 E8.06658
G1 X106.489 Y101.844 E8.10783
G1 X107.181 Y102.680 E8.14907
G1 X107.643 Y103.662 E8.19032
G1 X107.847 Y104.728 E8.23157
G1 X107.779 Y105.811 E8.27282
G1 X107.443 Y106.844 E8.31407
G1 X106.862 Y107.760 E8.35532
G1 X106.070 Y108.503 E8.39657
G1 X105.119 Y109.026 E8.43782
G1 X104.068 Y109.296 E8.47906
G1 X103.853 Y109.296 E8.48725
G1 X103.853 Y109.327 E8.48845
G1 X61.198 Y109.327 E10.10954
G1 X61.198 Y109.296 E10.11074
G1 X60.983 Y109.296 E10.11892
G1 X59.931 Y109.026 E10.16017
G1 X58.980 Y108.503 E10.20142
G1 X58.189 Y107.760 E10.24267
G1 X57.608 Y106.844 E10.28392
G1 X57.588 Y106.783 E10.28635
G1 X57.272 Y105.811 E10.32517
G1 X57.204 Y104.728 E10.36641
G1 X57.407 Y103.662 E10.40766
G1 X57.842 Y102.738 E10.44648
G1 X57.870 Y102.680 E10.44891
G1 X58.561 Y101.844 E10.49016
G1 X59.440 Y101.206 E10.53141
G1 X60.449 Y100.806 E10.57266
G1 X61.365 Y100.690 E10.60775
G1 X61.813 Y101.231 F12000.000
G1 F1680.000 E8.60775
G92 E0
G1 X111.544 Y97.982 F12000.000
G1 F1680.000 E2.00000
G1 X111.544 Y112.018 F900.000 E2.53346
G1 X60.556 Y112.018 E4.47124
G1 X59.646 Y111.961 E4.50590
G1 X58.781 Y111.796 E4.53939
G1 X57.943 Y111.524 E4.57287
G1 X57.145 Y111.148 E4.60636
G1 X56.401 Y110.676 E4.63985
G1 X55.722 Y110.115 E4.67333
G1 X55.119 Y109.472 E4.70682
G1 X54.601 Y108.760 E4.74031
G1 X54.177 Y107.987 E4.77379
G1 X53.853 Y107.168 E4.80728
G1 X53.633 Y106.315 E4.84077
G1 X53.523 Y105.441 E4.87425
G1 X53.523 Y104.559 E4.90774
G1 X53.633 Y103.685 E4.94123
G1 X53.853 Y102.832 E4.97471
G1 X54.177 Y102.013 E5.00820
G1 X54.601 Y101.240 E5.04169
G1 X55.119 Y100.528 E5.07517
G1 X55.722 Y99.885 E5.10866
G1 X56.401 Y99.324 E5.14215
G1 X57.145 Y98.852 E5.17563
G1 X57.943 Y98.476 E5.20912
G1 X58.781 Y98.204 E5.24261
G1 X59.646 Y98.039 E5.27610
G1 X60.556 Y97.982 E5.31076
G1 X111.445 Y97.982 E7.24480
G1 F1680.000 E5.24480
G92 E0
G1 X116.477 Y107.687 F12000.000
G1 F1680.000 E2.00000
G1 X111.823 Y105.000 F900.000 E2.20424
G1 X116.477 Y102.313 E2.40848
G1 X116.477 Y107.588 E2.60898
G1 X117.132 Y108.820 F12000.000
G1 X112.198 Y105.972 F720.000 E2.82546
G1 X112.198 Y112.673 E3.08011
G1 X60.536 Y112.673 E5.04355
G1 X59.564 Y112.612 E5.08056
G1 X58.617 Y112.431 E5.11717
G1 X57.701 Y112.133 E5.15379
G1 X56.829 Y111.723 E5.19041
G1 X56.016 Y111.207 E5.22702
G1 X55.273 Y110.593 E5.26364
G1 X54.614 Y109.890 E5.30026
G1 X54.048 Y109.111 E5.33687
G1 X53.583 Y108.267 E5.37349
G1 X53.229 Y107.371 E5.41011
G1 X52.989 Y106.438 E5.44672
G1 X52.868 Y105.482 E5.48334
G1 X52.868 Y104.518 E5.51996
G1 X52.989 Y103.562 E5.55657
G1 X53.229 Y102.629 E5.59319
G1 X53.583 Y101.733 E5.62981
G1 X54.048 Y100.889 E5.66643
G1 X54.614 Y100.110 E5.70304
G1 X55.273 Y99.407 E5.73966
G1 X56.016 Y98.793 E5.77627
G1 X56.829 Y98.277 E5.81289
G1 X57.701 Y97.867 E5.84951
G1 X58.617 Y97.569 E5.88612
G1 X59.564 Y97.388 E5.92274
G1 X60.536 Y97.327 E5.95975
G1 X112.198 Y97.327 E7.92318
G1 X112.198 Y104.027 E8.17783
G1 X117.131 Y101.179 E8.39431
G1 X117.132 Y108.722 E8.68097
G1 X116.711 Y108.319 F12000.000
G1 F1680.000 E6.68097
G92 E0
G1 X111.544 Y75.982 F12000.000
G1 F1680.000 E2.00000
G1 X111.544 Y90.018 F900.000 E2.53346
G1 X60.556 Y90.018 E4.47124
G1 X59.646 Y89.961 E4.50590
G1 X58.781 Y89.796 E4.53939
G1 X57.943 Y89.524 E4.57287
G1 X57.145 Y89.148 E4.60636
G1 X56.401 Y88.676 E4.63985
G1 X55.722 Y88.115 E4.67333
G1 X55.119 Y87.472 E4.70682
G1 X54.601 Y86.760 E4.74031
G1 X54.177 Y85.987 E4.77379
G1 X53.853 Y85.168 E4.80728
G1 X53.633 Y84.315 E4.84077
G1 X53.523 Y83.441 E4.87425
G1 X53.523 Y82.559 E4.90774
G1 X53.633 Y81.685 E4.94123
G1 X53.853 Y80.832 E4.97471
G1 X54.177 Y80.013 E5.00820
G1 X54.601 Y79.240 E5.04169
G1 X55.119 Y78.528 E5.07517
G1 X55.722 Y77.885 E5.10866
G1 X56.401 Y77.324 E5.14215
G1 X57.145 Y76.852 E5.17563
G1 X57.943 Y76.476 E5.20912
G1 X58.781 Y76.204 E5.24261
G1 X59.646 Y76.039 E5.27610
G1 X60.556 Y75.982 E5.31076
G1 X111.445 Y75.982 E7.24480
G1 F1680.000 E5.24480
G92 E0
G1 X116.477 Y80.313 F12000.000
G1 F1680.000 E2.00000
G1 X116.477 Y85.687 F900.000 E2.20423
G1 X111.823 Y83.000 E2.40847
G1 X116.392 Y80.362 E2.60898
G1 X117.131 Y79.179 F12000.000
G1 X117.132 Y86.820 F720.000 E2.89937
G1 X112.198 Y83.972 E3.11586
G1 X112.198 Y90.673 E3.37050
G1 X60.536 Y90.673 E5.33394
G1 X59.564 Y90.612 E5.37095
G1 X58.617 Y90.431 E5.40756
G1 X57.701 Y90.133 E5.44418
G1 X56.829 Y89.723 E5.48080
G1 X56.016 Y89.207 E5.51741
G1 X55.273 Y88.593 E5.55403
G1 X54.614 Y87.890 E5.59065
G1 X54.048 Y87.111 E5.62726
G1 X53.583 Y86.267 E5.66388
G1 X53.229 Y85.371 E5.70050
G1 X52.989 Y84.438 E5.73712
G1 X52.868 Y83.482 E5.77373
G1 X52.868 Y82.518 E5.81035
G1 X52.989 Y81.562 E5.84696
G1 X53.229 Y80.629 E5.88358
G1 X53.583 Y79.733 E5.92020
G1 X54.048 Y78.889 E5.95682
G1 X54.614 Y78.110 E5.99343
G1 X55.274 Y77.407 E6.03005
G1 X56.016 Y76.793 E6.06667
G1 X56.829 Y76.277 E6.10328
G1 X57.701 Y75.867 E6.13990
G1 X58.617 Y75.569 E6.17652
G1 X59.564 Y75.388 E6.21313
G1 X60.536 Y75.327 E6.25014
G1 X112.198 Y75.327 E8.21358
G1 X112.198 Y82.027 E8.46822
G1 X117.046 Y79.228 E8.68097
G1 X116.907 Y79.794 F12000.000
G1 F1680.000 E6.68097
G92 E0
G1 X53.853 Y58.832 F12000.000
G1 F1680.000 E2.00000
G1 X54.177 Y58.013 F900.000 E2.03349
G1 X54.601 Y57.240 E2.06697
G1 X55.119 Y56.528 E2.10046
G1 X55.722 Y55.885 E2.13395
G1 X56.401 Y55.324 E2.16743
G1 X57.145 Y54.852 E2.20092
G1 X57.943 Y54.476 E2.23441
G1 X58.781 Y54.204 E2.26789
G1 X59.646 Y54.039 E2.30138
G1 X60.556 Y53.982 E2.33604
G1 X111.544 Y53.982 E4.27382
G1 X111.544 Y68.018 E4.80728
G1 X60.556 Y68.018 E6.74506
G1 X59.646 Y67.961 E6.77972
G1 X58.781 Y67.796 E6.81321
G1 X57.943 Y67.524 E6.84669
G1 X57.145 Y67.148 E6.88018
G1 X56.401 Y66.676 E6.91367
G1 X55.722 Y66.115 E6.94715
G1 X55.119 Y65.472 E6.98064
G1 X54.601 Y64.760 E7.01413
G1 X54.177 Y63.987 E7.04761
G1 X53.853 Y63.168 E7.08110
G1 X53.633 Y62.315 E7.11459
G1 X53.523 Y61.441 E7.14808
G1 X53.523 Y60.559 E7.18156
G1 X53.633 Y59.685 E7.21505
G1 X53.828 Y58.927 E7.24480
G1 F1680.000 E5.24480
G92 E0
G1 X111.823 Y61.000 F12000.000
G1 F1680.000 E2.00000
G1 X116.477 Y58.313 F900.000 E2.20424
G1 X116.477 Y63.687 E2.40847
G1 X111.908 Y61.049 E2.60898
G1 X112.198 Y61.972 F12000.000
G1 X112.198 Y68.673 F720.000 E2.86363
G1 X60.536 Y68.673 E4.82706
G1 X59.564 Y68.612 E4.86407
G1 X58.617 Y68.431 E4.90068
G1 X57.701 Y68.133 E4.93730
G1 X56.829 Y67.723 E4.97392
G1 X56.016 Y67.207 E5.01054
G1 X55.274 Y66.593 E5.04715
G1 X54.614 Y65.890 E5.08377
G1 X54.048 Y65.111 E5.12039
G1 X53.583 Y64.267 E5.15700
G1 X53.229 Y63.371 E5.19362
G1 X52.989 Y62.438 E5.23024
G1 X52.868 Y61.482 E5.26685
G1 X52.868 Y60.518 E5.30347
G1 X52.989 Y59.562 E5.34009
G1 X53.229 Y58.629 E5.37670
G1 X53.583 Y57.733 E5.41332
G1 X54.048 Y56.889 E5.44994
G1 X54.614 Y56.110 E5.48655
G1 X55.274 Y55.407 E5.52317
G1 X56.016 Y54.793 E5.55979
G1 X56.829 Y54.277 E5.59640
G1 X57.701 Y53.867 E5.63302
G1 X58.617 Y53.569 E5.66964
G1 X59.564 Y53.388 E5.70625
G1 X60.536 Y53.327 E5.74326
G1 X112.198 Y53.327 E7.70670
G1 X112.198 Y60.027 E7.96134
G1 X117.131 Y57.179 E8.17783
G1 X117.132 Y64.820 E8.46822
G1 X112.283 Y62.021 E8.68097
G1 X111.554 Y61.859 F12000.000
G1 F1680.000 E6.68097
G92 E0
G1 X107.053 Y98.456 F12000.000
G1 F1680.000 E2.00000
G1 X111.069 Y102.472 F1200.000 E2.21682
G1 X111.069 Y101.542 E2.25232
G1 X107.983 Y98.456 E2.41893
G1 X108.913 Y98.456 E2.45443
G1 X111.069 Y100.612 E2.57085
G1 X111.069 Y99.683 E2.60635
G1 X109.843 Y98.456 E2.67257
G1 X110.773 Y98.456 E2.70806
G1 X111.069 Y98.753 E2.72408
G1 X108.376 Y102.569 F12000.000
G1 X111.069 Y105.261 F1200.000 E2.86947
G1 X111.069 Y106.191 E2.90497
G1 X108.852 Y103.974 E3.02467
G1 X108.960 Y105.012 E3.06450
G1 X111.069 Y107.121 E3.17838
G1 X111.069 Y108.051 E3.21388
G1 X108.905 Y105.886 E3.33073
G1 X108.704 Y106.616 E3.35960
G1 X111.069 Y108.981 E3.48729
G1 X111.069 Y109.910 E3.52279
G1 X108.476 Y107.317 E3.66279
G1 X108.117 Y107.888 E3.68853
G1 X111.069 Y110.840 E3.84791
