; generated by Slic3r 0.9.10b on 2013-10-30 at 10:02:12

; layer_height = 0.3
; perimeters = 2
; top_solid_layers = 2
; bottom_solid_layers = 2
; fill_density = 0.3
; perimeter_speed = 30
; infill_speed = 30
; travel_speed = 200
; nozzle_diameter = 0.5
; filament_diameter = 2.98
; extrusion_multiplier = 0.9
; perimeters extrusion width = 0.70mm
; infill extrusion width = 0.70mm
; solid infill extrusion width = 0.70mm
; top infill extrusion width = 0.70mm

G21 ; set units to millimeters
M107
M104 S190 ; set temperature
G28 ; home all axes
G1 Z15 F120 ; lift nozzle
M109 S190 ; wait for temperature to be reached
G90 ; use absolute coordinates
G92 E0
M82 ; use absolute distances for extrusion
G1 F1680.000 E-2.00000
G92 E0
G1 Z0.450 F12000.000
G1 X7.213 Y34.103
G1 F1680.000 E2.00000
G1 X29.043 Y23.103 F900.000 E2.92903
G1 X30.493 Y22.573 E2.98770
G1 X32.033 Y22.393 E3.04663
G1 X76.373 Y22.393 E4.73177
G1 X156.473 Y22.543 E7.77598
G1 X157.893 Y22.693 E7.83025
G1 X159.253 Y23.153 E7.88481
G1 X160.483 Y23.883 E7.93917
G1 X161.523 Y24.863 E7.99348
G1 X162.323 Y26.043 E8.04766
G1 X162.863 Y27.373 E8.10221
G1 X163.503 Y29.623 E8.19112
G1 X163.653 Y30.283 E8.21684
G1 X164.933 Y37.533 E8.49664
G1 X165.013 Y39.203 E8.56018
G1 X164.683 Y40.843 E8.62376
G1 X163.943 Y42.353 E8.68766
G1 X142.753 Y74.563 E10.15295
G1 X142.173 Y75.433 E10.19269
G1 X141.923 Y75.773 E10.20873
G1 X141.203 Y76.723 E10.25403
G1 X92.233 Y137.493 E13.22015
G1 X91.293 Y138.603 E13.27543
G1 X90.443 Y139.533 E13.32331
G1 X89.733 Y140.243 E13.36147
G1 X88.453 Y141.383 E13.42661
G1 X87.383 Y142.233 E13.47855
G1 X86.293 Y143.013 E13.52949
G1 X85.413 Y143.583 E13.56933
G1 X84.293 Y144.233 E13.61855
G1 X82.783 Y145.023 E13.68332
G1 X81.863 Y145.433 E13.72160
G1 X80.683 Y145.903 E13.76987
G1 X79.453 Y146.343 E13.81952
G1 X77.823 Y146.803 E13.88388
G1 X76.843 Y147.033 E13.92214
G1 X75.193 Y147.323 E13.98581
G1 X73.793 Y147.493 E14.03941
G1 X72.793 Y147.563 E14.07751
G1 X71.533 Y147.603 E14.12542
G1 X41.333 Y147.603 E15.27317
G1 X39.883 Y147.443 E15.32861
G1 X38.503 Y146.973 E15.38402
G1 X37.263 Y146.213 E15.43929
G1 X36.213 Y145.203 E15.49466
G1 X35.403 Y143.983 E15.55031
G1 X4.273 Y83.073 E18.15001
G1 X3.733 Y81.603 E18.20953
G1 X3.553 Y80.043 E18.26921
G1 X3.553 Y40.043 E19.78941
G1 X3.713 Y38.583 E19.84523
G1 X4.183 Y37.203 E19.90064
G1 X4.953 Y35.953 E19.95643
G1 X5.983 Y34.903 E20.01233
G1 X7.130 Y34.157 E20.06436
G1 F1680.000 E18.06436
G92 E0
G1 X42.316 Y139.975 F12000.000
G1 F1680.000 E2.00000
G1 X42.316 Y136.938 F900.000 E2.11540
G1 X71.351 Y136.938 E3.21887
G1 X72.402 Y136.903 E3.25883
G1 X73.465 Y136.796 E3.29943
G1 X74.441 Y136.632 E3.33706
G1 X75.557 Y136.371 E3.38061
G1 X76.577 Y136.055 E3.42120
G1 X77.574 Y135.671 E3.46180
G1 X78.542 Y135.221 E3.50239
G1 X79.479 Y134.708 E3.54298
G1 X80.379 Y134.133 E3.58357
G1 X81.239 Y133.500 E3.62417
G1 X82.055 Y132.810 E3.66476
G1 X82.823 Y132.067 E3.70535
G1 X83.539 Y131.275 E3.74594
G1 X84.201 Y130.437 E3.78654
G1 X84.762 Y129.621 E3.82417
G1 X85.350 Y128.638 E3.86772
G1 X85.832 Y127.684 E3.90831
G1 X86.249 Y126.701 E3.94890
G1 X86.599 Y125.692 E3.98950
G1 X86.881 Y124.662 E4.03009
G1 X87.094 Y123.615 E4.07068
G1 X87.236 Y122.556 E4.11128
G1 X87.308 Y121.491 E4.15187
G1 X87.308 Y120.423 E4.19246
G1 X87.236 Y119.357 E4.23305
G1 X87.094 Y118.298 E4.27365
G1 X86.861 Y117.177 E4.31720
G1 X86.599 Y116.222 E4.35483
G1 X86.249 Y115.213 E4.39542
G1 X85.832 Y114.229 E4.43602
G1 X85.350 Y113.276 E4.47661
G1 X84.806 Y112.357 E4.51720
G1 X84.201 Y111.476 E4.55779
G1 X83.539 Y110.638 E4.59839
G1 X82.823 Y109.846 E4.63898
G1 X82.055 Y109.103 E4.67957
G1 X81.239 Y108.414 E4.72017
G1 X80.379 Y107.780 E4.76076
G1 X79.479 Y107.206 E4.80135
G1 X78.542 Y106.692 E4.84195
G1 X77.574 Y106.243 E4.88254
G1 X76.577 Y105.859 E4.92313
G1 X75.557 Y105.542 E4.96372
G1 X74.518 Y105.295 E5.00432
G1 X73.465 Y105.117 E5.04491
G1 X72.402 Y105.010 E5.08551
G1 X71.351 Y104.975 E5.12547
G1 X42.316 Y104.975 E6.22894
G1 X42.316 Y101.938 E6.34434
G1 X71.816 Y101.938 E7.46549
G1 X71.816 Y98.475 E7.59712
G1 X62.418 Y98.475 E7.95429
G1 X63.492 Y92.431 E8.18758
G1 X63.915 Y90.938 E8.24655
G1 X106.753 Y90.938 E9.87461
G1 X107.177 Y92.431 E9.93358
G1 X108.251 Y98.475 E10.16687
G1 X98.853 Y98.475 E10.52405
G1 X98.853 Y99.666 E10.56929
G1 X98.013 Y99.056 E10.60873
G1 X96.356 Y99.056 E10.67172
G1 X95.014 Y100.030 E10.73473
G1 X94.553 Y101.451 E10.79152
G1 X94.553 Y103.975 E10.88743
G1 X90.353 Y103.975 E11.04706
G1 X90.353 Y119.975 E11.65514
G1 X90.335 Y119.975 E11.65579
G1 X90.351 Y121.196 E11.70218
G1 X90.315 Y122.151 E11.73851
G1 X90.231 Y123.103 E11.77484
G1 X90.099 Y124.050 E11.81116
G1 X89.920 Y124.989 E11.84749
G1 X89.694 Y125.917 E11.88382
G1 X89.421 Y126.834 E11.92015
G1 X89.103 Y127.735 E11.95647
G1 X88.740 Y128.619 E11.99280
G1 X88.324 Y129.502 E12.02991
G1 X87.883 Y130.327 E12.06545
G1 X87.392 Y131.147 E12.10178
G1 X86.859 Y131.941 E12.13811
G1 X86.288 Y132.707 E12.17444
G1 X85.665 Y133.459 E12.21154
G1 X85.033 Y134.149 E12.24709
G1 X84.353 Y134.820 E12.28341
G1 X83.640 Y135.457 E12.31974
G1 X82.896 Y136.057 E12.35607
G1 X82.123 Y136.619 E12.39240
G1 X81.304 Y137.151 E12.42950
G1 X80.496 Y137.622 E12.46505
G1 X79.647 Y138.062 E12.50138
G1 X78.777 Y138.458 E12.53770
G1 X77.889 Y138.810 E12.57403
G1 X76.983 Y139.116 E12.61036
G1 X76.064 Y139.377 E12.64668
G1 X75.132 Y139.592 E12.68301
G1 X74.191 Y139.759 E12.71934
G1 X73.243 Y139.879 E12.75566
G1 X72.290 Y139.951 E12.79199
G1 X71.322 Y139.975 E12.82879
G1 X42.414 Y139.975 E13.92743
G1 X41.662 Y140.629 F12000.000
G1 X41.662 Y136.284 F720.000 E14.09258
G1 X71.340 Y136.284 E15.22050
G1 X72.358 Y136.250 E15.25922
G1 X73.377 Y136.147 E15.29815
G1 X74.332 Y135.986 E15.33495
G1 X75.384 Y135.740 E15.37601
G1 X76.362 Y135.436 E15.41494
G1 X77.318 Y135.068 E15.45387
G1 X78.247 Y134.637 E15.49280
G1 X79.145 Y134.144 E15.53173
G1 X80.009 Y133.593 E15.57066
G1 X80.834 Y132.986 E15.60958
G1 X81.616 Y132.324 E15.64851
G1 X82.352 Y131.612 E15.68744
G1 X83.039 Y130.853 E15.72637
G1 X83.674 Y130.049 E15.76530
G1 X84.222 Y129.250 E15.80210
G1 X84.776 Y128.323 E15.84316
G1 X85.238 Y127.409 E15.88209
G1 X85.638 Y126.466 E15.92102
G1 X85.974 Y125.498 E15.95995
G1 X86.244 Y124.510 E15.99888
G1 X86.448 Y123.506 E16.03781
G1 X86.585 Y122.491 E16.07674
G1 X86.653 Y121.469 E16.11567
G1 X86.653 Y120.445 E16.15460
G1 X86.585 Y119.423 E16.19353
G1 X86.448 Y118.407 E16.23246
G1 X86.229 Y117.349 E16.27351
G1 X85.974 Y116.416 E16.31031
G1 X85.638 Y115.448 E16.34924
G1 X85.238 Y114.505 E16.38817
G1 X84.776 Y113.591 E16.42710
G1 X84.254 Y112.709 E16.46603
G1 X83.674 Y111.865 E16.50496
G1 X83.039 Y111.061 E16.54389
G1 X82.352 Y110.301 E16.58282
G1 X81.616 Y109.589 E16.62175
G1 X80.834 Y108.928 E16.66068
G1 X80.009 Y108.320 E16.69961
G1 X79.145 Y107.769 E16.73854
G1 X78.247 Y107.277 E16.77747
G1 X77.318 Y106.846 E16.81640
G1 X76.362 Y106.477 E16.85533
G1 X75.384 Y106.174 E16.89426
G1 X74.332 Y105.927 E16.93531
G1 X73.377 Y105.766 E16.97211
G1 X72.358 Y105.664 E17.01104
G1 X71.340 Y105.629 E17.04976
G1 X41.662 Y105.629 E18.17769
G1 X41.662 Y101.284 E18.34284
G1 X71.162 Y101.284 E19.46399
G1 X71.162 Y99.129 E19.54587
G1 X61.637 Y99.129 E19.90785
G1 X62.853 Y92.284 E20.17208
G1 X63.421 Y90.284 E20.25110
G1 X107.248 Y90.284 E21.91676
G1 X107.815 Y92.284 E21.99578
G1 X109.032 Y99.129 E22.26000
G1 X99.507 Y99.129 E22.62199
G1 X99.507 Y104.629 E22.83101
G1 X98.172 Y104.629 E22.88177
G1 X98.172 Y104.284 E22.89490
G1 X99.162 Y104.284 E22.93253
G1 X99.162 Y101.555 E23.03625
G1 X98.798 Y100.435 E23.08101
G1 X97.801 Y99.710 E23.12785
G1 X96.568 Y99.710 E23.17469
G1 X95.571 Y100.435 E23.22153
G1 X95.207 Y101.555 E23.26629
G1 X95.207 Y104.629 E23.38314
G1 X91.007 Y104.629 E23.54276
G1 X91.005 Y121.204 E24.17267
G1 X90.968 Y122.192 E24.21025
G1 X90.881 Y123.177 E24.24783
G1 X90.745 Y124.156 E24.28541
G1 X90.560 Y125.127 E24.32299
G1 X90.326 Y126.088 E24.36056
G1 X90.044 Y127.036 E24.39814
G1 X89.715 Y127.968 E24.43572
G1 X89.340 Y128.883 E24.47330
G1 X88.901 Y129.810 E24.51228
G1 X88.453 Y130.650 E24.54845
G1 X87.945 Y131.498 E24.58603
G1 X87.394 Y132.319 E24.62360
G1 X86.803 Y133.112 E24.66118
G1 X86.147 Y133.901 E24.70016
G1 X85.505 Y134.603 E24.73634
G1 X84.801 Y135.297 E24.77391
G1 X84.064 Y135.956 E24.81149
G1 X83.294 Y136.577 E24.84907
G1 X82.494 Y137.158 E24.88665
G1 X81.634 Y137.717 E24.92563
G1 X80.812 Y138.196 E24.96180
G1 X79.934 Y138.650 E24.99938
G1 X79.034 Y139.060 E25.03695
G1 X78.114 Y139.424 E25.07453
G1 X77.178 Y139.741 E25.11211
G1 X76.227 Y140.011 E25.14969
G1 X75.263 Y140.233 E25.18726
G1 X74.290 Y140.406 E25.22484
G1 X73.309 Y140.530 E25.26242
G1 X72.323 Y140.605 E25.30000
G1 X71.330 Y140.629 E25.33773
G1 X41.760 Y140.629 E26.46156
G1 X41.989 Y140.063 F12000.000
G1 F1680.000 E24.46156
G92 E0
G1 X46.737 Y77.903 F12000.000
G1 F1680.000 E2.00000
G1 X45.852 Y78.203 F900.000 E2.03554
G1 X44.932 Y78.464 E2.07187
G1 X44.001 Y78.678 E2.10820
G1 X43.060 Y78.845 E2.14453
G1 X42.111 Y78.965 E2.18085
G1 X41.158 Y79.037 E2.21718
G1 X40.190 Y79.062 E2.25398
G1 X11.184 Y79.062 E3.35635
G1 X11.184 Y76.025 E3.47175
G1 X40.219 Y76.025 E4.57521
G1 X41.270 Y75.990 E4.61518
G1 X42.333 Y75.883 E4.65578
G1 X43.386 Y75.705 E4.69637
G1 X44.349 Y75.476 E4.73400
G1 X45.445 Y75.141 E4.77755
G1 X46.442 Y74.757 E4.81814
G1 X47.411 Y74.308 E4.85873
G1 X48.347 Y73.794 E4.89933
G1 X49.248 Y73.220 E4.93992
G1 X50.108 Y72.586 E4.98051
G1 X50.923 Y71.897 E5.02111
G1 X51.691 Y71.154 E5.06170
G1 X52.407 Y70.362 E5.10229
G1 X53.069 Y69.524 E5.14288
G1 X53.674 Y68.643 E5.18348
G1 X54.218 Y67.724 E5.22407
G1 X54.700 Y66.771 E5.26467
G1 X55.117 Y65.787 E5.30526
G1 X55.467 Y64.778 E5.34585
G1 X55.729 Y63.823 E5.38348
G1 X55.962 Y62.702 E5.42703
G1 X56.105 Y61.643 E5.46762
G1 X56.176 Y60.577 E5.50822
G1 X56.176 Y59.509 E5.54881
G1 X56.105 Y58.444 E5.58940
G1 X55.962 Y57.385 E5.63000
G1 X55.729 Y56.263 E5.67354
G1 X55.467 Y55.308 E5.71118
G1 X55.117 Y54.299 E5.75177
G1 X54.700 Y53.316 E5.79236
G1 X54.218 Y52.362 E5.83295
G1 X53.674 Y51.443 E5.87355
G1 X53.069 Y50.563 E5.91414
G1 X52.407 Y49.725 E5.95473
G1 X51.691 Y48.932 E5.99533
G1 X50.923 Y48.190 E6.03592
G1 X50.108 Y47.500 E6.07651
G1 X49.248 Y46.867 E6.11711
G1 X48.279 Y46.255 E6.16065
G1 X47.411 Y45.779 E6.19829
G1 X46.442 Y45.329 E6.23888
G1 X45.371 Y44.922 E6.28243
G1 X44.425 Y44.629 E6.32006
G1 X43.386 Y44.381 E6.36065
G1 X42.333 Y44.204 E6.40125
G1 X41.270 Y44.097 E6.44184
G1 X40.219 Y44.062 E6.48181
G1 X11.184 Y44.062 E7.58527
G1 X11.184 Y41.025 E7.70067
G1 X40.684 Y41.025 E8.82182
G1 X40.684 Y37.562 E8.95345
G1 X31.286 Y37.562 E9.31063
G1 X32.360 Y31.518 E9.54391
G1 X32.784 Y30.025 E9.60289
G1 X75.622 Y30.025 E11.23095
G1 X76.045 Y31.518 E11.28992
G1 X77.119 Y37.562 E11.52321
G1 X67.721 Y37.562 E11.88038
G1 X67.721 Y38.752 E11.92563
G1 X66.881 Y38.142 E11.96506
G1 X65.224 Y38.142 E12.02806
G1 X63.883 Y39.117 E12.09106
G1 X63.421 Y40.538 E12.14785
G1 X63.421 Y43.062 E12.24377
G1 X59.221 Y43.062 E12.40339
G1 X59.221 Y59.062 E13.01147
G1 X59.204 Y59.062 E13.01212
G1 X59.219 Y60.282 E13.05852
G1 X59.183 Y61.237 E13.09485
G1 X59.099 Y62.190 E13.13117
G1 X58.967 Y63.136 E13.16750
G1 X58.788 Y64.075 E13.20383
G1 X58.556 Y65.024 E13.24093
G1 X58.290 Y65.920 E13.27648
G1 X57.972 Y66.821 E13.31281
G1 X57.609 Y67.706 E13.34913
G1 X57.202 Y68.571 E13.38546
G1 X56.752 Y69.414 E13.42179
G1 X56.260 Y70.234 E13.45812
G1 X55.728 Y71.028 E13.49444
G1 X55.156 Y71.794 E13.53077
G1 X54.547 Y72.530 E13.56710
G1 X53.901 Y73.235 E13.60342
G1 X53.221 Y73.907 E13.63975
G1 X52.508 Y74.543 E13.67608
G1 X51.764 Y75.143 E13.71240
G1 X50.991 Y75.705 E13.74873
G1 X50.190 Y76.227 E13.78506
G1 X49.365 Y76.709 E13.82138
G1 X48.516 Y77.148 E13.85771
G1 X47.646 Y77.544 E13.89404
G1 X46.829 Y77.867 E13.92742
G1 X46.983 Y78.511 F12000.000
G1 X46.046 Y78.828 F720.000 E13.96499
G1 X45.095 Y79.098 E14.00257
G1 X44.131 Y79.320 E14.04015
G1 X43.158 Y79.493 E14.07773
G1 X42.177 Y79.617 E14.11530
G1 X41.191 Y79.691 E14.15288
G1 X40.198 Y79.716 E14.19062
G1 X10.530 Y79.716 E15.31817
G1 X10.530 Y75.371 E15.48332
G1 X40.208 Y75.371 E16.61125
G1 X41.226 Y75.336 E16.64997
G1 X42.246 Y75.234 E16.68890
G1 X43.256 Y75.064 E16.72783
G1 X44.197 Y74.839 E16.76463
G1 X45.230 Y74.523 E16.80568
G1 X46.186 Y74.154 E16.84461
G1 X47.115 Y73.723 E16.88354
G1 X48.014 Y73.231 E16.92247
G1 X48.877 Y72.680 E16.96140
G1 X49.702 Y72.072 E17.00033
G1 X50.441 Y71.447 E17.03713
G1 X51.220 Y70.699 E17.07819
G1 X51.907 Y69.939 E17.11712
G1 X52.542 Y69.135 E17.15605
G1 X53.122 Y68.291 E17.19498
G1 X53.644 Y67.409 E17.23391
G1 X54.106 Y66.495 E17.27284
G1 X54.506 Y65.552 E17.31177
G1 X54.842 Y64.584 E17.35069
G1 X55.112 Y63.596 E17.38962
G1 X55.316 Y62.593 E17.42855
G1 X55.453 Y61.577 E17.46748
G1 X55.521 Y60.555 E17.50641
G1 X55.521 Y59.531 E17.54534
G1 X55.453 Y58.509 E17.58427
G1 X55.316 Y57.494 E17.62320
G1 X55.098 Y56.436 E17.66426
G1 X54.842 Y55.502 E17.70106
G1 X54.506 Y54.534 E17.73999
G1 X54.106 Y53.591 E17.77892
G1 X53.644 Y52.677 E17.81785
G1 X53.122 Y51.796 E17.85678
G1 X52.542 Y50.951 E17.89571
G1 X51.907 Y50.147 E17.93464
G1 X51.220 Y49.388 E17.97357
G1 X50.441 Y48.639 E18.01462
G1 X49.702 Y48.014 E18.05142
G1 X48.877 Y47.407 E18.09035
G1 X48.014 Y46.856 E18.12928
G1 X47.115 Y46.363 E18.16821
G1 X46.186 Y45.932 E18.20714
G1 X45.177 Y45.547 E18.24820
G1 X44.252 Y45.260 E18.28500
G1 X43.256 Y45.023 E18.32393
G1 X42.246 Y44.853 E18.36286
G1 X41.226 Y44.750 E18.40178
G1 X40.208 Y44.716 E18.44051
G1 X10.530 Y44.716 E19.56843
G1 X10.530 Y40.371 E19.73358
G1 X40.030 Y40.371 E20.85473
G1 X40.030 Y38.216 E20.93661
G1 X30.505 Y38.216 E21.29859
G1 X31.721 Y31.371 E21.56282
G1 X32.289 Y29.371 E21.64184
G1 X76.116 Y29.371 E23.30750
G1 X76.684 Y31.371 E23.38652
G1 X77.900 Y38.216 E23.65075
G1 X68.375 Y38.216 E24.01273
G1 X68.375 Y43.716 E24.22176
G1 X67.040 Y43.716 E24.27251
G1 X67.040 Y43.371 E24.28564
G1 X68.030 Y43.371 E24.32327
G1 X68.030 Y40.641 E24.42699
G1 X67.666 Y39.521 E24.47175
G1 X66.669 Y38.797 E24.51859
G1 X65.436 Y38.797 E24.56543
G1 X64.439 Y39.521 E24.61227
G1 X64.075 Y40.641 E24.65703
G1 X64.075 Y43.716 E24.77388
G1 X59.875 Y43.716 E24.93350
G1 X59.875 Y59.716 E25.54159
G1 X59.874 Y60.290 E25.56342
G1 X59.836 Y61.279 E25.60099
G1 X59.750 Y62.263 E25.63857
G1 X59.613 Y63.243 E25.67615
G1 X59.428 Y64.214 E25.71373
G1 X59.194 Y65.175 E25.75131
G1 X58.912 Y66.122 E25.78888
G1 X58.583 Y67.055 E25.82646
G1 X58.208 Y67.970 E25.86404
G1 X57.787 Y68.864 E25.90162
G1 X57.321 Y69.737 E25.93919
G1 X56.813 Y70.584 E25.97677
G1 X56.262 Y71.406 E26.01435
G1 X55.671 Y72.198 E26.05193
G1 X55.041 Y72.960 E26.08950
G1 X54.373 Y73.689 E26.12708
G1 X53.669 Y74.384 E26.16466
G1 X52.932 Y75.043 E26.20224
G1 X52.162 Y75.663 E26.23981
G1 X51.362 Y76.244 E26.27739
G1 X50.534 Y76.785 E26.31497
G1 X49.680 Y77.283 E26.35255
G1 X48.802 Y77.737 E26.39012
G1 X47.902 Y78.147 E26.42770
G1 X47.074 Y78.475 E26.46155
G1 X46.484 Y78.087 F12000.000
G1 F1680.000 E24.46155
G92 E0
G1 X155.725 Y30.176 F12000.000
G1 F1680.000 E2.00000
G1 X156.149 Y31.669 F900.000 E2.05897
G1 X157.223 Y37.712 E2.29226
G1 X147.825 Y37.712 E2.64943
G1 X147.825 Y38.903 E2.69468
G1 X146.985 Y38.293 E2.73411
G1 X145.327 Y38.293 E2.79712
G1 X143.986 Y39.267 E2.86011
G1 X143.525 Y40.689 E2.91691
G1 X143.525 Y43.212 E3.01282
G1 X139.325 Y43.212 E3.17244
G1 X139.325 Y59.212 E3.78052
G1 X139.307 Y59.212 E3.78118
G1 X139.323 Y60.433 E3.82758
G1 X139.287 Y61.388 E3.86390
G1 X139.203 Y62.340 E3.90023
G1 X139.071 Y63.287 E3.93655
G1 X138.892 Y64.226 E3.97288
G1 X138.666 Y65.155 E4.00921
