; generated by Slic3r 0.9.10b on 2013-10-30 at 09:38:58

; layer_height = 0.3
; perimeters = 2
; top_solid_layers = 2
; bottom_solid_layers = 2
; fill_density = 0.3
; perimeter_speed = 30
; infill_speed = 30
; travel_speed = 200
; nozzle_diameter = 0.5
; filament_diameter = 2.98
; extrusion_multiplier = 0.9
; perimeters extrusion width = 0.70mm
; infill extrusion width = 0.70mm
; solid infill extrusion width = 0.70mm
; top infill extrusion width = 0.70mm

G21 ; set units to millimeters
M107
M104 S190 ; set temperature
G28 ; home all axes
G1 Z15 F120 ; lift nozzle
M109 S190 ; wait for temperature to be reached
G90 ; use absolute coordinates
G92 E0
M82 ; use absolute distances for extrusion
G1 F1680.000 E-2.00000
G92 E0
G1 Z0.450 F12000.000
G1 X49.369 Y45.661
G1 F1680.000 E2.00000
G1 X50.359 Y44.741 F900.000 E2.05136
G1 X51.509 Y44.051 E2.10233
G1 X52.779 Y43.601 E2.15354
G1 X54.109 Y43.421 E2.20455
G1 X83.499 Y42.371 E3.32223
G1 X85.989 Y42.351 E3.41686
G1 X115.879 Y43.421 E4.55356
G1 X117.209 Y43.601 E4.60457
G1 X118.479 Y44.051 E4.65578
G1 X119.629 Y44.741 E4.70675
G1 X120.619 Y45.651 E4.75785
G1 X121.399 Y46.741 E4.80879
G1 X129.399 Y60.591 E5.41666
G1 X129.949 Y61.821 E5.46787
G1 X130.249 Y63.131 E5.51894
G1 X130.269 Y64.481 E5.57025
G1 X130.019 Y65.801 E5.62131
G1 X129.519 Y67.041 E5.67213
G1 X115.319 Y93.771 E6.82245
G1 X114.819 Y94.651 E6.86092
G1 X98.639 Y120.521 E8.02057
G1 X97.819 Y121.581 E8.07150
G1 X96.799 Y122.461 E8.12270
G1 X95.619 Y123.111 E8.17390
G1 X94.339 Y123.511 E8.22487
G1 X92.999 Y123.641 E8.27603
G1 X76.999 Y123.641 E8.88411
G1 X75.659 Y123.511 E8.93528
G1 X74.379 Y123.111 E8.98624
G1 X73.199 Y122.461 E9.03744
G1 X72.179 Y121.581 E9.08864
G1 X71.359 Y120.521 E9.13957
G1 X55.579 Y95.311 E10.26990
G1 X54.899 Y94.161 E10.32067
G1 X54.339 Y93.161 E10.36423
G1 X40.479 Y67.041 E11.48802
G1 X39.969 Y65.791 E11.53933
G1 X39.729 Y64.471 E11.59032
G1 X39.749 Y63.131 E11.64125
G1 X40.049 Y61.821 E11.69233
G1 X40.599 Y60.591 E11.74353
G1 X48.579 Y46.751 E12.35069
G1 X49.311 Y45.740 E12.39812
G1 F1680.000 E10.39812
G92 E0
G1 X60.694 Y71.070 F12000.000
G1 F1680.000 E2.00000
G1 X75.878 Y79.837 F900.000 E2.66632
G1 X76.477 Y78.798 E2.71188
G1 X77.443 Y80.927 E2.80070
G1 X77.903 Y81.708 E2.83515
G1 X79.220 Y83.481 E2.91912
G1 X77.982 Y83.481 E2.96620
G1 X77.982 Y101.014 E3.63252
G1 X76.289 Y100.424 E3.70066
G1 X75.315 Y100.039 E3.74045
G1 X74.359 Y99.613 E3.78023
G1 X73.421 Y99.147 E3.82001
G1 X72.504 Y98.643 E3.85980
G1 X71.609 Y98.101 E3.89958
G1 X70.737 Y97.522 E3.93936
G1 X69.890 Y96.906 E3.97915
G1 X69.069 Y96.256 E4.01893
G1 X68.277 Y95.572 E4.05871
G1 X67.484 Y94.825 E4.10013
G1 X66.782 Y94.108 E4.13828
G1 X66.081 Y93.330 E4.17806
G1 X65.414 Y92.523 E4.21784
G1 X64.781 Y91.689 E4.25763
G1 X64.184 Y90.830 E4.29741
G1 X63.623 Y89.946 E4.33719
G1 X63.099 Y89.039 E4.37698
G1 X62.614 Y88.112 E4.41676
G1 X62.169 Y87.165 E4.45654
G1 X61.763 Y86.200 E4.49632
G1 X61.398 Y85.218 E4.53611
G1 X61.075 Y84.223 E4.57589
G1 X60.793 Y83.215 E4.61567
G1 X60.554 Y82.196 E4.65546
G1 X60.358 Y81.167 E4.69524
G1 X60.205 Y80.132 E4.73502
G1 X60.093 Y79.048 E4.77645
G1 X60.030 Y78.046 E4.81459
G1 X60.008 Y76.999 E4.85437
G1 X60.030 Y75.953 E4.89415
G1 X60.096 Y74.908 E4.93394
G1 X60.205 Y73.867 E4.97372
G1 X60.358 Y72.832 E5.01350
G1 X60.676 Y71.167 E5.07791
G1 X61.164 Y72.098 F12000.000
G1 X76.117 Y80.731 F720.000 E5.73411
G1 X76.407 Y80.228 E5.75615
G1 X76.861 Y81.229 E5.79790
G1 X77.357 Y82.070 E5.83500
G1 X77.919 Y82.827 E5.87083
G1 X77.327 Y82.827 E5.89332
G1 X77.327 Y100.093 E6.54951
G1 X76.517 Y99.810 E6.58213
G1 X75.569 Y99.435 E6.62087
G1 X74.638 Y99.020 E6.65961
G1 X73.725 Y98.567 E6.69835
G1 X72.831 Y98.076 E6.73710
G1 X71.959 Y97.548 E6.77584
G1 X71.110 Y96.984 E6.81458
G1 X70.286 Y96.385 E6.85332
G1 X69.487 Y95.752 E6.89206
G1 X68.715 Y95.086 E6.93080
G1 X67.972 Y94.388 E6.96954
G1 X67.259 Y93.659 E7.00828
G1 X66.577 Y92.902 E7.04702
G1 X65.927 Y92.117 E7.08576
G1 X65.311 Y91.305 E7.12450
G1 X64.729 Y90.468 E7.16325
G1 X64.183 Y89.607 E7.20199
G1 X63.673 Y88.724 E7.24073
G1 X63.201 Y87.821 E7.27947
G1 X62.767 Y86.898 E7.31821
G1 X62.372 Y85.959 E7.35695
G1 X62.016 Y85.003 E7.39569
G1 X61.701 Y84.034 E7.43443
G1 X61.427 Y83.052 E7.47317
G1 X61.195 Y82.059 E7.51191
G1 X61.003 Y81.058 E7.55066
G1 X60.855 Y80.050 E7.58940
G1 X60.748 Y79.036 E7.62814
G1 X60.684 Y78.019 E7.66688
G1 X60.663 Y76.999 E7.70562
G1 X60.684 Y75.980 E7.74436
G1 X60.748 Y74.963 E7.78310
G1 X60.855 Y73.949 E7.82184
G1 X61.003 Y72.941 E7.86058
G1 X61.146 Y72.194 E7.88947
G1 X61.553 Y72.624 F12000.000
G1 X67.712 Y58.914
G1 X69.070 Y57.743 F900.000 E7.95762
G1 X69.890 Y57.093 E7.99740
G1 X70.737 Y56.477 E8.03718
G1 X71.609 Y55.898 E8.07696
G1 X72.504 Y55.356 E8.11675
G1 X73.421 Y54.851 E8.15653
G1 X74.359 Y54.386 E8.19631
G1 X75.315 Y53.960 E8.23610
G1 X76.289 Y53.575 E8.27588
G1 X77.277 Y53.231 E8.31566
G1 X78.279 Y52.928 E8.35545
G1 X79.293 Y52.668 E8.39523
G1 X80.317 Y52.450 E8.43501
G1 X81.307 Y52.283 E8.47315
G1 X82.388 Y52.144 E8.51458
G1 X83.431 Y52.057 E8.55436
G1 X84.477 Y52.013 E8.59414
G1 X85.523 Y52.013 E8.63393
G1 X86.569 Y52.057 E8.67371
G1 X87.612 Y52.144 E8.71349
G1 X88.651 Y52.276 E8.75327
G1 X89.683 Y52.450 E8.79306
G1 X90.665 Y52.659 E8.83120
G1 X91.721 Y52.928 E8.87262
G1 X92.723 Y53.231 E8.91241
G1 X93.712 Y53.575 E8.95219
G1 X94.685 Y53.960 E8.99197
G1 X95.641 Y54.386 E9.03176
G1 X96.579 Y54.851 E9.07154
G1 X97.496 Y55.356 E9.11132
G1 X98.391 Y55.898 E9.15111
G1 X99.263 Y56.477 E9.19089
G1 X100.110 Y57.093 E9.23067
G1 X100.930 Y57.743 E9.27045
G1 X102.288 Y58.914 E9.33860
G1 X87.104 Y67.681 E10.00492
G1 X87.742 Y68.786 E10.05343
G1 X85.680 Y68.510 E10.13252
G1 X84.773 Y68.486 E10.16698
G1 X82.318 Y68.682 E10.26061
G1 X82.896 Y67.681 E10.30456
G1 X67.797 Y58.963 E10.96715
G1 X68.837 Y58.808 F12000.000
G1 X69.487 Y58.247 F720.000 E10.99977
G1 X70.286 Y57.614 E11.03851
G1 X71.110 Y57.015 E11.07725
G1 X71.959 Y56.451 E11.11599
G1 X72.831 Y55.923 E11.15474
G1 X73.725 Y55.432 E11.19348
G1 X74.638 Y54.978 E11.23222
G1 X75.569 Y54.564 E11.27096
G1 X76.517 Y54.188 E11.30970
G1 X77.479 Y53.853 E11.34844
G1 X78.455 Y53.559 E11.38718
G1 X79.443 Y53.305 E11.42592
G1 X80.440 Y53.093 E11.46466
G1 X81.416 Y52.928 E11.50228
G1 X82.456 Y52.795 E11.54215
G1 X83.472 Y52.710 E11.58089
G1 X84.490 Y52.667 E11.61963
G1 X85.510 Y52.667 E11.65837
G1 X86.528 Y52.710 E11.69711
G1 X87.544 Y52.795 E11.73585
G1 X88.555 Y52.923 E11.77459
G1 X89.560 Y53.093 E11.81333
G1 X90.557 Y53.305 E11.85207
G1 X91.545 Y53.559 E11.89081
G1 X92.521 Y53.853 E11.92955
G1 X93.483 Y54.189 E11.96830
G1 X94.431 Y54.564 E12.00704
G1 X95.362 Y54.978 E12.04578
G1 X96.275 Y55.432 E12.08452
G1 X97.169 Y55.923 E12.12326
G1 X98.041 Y56.451 E12.16200
G1 X98.890 Y57.015 E12.20074
G1 X99.714 Y57.614 E12.23948
G1 X100.513 Y58.247 E12.27822
G1 X101.163 Y58.808 E12.31084
G1 X86.210 Y67.441 E12.96704
G1 X86.510 Y67.961 E12.98984
G1 X85.732 Y67.856 E13.01968
G1 X84.756 Y67.830 E13.05679
G1 X83.507 Y67.930 E13.10439
G1 X83.790 Y67.441 E13.12586
G1 X68.922 Y58.857 E13.77833
G1 X69.462 Y58.614 F12000.000
G1 F1680.000 E11.77833
G92 E0
G1 X81.085 Y71.816 F12000.000
G1 F1680.000 E2.00000
G1 X82.104 Y71.185 F900.000 E2.04556
G1 X83.222 Y70.751 E2.09111
G1 X84.401 Y70.531 E2.13667
G1 X85.599 Y70.531 E2.18223
G1 X86.778 Y70.751 E2.22779
G1 X87.896 Y71.185 E2.27335
G1 X88.915 Y71.816 E2.31891
G1 X89.801 Y72.623 E2.36446
G1 X90.468 Y73.507 E2.40658
G1 X90.604 Y73.742 E2.41687
G1 X91.057 Y74.653 E2.45554
G1 X91.385 Y75.806 E2.50110
G1 X91.496 Y76.999 E2.54666
G1 X91.385 Y78.193 E2.59222
G1 X91.057 Y79.346 E2.63777
G1 X90.523 Y80.419 E2.68333
G1 X89.801 Y81.376 E2.72889
G1 X88.915 Y82.183 E2.77445
G1 X87.896 Y82.814 E2.82001
G1 X86.778 Y83.247 E2.86557
G1 X85.599 Y83.468 E2.91112
G1 X84.401 Y83.468 E2.95668
G1 X83.222 Y83.247 E3.00224
G1 X82.104 Y82.814 E3.04780
G1 X81.085 Y82.183 E3.09336
G1 X80.199 Y81.376 E3.13892
G1 X79.477 Y80.419 E3.18447
G1 X78.943 Y79.346 E3.23003
G1 X78.615 Y78.193 E3.27559
G1 X78.504 Y76.999 E3.32115
G1 X78.615 Y75.806 E3.36671
G1 X78.943 Y74.653 E3.41227
G1 X79.397 Y73.741 E3.45096
G1 X79.532 Y73.507 E3.46123
G1 X80.199 Y72.623 E3.50334
G1 X81.013 Y71.882 E3.54517
G1 X81.442 Y72.376 F12000.000
G1 X82.397 Y71.773 F900.000 E3.58811
G1 X83.402 Y71.384 E3.62906
G1 X84.461 Y71.186 E3.67000
G1 X85.539 Y71.186 E3.71095
G1 X86.598 Y71.384 E3.75190
G1 X87.603 Y71.773 E3.79285
G1 X88.519 Y72.340 E3.83380
G1 X89.315 Y73.066 E3.87475
G1 X89.922 Y73.870 E3.91302
G1 X90.027 Y74.051 E3.92100
G1 X90.444 Y74.890 E3.95661
G1 X90.739 Y75.927 E3.99756
G1 X90.839 Y76.999 E4.03851
G1 X90.739 Y78.072 E4.07946
G1 X90.444 Y79.109 E4.12041
G1 X89.964 Y80.073 E4.16135
G1 X89.315 Y80.933 E4.20230
G1 X88.519 Y81.659 E4.24325
G1 X87.603 Y82.226 E4.28420
G1 X86.598 Y82.615 E4.32515
G1 X85.539 Y82.813 E4.36610
G1 X84.461 Y82.813 E4.40704
G1 X83.402 Y82.615 E4.44799
G1 X82.397 Y82.226 E4.48894
G1 X81.481 Y81.659 E4.52989
G1 X80.685 Y80.933 E4.57084
G1 X80.036 Y80.073 E4.61179
G1 X79.556 Y79.109 E4.65273
G1 X79.261 Y78.072 E4.69368
G1 X79.161 Y76.999 E4.73463
G1 X79.261 Y75.927 E4.77558
G1 X79.556 Y74.890 E4.81653
G1 X80.078 Y73.870 E4.86011
G1 X80.685 Y73.066 E4.89838
G1 X81.370 Y72.442 E4.93358
G1 X82.038 Y72.646 F12000.000
G1 F1680.000 E2.93358
G92 E0
G1 X93.590 Y78.914 F12000.000
G1 F1680.000 E2.00000
G1 X94.122 Y79.837 F900.000 E2.04050
G1 X109.306 Y71.070 E2.70682
G1 X109.642 Y72.832 E2.77496
G1 X109.795 Y73.867 E2.81474
G1 X109.904 Y74.908 E2.85452
G1 X109.970 Y75.953 E2.89431
G1 X109.992 Y76.999 E2.93409
G1 X109.970 Y78.046 E2.97387
G1 X109.904 Y79.091 E3.01366
G1 X109.795 Y80.132 E3.05344
G1 X109.642 Y81.167 E3.09322
G1 X109.446 Y82.196 E3.13301
G1 X109.207 Y83.215 E3.17279
G1 X108.925 Y84.223 E3.21257
G1 X108.602 Y85.218 E3.25236
G1 X108.237 Y86.200 E3.29214
G1 X107.831 Y87.165 E3.33192
G1 X107.386 Y88.112 E3.37171
G1 X106.901 Y89.039 E3.41149
G1 X106.377 Y89.946 E3.45127
G1 X105.816 Y90.830 E3.49106
G1 X105.219 Y91.689 E3.53084
G1 X104.586 Y92.523 E3.57062
G1 X103.890 Y93.362 E3.61204
G1 X103.218 Y94.108 E3.65018
G1 X102.486 Y94.855 E3.68996
G1 X101.723 Y95.572 E3.72975
G1 X100.930 Y96.256 E3.76954
G1 X100.110 Y96.906 E3.80932
G1 X99.227 Y97.545 E3.85074
G1 X98.391 Y98.101 E3.88888
G1 X97.496 Y98.643 E3.92867
G1 X96.579 Y99.147 E3.96845
G1 X95.641 Y99.613 E4.00823
G1 X94.685 Y100.039 E4.04802
G1 X93.711 Y100.424 E4.08780
G1 X92.018 Y101.014 E4.15594
G1 X92.018 Y83.481 E4.82226
G1 X90.906 Y83.481 E4.86453
G1 X92.338 Y81.323 E4.96295
G1 X93.544 Y79.001 E5.06241
G1 X93.620 Y80.275 F12000.000
G1 X93.883 Y80.731 F720.000 E5.08240
G1 X108.836 Y72.098 E5.73859
G1 X108.996 Y72.941 E5.77121
G1 X109.145 Y73.949 E5.80995
G1 X109.252 Y74.963 E5.84869
G1 X109.316 Y75.980 E5.88744
G1 X109.337 Y76.999 E5.92618
G1 X109.316 Y78.019 E5.96492
G1 X109.252 Y79.036 E6.00366
G1 X109.145 Y80.050 E6.04240
G1 X108.996 Y81.058 E6.08114
G1 X108.805 Y82.059 E6.11988
G1 X108.573 Y83.052 E6.15862
G1 X108.299 Y84.034 E6.19736
G1 X107.984 Y85.003 E6.23611
G1 X107.628 Y85.959 E6.27485
G1 X107.233 Y86.898 E6.31359
G1 X106.799 Y87.821 E6.35233
G1 X106.327 Y88.724 E6.39107
G1 X105.817 Y89.607 E6.42981
G1 X105.271 Y90.468 E6.46855
G1 X104.689 Y91.305 E6.50729
G1 X104.073 Y92.117 E6.54603
G1 X103.423 Y92.902 E6.58477
G1 X102.741 Y93.659 E6.62351
G1 X102.028 Y94.388 E6.66225
G1 X101.285 Y95.086 E6.70100
G1 X100.513 Y95.752 E6.73974
G1 X99.714 Y96.385 E6.77848
G1 X98.890 Y96.984 E6.81722
G1 X98.041 Y97.548 E6.85596
G1 X97.169 Y98.076 E6.89470
G1 X96.275 Y98.567 E6.93344
G1 X95.362 Y99.020 E6.97218
G1 X94.431 Y99.435 E7.01093
G1 X93.483 Y99.810 E7.04967
G1 X92.673 Y100.093 E7.08229
G1 X92.673 Y82.827 E7.73848
G1 X92.126 Y82.827 E7.75927
G1 X92.902 Y81.656 E7.81266
G1 X93.575 Y80.362 E7.86807
G1 X93.719 Y80.792 F12000.000
G1 F1680.000 E5.86807
G92 E0
G1 X92.018 Y116.018 F12000.000
G1 F1680.000 E2.00000
G1 X88.239 Y116.018 F900.000 E2.14362
G1 X91.087 Y111.084 E2.36011
G1 X78.912 Y111.085 E2.82283
G1 X81.760 Y116.018 E3.03931
G1 X77.982 Y116.018 E3.18291
G1 X77.982 Y103.089 E3.67427
G1 X77.114 Y102.841 E3.70859
G1 X76.191 Y102.541 E3.74545
G1 X75.280 Y102.208 E3.78232
G1 X74.381 Y101.843 E3.81918
G1 X73.496 Y101.446 E3.85605
G1 X72.626 Y101.017 E3.89291
G1 X71.772 Y100.558 E3.92978
G1 X70.935 Y100.068 E3.96665
G1 X70.116 Y99.548 E4.00350
G1 X69.316 Y98.999 E4.04037
G1 X68.536 Y98.422 E4.07724
G1 X67.778 Y97.817 E4.11410
G1 X67.042 Y97.186 E4.15096
G1 X66.329 Y96.528 E4.18783
G1 X65.640 Y95.845 E4.22470
G1 X64.976 Y95.138 E4.26156
G1 X64.338 Y94.408 E4.29843
G1 X63.726 Y93.655 E4.33529
G1 X63.142 Y92.880 E4.37216
G1 X62.586 Y92.085 E4.40902
G1 X62.059 Y91.271 E4.44589
G1 X61.561 Y90.438 E4.48275
G1 X61.094 Y89.588 E4.51962
G1 X60.658 Y88.722 E4.55648
G1 X60.252 Y87.841 E4.59335
G1 X59.879 Y86.945 E4.63021
G1 X59.538 Y86.037 E4.66708
G1 X59.230 Y85.118 E4.70394
G1 X58.956 Y84.187 E4.74081
G1 X58.714 Y83.248 E4.77767
G1 X58.507 Y82.300 E4.81454
G1 X58.334 Y81.346 E4.85140
G1 X58.195 Y80.386 E4.88827
G1 X58.091 Y79.421 E4.92513
G1 X58.021 Y78.454 E4.96200
G1 X57.986 Y77.484 E4.99886
G1 X57.986 Y76.514 E5.03573
G1 X58.021 Y75.545 E5.07259
G1 X58.091 Y74.578 E5.10946
G1 X58.195 Y73.613 E5.14632
G1 X58.334 Y72.653 E5.18319
G1 X58.507 Y71.699 E5.22005
G1 X58.874 Y70.020 E5.28537
G1 X47.700 Y63.568 E5.77575
G1 X49.589 Y60.296 E5.91936
G1 X52.438 Y65.229 E6.13586
G1 X58.525 Y54.685 E6.59857
G1 X52.829 Y54.685 E6.81506
G1 X54.718 Y51.412 E6.95866
G1 X65.899 Y57.867 E7.44931
G1 X67.042 Y56.813 E7.50841
G1 X67.778 Y56.182 E7.54527
G1 X68.536 Y55.577 E7.58214
G1 X69.316 Y55.000 E7.61900
G1 X70.116 Y54.451 E7.65587
G1 X70.935 Y53.931 E7.69273
G1 X71.772 Y53.441 E7.72959
G1 X72.626 Y52.981 E7.76646
G1 X73.496 Y52.553 E7.80333
G1 X74.381 Y52.156 E7.84019
G1 X75.280 Y51.790 E7.87705
G1 X76.191 Y51.458 E7.91392
G1 X77.114 Y51.158 E7.95078
G1 X78.046 Y50.892 E7.98765
G1 X78.988 Y50.659 E8.02451
G1 X79.937 Y50.460 E8.06138
G1 X80.893 Y50.295 E8.09824
G1 X81.854 Y50.165 E8.13511
G1 X82.820 Y50.069 E8.17197
G1 X83.788 Y50.009 E8.20884
G1 X84.757 Y49.982 E8.24570
G1 X85.727 Y49.991 E8.28257
G1 X86.696 Y50.035 E8.31944
G1 X87.663 Y50.113 E8.35630
G1 X88.627 Y50.226 E8.39317
G1 X89.585 Y50.373 E8.43003
G1 X90.538 Y50.555 E8.46690
G1 X91.484 Y50.771 E8.50376
G1 X92.421 Y51.021 E8.54062
G1 X93.349 Y51.304 E8.57749
G1 X94.266 Y51.620 E8.61436
G1 X95.171 Y51.969 E8.65122
G1 X96.063 Y52.350 E8.68809
G1 X96.941 Y52.763 E8.72495
G1 X97.803 Y53.207 E8.76182
G1 X98.649 Y53.682 E8.79868
G1 X99.477 Y54.187 E8.83554
G1 X100.287 Y54.722 E8.87241
G1 X101.076 Y55.285 E8.90928
G1 X101.846 Y55.876 E8.94614
G1 X102.593 Y56.494 E8.98300
G1 X103.318 Y57.139 E9.01987
G1 X104.088 Y57.875 E9.06036
G1 X115.282 Y51.412 E9.55160
G1 X117.171 Y54.685 E9.69522
G1 X111.475 Y54.685 E9.91171
G1 X117.563 Y65.229 E10.37443
G1 X120.411 Y60.296 E10.59091
G1 X122.300 Y63.568 E10.73452
G1 X111.110 Y70.029 E11.22560
G1 X111.394 Y71.224 E11.27228
G1 X111.584 Y72.175 E11.30914
G1 X111.740 Y73.133 E11.34601
G1 X111.862 Y74.095 E11.38287
G1 X111.948 Y75.061 E11.41974
G1 X112.001 Y76.030 E11.45661
G1 X112.018 Y76.999 E11.49347
G1 X112.001 Y77.969 E11.53033
G1 X111.948 Y78.938 E11.56720
G1 X111.862 Y79.904 E11.60406
G1 X111.740 Y80.866 E11.64093
G1 X111.584 Y81.824 E11.67780
G1 X111.394 Y82.775 E11.71466
G1 X111.169 Y83.719 E11.75152
G1 X110.911 Y84.654 E11.78839
G1 X110.620 Y85.579 E11.82525
G1 X110.295 Y86.493 E11.86212
G1 X109.938 Y87.395 E11.89898
G1 X109.549 Y88.283 E11.93585
G1 X109.128 Y89.157 E11.97272
G1 X108.676 Y90.015 E12.00958
