; generated by Slic3r 0.9.10b on 2013-11-06 at 19:49:10

; layer_height = 0.3
; perimeters = 2
; top_solid_layers = 3
; bottom_solid_layers = 3
; fill_density = 0.4
; perimeter_speed = 30
; infill_speed = 30
; travel_speed = 200
; nozzle_diameter = 0.5
; filament_diameter = 2.98
; extrusion_multiplier = 0.9
; perimeters extrusion width = 0.70mm
; infill extrusion width = 0.70mm
; solid infill extrusion width = 0.70mm
; top infill extrusion width = 0.70mm

G21 ; set units to millimeters
M107
M104 S190 ; set temperature
G28 ; home all axes
G1 Z15 F120 ; lift nozzle
M109 S190 ; wait for temperature to be reached
G90 ; use absolute coordinates
G92 E0
M82 ; use absolute distances for extrusion
G1 F1680.000 E-2.00000
G92 E0
G1 Z0.450 F12000.000
G1 X41.675 Y66.970
G1 F1680.000 E2.00000
G1 X42.825 Y66.350 F900.000 E2.04965
G1 X44.075 Y65.970 E2.09931
G1 X45.375 Y65.850 E2.14892
G1 X124.625 Y65.850 E5.16082
G1 X125.925 Y65.970 E5.21044
G1 X127.175 Y66.350 E5.26009
G1 X128.325 Y66.970 E5.30974
G1 X129.335 Y67.790 E5.35919
G1 X130.155 Y68.800 E5.40863
G1 X130.775 Y69.950 E5.45828
G1 X131.155 Y71.200 E5.50794
G1 X131.275 Y72.500 E5.55755
G1 X131.275 Y97.500 E6.50768
G1 X131.155 Y98.800 E6.55730
G1 X130.775 Y100.050 E6.60695
G1 X130.155 Y101.200 E6.65660
G1 X129.335 Y102.210 E6.70605
G1 X128.325 Y103.030 E6.75549
G1 X127.175 Y103.650 E6.80514
G1 X125.925 Y104.030 E6.85479
G1 X124.625 Y104.150 E6.90441
G1 X45.375 Y104.150 E9.91631
G1 X44.075 Y104.030 E9.96593
G1 X42.825 Y103.650 E10.01558
G1 X41.675 Y103.030 E10.06523
G1 X40.665 Y102.210 E10.11468
G1 X39.845 Y101.200 E10.16412
G1 X39.225 Y100.050 E10.21377
G1 X38.845 Y98.800 E10.26343
G1 X38.725 Y97.500 E10.31304
G1 X38.725 Y72.500 E11.26317
G1 X38.845 Y71.200 E11.31278
G1 X39.225 Y69.950 E11.36244
G1 X39.845 Y68.800 E11.41209
G1 X40.665 Y67.790 E11.46153
G1 X41.599 Y67.032 E11.50725
G1 F1680.000 E9.50725
G92 E0
G1 X46.357 Y73.482 F12000.000
G1 F1680.000 E2.00000
G1 X123.643 Y73.482 F900.000 E4.93728
G1 X123.643 Y96.518 E5.81278
G1 X46.357 Y96.518 E8.75006
G1 X46.357 Y73.580 E9.62183
G1 X45.702 Y72.827 F12000.000
G1 X124.298 Y72.827 F720.000 E12.60886
G1 X124.298 Y97.173 E13.53411
G1 X45.702 Y97.173 E16.52113
G1 X45.702 Y72.925 E17.44265
G1 X46.269 Y73.154 F12000.000
G1 X47.472 Y96.044
G1 X46.831 Y95.403 F1200.000 E17.47717
G1 X46.831 Y94.476 E17.51247
G1 X48.399 Y96.044 E17.59691
G1 X49.327 Y96.044 E17.63222
G1 X46.831 Y93.548 E17.76658
G1 X46.831 Y92.621 E17.80188
G1 X50.254 Y96.044 E17.98618
G1 X51.181 Y96.044 E18.02148
G1 X46.831 Y91.694 E18.25570
G1 X46.831 Y90.767 E18.29100
G1 X52.108 Y96.044 E18.57514
G1 X53.036 Y96.044 E18.61044
G1 X46.831 Y89.839 E18.94451
G1 X46.831 Y88.912 E18.97981
G1 X53.963 Y96.044 E19.36381
G1 X54.890 Y96.044 E19.39911
G1 X46.831 Y87.985 E19.83303
G1 X46.831 Y87.058 E19.86833
G1 X55.817 Y96.044 E20.35217
G1 X56.745 Y96.044 E20.38748
G1 X46.831 Y86.130 E20.92125
G1 X46.831 Y85.203 E20.95655
G1 X57.672 Y96.044 E21.54024
G1 X58.599 Y96.044 E21.57555
G1 X46.831 Y84.276 E22.20917
G1 X46.831 Y83.349 E22.24447
G1 X59.526 Y96.044 E22.92801
G1 X60.454 Y96.044 E22.96332
G1 X46.831 Y82.421 E23.69679
G1 X46.831 Y81.494 E23.73209
G1 X61.381 Y96.044 E24.51549
G1 X62.308 Y96.044 E24.55079
G1 X46.831 Y80.567 E25.38411
G1 X46.831 Y79.640 E25.41941
G1 X63.235 Y96.044 E26.30266
G1 X64.163 Y96.044 E26.33796
G1 X46.831 Y78.712 E27.27113
G1 X46.831 Y77.785 E27.30644
G1 X65.090 Y96.044 E28.28953
G1 X66.017 Y96.044 E28.32484
G1 X46.831 Y76.858 E29.35786
G1 X46.831 Y75.931 E29.39316
G1 X66.944 Y96.044 E30.47611
G1 X67.872 Y96.044 E30.51141
G1 X46.831 Y75.003 E31.64429
G1 X46.831 Y74.076 E31.67959
G1 X68.799 Y96.044 E32.86239
G1 X69.726 Y96.044 E32.89769
G1 X47.638 Y73.956 E34.08695
G1 X48.566 Y73.956 E34.12226
G1 X70.653 Y96.044 E35.31152
G1 X71.581 Y96.044 E35.34682
G1 X49.493 Y73.956 E36.53608
G1 X50.420 Y73.956 E36.57139
G1 X72.508 Y96.044 E37.76065
G1 X73.435 Y96.044 E37.79595
G1 X51.347 Y73.956 E38.98521
G1 X52.275 Y73.956 E39.02052
G1 X74.362 Y96.044 E40.20978
G1 X75.290 Y96.044 E40.24508
G1 X53.202 Y73.956 E41.43434
G1 X54.129 Y73.956 E41.46965
G1 X76.217 Y96.044 E42.65891
G1 X77.144 Y96.044 E42.69421
G1 X55.056 Y73.956 E43.88347
G1 X55.984 Y73.956 E43.91878
G1 X78.071 Y96.044 E45.10804
G1 X78.998 Y96.044 E45.14334
G1 X56.911 Y73.956 E46.33260
G1 X57.838 Y73.956 E46.36791
G1 X79.926 Y96.044 E47.55717
G1 X80.853 Y96.044 E47.59247
G1 X58.765 Y73.956 E48.78173
G1 X59.693 Y73.956 E48.81704
G1 X81.780 Y96.044 E50.00630
G1 X82.707 Y96.044 E50.04160
G1 X60.620 Y73.956 E51.23086
G1 X61.547 Y73.956 E51.26617
G1 X83.635 Y96.044 E52.45543
G1 X84.562 Y96.044 E52.49073
G1 X62.474 Y73.956 E53.67999
G1 X63.401 Y73.956 E53.71530
G1 X85.489 Y96.044 E54.90456
G1 X86.416 Y96.044 E54.93986
G1 X64.329 Y73.956 E56.12912
G1 X65.256 Y73.956 E56.16443
G1 X87.344 Y96.044 E57.35369
G1 X88.271 Y96.044 E57.38899
G1 X66.183 Y73.956 E58.57825
G1 X67.110 Y73.956 E58.61356
G1 X89.198 Y96.044 E59.80282
G1 X90.125 Y96.044 E59.83812
G1 X68.038 Y73.956 E61.02738
G1 X68.965 Y73.956 E61.06269
G1 X91.053 Y96.044 E62.25195
G1 X91.980 Y96.044 E62.28725
G1 X69.892 Y73.956 E63.47652
G1 X70.819 Y73.956 E63.51182
G1 X92.907 Y96.044 E64.70108
G1 X93.834 Y96.044 E64.73638
G1 X71.747 Y73.956 E65.92565
G1 X72.674 Y73.956 E65.96095
G1 X94.762 Y96.044 E67.15021
G1 X95.689 Y96.044 E67.18551
G1 X73.601 Y73.956 E68.37478
G1 X74.528 Y73.956 E68.41008
G1 X96.616 Y96.044 E69.59934
G1 X97.543 Y96.044 E69.63464
G1 X75.456 Y73.956 E70.82391
G1 X76.383 Y73.956 E70.85921
G1 X98.471 Y96.044 E72.04847
G1 X99.398 Y96.044 E72.08377
G1 X77.310 Y73.956 E73.27304
G1 X78.237 Y73.956 E73.30834
G1 X100.325 Y96.044 E74.49760
G1 X101.252 Y96.044 E74.53290
G1 X79.165 Y73.956 E75.72217
G1 X80.092 Y73.956 E75.75747
G1 X102.180 Y96.044 E76.94673
G1 X103.107 Y96.044 E76.98203
G1 X81.019 Y73.956 E78.17130
G1 X81.946 Y73.956 E78.20660
G1 X104.034 Y96.044 E79.39586
G1 X104.961 Y96.044 E79.43116
G1 X82.874 Y73.956 E80.62043
G1 X83.801 Y73.956 E80.65573
G1 X105.889 Y96.044 E81.84499
G1 X106.816 Y96.044 E81.88029
G1 X84.728 Y73.956 E83.06956
G1 X85.655 Y73.956 E83.10486
G1 X107.743 Y96.044 E84.29412
G1 X108.670 Y96.044 E84.32942
G1 X86.583 Y73.956 E85.51869
G1 X87.510 Y73.956 E85.55399
G1 X109.598 Y96.044 E86.74325
G1 X110.525 Y96.044 E86.77855
G1 X88.437 Y73.956 E87.96782
G1 X89.364 Y73.956 E88.00312
G1 X111.452 Y96.044 E89.19238
G1 X112.379 Y96.044 E89.22768
G1 X90.292 Y73.956 E90.41695
G1 X91.219 Y73.956 E90.45225
G1 X113.307 Y96.044 E91.64151
G1 X114.234 Y96.044 E91.67682
G1 X92.146 Y73.956 E92.86608
G1 X93.073 Y73.956 E92.90138
G1 X115.161 Y96.044 E94.09064
G1 X116.088 Y96.044 E94.12595
G1 X94.001 Y73.956 E95.31521
G1 X94.928 Y73.956 E95.35051
G1 X117.016 Y96.044 E96.53977
G1 X117.943 Y96.044 E96.57508
G1 X95.855 Y73.956 E97.76434
G1 X96.782 Y73.956 E97.79964
G1 X118.870 Y96.044 E98.98890
G1 X119.797 Y96.044 E99.02421
G1 X97.710 Y73.956 E100.21347
G1 X98.637 Y73.956 E100.24877
G1 X120.724 Y96.044 E101.43803
G1 X121.652 Y96.044 E101.47334
G1 X99.564 Y73.956 E102.66260
G1 X100.491 Y73.956 E102.69790
G1 X122.579 Y96.044 E103.88716
G1 X123.169 Y95.706 E103.91304
G1 X101.419 Y73.956 E105.08413
G1 X102.346 Y73.956 E105.11944
G1 X123.169 Y94.779 E106.24061
G1 X123.169 Y93.852 E106.27591
G1 X103.273 Y73.956 E107.34716
G1 X104.200 Y73.956 E107.38246
G1 X123.169 Y92.925 E108.40378
G1 X123.169 Y91.998 E108.43908
G1 X105.127 Y73.956 E109.41048
G1 X106.055 Y73.956 E109.44578
G1 X123.169 Y91.070 E110.36725
G1 X123.169 Y90.143 E110.40255
G1 X106.982 Y73.956 E111.27410
G1 X107.909 Y73.956 E111.30940
G1 X123.169 Y89.216 E112.13102
G1 X123.169 Y88.289 E112.16632
G1 X108.836 Y73.956 E112.93802
G1 X109.764 Y73.956 E112.97332
G1 X123.169 Y87.361 E113.69509
G1 X123.169 Y86.434 E113.73039
G1 X110.691 Y73.956 E114.40224
G1 X111.618 Y73.956 E114.43754
G1 X123.169 Y85.507 E115.05946
G1 X123.169 Y84.580 E115.09476
G1 X112.545 Y73.956 E115.66675
G1 X113.473 Y73.956 E115.70206
G1 X123.169 Y83.652 E116.22413
G1 X123.169 Y82.725 E116.25943
G1 X114.400 Y73.956 E116.73157
G1 X115.327 Y73.956 E116.76687
G1 X123.169 Y81.798 E117.18909
G1 X123.169 Y80.871 E117.22439
G1 X116.254 Y73.956 E117.59668
G1 X117.182 Y73.956 E117.63199
G1 X123.169 Y79.943 E117.95435
G1 X123.169 Y79.016 E117.98966
G1 X118.109 Y73.956 E118.26210
G1 X119.036 Y73.956 E118.29740
G1 X123.169 Y78.089 E118.51992
G1 X123.169 Y77.162 E118.55522
G1 X119.963 Y73.956 E118.72781
G1 X120.891 Y73.956 E118.76311
G1 X123.169 Y76.234 E118.88578
G1 X123.169 Y75.307 E118.92108
G1 X121.818 Y73.956 E118.99382
G1 X122.745 Y73.956 E119.02912
G1 X123.169 Y74.380 E119.05193
M104 S188 ; set temperature
G1 F1680.000 E117.05193
G92 E0
G1 Z0.750 F12000.000
G1 X123.643 Y73.482
G1 F1680.000 E2.00000
G1 X123.643 Y96.518 F1800.000 E2.58367
G1 X46.357 Y96.518 E4.54185
G1 X46.357 Y73.482 E5.12552
G1 X123.545 Y73.482 E7.08122
G1 X124.298 Y72.827 F12000.000
G1 X124.298 Y97.173 F1440.000 E7.69805
G1 X45.702 Y97.173 E9.68940
G1 X45.702 Y72.827 E10.30624
G1 X124.200 Y72.827 E12.29510
G1 X123.971 Y73.394 F12000.000
G1 X123.169 Y95.776
G1 X122.901 Y96.044 F2400.000 E12.30473
G1 X121.973 Y96.044 E12.32826
G1 X123.169 Y94.848 E12.37117
G1 X123.169 Y93.921 E12.39471
G1 X121.046 Y96.044 E12.47090
G1 X120.119 Y96.044 E12.49444
G1 X123.169 Y92.994 E12.60391
G1 X123.169 Y92.067 E12.62745
G1 X119.192 Y96.044 E12.77021
G1 X118.264 Y96.044 E12.79374
G1 X123.169 Y91.139 E12.96979
G1 X123.169 Y90.212 E12.99332
G1 X117.337 Y96.044 E13.20265
G1 X116.410 Y96.044 E13.22619
G1 X123.169 Y89.285 E13.46880
G1 X123.169 Y88.358 E13.49233
G1 X115.483 Y96.044 E13.76823
G1 X114.555 Y96.044 E13.79176
G1 X123.169 Y87.430 E14.10094
G1 X123.169 Y86.503 E14.12448
G1 X113.628 Y96.044 E14.46694
G1 X112.701 Y96.044 E14.49047
G1 X123.169 Y85.576 E14.86622
G1 X123.169 Y84.649 E14.88975
G1 X111.774 Y96.044 E15.29878
G1 X110.847 Y96.044 E15.32232
G1 X123.169 Y83.722 E15.76463
G1 X123.169 Y82.794 E15.78816
G1 X109.919 Y96.044 E16.26376
G1 X108.992 Y96.044 E16.28730
G1 X123.169 Y81.867 E16.79617
G1 X123.169 Y80.940 E16.81971
G1 X108.065 Y96.044 E17.36187
G1 X107.138 Y96.044 E17.38541
G1 X123.169 Y80.013 E17.96086
G1 X123.169 Y79.085 E17.98439
G1 X106.210 Y96.044 E18.59312
G1 X105.283 Y96.044 E18.61666
G1 X123.169 Y78.158 E19.25867
G1 X123.169 Y77.231 E19.28220
G1 X104.356 Y96.044 E19.95750
G1 X103.429 Y96.044 E19.98104
G1 X123.169 Y76.304 E20.68962
G1 X123.169 Y75.376 E20.71315
G1 X102.501 Y96.044 E21.45502
G1 X101.574 Y96.044 E21.47855
G1 X123.169 Y74.449 E22.25370
G1 X122.735 Y73.956 E22.27038
G1 X100.647 Y96.044 E23.06322
G1 X99.720 Y96.044 E23.08675
G1 X121.807 Y73.956 E23.87959
G1 X120.880 Y73.956 E23.90313
G1 X98.792 Y96.044 E24.69597
G1 X97.865 Y96.044 E24.71951
G1 X119.953 Y73.956 E25.51235
G1 X119.026 Y73.956 E25.53588
G1 X96.938 Y96.044 E26.32873
G1 X96.011 Y96.044 E26.35226
G1 X118.098 Y73.956 E27.14510
G1 X117.171 Y73.956 E27.16864
G1 X95.083 Y96.044 E27.96148
G1 X94.156 Y96.044 E27.98501
G1 X116.244 Y73.956 E28.77786
G1 X115.317 Y73.956 E28.80139
G1 X93.229 Y96.044 E29.59423
G1 X92.302 Y96.044 E29.61777
G1 X114.389 Y73.956 E30.41061
G1 X113.462 Y73.956 E30.43414
G1 X91.374 Y96.044 E31.22699
G1 X90.447 Y96.044 E31.25052
G1 X112.535 Y73.956 E32.04336
G1 X111.608 Y73.956 E32.06690
G1 X89.520 Y96.044 E32.85974
G1 X88.593 Y96.044 E32.88327
G1 X110.680 Y73.956 E33.67612
G1 X109.753 Y73.956 E33.69965
G1 X87.665 Y96.044 E34.49249
G1 X86.738 Y96.044 E34.51603
G1 X108.826 Y73.956 E35.30887
G1 X107.899 Y73.956 E35.33240
G1 X85.811 Y96.044 E36.12525
G1 X84.884 Y96.044 E36.14878
G1 X106.971 Y73.956 E36.94162
G1 X106.044 Y73.956 E36.96516
G1 X83.956 Y96.044 E37.75800
G1 X83.029 Y96.044 E37.78153
G1 X105.117 Y73.956 E38.57438
G1 X104.190 Y73.956 E38.59791
G1 X82.102 Y96.044 E39.39075
G1 X81.175 Y96.044 E39.41429
G1 X103.262 Y73.956 E40.20713
G1 X102.335 Y73.956 E40.23066
G1 X80.247 Y96.044 E41.02351
G1 X79.320 Y96.044 E41.04704
G1 X101.408 Y73.956 E41.83988
G1 X100.481 Y73.956 E41.86342
G1 X78.393 Y96.044 E42.65626
G1 X77.466 Y96.044 E42.67979
G1 X99.553 Y73.956 E43.47264
G1 X98.626 Y73.956 E43.49617
G1 X76.538 Y96.044 E44.28901
G1 X75.611 Y96.044 E44.31255
G1 X97.699 Y73.956 E45.10539
G1 X96.772 Y73.956 E45.12892
G1 X74.684 Y96.044 E45.92177
G1 X73.757 Y96.044 E45.94530
G1 X95.844 Y73.956 E46.73814
G1 X94.917 Y73.956 E46.76168
G1 X72.829 Y96.044 E47.55452
G1 X71.902 Y96.044 E47.57806
G1 X93.990 Y73.956 E48.37090
G1 X93.063 Y73.956 E48.39443
G1 X70.975 Y96.044 E49.18727
G1 X70.048 Y96.044 E49.21081
G1 X92.135 Y73.956 E50.00365
G1 X91.208 Y73.956 E50.02719
G1 X69.121 Y96.044 E50.82003
G1 X68.193 Y96.044 E50.84356
G1 X90.281 Y73.956 E51.63640
G1 X89.354 Y73.956 E51.65994
G1 X67.266 Y96.044 E52.45278
G1 X66.339 Y96.044 E52.47632
G1 X88.426 Y73.956 E53.26916
G1 X87.499 Y73.956 E53.29269
G1 X65.412 Y96.044 E54.08553
G1 X64.484 Y96.044 E54.10907
G1 X86.572 Y73.956 E54.90191
G1 X85.645 Y73.956 E54.92545
G1 X63.557 Y96.044 E55.71829
G1 X62.630 Y96.044 E55.74182
G1 X84.718 Y73.956 E56.53466
G1 X83.790 Y73.956 E56.55820
G1 X61.703 Y96.044 E57.35104
G1 X60.775 Y96.044 E57.37458
G1 X82.863 Y73.956 E58.16742
G1 X81.936 Y73.956 E58.19095
G1 X59.848 Y96.044 E58.98379
G1 X58.921 Y96.044 E59.00733
G1 X81.009 Y73.956 E59.80017
G1 X80.081 Y73.956 E59.82371
G1 X57.994 Y96.044 E60.61655
G1 X57.066 Y96.044 E60.64008
G1 X79.154 Y73.956 E61.43292
G1 X78.227 Y73.956 E61.45646
G1 X56.139 Y96.044 E62.24930
G1 X55.212 Y96.044 E62.27284
G1 X77.300 Y73.956 E63.06568
G1 X76.372 Y73.956 E63.08921
G1 X54.285 Y96.044 E63.88205
G1 X53.357 Y96.044 E63.90559
G1 X75.445 Y73.956 E64.69843
G1 X74.518 Y73.956 E64.72197
G1 X52.430 Y96.044 E65.51481
G1 X51.503 Y96.044 E65.53834
G1 X73.591 Y73.956 E66.33118
G1 X72.663 Y73.956 E66.35472
G1 X50.576 Y96.044 E67.14756
G1 X49.648 Y96.044 E67.17110
G1 X71.736 Y73.956 E67.96394
G1 X70.809 Y73.956 E67.98747
G1 X48.721 Y96.044 E68.78031
G1 X47.794 Y96.044 E68.80385
G1 X69.882 Y73.956 E69.59669
G1 X68.954 Y73.956 E69.62023
G1 X46.867 Y96.044 E70.41307
G1 X46.831 Y95.152 E70.43572
G1 X68.027 Y73.956 E71.19655
G1 X67.100 Y73.956 E71.22009
G1 X46.831 Y94.225 E71.94764
G1 X46.831 Y93.298 E71.97117
G1 X66.173 Y73.956 E72.66544
G1 X65.245 Y73.956 E72.68897
G1 X46.831 Y92.370 E73.34995
G1 X46.831 Y91.443 E73.37349
G1 X64.318 Y73.956 E74.00119
G1 X63.391 Y73.956 E74.02472
G1 X46.831 Y90.516 E74.61914
G1 X46.831 Y89.589 E74.64267
G1 X62.464 Y73.956 E75.20380
G1 X61.536 Y73.956 E75.22734
G1 X46.831 Y88.661 E75.75518
G1 X46.831 Y87.734 E75.77872
G1 X60.609 Y73.956 E76.27328
G1 X59.682 Y73.956 E76.29682
G1 X46.831 Y86.807 E76.75810
G1 X46.831 Y85.880 E76.78163
G1 X58.755 Y73.956 E77.20963
G1 X57.827 Y73.956 E77.23317
G1 X46.831 Y84.952 E77.62788
G1 X46.831 Y84.025 E77.65141
G1 X56.900 Y73.956 E78.01284
G1 X55.973 Y73.956 E78.03638
G1 X46.831 Y83.098 E78.36452
G1 X46.831 Y82.171 E78.38806
G1 X55.046 Y73.956 E78.68292
G1 X54.118 Y73.956 E78.70646
G1 X46.831 Y81.243 E78.96803
G1 X46.831 Y80.316 E78.99157
G1 X53.191 Y73.956 E79.21987
G1 X52.264 Y73.956 E79.24340
G1 X46.831 Y79.389 E79.43841
G1 X46.831 Y78.462 E79.46195
G1 X51.337 Y73.956 E79.62368
G1 X50.409 Y73.956 E79.64721
G1 X46.831 Y77.534 E79.77565
G1 X46.831 Y76.607 E79.79919
G1 X49.482 Y73.956 E79.89435
G1 X48.555 Y73.956 E79.91789
G1 X46.831 Y75.680 E79.97976
G1 X46.831 Y74.753 E80.00330
G1 X47.628 Y73.956 E80.03189
G1 F1680.000 E78.03189
G92 E0
G1 Z1.050 F12000.000
G1 X123.643 Y96.518
G1 F1680.000 E2.00000
G1 X46.357 Y96.518 F1800.000 E3.95818
G1 X46.357 Y73.482 E4.54185
G1 X123.643 Y73.482 E6.50004
G1 X123.643 Y96.420 E7.08122
G1 X124.298 Y97.173 F12000.000
G1 X45.702 Y97.173 F1440.000 E9.07257
