; generated by Slic3r 0.9.10b on 2013-11-08 at 22:57:15

; layer_height = 0.3
; perimeters = 3
; top_solid_layers = 3
; bottom_solid_layers = 3
; fill_density = 0.3
; perimeter_speed = 30
; infill_speed = 30
; travel_speed = 200
; nozzle_diameter = 0.5
; filament_diameter = 2.98
; extrusion_multiplier = 0.9
; perimeters extrusion width = 0.50mm
; infill extrusion width = 0.50mm
; solid infill extrusion width = 0.50mm
; top infill extrusion width = 0.50mm

G21 ; set units to millimeters
M107
M104 S190 ; set temperature
G28 ; home all axes
G1 Z15 F120 ; lift nozzle
M109 S190 ; wait for temperature to be reached
G90 ; use absolute coordinates
G92 E0
M82 ; use absolute distances for extrusion
G1 F1680.000 E-2.00000
G92 E0
G1 Z0.450 F12000.000
G1 X36.150 Y44.900
G1 F1680.000 E2.00000
G1 X37.140 Y44.100 F900.000 E2.03696
G1 X38.260 Y43.490 E2.07398
G1 X39.480 Y43.120 E2.11100
G1 X40.750 Y43.000 E2.14803
G1 X50.750 Y43.000 E2.43837
G1 X52.030 Y43.130 E2.47573
G1 X53.260 Y43.500 E2.51302
G1 X54.390 Y44.110 E2.55030
G1 X132.890 Y97.110 E5.30028
G1 X133.860 Y97.920 E5.33697
G1 X134.660 Y98.900 E5.37370
G1 X135.260 Y100.020 E5.41059
G1 X135.630 Y101.240 E5.44760
G1 X135.750 Y102.500 E5.48435
G1 X135.750 Y120.500 E6.00696
G1 X135.630 Y121.770 E6.04399
G1 X135.260 Y122.990 E6.08101
G1 X134.650 Y124.110 E6.11804
G1 X133.850 Y125.100 E6.15499
G1 X132.860 Y125.900 E6.19195
G1 X131.740 Y126.510 E6.22898
G1 X130.520 Y126.880 E6.26599
G1 X129.250 Y127.000 E6.30303
G1 X40.750 Y127.000 E8.87251
G1 X39.480 Y126.880 E8.90955
G1 X38.260 Y126.510 E8.94656
G1 X37.140 Y125.900 E8.98359
G1 X36.150 Y125.100 E9.02054
G1 X35.350 Y124.110 E9.05750
G1 X34.740 Y122.990 E9.09453
G1 X34.370 Y121.770 E9.13154
G1 X34.250 Y120.500 E9.16858
G1 X34.250 Y49.500 E11.22997
G1 X34.370 Y48.230 E11.26701
G1 X34.740 Y47.010 E11.30402
G1 X35.350 Y45.890 E11.34105
G1 X36.103 Y44.958 E11.37583
G1 F1680.000 E9.37583
G92 E0
G1 X42.000 Y50.750 F12000.000
G1 F1680.000 E2.00000
G1 X49.500 Y50.750 F900.000 E2.21775
G1 X49.500 Y97.250 E3.56782
G1 X49.595 Y97.250 E3.57059
G1 X49.853 Y98.879 E3.61848
G1 X50.294 Y100.522 E3.66787
G1 X50.903 Y102.110 E3.71725
G1 X51.676 Y103.626 E3.76664
G1 X52.602 Y105.052 E3.81603
G1 X53.673 Y106.375 E3.86542
G1 X54.876 Y107.577 E3.91481
G1 X56.198 Y108.648 E3.96420
G1 X57.624 Y109.574 E4.01359
G1 X59.140 Y110.347 E4.06298
G1 X60.728 Y110.956 E4.11237
G1 X62.371 Y111.397 E4.16175
G1 X64.000 Y111.655 E4.20964
G1 X64.000 Y111.750 E4.21241
G1 X122.000 Y111.750 E5.89637
G1 X122.000 Y103.750 E6.12864
G1 X128.000 Y103.750 E6.30284
G1 X128.000 Y119.250 E6.75286
G1 X42.000 Y119.250 E9.24976
G1 X42.000 Y50.825 E11.23639
G1 F1680.000 E9.23639
G92 E0
G1 X128.500 Y103.250 F12000.000
G1 F1680.000 E2.00000
G1 X128.500 Y119.750 F900.000 E2.47906
G1 X41.500 Y119.750 E5.00499
G1 X41.500 Y50.250 E7.02283
G1 X50.000 Y50.250 E7.26962
G1 X50.000 Y96.750 E8.61969
G1 X50.064 Y96.750 E8.62156
G1 X50.085 Y97.146 E8.63308
G1 X50.343 Y98.775 E8.68096
G1 X50.770 Y100.367 E8.72882
G1 X51.361 Y101.906 E8.77669
G1 X52.109 Y103.375 E8.82455
G1 X53.007 Y104.758 E8.87242
G1 X54.045 Y106.040 E8.92029
G1 X55.173 Y107.168 E8.96661
G1 X56.492 Y108.243 E9.01602
G1 X57.874 Y109.141 E9.06389
G1 X59.344 Y109.889 E9.11175
G1 X60.883 Y110.480 E9.15962
G1 X62.475 Y110.907 E9.20749
G1 X64.104 Y111.165 E9.25536
G1 X64.500 Y111.186 E9.26688
G1 X64.500 Y111.250 E9.26875
G1 X121.500 Y111.250 E10.92368
G1 X121.500 Y103.250 E11.15595
G1 X128.425 Y103.250 E11.35700
G1 X129.000 Y102.750 F12000.000
G1 X129.000 Y120.250 F720.000 E11.86509
G1 X41.000 Y120.250 E14.42006
G1 X41.000 Y49.750 E16.46694
G1 X50.500 Y49.750 E16.74276
G1 X50.500 Y96.250 E18.09283
G1 X50.539 Y96.250 E18.09396
G1 X50.583 Y97.094 E18.11850
G1 X50.833 Y98.671 E18.16485
G1 X51.246 Y100.213 E18.21119
G1 X51.806 Y101.671 E18.25654
G1 X52.543 Y103.125 E18.30388
G1 X53.412 Y104.464 E18.35022
G1 X54.417 Y105.704 E18.39657
G1 X55.546 Y106.833 E18.44291
G1 X56.786 Y107.838 E18.48926
G1 X58.125 Y108.707 E18.53561
G1 X59.547 Y109.432 E18.58195
G1 X61.037 Y110.004 E18.62830
G1 X62.579 Y110.417 E18.67464
G1 X64.156 Y110.667 E18.72099
G1 X65.000 Y110.711 E18.74553
G1 X65.000 Y110.750 E18.74666
G1 X121.000 Y110.750 E20.37255
G1 X121.000 Y102.750 E20.60482
G1 X128.925 Y102.750 E20.83491
G1 X128.750 Y103.183 F12000.000
G1 X127.182 Y104.112
G1 X127.638 Y104.568 F1200.000 E20.85361
G1 X127.638 Y105.275 E20.87414
G1 X126.475 Y104.112 E20.92188
G1 X125.768 Y104.112 E20.94241
G1 X127.638 Y105.982 E21.01917
G1 X127.638 Y106.689 E21.03970
G1 X125.061 Y104.112 E21.14551
G1 X124.354 Y104.112 E21.16604
G1 X127.638 Y107.396 E21.30087
G1 X127.638 Y108.103 E21.32140
G1 X123.647 Y104.112 E21.48527
G1 X122.940 Y104.112 E21.50580
G1 X127.638 Y108.810 E21.69870
G1 X127.638 Y109.518 E21.71923
G1 X122.362 Y104.242 E21.93583
G1 X122.362 Y104.949 E21.95636
G1 X127.638 Y110.225 E22.17296
G1 X127.638 Y110.932 E22.19349
G1 X122.362 Y105.657 E22.41009
G1 X122.362 Y106.364 E22.43062
G1 X127.638 Y111.639 E22.64722
G1 X127.638 Y112.346 E22.66775
G1 X122.362 Y107.071 E22.88435
G1 X122.362 Y107.778 E22.90488
G1 X127.638 Y113.053 E23.12148
G1 X127.638 Y113.760 E23.14201
G1 X122.362 Y108.485 E23.35862
G1 X122.362 Y109.192 E23.37915
G1 X127.638 Y114.467 E23.59575
G1 X127.638 Y115.174 E23.61628
G1 X122.362 Y109.899 E23.83288
G1 X122.362 Y110.606 E23.85341
G1 X127.638 Y115.882 E24.07001
G1 X127.638 Y116.589 E24.09054
G1 X122.362 Y111.313 E24.30714
G1 X122.362 Y112.020 E24.32767
G1 X127.638 Y117.296 E24.54427
G1 X127.638 Y118.003 E24.56480
G1 X121.747 Y112.112 E24.80666
G1 X121.040 Y112.112 E24.82719
G1 X127.638 Y118.710 E25.09809
G1 X127.108 Y118.888 E25.11430
G1 X120.333 Y112.112 E25.39249
G1 X119.626 Y112.112 E25.41302
G1 X126.401 Y118.888 E25.69121
G1 X125.694 Y118.888 E25.71174
G1 X118.919 Y112.112 E25.98993
G1 X118.212 Y112.112 E26.01046
G1 X124.987 Y118.888 E26.28865
G1 X124.280 Y118.888 E26.30918
G1 X117.505 Y112.112 E26.58737
G1 X116.797 Y112.112 E26.60790
G1 X123.573 Y118.888 E26.88609
G1 X122.866 Y118.888 E26.90662
G1 X116.090 Y112.112 E27.18481
G1 X115.383 Y112.112 E27.20534
G1 X122.158 Y118.888 E27.48353
G1 X121.451 Y118.888 E27.50406
G1 X114.676 Y112.112 E27.78225
G1 X113.969 Y112.112 E27.80278
G1 X120.744 Y118.888 E28.08097
G1 X120.037 Y118.888 E28.10150
G1 X113.262 Y112.112 E28.37969
G1 X112.555 Y112.112 E28.40022
G1 X119.330 Y118.888 E28.67841
G1 X118.623 Y118.888 E28.69894
G1 X111.848 Y112.112 E28.97714
G1 X111.141 Y112.112 E28.99766
G1 X117.916 Y118.888 E29.27586
G1 X117.209 Y118.888 E29.29639
G1 X110.433 Y112.112 E29.57458
G1 X109.726 Y112.112 E29.59511
G1 X116.502 Y118.888 E29.87330
G1 X115.794 Y118.888 E29.89383
G1 X109.019 Y112.112 E30.17202
G1 X108.312 Y112.112 E30.19255
G1 X115.087 Y118.888 E30.47074
G1 X114.380 Y118.888 E30.49127
G1 X107.605 Y112.112 E30.76946
G1 X106.898 Y112.112 E30.78999
G1 X113.673 Y118.888 E31.06818
G1 X112.966 Y118.888 E31.08871
G1 X106.191 Y112.112 E31.36690
G1 X105.484 Y112.112 E31.38743
G1 X112.259 Y118.888 E31.66562
G1 X111.552 Y118.888 E31.68615
G1 X104.777 Y112.112 E31.96434
G1 X104.069 Y112.112 E31.98487
G1 X110.845 Y118.888 E32.26306
G1 X110.138 Y118.888 E32.28359
G1 X103.362 Y112.112 E32.56178
G1 X102.655 Y112.112 E32.58231
G1 X109.431 Y118.888 E32.86050
G1 X108.723 Y118.888 E32.88103
G1 X101.948 Y112.112 E33.15922
G1 X101.241 Y112.112 E33.17975
G1 X108.016 Y118.888 E33.45794
G1 X107.309 Y118.888 E33.47847
G1 X100.534 Y112.112 E33.75666
G1 X99.827 Y112.112 E33.77719
G1 X106.602 Y118.888 E34.05538
G1 X105.895 Y118.888 E34.07591
G1 X99.120 Y112.112 E34.35410
G1 X98.413 Y112.112 E34.37463
G1 X105.188 Y118.888 E34.65282
G1 X104.481 Y118.888 E34.67335
G1 X97.706 Y112.112 E34.95154
G1 X96.998 Y112.112 E34.97207
G1 X103.774 Y118.888 E35.25026
G1 X103.067 Y118.888 E35.27079
G1 X96.291 Y112.112 E35.54898
G1 X95.584 Y112.112 E35.56951
G1 X102.359 Y118.888 E35.84771
G1 X101.652 Y118.888 E35.86824
G1 X94.877 Y112.112 E36.14643
G1 X94.170 Y112.112 E36.16696
G1 X100.945 Y118.888 E36.44515
G1 X100.238 Y118.888 E36.46568
G1 X93.463 Y112.112 E36.74387
G1 X92.756 Y112.112 E36.76440
G1 X99.531 Y118.888 E37.04259
G1 X98.824 Y118.888 E37.06312
G1 X92.049 Y112.112 E37.34131
G1 X91.342 Y112.112 E37.36184
G1 X98.117 Y118.888 E37.64003
G1 X97.410 Y118.888 E37.66056
G1 X90.634 Y112.112 E37.93875
G1 X89.927 Y112.112 E37.95928
G1 X96.703 Y118.888 E38.23747
G1 X95.995 Y118.888 E38.25800
G1 X89.220 Y112.112 E38.53619
G1 X88.513 Y112.112 E38.55672
G1 X95.288 Y118.888 E38.83491
G1 X94.581 Y118.888 E38.85544
G1 X87.806 Y112.112 E39.13363
G1 X87.099 Y112.112 E39.15416
G1 X93.874 Y118.888 E39.43235
G1 X93.167 Y118.888 E39.45288
G1 X86.392 Y112.112 E39.73107
G1 X85.685 Y112.112 E39.75160
G1 X92.460 Y118.888 E40.02979
G1 X91.753 Y118.888 E40.05032
G1 X84.978 Y112.112 E40.32851
G1 X84.270 Y112.112 E40.34904
G1 X91.046 Y118.888 E40.62723
G1 X90.339 Y118.888 E40.64776
G1 X83.563 Y112.112 E40.92595
G1 X82.856 Y112.112 E40.94648
G1 X89.632 Y118.888 E41.22467
G1 X88.924 Y118.888 E41.24520
G1 X82.149 Y112.112 E41.52339
G1 X81.442 Y112.112 E41.54392
G1 X88.217 Y118.888 E41.82211
G1 X87.510 Y118.888 E41.84264
G1 X80.735 Y112.112 E42.12083
G1 X80.028 Y112.112 E42.14136
G1 X86.803 Y118.888 E42.41955
G1 X86.096 Y118.888 E42.44008
G1 X79.321 Y112.112 E42.71828
G1 X78.614 Y112.112 E42.73881
G1 X85.389 Y118.888 E43.01700
G1 X84.682 Y118.888 E43.03753
G1 X77.907 Y112.112 E43.31572
G1 X77.199 Y112.112 E43.33625
G1 X83.975 Y118.888 E43.61444
G1 X83.268 Y118.888 E43.63497
G1 X76.492 Y112.112 E43.91316
G1 X75.785 Y112.112 E43.93369
G1 X82.560 Y118.888 E44.21188
G1 X81.853 Y118.888 E44.23241
G1 X75.078 Y112.112 E44.51060
G1 X74.371 Y112.112 E44.53113
G1 X81.146 Y118.888 E44.80932
G1 X80.439 Y118.888 E44.82985
G1 X73.664 Y112.112 E45.10804
G1 X72.957 Y112.112 E45.12857
G1 X79.732 Y118.888 E45.40676
G1 X79.025 Y118.888 E45.42729
G1 X72.250 Y112.112 E45.70548
G1 X71.543 Y112.112 E45.72601
G1 X78.318 Y118.888 E46.00420
G1 X77.611 Y118.888 E46.02473
G1 X70.835 Y112.112 E46.30292
G1 X70.128 Y112.112 E46.32345
G1 X76.904 Y118.888 E46.60164
G1 X76.196 Y118.888 E46.62217
G1 X69.421 Y112.112 E46.90036
G1 X68.714 Y112.112 E46.92089
G1 X75.489 Y118.888 E47.19908
G1 X74.782 Y118.888 E47.21961
G1 X68.007 Y112.112 E47.49780
G1 X67.300 Y112.112 E47.51833
G1 X74.075 Y118.888 E47.79652
G1 X73.368 Y118.888 E47.81705
G1 X66.593 Y112.112 E48.09524
G1 X65.886 Y112.112 E48.11577
G1 X72.661 Y118.888 E48.39396
G1 X71.954 Y118.888 E48.41449
G1 X65.179 Y112.112 E48.69268
G1 X64.472 Y112.112 E48.71321
G1 X71.247 Y118.888 E48.99140
G1 X70.540 Y118.888 E49.01193
G1 X63.764 Y112.112 E49.29013
G1 X63.638 Y111.986 F12000.000
G1 X63.612 Y111.960 F1200.000 E49.29118
G1 X62.772 Y111.827 E49.31587
G1 X69.833 Y118.888 E49.60578
G1 X69.125 Y118.888 E49.62631
G1 X61.877 Y111.639 E49.92392
G1 X60.911 Y111.381 E49.95296
G1 X68.418 Y118.888 E50.26119
G1 X67.711 Y118.888 E50.28172
G1 X59.819 Y110.996 E50.60577
G1 X58.589 Y110.473 E50.64457
G1 X67.004 Y118.888 E50.99007
G1 X66.297 Y118.888 E51.01060
G1 X57.030 Y109.621 E51.39110
G1 X49.264 Y97.612 F12000.000
G1 X49.290 Y97.638 F1200.000 E51.39215
G1 X49.138 Y96.778 E51.41750
G1 X42.362 Y90.003 E51.69569
G1 X42.362 Y89.296 E51.71622
G1 X49.138 Y96.071 E51.99441
G1 X49.138 Y95.364 E52.01494
G1 X42.362 Y88.589 E52.29313
G1 X42.362 Y87.882 E52.31366
G1 X49.138 Y94.657 E52.59185
G1 X49.138 Y93.950 E52.61238
G1 X42.362 Y87.175 E52.89057
G1 X42.362 Y86.468 E52.91110
G1 X49.138 Y93.243 E53.18929
G1 X49.138 Y92.536 E53.20982
G1 X42.362 Y85.761 E53.48801
G1 X42.362 Y85.054 E53.50854
G1 X49.138 Y91.829 E53.78673
G1 X49.138 Y91.122 E53.80726
G1 X42.362 Y84.346 E54.08545
G1 X42.362 Y83.639 E54.10598
G1 X49.138 Y90.415 E54.38417
G1 X49.138 Y89.707 E54.40470
G1 X42.362 Y82.932 E54.68289
G1 X42.362 Y82.225 E54.70342
G1 X49.138 Y89.000 E54.98161
G1 X49.138 Y88.293 E55.00214
G1 X42.362 Y81.518 E55.28033
G1 X42.362 Y80.811 E55.30086
G1 X49.138 Y87.586 E55.57905
G1 X49.138 Y86.879 E55.59958
G1 X42.362 Y80.104 E55.87777
G1 X42.362 Y79.397 E55.89830
G1 X49.138 Y86.172 E56.17649
G1 X49.138 Y85.465 E56.19702
G1 X42.362 Y78.690 E56.47521
G1 X42.362 Y77.982 E56.49574
G1 X49.138 Y84.758 E56.77394
G1 X49.138 Y84.051 E56.79447
G1 X42.362 Y77.275 E57.07266
G1 X42.362 Y76.568 E57.09319
G1 X49.138 Y83.343 E57.37138
G1 X49.138 Y82.636 E57.39191
G1 X42.362 Y75.861 E57.67010
G1 X42.362 Y75.154 E57.69063
G1 X49.138 Y81.929 E57.96882
G1 X49.138 Y81.222 E57.98935
G1 X42.362 Y74.447 E58.26754
G1 X42.362 Y73.740 E58.28807
G1 X49.138 Y80.515 E58.56626
G1 X49.138 Y79.808 E58.58679
G1 X42.362 Y73.033 E58.86498
G1 X42.362 Y72.326 E58.88551
G1 X49.138 Y79.101 E59.16370
G1 X49.138 Y78.394 E59.18423
G1 X42.362 Y71.618 E59.46242
G1 X42.362 Y70.911 E59.48295
G1 X49.138 Y77.687 E59.76114
G1 X49.138 Y76.980 E59.78167
G1 X42.362 Y70.204 E60.05986
G1 X42.362 Y69.497 E60.08039
G1 X49.138 Y76.272 E60.35858
G1 X49.138 Y75.565 E60.37911
G1 X42.362 Y68.790 E60.65730
G1 X42.362 Y68.083 E60.67783
G1 X49.138 Y74.858 E60.95602
G1 X49.138 Y74.151 E60.97655
G1 X42.362 Y67.376 E61.25474
G1 X42.362 Y66.669 E61.27527
G1 X49.138 Y73.444 E61.55346
G1 X49.138 Y72.737 E61.57399
G1 X42.362 Y65.962 E61.85218
G1 X42.362 Y65.255 E61.87271
G1 X49.138 Y72.030 E62.15090
G1 X49.138 Y71.323 E62.17143
G1 X42.362 Y64.547 E62.44962
G1 X42.362 Y63.840 E62.47015
G1 X49.138 Y70.616 E62.74834
G1 X49.138 Y69.908 E62.76887
G1 X42.362 Y63.133 E63.04707
G1 X42.362 Y62.426 E63.06760
G1 X49.138 Y69.201 E63.34579
G1 X49.138 Y68.494 E63.36632
G1 X42.362 Y61.719 E63.64451
G1 X42.362 Y61.012 E63.66504
G1 X49.138 Y67.787 E63.94323
G1 X49.138 Y67.080 E63.96376
G1 X42.362 Y60.305 E64.24195
G1 X42.362 Y59.598 E64.26248
G1 X49.138 Y66.373 E64.54067
G1 X49.138 Y65.666 E64.56120
G1 X42.362 Y58.891 E64.83939
G1 X42.362 Y58.183 E64.85992
G1 X49.138 Y64.959 E65.13811
G1 X49.138 Y64.252 E65.15864
G1 X42.362 Y57.476 E65.43683
G1 X42.362 Y56.769 E65.45736
G1 X49.138 Y63.544 E65.73555
G1 X49.138 Y62.837 E65.75608
G1 X42.362 Y56.062 E66.03427
G1 X42.362 Y55.355 E66.05480
G1 X49.138 Y62.130 E66.33299
G1 X49.138 Y61.423 E66.35352
G1 X42.362 Y54.648 E66.63171
G1 X42.362 Y53.941 E66.65224
G1 X49.138 Y60.716 E66.93043
G1 X49.138 Y60.009 E66.95096
G1 X42.362 Y53.234 E67.22915
G1 X42.362 Y52.527 E67.24968
G1 X49.138 Y59.302 E67.52787
G1 X49.138 Y58.595 E67.54840
G1 X42.362 Y51.819 E67.82659
G1 X42.362 Y51.112 E67.84712
G1 X49.138 Y57.888 E68.12531
G1 X49.138 Y57.181 E68.14584
G1 X43.069 Y51.112 E68.39500
G1 X43.777 Y51.112 E68.41553
G1 X49.138 Y56.473 E68.63565
G1 X49.138 Y55.766 E68.65618
G1 X44.484 Y51.112 E68.84727
G1 X45.191 Y51.112 E68.86780
G1 X49.138 Y55.059 E69.02986
G1 X49.138 Y54.352 E69.05039
G1 X45.898 Y51.112 E69.18341
G1 X46.605 Y51.112 E69.20394
G1 X49.138 Y53.645 E69.30793
G1 X49.138 Y52.938 E69.32846
G1 X47.312 Y51.112 E69.40341
G1 X48.019 Y51.112 E69.42394
G1 X49.138 Y52.231 E69.46986
G1 X49.138 Y51.524 E69.49039
G1 X48.726 Y51.112 E69.50728
G1 X49.138 Y97.486 F12000.000
G1 X42.362 Y90.710 F1200.000 E69.78547
G1 X42.362 Y91.417 E69.80600
G1 X49.423 Y98.478 E70.09591
G1 X49.611 Y99.373 E70.12245
G1 X42.362 Y92.125 E70.42006
G1 X42.362 Y92.832 E70.44059
G1 X49.869 Y100.339 E70.74883
G1 X50.254 Y101.431 E70.78245
G1 X42.362 Y93.539 E71.10649
G1 X42.362 Y94.246 E71.12702
G1 X50.777 Y102.661 E71.47253
G1 X51.629 Y104.220 E71.52412
G1 X42.362 Y94.953 E71.90461
G1 X42.362 Y95.660 E71.92514
G1 X65.590 Y118.888 E72.87886
G1 X64.883 Y118.888 E72.89939
G1 X42.362 Y96.367 E73.82408
G1 X42.362 Y97.074 E73.84461
G1 X64.176 Y118.888 E74.74026
G1 X63.469 Y118.888 E74.76079
G1 X42.362 Y97.781 E75.62741
G1 X42.362 Y98.489 E75.64794
G1 X62.761 Y118.888 E76.48552
G1 X62.054 Y118.888 E76.50605
G1 X42.362 Y99.196 E77.31460
G1 X42.362 Y99.903 E77.33513
G1 X61.347 Y118.888 E78.11465
G1 X60.640 Y118.888 E78.13518
G1 X42.362 Y100.610 E78.88566
G1 X42.362 Y101.317 E78.90619
G1 X59.933 Y118.888 E79.62764
G1 X59.226 Y118.888 E79.64817
G1 X42.362 Y102.024 E80.34058
G1 X42.362 Y102.731 E80.36111
G1 X58.519 Y118.888 E81.02450
G1 X57.812 Y118.888 E81.04503
G1 X42.362 Y103.438 E81.67937
G1 X42.362 Y104.145 E81.69990
G1 X57.105 Y118.888 E82.30522
G1 X56.398 Y118.888 E82.32575
