; generated by Slic3r 1.2.1 on 2014-12-20 at 11:22:29

; external perimeters extrusion width = 0.50mm
; perimeters extrusion width = 0.50mm
; infill extrusion width = 0.50mm
; solid infill extrusion width = 0.50mm
; top infill extrusion width = 0.50mm

M104 S190 ; set temperature
G28 ; home all axes
G1 Z15 F120 ; lift nozzle
M109 S190 ; wait for temperature to be reached
G21 ; set units to millimeters
G90 ; use absolute coordinates
M82 ; use absolute distances for extrusion
G92 E0
M106 S210
G1 E-2.00000 F1680.000
G92 E0
G1 Z0.350 F12000.000
G1 X73.860 Y73.409 F12000.000
G1 E2.00000 F1680.000
G1 X74.860 Y72.509 E2.03788 F1200.000
G1 X76.420 Y71.376 E2.09215
G1 X77.632 Y70.669 E2.13166
G1 X79.368 Y69.896 E2.18515
G1 X81.986 Y69.340 E2.26049
G1 X88.014 Y69.340 E2.43021
G1 X90.632 Y69.896 E2.50556
G1 X92.368 Y70.669 E2.55904 F1200.000
G1 X93.533 Y71.342 E2.59692
G1 X95.140 Y72.509 E2.65283
G1 X96.140 Y73.409 E2.69071
G1 X97.469 Y74.885 E2.74662
G1 X98.260 Y75.974 E2.78450
G1 X99.253 Y77.694 E2.84041
G1 X99.800 Y78.923 E2.87829
G1 X100.414 Y80.812 E2.93420
G1 X100.693 Y82.128 E2.97208
G1 X100.901 Y84.103 E3.02799
G1 X100.901 Y85.449 E3.06587
G1 X100.693 Y87.424 E3.12179
G1 X100.414 Y88.740 E3.15967
G1 X99.800 Y90.629 E3.21558
G1 X99.253 Y91.858 E3.25345
G1 X98.260 Y93.578 E3.30937
G1 X97.469 Y94.667 E3.34725
G1 X96.140 Y96.143 E3.40316
G1 X95.140 Y97.043 E3.44104
G1 X93.533 Y98.210 E3.49695
G1 X92.368 Y98.883 E3.53483
G1 X90.554 Y99.691 E3.59074
G1 X89.274 Y100.107 E3.62862
G1 X87.331 Y100.520 E3.68453
G1 X85.993 Y100.660 E3.72241
G1 X84.007 Y100.660 E3.77832
G1 X82.669 Y100.520 E3.81620
G1 X80.726 Y100.107 E3.87211
G1 X79.447 Y99.691 E3.90999
G1 X77.632 Y98.883 E3.96590
G1 X76.467 Y98.210 E4.00378
G1 X74.860 Y97.043 E4.05969
G1 X73.860 Y96.143 E4.09757
G1 X72.531 Y94.667 E4.15349
G1 X71.740 Y93.578 E4.19136
G1 X70.747 Y91.858 E4.24728
G1 X70.182 Y90.574 E4.28678
G1 X69.586 Y88.740 E4.34106
G1 X69.307 Y87.424 E4.37894
G1 X69.099 Y85.449 E4.43485
G1 X69.099 Y84.103 E4.47273
G1 X69.307 Y82.128 E4.52864
G1 X69.586 Y80.812 E4.56652
G1 X70.182 Y78.978 E4.62080
G1 X70.747 Y77.694 E4.66030
G1 X71.740 Y75.974 E4.71621
G1 X72.531 Y74.885 E4.75409
G1 X73.810 Y73.465 E4.80790
G1 E2.80790 F1680.000
G92 E0
G1 X82.000 Y78.376 F12000.000
G1 E2.00000 F1680.000
G1 X88.000 Y78.376 E2.15617 F720.000
G1 X88.000 Y81.176 E2.22906
G1 X82.000 Y81.176 E2.38523 F720.000
G1 X82.000 Y78.451 E2.45616
G1 E0.45616 F1680.000
G92 E0
G1 X84.142 Y82.161 F12000.000
G1 E2.00000 F1680.000
G1 X84.502 Y81.954 E2.01082 F720.000
G1 X86.166 Y82.247 E2.05480
G1 X86.433 Y82.294 E2.06185 F720.000
G1 X87.693 Y83.796 E2.11288
G1 X87.693 Y85.756 E2.16391
G1 X86.433 Y87.258 E2.21494
G1 X84.502 Y87.599 E2.26597
G1 X82.804 Y86.618 E2.31700
G1 X82.134 Y84.776 E2.36803
G1 X82.804 Y82.934 E2.41906
G1 X84.077 Y82.199 E2.45731
G1 E0.45731 F1680.000
G92 E0
G1 X83.959 Y93.958 F12000.000
G1 E2.00000 F1680.000
G1 X82.142 Y93.572 E2.04836 F720.000
G1 X80.376 Y92.786 E2.09869
G1 X78.811 Y91.649 E2.14902
G1 X77.518 Y90.212 E2.19934
G1 X76.551 Y88.538 E2.24967
G1 X75.953 Y86.699 E2.30000
G1 X75.751 Y84.776 E2.35032
G1 X75.953 Y82.853 E2.40065
G1 X76.551 Y81.014 E2.45098
G1 X77.518 Y79.340 E2.50130
G1 X78.811 Y77.903 E2.55163
G1 X80.376 Y76.766 E2.60196
G1 X82.039 Y76.026 E2.64934
G1 X87.961 Y76.026 E2.80350
G1 X89.598 Y76.755 E2.85012
G1 X91.189 Y77.903 E2.90119 F720.000
G1 X92.482 Y79.340 E2.95152
G1 X93.449 Y81.014 E3.00185
G1 X94.047 Y82.853 E3.05217
G1 X94.249 Y84.776 E3.10250
G1 X94.047 Y86.699 E3.15283
G1 X93.449 Y88.538 E3.20315
G1 X92.482 Y90.212 E3.25348
G1 X91.189 Y91.649 E3.30381
G1 X89.624 Y92.786 E3.35413
G1 X87.858 Y93.572 E3.40446
G1 X85.967 Y93.974 E3.45479
G1 X84.033 Y93.974 E3.50513
G1 X81.888 Y93.161 F12000.000
G1 X76.632 Y87.904 E3.69862 F1200.000
G1 X76.355 Y87.053 E3.72192
G1 X82.712 Y93.410 E3.95592
G1 X83.445 Y93.568 E3.97545
G1 X76.187 Y86.310 E4.24265
G1 X76.119 Y85.667 E4.25946
G1 X84.153 Y93.702 E4.55521
G1 X84.728 Y93.702 E4.57017
G1 X76.051 Y85.025 E4.88956
G1 X76.059 Y84.457 E4.90433
G1 X85.303 Y93.702 E5.24462
G1 X85.878 Y93.702 E5.25958
G1 X76.114 Y83.937 E5.61901
G1 X76.168 Y83.417 E5.63263
G1 X86.362 Y93.611 E6.00788
G1 X86.837 Y93.511 E6.02050
G1 X76.225 Y82.899 E6.41111
G1 X76.366 Y82.465 E6.42299
G1 X87.311 Y93.410 E6.82586
G1 X87.783 Y93.307 E6.83844
G1 X76.507 Y82.031 E7.25351
G1 X76.648 Y81.597 E7.26539
G1 X88.181 Y93.130 E7.68991
G1 X88.578 Y92.953 E7.70124
G1 X76.789 Y81.164 E8.13522
G1 X76.993 Y80.793 E8.14623
G1 X82.341 Y86.140 E8.34307
G1 X82.012 Y85.237 F12000.000
G1 X77.204 Y80.429 E8.52005 F1200.000
G1 X77.414 Y80.064 E8.53101
G1 X81.919 Y84.569 E8.69684
G1 X82.073 Y84.148 E8.70852
G1 X77.624 Y79.700 E8.87226
G1 X77.863 Y79.364 E8.88299
G1 X82.226 Y83.727 E9.04359
G1 X82.379 Y83.305 E9.05527
G1 X78.135 Y79.061 E9.21149
G1 X78.408 Y78.759 E9.22209
G1 X82.533 Y82.884 E9.37393
G1 X82.829 Y82.605 E9.38452
G1 X78.680 Y78.456 E9.53724
G1 X78.964 Y78.165 E9.54782
G1 X81.728 Y80.929 E9.64954
G1 X82.247 Y81.448 F12000.000
G1 X83.193 Y82.395 E9.68437 F1200.000
G1 X83.558 Y82.184 E9.69532
G1 X82.822 Y81.448 E9.72240
G1 X83.397 Y81.448 E9.73736
G1 X83.888 Y81.940 E9.75545
G1 X85.280 Y81.607 F12000.000
G1 X85.531 Y81.858 E9.76468 F1200.000
G1 X85.696 Y81.448 E9.77618
G1 X86.229 Y81.981 E9.79580
G1 X86.271 Y81.448 E9.80971
G1 X93.211 Y88.388 E10.06517
G1 X93.352 Y87.955 E10.07705
G1 X86.846 Y81.448 E10.31654
G1 X87.421 Y81.448 E10.33150
G1 X93.493 Y87.521 E10.55502
G1 X93.634 Y87.087 E10.56690
G1 X87.996 Y81.448 E10.77445
G1 X88.272 Y81.151 E10.78504
G1 X93.775 Y86.653 E10.98759
G1 X93.832 Y86.135 E11.00115
G1 X88.272 Y80.576 E11.20579
G1 X88.272 Y80.001 E11.22075
G1 X93.886 Y85.615 E11.42741
G1 X93.941 Y85.095 E11.44102
G1 X88.272 Y79.426 E11.64969
G1 X88.272 Y78.851 E11.66465
G1 X93.949 Y84.527 E11.87359
G1 X93.881 Y83.885 E11.89040
G1 X86.295 Y76.298 E12.16966
G1 X86.869 Y76.298 E12.18463
G1 X93.813 Y83.243 E12.44024
G1 X93.645 Y82.499 E12.46008
G1 X87.444 Y76.298 E12.68833
G1 X88.112 Y76.391 E12.70588
G1 X93.368 Y81.648 E12.89938
G1 X92.895 Y80.600 F12000.000
G1 X89.148 Y76.853 E13.03730 F1200.000
G1 X87.525 Y78.104 F12000.000
G1 X85.720 Y76.298 E13.10375 F1200.000
G1 X85.145 Y76.298 E13.11871
G1 X86.950 Y78.104 E13.18515
G1 X86.375 Y78.104 E13.20012
G1 X84.570 Y76.298 E13.26656
G1 X83.995 Y76.298 E13.28152
G1 X85.800 Y78.104 E13.34797
G1 X85.225 Y78.104 E13.36293
G1 X83.420 Y76.298 E13.42938
G1 X82.846 Y76.298 E13.44434
G1 X84.651 Y78.104 E13.51079
G1 X84.076 Y78.104 E13.52575
G1 X82.271 Y76.298 E13.59219
G1 X81.819 Y76.422 E13.60437
G1 X83.501 Y78.104 E13.66627
G1 X82.926 Y78.104 E13.68124
G1 X81.422 Y76.599 E13.73662
G1 X81.024 Y76.776 E13.74795
G1 X82.351 Y78.104 E13.79681
G1 X81.776 Y78.104 E13.81178
G1 X80.626 Y76.953 E13.85412
G1 X80.275 Y77.177 E13.86496
G1 X81.728 Y78.629 E13.91844
G1 X81.728 Y79.204 E13.93340
G1 X79.942 Y77.419 E13.99914
G1 X79.609 Y77.660 E14.00985
G1 X81.728 Y79.779 E14.08784
G1 X81.728 Y80.354 E14.10280
G1 X79.276 Y77.902 E14.19305
G1 E12.19305 F1680.000
G92 E0
G1 X83.582 Y87.382 F12000.000
G1 E2.00000 F1680.000
G1 X88.976 Y92.776 E2.19856 F1200.000
G1 X89.374 Y92.599 E2.20990
G1 X84.628 Y87.853 E2.38459
G1 X85.117 Y87.767 E2.39751
G1 X89.725 Y92.375 E2.56715
G1 X90.058 Y92.134 E2.57786
G1 X85.605 Y87.681 E2.74178
G1 X86.094 Y87.595 E2.75469
G1 X90.391 Y91.892 E2.91287
G1 X90.724 Y91.650 E2.92358
G1 X86.581 Y87.506 E3.07611
G1 X86.843 Y87.194 E3.08673
G1 X91.036 Y91.387 E3.24107
G1 X91.320 Y91.096 E3.25165
G1 X87.105 Y86.881 E3.40681
G1 X87.367 Y86.569 E3.41743
G1 X91.592 Y90.793 E3.57295
G1 X91.865 Y90.491 E3.58354
G1 X87.630 Y86.256 E3.73944
G1 X87.892 Y85.943 E3.75006
G1 X92.137 Y90.189 E3.90632
G1 X92.376 Y89.852 E3.91706
G1 X87.966 Y85.442 E4.07939
G1 X87.966 Y84.868 E4.09435
G1 X92.586 Y89.488 E4.26442
G1 X92.796 Y89.123 E4.27537
G1 X87.966 Y84.293 E4.45319
G1 X87.966 Y83.718 E4.46816
G1 X93.007 Y88.759 E4.65372
G1 X91.262 Y78.392 F12000.000
G1 X90.903 Y78.033 E4.66693 F1200.000
G1 E2.66693 F1680.000
G92 E0
G1 X77.105 Y88.952 F12000.000
G1 E2.00000 F1680.000
G1 X80.852 Y92.699 E2.13792 F1200.000
G1 X79.099 Y91.521 F12000.000
G1 X78.738 Y91.160 E2.15120 F1200.000
G1 E0.15120 F1680.000
G92 E0
G1 X84.092 Y81.647 F12000.000
G1 E2.00000 F1680.000
G1 X84.367 Y81.573 E2.00282 F600.000
G1 X84.497 Y81.561 E2.00411
G1 X85.007 Y81.606 E2.00918
M106 S255
M104 S188 ; set temperature
G1 E0.00918 F1680.000
G92 E0
G1 Z0.650 F12000.000
G1 X85.007 Y81.176 F12000.000
G1 E2.00000 F1680.000
G1 X82.000 Y81.176 E2.05634 F753.811
G1 X82.000 Y78.376 E2.10881
G1 X88.000 Y78.376 E2.22123
G1 X88.000 Y81.176 E2.27369
G1 X85.082 Y81.176 E2.32837 F753.811
G1 X84.932 Y82.029 F12000.000
G1 X85.870 Y82.195 E2.34623 F753.811
G1 X86.433 Y82.294 E2.35694 F753.811
G1 X87.693 Y83.796 E2.39367
G1 X87.693 Y85.756 E2.43041
G1 X86.433 Y87.258 E2.46714
G1 X84.502 Y87.599 E2.50388
G1 X82.804 Y86.618 E2.54061
G1 X82.134 Y84.776 E2.57734
G1 X82.804 Y82.934 E2.61408
G1 X84.502 Y81.954 E2.65081
G1 X84.858 Y82.016 E2.65757
G1 X93.941 Y82.530 F12000.000
G1 X94.047 Y82.853 E2.66394 F753.811
G1 X94.249 Y84.776 E2.70017
G1 X94.047 Y86.699 E2.73640
G1 X93.449 Y88.538 E2.77263
G1 X92.482 Y90.212 E2.80885
G1 X91.189 Y91.649 E2.84508
G1 X89.624 Y92.786 E2.88131
G1 X87.858 Y93.572 E2.91754
G1 X85.967 Y93.974 E2.95377
G1 X84.033 Y93.974 E2.99000
G1 X82.142 Y93.572 E3.02622
G1 X80.376 Y92.786 E3.06245
G1 X78.811 Y91.649 E3.09868
G1 X77.518 Y90.212 E3.13491
G1 X76.551 Y88.538 E3.17114
G1 X75.953 Y86.699 E3.20737
G1 X75.751 Y84.776 E3.24359
G1 X75.953 Y82.853 E3.27982
G1 X76.551 Y81.014 E3.31605
G1 X77.518 Y79.340 E3.35228
G1 X78.811 Y77.903 E3.38851
G1 X80.376 Y76.766 E3.42474
G1 X82.039 Y76.026 E3.45885
G1 X87.961 Y76.026 E3.56982
G1 X89.513 Y76.717 E3.60165
G1 X89.624 Y76.766 E3.60393 F753.811
G1 X91.189 Y77.903 E3.64016
G1 X92.482 Y79.340 E3.67638
G1 X93.449 Y81.014 E3.71261
G1 X93.918 Y82.459 E3.74107
G1 X93.402 Y87.726 F12000.000
G1 X87.897 Y93.231 E3.88693 F1256.351
G1 X87.057 Y93.440 E3.90314
G1 X93.705 Y86.792 E4.07930
G1 X93.817 Y86.049 E4.09338
G1 X86.257 Y93.610 E4.29373
G1 X85.558 Y93.678 E4.30688
G1 X93.891 Y85.344 E4.52771
G1 X93.940 Y84.666 E4.54047
G1 X84.927 Y93.678 E4.77928
G1 X84.296 Y93.678 E4.79110
G1 X93.880 Y84.095 E5.04504
G1 X93.820 Y83.524 E5.05579
G1 X83.736 Y93.608 E5.32301
G1 X83.215 Y93.498 E5.33297
G1 X93.760 Y82.954 E5.61237
G1 X93.611 Y82.471 E5.62183
G1 X82.695 Y93.387 E5.91109
G1 X82.185 Y93.267 E5.92091
G1 X93.457 Y81.995 E6.21961
G1 X93.302 Y81.519 E6.22898
G1 X81.748 Y93.073 E6.53514
G1 X81.312 Y92.879 E6.54409
G1 X93.133 Y81.058 E6.85732
G1 X92.902 Y80.658 E6.86597
G1 X87.989 Y85.571 E6.99615
G1 X87.989 Y84.940 E7.00797
G1 X92.671 Y80.258 E7.13204
G1 X92.440 Y79.858 E7.14069
G1 X87.989 Y84.310 E7.25864
G1 X87.985 Y83.683 E7.27038
G1 X92.200 Y79.468 E7.38207
G1 X91.901 Y79.136 E7.39043
G1 X87.697 Y83.340 E7.50183
G1 X87.409 Y82.997 E7.51022
G1 X91.602 Y78.804 E7.62132
G1 X91.303 Y78.473 E7.62969
G1 X87.122 Y82.654 E7.74050
G1 X86.834 Y82.311 E7.74889
G1 X87.674 Y81.472 E7.77114
G1 X87.043 Y81.472 E7.78296
G1 X86.508 Y82.007 E7.79713
G1 X86.412 Y81.472 E7.80731
G1 X85.972 Y81.912 E7.81898
G1 X85.782 Y81.472 E7.82797
G1 X85.474 Y81.779 E7.83612
G1 X83.652 Y81.709 F12000.000
G1 X76.867 Y88.494 E8.01591 F1256.351
G1 X77.098 Y88.894 E8.02456
G1 X82.164 Y83.828 E8.15880
G1 X81.827 Y84.796 F12000.000
G1 X77.329 Y89.294 E8.27798 F1256.351
G1 X77.560 Y89.694 E8.28663
G1 X81.995 Y85.259 E8.40415
G1 X82.163 Y85.721 E8.41337
G1 X77.800 Y90.084 E8.52898
G1 X78.099 Y90.416 E8.53735
G1 X82.331 Y86.183 E8.64950
G1 X82.500 Y86.646 E8.65872
G1 X78.398 Y90.748 E8.76741
G1 X78.697 Y91.079 E8.77578
G1 X82.812 Y86.964 E8.88483
G1 X83.212 Y87.195 E8.89348
G1 X79.009 Y91.398 E9.00485
G1 X79.357 Y91.680 E9.01325
G1 X83.612 Y87.426 E9.12598
G1 X84.011 Y87.657 E9.13464
G1 X79.723 Y91.945 E9.24828
G1 X80.088 Y92.211 E9.25674
G1 X84.411 Y87.887 E9.37130
G1 X85.143 Y87.786 E9.38516
G1 X80.453 Y92.476 E9.50944
G1 X80.876 Y92.684 E9.51827
G1 X85.909 Y87.651 E9.65165
G1 X89.034 Y92.725 F12000.000
G1 X92.953 Y88.806 E9.75549 F1256.351
G1 X91.246 Y91.143 F12000.000
G1 X90.886 Y91.504 E9.76505 F1256.351
G1 X88.296 Y80.850 F12000.000
G1 X90.991 Y78.154 E9.83647 F1256.351
G1 X90.643 Y77.872 E9.84488
G1 X88.296 Y80.219 E9.90707
G1 X88.296 Y79.588 E9.91888
G1 X90.277 Y77.607 E9.97139
G1 X89.912 Y77.341 E9.97985
G1 X88.296 Y78.958 E10.02268
G1 X88.296 Y78.327 E10.03450
G1 X89.547 Y77.076 E10.06765
G1 X89.124 Y76.868 E10.07648
G1 X87.912 Y78.080 E10.10861
G1 X87.281 Y78.080 E10.12042
G1 X88.688 Y76.673 E10.15770
G1 X88.252 Y76.479 E10.16665
G1 X86.651 Y78.080 E10.20908
G1 X86.020 Y78.080 E10.22089
G1 X87.778 Y76.322 E10.26749
G1 X87.148 Y76.322 E10.27931
G1 X85.389 Y78.080 E10.32590
G1 X84.759 Y78.080 E10.33772
G1 X86.517 Y76.322 E10.38431
G1 X85.886 Y76.322 E10.39613
G1 X84.128 Y78.080 E10.44272
G1 X83.497 Y78.080 E10.45454
G1 X85.256 Y76.322 E10.50114
G1 X84.625 Y76.322 E10.51295
G1 X82.867 Y78.080 E10.55955
G1 X82.236 Y78.080 F12000.000
G1 X83.994 Y76.322 E10.60614 F1256.351
G1 X83.364 Y76.322 E10.61796
G1 X76.183 Y83.503 E10.80825
G1 X76.295 Y82.760 E10.82232
G1 X82.733 Y76.322 E10.99293
G1 X82.102 Y76.322 E11.00474
G1 X76.598 Y81.826 E11.15059
G1 X77.047 Y80.746 F12000.000
G1 X80.966 Y76.827 E11.25444 F1256.351
G1 X81.704 Y78.612 F12000.000
G1 X76.109 Y84.208 E11.40271 F1256.351
G1 X76.060 Y84.886 E11.41546
G1 X81.704 Y79.243 E11.56502
G1 X81.704 Y79.873 E11.57683
G1 X76.120 Y85.457 E11.72480
G1 X76.180 Y86.028 E11.73555
G1 X81.704 Y80.504 E11.88192
G1 X81.704 Y81.135 E11.89374
G1 X76.240 Y86.598 E12.03852
G1 X76.389 Y87.081 E12.04798
G1 X81.998 Y81.472 E12.19661
G1 X82.628 Y81.472 E12.20842
G1 X76.543 Y87.557 E12.36967
G1 X76.698 Y88.033 E12.37905
G1 X83.259 Y81.472 E12.55290
G1 E10.55290 F1680.000
G92 E0
G1 X79.114 Y78.049 F12000.000
G1 E2.00000 F1680.000
G1 X78.754 Y78.409 E2.00956 F1256.351
G1 E0.00956 F1680.000
G92 E0
G1 X83.952 Y81.684 F12000.000
G1 E2.00000 F1680.000
G1 X84.373 Y81.571 E2.00349 F628.175
G1 X84.491 Y81.561 E2.00443
G1 X85.191 Y81.622 E2.01004
G1 E0.01004 F1680.000
G92 E0
G1 Z0.950 F12000.000
G1 X85.191 Y81.176 F12000.000
G1 E2.00000 F1680.000
G1 X82.000 Y81.176 E2.05979 F648.910
G1 X82.000 Y78.376 E2.11225
G1 X88.000 Y78.376 E2.22468
G1 X88.000 Y81.176 E2.27714
G1 X85.266 Y81.176 E2.32837 F648.910
G1 X85.110 Y82.061 F12000.000
G1 X85.634 Y82.153 E2.33833 F648.910
G1 X86.433 Y82.294 E2.35354 F648.910
G1 X87.693 Y83.796 E2.39028
G1 X87.693 Y85.401 E2.42036
G1 X87.991 Y85.401 E2.42594
G1 X86.433 Y87.258 E2.47136
G1 X84.502 Y87.599 E2.50809
G1 X82.804 Y86.618 E2.54482
G1 X82.134 Y84.776 E2.58156
G1 X82.804 Y82.934 E2.61829
G1 X84.502 Y81.954 E2.65503
G1 X85.036 Y82.048 E2.66518
G1 E0.66518 F1680.000
G92 E0
G1 X84.659 Y93.974 F12000.000
G1 E2.00000 F1680.000
G1 X84.033 Y93.974 E2.01172 F648.910
G1 X82.142 Y93.572 E2.04795
G1 X80.376 Y92.786 E2.08418
G1 X78.811 Y91.649 E2.12040
G1 X77.518 Y90.212 E2.15663
G1 X76.551 Y88.538 E2.19286
G1 X75.953 Y86.699 E2.22909
G1 X75.751 Y84.776 E2.26532
G1 X75.953 Y82.853 E2.30154
G1 X76.551 Y81.014 E2.33777
G1 X77.518 Y79.340 E2.37400
G1 X78.811 Y77.903 E2.41023
G1 X80.376 Y76.766 E2.44646
G1 X82.039 Y76.026 E2.48057
G1 X87.961 Y76.026 E2.59154
G1 X89.445 Y76.687 E2.62198
G1 X89.624 Y76.766 E2.62565 F648.910
G1 X91.189 Y77.903 E2.66188
G1 X92.482 Y79.340 E2.69811
G1 X93.449 Y81.014 E2.73433
G1 X94.047 Y82.853 E2.77056
G1 X94.227 Y84.571 E2.80293
G1 X94.249 Y84.776 E2.80679
G1 X94.047 Y86.699 E2.84302
G1 X93.449 Y88.538 E2.87925
G1 X92.482 Y90.212 E2.91548
G1 X91.189 Y91.649 E2.95170
G1 X89.624 Y92.786 E2.98793
G1 X87.858 Y93.572 E3.02416
G1 X85.967 Y93.974 E3.06039
G1 X84.734 Y93.974 E3.08349
G1 X83.571 Y93.553 F12000.000
G1 X83.518 Y93.354 E3.08735 F811.137
G1 X82.303 Y93.028 E3.11091
G1 X82.116 Y93.215 E3.11585
G1 X87.097 Y93.411 F12000.000
G1 X86.901 Y93.359 E3.11964 F811.137
G1 X86.782 Y93.478 E3.12280
G1 X86.158 Y93.610 E3.13476
G1 X85.331 Y93.389 E3.15080
G1 X85.201 Y92.903 E3.16023
G1 X83.986 Y92.577 E3.18379
G1 X83.630 Y92.933 E3.19321
G1 X82.416 Y92.608 E3.21678
