; generated by Slic3r 1.2.1 on 2014-12-20 at 01:44:46

; external perimeters extrusion width = 0.50mm
; perimeters extrusion width = 0.50mm
; infill extrusion width = 0.50mm
; solid infill extrusion width = 0.50mm
; top infill extrusion width = 0.50mm

M104 S190 ; set temperature
G28 ; home all axes
G1 Z15 F120 ; lift nozzle
M109 S190 ; wait for temperature to be reached
G21 ; set units to millimeters
G90 ; use absolute coordinates
M82 ; use absolute distances for extrusion
G92 E0
M106 S102
G1 E-2.00000 F1680.000
G92 E0
G1 Z0.400 F12000.000
G1 X54.842 Y54.496 F12000.000
G1 E2.00000 F1680.000
G1 X55.569 Y53.807 E2.02998 F1200.000
G1 X58.866 Y50.996 E2.15973
G1 X59.572 Y50.451 E2.18642
G1 X59.989 Y50.162 E2.20162
G1 X63.632 Y47.816 E2.33138
G1 X64.403 Y47.371 E2.35803
G1 X64.854 Y47.139 E2.37321
G1 X68.778 Y45.299 E2.50300
G1 X69.169 Y45.131 E2.51575
G1 X70.078 Y44.793 E2.54477
G1 X74.212 Y43.491 E2.67456
G1 X75.071 Y43.266 E2.70115
G1 X75.572 Y43.161 E2.71648
G1 X79.842 Y42.423 E2.84624
G1 X80.731 Y42.314 E2.87305
G1 X81.232 Y42.278 E2.88809
G1 X85.564 Y42.116 E3.01791
G1 X86.460 Y42.127 E3.04474
G1 X86.960 Y42.157 E3.05974 F1200.000
G1 X91.272 Y42.574 E3.18947
G1 X92.139 Y42.699 E3.21567
G1 X92.653 Y42.799 E3.23136
G1 X96.871 Y43.787 E3.36110
G1 X97.729 Y44.033 E3.38782
G1 X98.208 Y44.196 E3.40295
G1 X102.258 Y45.737 E3.53273
G1 X103.089 Y46.102 E3.55991
G1 X103.525 Y46.320 E3.57449
G1 X107.335 Y48.387 E3.70430
G1 X107.703 Y48.602 E3.71705
G1 X108.516 Y49.135 E3.74616
G1 X112.015 Y51.691 E3.87591
G1 X112.712 Y52.254 E3.90274
G1 X113.087 Y52.589 E3.91782
G1 X116.215 Y55.589 E4.04760
G1 X116.839 Y56.251 E4.07483
G1 X117.154 Y56.621 E4.08937
G1 X119.855 Y60.010 E4.21913
G1 X120.389 Y60.755 E4.24658
G1 X120.650 Y61.161 E4.26105
G1 X122.874 Y64.880 E4.39081
G1 X123.300 Y65.683 E4.41801
G1 X123.507 Y66.122 E4.43255
G1 X125.369 Y70.494 E4.57486
G1 X125.681 Y71.426 E4.60427
G1 X126.843 Y75.601 E4.73405
G1 X127.040 Y76.470 E4.76073
G1 X127.127 Y76.969 E4.77589
G1 X127.723 Y81.262 E4.90569
G1 X127.802 Y82.157 E4.93258
G1 X127.821 Y82.656 E4.94754
G1 X127.839 Y86.990 E5.07731
G1 X127.799 Y87.886 E5.10417
G1 X127.751 Y88.384 E5.11915
G1 X127.191 Y92.682 E5.24893
G1 X127.030 Y93.569 E5.27594
G1 X126.918 Y94.052 E5.29078
G1 X125.670 Y98.630 E5.43288
G1 X125.336 Y99.558 E5.46240
G1 X123.661 Y103.554 E5.59216
G1 X123.273 Y104.364 E5.61903
G1 X123.036 Y104.803 E5.63397
G1 X120.843 Y108.541 E5.76375
G1 X120.355 Y109.289 E5.79049
G1 X120.057 Y109.698 E5.80566
G1 X117.385 Y113.109 E5.93539
G1 X116.797 Y113.789 E5.96231
G1 X116.450 Y114.152 E5.97734
G1 X113.346 Y117.175 E6.10710
G1 X112.689 Y117.758 E6.13338
G1 X112.285 Y118.081 E6.14889
G1 X108.808 Y120.666 E6.27861
G1 X108.055 Y121.169 E6.30572
G1 X107.632 Y121.422 E6.32049
G1 X103.840 Y123.521 E6.45029
G1 X103.025 Y123.920 E6.47745
G1 X102.575 Y124.114 E6.49213
G1 X98.537 Y125.688 E6.62189
G1 X97.681 Y125.974 E6.64893
G1 X97.204 Y126.108 E6.66377
G1 X92.994 Y127.130 E6.79348
G1 X92.091 Y127.300 E6.82101
G1 X91.616 Y127.366 E6.83535
G1 X87.305 Y127.818 E6.96515
G1 X86.431 Y127.868 E6.99138
G1 X85.906 Y127.872 E7.00708
G1 X81.575 Y127.743 E7.13683
G1 X80.682 Y127.673 E7.16365
G1 X80.187 Y127.609 E7.17861
G1 X75.909 Y126.904 E7.30842
G1 X75.047 Y126.720 E7.33484
G1 X74.550 Y126.587 E7.35023
G1 X70.404 Y125.320 E7.48004
G1 X69.559 Y125.015 E7.50695
G1 X69.100 Y124.823 E7.52186
G1 X65.160 Y123.013 E7.65168
G1 X64.357 Y122.595 E7.67878
G1 X63.934 Y122.348 E7.69345
G1 X60.272 Y120.031 E7.82320
G1 X59.534 Y119.512 E7.85022
G1 X59.142 Y119.205 E7.86514
G1 X55.822 Y116.420 E7.99491
G1 X55.172 Y115.820 E8.02140
G1 X54.812 Y115.454 E8.03676
G1 X51.893 Y112.252 E8.16650
G1 X51.320 Y111.556 E8.19349
G1 X51.024 Y111.160 E8.20831
G1 X48.556 Y107.597 E8.33808
G1 X48.080 Y106.832 E8.36508
G1 X47.839 Y106.398 E8.37993
G1 X45.868 Y102.537 E8.50973
G1 X45.497 Y101.711 E8.53686
G1 X45.318 Y101.252 E8.55161
G1 X43.880 Y97.163 E8.68140
G1 X43.624 Y96.304 E8.70824
G1 X43.506 Y95.821 E8.72314
G1 X42.624 Y91.576 E8.85295
G1 X42.485 Y90.690 E8.87982
G1 X42.432 Y90.192 E8.89482
G1 X42.125 Y85.869 E9.02459
G1 X42.105 Y84.970 E9.05149
G1 X42.119 Y84.470 E9.06648
G1 X42.430 Y79.741 E9.20839
G1 X42.573 Y78.760 E9.23808
G1 X43.419 Y74.509 E9.36786
G1 X43.642 Y73.625 E9.39516
G1 X43.783 Y73.162 E9.40967
G1 X45.187 Y69.062 E9.53942
G1 X45.515 Y68.236 E9.56605
G1 X45.728 Y67.770 E9.58137
G1 X47.669 Y63.895 E9.71116
G1 X48.106 Y63.119 E9.73783
G1 X48.374 Y62.692 E9.75293
G1 X50.812 Y59.109 E9.88271
G1 X51.345 Y58.401 E9.90924
G1 X51.675 Y58.007 E9.92463
G1 X54.791 Y54.551 E10.06397
G1 E8.06397 F1680.000
G92 E0
G1 X53.781 Y66.624 F12000.000
G1 E2.00000 F1680.000
G1 X53.825 Y66.547 E2.00249 F1200.000
G1 X54.450 Y66.527 E2.02009
G1 X55.232 Y66.532 E2.04212
G1 X55.957 Y66.570 E2.06254
G1 X56.624 Y66.631 E2.08139
G1 X57.462 Y66.756 E2.10524
G1 X57.926 Y66.080 E2.12833
G1 X57.535 Y65.393 E2.15059
G1 X57.256 Y64.852 E2.16773
G1 X56.954 Y64.203 E2.18788
G1 X56.662 Y63.490 E2.20958
G1 X56.398 Y62.765 E2.23128
G1 X56.561 Y62.556 E2.23873
G1 X57.184 Y62.619 E2.25638
G1 X57.959 Y62.729 E2.27840
G1 X58.671 Y62.862 E2.29881
G1 X59.324 Y63.012 E2.31767
G1 X60.140 Y63.247 E2.34156
G1 X60.689 Y62.642 E2.36458
G1 X60.410 Y61.955 E2.38545
G1 X60.189 Y61.335 E2.40400
G1 X59.977 Y60.650 E2.42418
G1 X59.781 Y59.905 E2.44586
G1 X59.616 Y59.153 E2.46752
G1 X59.806 Y58.966 E2.47504
G1 X60.415 Y59.111 E2.49266
G1 X61.168 Y59.324 E2.51468
G1 X61.857 Y59.549 E2.53509
G1 X62.484 Y59.787 E2.55396
G1 X63.261 Y60.128 E2.57786
G1 X63.886 Y59.599 E2.60091
G1 X63.701 Y58.883 E2.62173
G1 X63.564 Y58.238 E2.64029
G1 X63.444 Y57.532 E2.66046
G1 X63.349 Y56.766 E2.68218
G1 X63.287 Y56.000 E2.70383
G1 X63.500 Y55.840 E2.71131
G1 X64.085 Y56.066 E2.72896
G1 X64.802 Y56.376 E2.75097
G1 X65.455 Y56.692 E2.77138
G1 X66.047 Y57.010 E2.79031
G1 X66.770 Y57.452 E2.81416
G1 X67.460 Y57.014 E2.83716
G1 X67.371 Y56.277 E2.85806
G1 X67.322 Y55.619 E2.87663
G1 X67.298 Y54.903 E2.89682
G1 X67.306 Y54.133 E2.91849
G1 X67.346 Y53.365 E2.94015
G1 X67.579 Y53.234 E2.94766
G1 X68.128 Y53.534 E2.96527
G1 X68.797 Y53.939 E2.98729
G1 X69.401 Y54.340 E3.00770
G1 X69.945 Y54.734 E3.02661
G1 X70.602 Y55.266 E3.05042
G1 X71.344 Y54.925 E3.07341
G1 X71.359 Y54.134 E3.09569
G1 X71.395 Y53.524 E3.11288
G1 X71.467 Y52.814 E3.13299
G1 X71.578 Y52.050 E3.15472
G1 X71.720 Y51.293 E3.17640
G1 X71.967 Y51.196 E3.18386
G1 X72.472 Y51.568 E3.20151
G1 X73.082 Y52.056 E3.22351
G1 X73.628 Y52.534 E3.24394
G1 X74.112 Y52.996 E3.26278
G1 X74.693 Y53.613 E3.28662
G1 X75.474 Y53.374 E3.30963
G1 X75.584 Y52.641 E3.33050
G1 X75.711 Y51.993 E3.34908
G1 X75.877 Y51.296 E3.36926
G1 X76.088 Y50.553 E3.39100
G1 X76.331 Y49.823 E3.41266
G1 X76.588 Y49.759 E3.42012
G1 X77.038 Y50.196 E3.43777
G1 X77.579 Y50.762 E3.45981
G1 X78.055 Y51.307 E3.48020
G1 X78.474 Y51.831 E3.49908
G1 X78.969 Y52.519 E3.52295
G1 X79.774 Y52.386 E3.54592
G1 X79.982 Y51.675 E3.56677
G1 X80.193 Y51.050 E3.58534
G1 X80.449 Y50.380 E3.60553
G1 X80.758 Y49.673 E3.62725
G1 X81.095 Y48.981 E3.64891
G1 X81.359 Y48.953 E3.65638
G1 X81.748 Y49.444 E3.67403
G1 X82.207 Y50.077 E3.69605
G1 X82.609 Y50.683 E3.71648
G1 X82.954 Y51.257 E3.73536
G1 X83.351 Y52.006 E3.75923
G1 X84.167 Y51.979 E3.78220
G1 X84.468 Y51.303 E3.80303
G1 X84.760 Y50.710 E3.82163
G1 X85.105 Y50.082 E3.84180
G1 X85.505 Y49.423 E3.86349
G1 X85.931 Y48.783 E3.88516
G1 X86.197 Y48.790 E3.89265
G1 X86.516 Y49.329 E3.91028 F1200.000
G1 X86.886 Y50.016 E3.93226
G1 X87.202 Y50.671 E3.95271
G1 X87.468 Y51.285 E3.97157
G1 X87.763 Y52.079 E3.99542
G1 X88.577 Y52.162 E4.01845
G1 X88.991 Y51.489 E4.04071
G1 X89.332 Y50.984 E4.05785
G1 X89.756 Y50.409 E4.07798
G1 X90.242 Y49.809 E4.09970
G1 X90.749 Y49.230 E4.12138
G1 X91.012 Y49.271 E4.12888
G1 X91.257 Y49.848 E4.14653
G1 X91.532 Y50.579 E4.16851
G1 X91.758 Y51.269 E4.18896
G1 X91.939 Y51.915 E4.20782
G1 X92.125 Y52.742 E4.23169
G1 X92.920 Y52.931 E4.25471
G1 X93.422 Y52.320 E4.27698
G1 X93.827 Y51.864 E4.29416
G1 X94.325 Y51.351 E4.31427
G1 X94.884 Y50.820 E4.33600
G1 X95.464 Y50.314 E4.35766
G1 X95.720 Y50.391 E4.36516
G1 X95.884 Y50.995 E4.38279
G1 X96.061 Y51.758 E4.40484
G1 X96.193 Y52.470 E4.42523
G1 X96.286 Y53.135 E4.44412
G1 X96.360 Y53.979 E4.46799
G1 X97.123 Y54.273 E4.49102
G1 X97.664 Y53.768 E4.51186
G1 X98.165 Y53.338 E4.53043
G1 X98.726 Y52.893 E4.55059
G1 X99.353 Y52.442 E4.57232
G1 X99.995 Y52.019 E4.59397
G1 X100.236 Y52.129 E4.60143
G1 X100.320 Y52.750 E4.61907
G1 X100.392 Y53.528 E4.64107
G1 X100.428 Y54.253 E4.66150
G1 X100.434 Y54.923 E4.68038
G1 X100.394 Y55.770 E4.70424
G1 X101.109 Y56.164 E4.72723
G1 X101.713 Y55.734 E4.74809
G1 X102.266 Y55.374 E4.76666
G1 X102.882 Y55.010 E4.78681
G1 X103.564 Y54.645 E4.80858
G1 X104.256 Y54.311 E4.83023
G1 X104.481 Y54.453 E4.83771
G1 X104.482 Y55.080 E4.85536
G1 X104.449 Y55.860 E4.87734
G1 X104.388 Y56.583 E4.89775
G1 X104.303 Y57.248 E4.91662
G1 X104.151 Y58.080 E4.94044
G1 X104.810 Y58.569 E4.96355
G1 X105.464 Y58.223 E4.98440
G1 X106.061 Y57.940 E5.00300
G1 X106.719 Y57.661 E5.02311
G1 X107.442 Y57.390 E5.04484
G1 X108.173 Y57.151 E5.06651
G1 X108.379 Y57.322 E5.07402
G1 X108.296 Y57.942 E5.09164
G1 X108.159 Y58.713 E5.11369
G1 X108.003 Y59.421 E5.13410
G1 X107.830 Y60.068 E5.15295
G1 X107.568 Y60.876 E5.17686
G1 X108.156 Y61.444 E5.19987
G1 X108.898 Y61.173 E5.22211
G1 X109.479 Y60.989 E5.23924
G1 X110.170 Y60.799 E5.25943
G1 X110.922 Y60.628 E5.28114
G1 X111.679 Y60.489 E5.30281
G1 X111.858 Y60.685 E5.31027
G1 X111.693 Y61.288 E5.32786
G1 X111.455 Y62.034 E5.34992
G1 X111.206 Y62.715 E5.37034
G1 X110.948 Y63.334 E5.38922
G1 X110.582 Y64.098 E5.41306
G1 X111.089 Y64.742 E5.43613
G1 X111.861 Y64.571 E5.45838
G1 X112.461 Y64.464 E5.47554
G1 X113.169 Y64.370 E5.49565
G1 X113.938 Y64.299 E5.51738
G1 X114.707 Y64.262 E5.53906
G1 X114.859 Y64.481 E5.54656
G1 X114.615 Y65.057 E5.56417
G1 X114.280 Y65.765 E5.58621
G1 X113.941 Y66.408 E5.60666
G1 X113.604 Y66.985 E5.62549
G1 X113.139 Y67.693 E5.64935
G1 X113.554 Y68.400 E5.67242
G1 X114.294 Y68.335 E5.69332
G1 X114.952 Y68.308 E5.71186
G1 X115.668 Y68.309 E5.73201
G1 X116.438 Y68.342 E5.75372
G1 X117.204 Y68.407 E5.77537
G1 X117.326 Y68.644 E5.78284
G1 X117.008 Y69.183 E5.80046
G1 X116.583 Y69.838 E5.82245
G1 X116.161 Y70.430 E5.84291
G1 X115.750 Y70.958 E5.86174
G1 X115.193 Y71.600 E5.88567
G1 X115.511 Y72.352 E5.90868
G1 X116.253 Y72.388 E5.92959
G1 X116.909 Y72.448 E5.94813
G1 X117.617 Y72.544 E5.96826
G1 X118.378 Y72.681 E5.99002
G1 X119.129 Y72.848 E6.01169
G1 X119.218 Y73.098 E6.01915
G1 X118.830 Y73.589 E6.03677
G1 X118.320 Y74.184 E6.05882
G1 X117.825 Y74.714 E6.07924
G1 X117.346 Y75.184 E6.09814
G1 X116.711 Y75.743 E6.12195
G1 X116.926 Y76.533 E6.14502
G1 X117.655 Y76.667 E6.16588
G1 X118.297 Y76.815 E6.18443
G1 X118.988 Y77.003 E6.20459
G1 X119.722 Y77.239 E6.22632
G1 X120.444 Y77.505 E6.24796
G1 X120.499 Y77.765 E6.25544
G1 X120.049 Y78.202 E6.27309
G1 X119.465 Y78.723 E6.29511
G1 X118.902 Y79.179 E6.31551
G1 X118.366 Y79.581 E6.33436
G1 X117.661 Y80.050 E6.35821
G1 X117.768 Y80.862 E6.38125
G1 X118.521 Y81.111 E6.40358
G1 X119.090 Y81.325 E6.42071
G1 X119.748 Y81.605 E6.44082
G1 X120.446 Y81.936 E6.46258
G1 X121.126 Y82.297 E6.48425
G1 X121.146 Y82.561 E6.49172
G1 X120.641 Y82.933 E6.50936
G1 X119.993 Y83.372 E6.53140
G1 X119.375 Y83.751 E6.55181
G1 X118.790 Y84.077 E6.57068
G1 X118.028 Y84.449 E6.59454
G1 X118.028 Y85.269 E6.61761
G1 X118.739 Y85.614 E6.63987
G1 X119.274 Y85.902 E6.65698
G1 X119.891 Y86.266 E6.67715
G1 X120.538 Y86.687 E6.69888
G1 X121.164 Y87.135 E6.72054
G1 X121.148 Y87.400 E6.72800
G1 X120.599 Y87.701 E6.74565
G1 X119.897 Y88.049 E6.76768
G1 X119.235 Y88.343 E6.78808
G1 X118.610 Y88.590 E6.80700
G1 X117.806 Y88.856 E6.83084
G1 X117.697 Y89.668 E6.85390
G1 X118.314 Y90.075 E6.87473
G1 X118.848 Y90.461 E6.89326
G1 X119.411 Y90.906 E6.91347
G1 X119.996 Y91.409 E6.93518
G1 X120.556 Y91.936 E6.95682
G1 X120.504 Y92.197 E6.96432
G1 X119.919 Y92.423 E6.98197
G1 X119.179 Y92.673 E7.00398
G1 X118.482 Y92.876 E7.02442
G1 X117.831 Y93.037 E7.04328
G1 X116.998 Y93.195 E7.06716
G1 X116.781 Y93.982 E7.09013
G1 X117.340 Y94.469 E7.11102
G1 X117.819 Y94.924 E7.12961
G1 X118.316 Y95.439 E7.14975
G1 X118.828 Y96.016 E7.17148
G1 X119.313 Y96.613 E7.19312
G1 X119.227 Y96.865 E7.20063
G1 X118.619 Y97.011 E7.21825
G1 X117.852 Y97.160 E7.24024
G1 X117.133 Y97.269 E7.26070
G1 X116.467 Y97.341 E7.27957
G1 X115.623 Y97.385 E7.30338
G1 X115.301 Y98.138 E7.32642
G1 X115.788 Y98.696 E7.34726
G1 X116.202 Y99.211 E7.36587
G1 X116.627 Y99.785 E7.38599
G1 X117.056 Y100.427 E7.40773
G1 X117.458 Y101.082 E7.42936
G1 X117.340 Y101.321 E7.43686
G1 X116.718 Y101.383 E7.45444
G1 X115.936 Y101.431 E7.47652
G1 X115.212 Y101.441 E7.49690
G1 X114.541 Y101.424 E7.51580
G1 X113.697 Y101.355 E7.53964
G1 X113.278 Y102.059 E7.56270
G1 X113.715 Y102.721 E7.58504
G1 X114.029 Y103.242 E7.60215
G1 X114.374 Y103.869 E7.62229
G1 X114.715 Y104.562 E7.64404
G1 X115.025 Y105.266 E7.66570
G1 X114.877 Y105.487 E7.67319
G1 X114.250 Y105.464 E7.69083
G1 X113.469 Y105.407 E7.71288
G1 X112.749 Y105.322 E7.73329
G1 X112.088 Y105.215 E7.75214
G1 X111.260 Y105.035 E7.77601
G1 X110.753 Y105.676 E7.79902
G1 X111.075 Y106.342 E7.81984
G1 X111.339 Y106.948 E7.83844
G1 X111.596 Y107.615 E7.85857
G1 X111.841 Y108.348 E7.88032
G1 X112.056 Y109.086 E7.90199
G1 X111.879 Y109.286 E7.90949
G1 X111.261 Y109.182 E7.92713
G1 X110.497 Y109.019 E7.94914
G1 X109.792 Y108.839 E7.96961
G1 X109.151 Y108.645 E7.98846
G1 X108.354 Y108.356 E8.01234
G1 X107.766 Y108.924 E8.03535
G1 X107.997 Y109.628 E8.05621
G1 X108.177 Y110.263 E8.07478
G1 X108.344 Y110.959 E8.09494
G1 X108.489 Y111.716 E8.11663
G1 X108.603 Y112.477 E8.13829
G1 X108.400 Y112.651 E8.14581
G1 X107.804 Y112.466 E8.16339
G1 X107.067 Y112.202 E8.18542
G1 X106.394 Y111.930 E8.20587
G1 X105.783 Y111.653 E8.22475
G1 X105.033 Y111.261 E8.24858
G1 X104.373 Y111.744 E8.27160
G1 X104.509 Y112.474 E8.29250
G1 X104.603 Y113.126 E8.31106
G1 X104.674 Y113.839 E8.33121
G1 X104.719 Y114.609 E8.35294
G1 X104.731 Y115.378 E8.37459
G1 X104.507 Y115.523 E8.38209
G1 X103.940 Y115.259 E8.39971
G1 X103.242 Y114.901 E8.42178
G1 X102.613 Y114.543 E8.44216
G1 X102.046 Y114.186 E8.46103
G1 X101.353 Y113.697 E8.48491
G1 X100.636 Y114.087 E8.50787
G1 X100.672 Y114.828 E8.52878
G1 X100.678 Y115.488 E8.54734
G1 X100.655 Y116.204 E8.56750
G1 X100.594 Y116.972 E8.58919
G1 X100.503 Y117.738 E8.61091
G1 X100.263 Y117.851 E8.61838
G1 X99.736 Y117.514 E8.63598
G1 X99.095 Y117.065 E8.65802
G1 X98.519 Y116.625 E8.67844
G1 X98.003 Y116.197 E8.69732
G1 X97.383 Y115.620 E8.72114
G1 X96.618 Y115.912 E8.74420
G1 X96.556 Y116.650 E8.76503
G1 X96.474 Y117.304 E8.78361
G1 X96.355 Y118.011 E8.80379
G1 X96.195 Y118.766 E8.82550
G1 X96.002 Y119.512 E8.84719
G1 X95.748 Y119.592 E8.85471
G1 X95.269 Y119.187 E8.87235
G1 X94.693 Y118.659 E8.89437
G1 X94.181 Y118.145 E8.91479
G1 X93.728 Y117.651 E8.93365
G1 X93.191 Y116.996 E8.95749
G1 X92.395 Y117.185 E8.98053
G1 X92.235 Y117.908 E9.00136
G1 X92.066 Y118.546 E9.01996
G1 X91.854 Y119.230 E9.04010
G1 X91.594 Y119.957 E9.06183
G1 X91.304 Y120.670 E9.08350
G1 X91.042 Y120.715 E9.09099
G1 X90.574 Y120.197 E9.11064
G1 X90.121 Y119.650 E9.13062
G1 X89.680 Y119.073 E9.15109
G1 X89.297 Y118.524 E9.16993
G1 X88.850 Y117.803 E9.19381
G1 X88.036 Y117.883 E9.21683
G1 X87.784 Y118.579 E9.23767
G1 X87.532 Y119.189 E9.25623
G1 X87.229 Y119.838 E9.27642
G1 X86.875 Y120.523 E9.29811
G1 X86.492 Y121.191 E9.31980
G1 X86.226 Y121.203 E9.32730
G1 X85.871 Y120.686 E9.34493
