; generated by Slic3r 1.2.6 on 2015-03-08 at 20:04:26

; external perimeters extrusion width = 0.50mm
; perimeters extrusion width = 0.50mm
; infill extrusion width = 0.50mm
; solid infill extrusion width = 0.50mm
; top infill extrusion width = 0.50mm

M104 S190 ; set temperature
G28 ; home all axes
G1 Z15 F120 ; lift nozzle
M109 S190 ; wait for temperature to be reached
G21 ; set units to millimeters
G90 ; use absolute coordinates
M82 ; use absolute distances for extrusion
G92 E0
M106 S102
G1 E-2.00000 F1680.00000
G92 E0
G1 Z0.400 F12000.000
G1 X65.141 Y42.945 F12000.000
G1 E2.00000 F1680.00000
G1 X66.845 Y41.411 E2.06866 F1200.000
G1 X67.038 Y41.292 E2.07543
G1 X70.070 Y40.343 E2.17055
G1 X84.659 Y39.567 E2.60804
G1 X85.341 Y39.567 E2.62846
G1 X99.930 Y40.343 E3.06594
G1 X102.962 Y41.292 E3.16107 F1200.000
G1 X103.155 Y41.411 E3.16784
G1 X104.836 Y42.916 E3.23542
G1 X105.904 Y44.945 E3.30408
G1 X106.146 Y45.771 E3.32985
G1 X110.370 Y63.635 E3.87951
G1 X110.542 Y65.112 E3.92403
G1 X110.542 Y107.037 E5.17946
G1 X110.277 Y108.862 E5.23466
G1 X106.748 Y120.766 E5.60645
G1 X105.736 Y122.783 E5.67403
G1 X104.088 Y124.325 E5.74162
G1 X102.008 Y125.202 E5.80920
G1 X100.595 Y125.359 E5.85178
G1 X69.405 Y125.359 E6.78573
G1 X67.183 Y124.962 E6.85331
G1 X65.236 Y123.821 E6.92090
G1 X63.805 Y122.076 E6.98848
G1 X63.252 Y120.766 E7.03106
G1 X59.723 Y108.862 E7.40285
G1 X59.458 Y107.037 E7.45804
G1 X59.458 Y65.112 E8.71348
G1 X59.630 Y63.635 E8.75799
G1 X63.854 Y45.771 E9.30766
G1 X64.096 Y44.945 E9.33343
G1 X65.107 Y43.011 E9.39876
G1 E7.39876 F1680.00000
G92 E0
G1 X83.189 Y105.655 F12000.000
G1 E2.00000 F1680.00000
G1 X86.811 Y105.655 E2.10199 F1500.000
G1 X86.811 Y111.874 E2.27706
G1 X83.189 Y111.874 E2.37905
G1 X83.189 Y105.730 E2.55201
G1 X83.189 Y84.663 F12000.000
G1 X83.177 Y78.346 E2.72986 F1500.000
G1 X86.823 Y78.346 E2.83248 F1500.000
G1 X86.823 Y84.663 E3.01033
G1 X83.264 Y84.663 E3.11052
G1 X83.264 Y61.215 F12000.000
G1 X83.186 Y61.215 E3.11270 F1500.000
G1 X83.186 Y54.930 E3.28964
G1 X86.814 Y54.930 E3.39177 F1500.000
G1 X86.814 Y61.215 E3.56870
G1 X83.339 Y61.215 E3.66654
G1 X74.010 Y101.040 F12000.000
G1 X74.010 Y92.814 E3.89811 F1200.000
G1 X66.424 Y92.865 E4.11168
G1 X66.412 Y91.795 E4.14180
G1 X66.813 Y78.226 E4.52397
G1 X67.857 Y78.150 E4.55342
G1 X74.329 Y78.150 E4.73561
G1 X73.690 Y73.132 E4.87803
G1 X73.054 Y69.485 E4.98225
G1 X71.593 Y69.485 E5.02336
G1 X71.593 Y67.460 E5.08037
G1 X70.526 Y67.460 E5.11043
G1 X70.526 Y65.838 E5.15608
G1 X71.593 Y65.838 E5.18613
G1 X71.593 Y63.875 E5.24140
G1 X73.016 Y63.875 E5.28144
G1 X74.295 Y60.517 E5.38260
G1 X74.295 Y54.416 E5.55434
G1 X69.857 Y54.424 E5.67929
G1 X69.188 Y54.381 E5.69814
G1 X70.344 Y47.306 E5.89995
G1 X70.440 Y47.001 E5.90896
G1 X84.999 Y46.226 E6.31942
G1 X85.803 Y46.274 E6.34210
G1 X99.560 Y47.001 E6.72993 F1200.000
G1 X99.656 Y47.306 E6.73893
G1 X100.812 Y54.381 E6.94075
G1 X100.143 Y54.424 E6.95960
G1 X95.705 Y54.416 E7.08455
G1 X95.705 Y60.517 E7.25629
G1 X96.984 Y63.875 E7.35744
G1 X98.407 Y63.875 E7.39748
G1 X98.407 Y65.838 E7.45276
G1 X99.474 Y65.838 E7.48281
G1 X99.474 Y67.460 E7.52846
G1 X98.407 Y67.460 E7.55852
G1 X98.407 Y69.485 E7.61553
G1 X96.946 Y69.485 E7.65663
G1 X96.310 Y73.132 E7.76086
G1 X95.671 Y78.150 E7.90328
G1 X102.143 Y78.150 E8.08547
G1 X103.187 Y78.226 E8.11492
G1 X103.588 Y91.795 E8.49709
G1 X103.576 Y92.865 E8.52721
G1 X95.990 Y92.814 E8.74078
G1 X95.990 Y101.993 E8.99917
G1 X95.965 Y102.721 E9.01968
G1 X98.414 Y102.741 E9.08863
G1 X98.414 Y104.691 E9.14350
G1 X99.474 Y104.691 E9.17334
G1 X99.474 Y106.311 E9.21896
G1 X98.414 Y106.311 E9.24880
G1 X98.414 Y108.354 E9.30631
G1 X95.965 Y108.334 E9.37527
G1 X95.960 Y112.356 E9.48851
G1 X100.131 Y118.691 E9.70204
G1 X69.869 Y118.691 E10.55397
G1 X74.040 Y112.356 E10.76751
G1 X74.035 Y108.334 E10.88075
G1 X71.586 Y108.354 E10.94970
G1 X71.586 Y106.311 E11.00722
G1 X70.526 Y106.311 E11.03705
G1 X70.526 Y104.691 E11.08267
G1 X71.586 Y104.691 E11.11251
G1 X71.586 Y102.741 E11.16738
G1 X74.035 Y102.721 E11.23633
G1 X74.010 Y101.993 E11.25684
G1 X74.010 Y101.115 E11.28155
G1 E9.28155 F1680.00000
G92 E0
G1 X99.724 Y65.850 F12000.000
G1 E2.00000 F1680.00000
G1 X103.616 Y65.850 E2.10955 F1200.000
G1 X103.822 Y65.809 E2.11547
G1 X103.870 Y65.588 E2.12183
G1 X103.870 Y65.112 E2.13524
G1 E0.13524 F1680.00000
G92 E0
G1 X103.870 Y68.186 F12000.000
G1 E2.00000 F1680.00000
G1 X103.870 Y67.710 E2.01341 F1200.000
G1 X103.822 Y67.489 E2.01978
G1 X103.616 Y67.448 E2.02570
G1 X99.724 Y67.448 E2.13524
G1 X70.276 Y67.448 F12000.000
G1 X66.384 Y67.448 E2.24479 F1200.000
G1 X66.178 Y67.489 E2.25071
G1 X66.130 Y67.710 E2.25708
G1 X66.130 Y68.186 E2.27049
G1 E0.27049 F1680.00000
G92 E0
G1 X66.130 Y65.112 F12000.000
G1 E2.00000 F1680.00000
G1 X66.130 Y65.588 E2.01341 F1200.000
G1 X66.178 Y65.809 E2.01978
G1 X66.384 Y65.850 E2.02570
G1 X70.276 Y65.850 E2.13524
G1 E0.13524 F1680.00000
G92 E0
G1 X66.130 Y103.964 F12000.000
G1 E2.00000 F1680.00000
G1 X66.130 Y104.441 E2.01341 F1200.000
G1 X66.178 Y104.661 E2.01977
G1 X66.384 Y104.702 E2.02569
G1 X70.276 Y104.702 E2.13524
G1 X70.276 Y106.300 F12000.000
G1 X66.384 Y106.300 E2.24478 F1200.000
G1 X66.178 Y106.340 E2.25070
G1 X66.130 Y106.561 E2.25707
G1 X66.130 Y107.037 E2.27047
G1 E0.27047 F1680.00000
G92 E0
G1 X99.724 Y106.300 F12000.000
G1 E2.00000 F1680.00000
G1 X103.616 Y106.300 E2.10955 F1200.000
G1 X103.822 Y106.340 E2.11547
G1 X103.870 Y106.561 E2.12183
G1 X103.870 Y107.037 E2.13524
G1 E0.13524 F1680.00000
G92 E0
G1 X103.870 Y103.964 F12000.000
G1 E2.00000 F1680.00000
G1 X103.870 Y104.441 E2.01341 F1200.000
G1 X103.822 Y104.661 E2.01977
G1 X103.616 Y104.702 E2.02569
G1 X99.724 Y104.702 E2.13524
G1 X99.260 Y105.304 F12000.000
G1 X98.861 Y104.905 E2.15120 F2400.000
G1 X98.378 Y106.097 F12000.000
G1 X70.646 Y78.364 E3.26112 F2400.000
G1 X71.204 Y78.364 E3.27692
G1 X95.747 Y102.908 E4.25920
G1 X95.765 Y102.368 E4.27449
G1 X71.762 Y78.364 E5.23516
G1 X72.320 Y78.364 E5.25096
G1 X95.775 Y101.820 E6.18968
G1 X95.775 Y101.261 E6.20548
G1 X72.879 Y78.364 E7.12186
G1 X73.437 Y78.364 E7.13766
G1 X95.775 Y100.703 E8.03170
G1 X95.775 Y100.145 E8.04750
G1 X73.995 Y78.364 E8.91919
G1 X74.554 Y78.364 E8.93499
G1 X95.775 Y99.586 E9.78434
G1 X95.775 Y99.028 E9.80014
G1 X74.506 Y77.759 E10.65139
G1 X74.425 Y77.119 E10.66964
G1 X95.775 Y98.470 E11.52414
G1 X95.775 Y97.912 E11.53994
G1 X74.343 Y76.480 E12.39770
G1 X74.262 Y75.840 E12.41594
G1 X82.963 Y84.541 E12.76417
G1 X83.300 Y84.878 F12000.000
G1 X95.775 Y97.353 E13.26348 F2400.000
G1 X95.775 Y96.795 E13.27928
G1 X83.858 Y84.878 E13.75625
G1 X84.416 Y84.878 E13.77204
G1 X95.775 Y96.237 E14.22667
G1 X95.775 Y95.678 E14.24246
G1 X84.975 Y84.878 E14.67474
G1 X85.533 Y84.878 E14.69054
G1 X95.775 Y95.120 E15.10047
G1 X95.775 Y94.562 E15.11627
G1 X86.091 Y84.878 E15.50386
G1 X86.649 Y84.878 E15.51966
G1 X95.775 Y94.004 E15.88491
G1 X95.775 Y93.445 E15.90071
G1 X87.037 Y84.707 E16.25044
G1 X87.037 Y84.149 E16.26624
G1 X95.775 Y92.887 E16.61597
G1 X96.046 Y92.600 F12000.000
G1 X87.037 Y83.590 E16.97655 F2400.000
G1 X87.037 Y83.032 E16.99235
G1 X96.608 Y92.603 E17.37541
G1 X97.170 Y92.607 E17.39132
G1 X87.037 Y82.474 E17.79688
G1 X87.037 Y81.915 E17.81268
G1 X97.733 Y92.611 E18.24074
G1 X98.295 Y92.615 E18.25665
G1 X87.037 Y81.357 E18.70720
G1 X87.037 Y80.799 E18.72300
G1 X98.857 Y92.618 E19.19606
G1 X99.419 Y92.622 E19.21196
G1 X87.037 Y80.241 E19.70751
G1 X87.037 Y79.682 E19.72331
G1 X99.981 Y92.626 E20.24135
G1 X100.543 Y92.630 E20.25726
G1 X87.037 Y79.124 E20.79780
G1 X87.037 Y78.566 E20.81360
G1 X101.105 Y92.634 E21.37663
G1 X101.667 Y92.637 E21.39254
G1 X73.119 Y64.089 E22.53512
G1 X73.286 Y63.698 E22.54714
G1 X102.229 Y92.641 E23.70550
G1 X102.791 Y92.645 E23.72141
G1 X73.440 Y63.294 E24.89610
G1 X73.594 Y62.890 E24.90835
G1 X103.353 Y92.649 E26.09937
G1 X103.371 Y92.109 E26.11467
G1 X73.748 Y62.486 E27.30025
G1 X73.902 Y62.081 E27.31249
G1 X103.364 Y91.543 E28.49161
G1 X103.347 Y90.968 E28.50790
G1 X74.056 Y61.677 E29.68018
G1 X74.210 Y61.273 E29.69242
G1 X103.330 Y90.392 E30.85785
G1 X103.313 Y89.817 E30.87414
G1 X74.364 Y60.869 E32.03273
G1 X74.509 Y60.455 E32.04512
G1 X103.296 Y89.242 E33.19723
G1 X103.279 Y88.666 E33.21352
G1 X74.509 Y59.897 E34.36495
G1 X74.509 Y59.338 E34.38075
G1 X103.262 Y88.091 E35.53149
G1 X103.245 Y87.516 E35.54778
G1 X74.509 Y58.780 E36.69784
G1 X74.509 Y58.222 E36.71364
G1 X103.228 Y86.940 E37.86302
G1 X102.501 Y78.397 F12000.000
G1 X102.989 Y78.886 E37.88258 F2400.000
G1 X103.006 Y79.461 E37.89887
G1 X101.909 Y78.364 E37.94277
G1 X101.351 Y78.364 E37.95857
G1 X103.023 Y80.037 E38.02549
G1 X103.040 Y80.612 E38.04178
G1 X100.793 Y78.364 E38.13173
G1 X100.235 Y78.364 E38.14753
G1 X103.057 Y81.187 E38.26050
G1 X103.074 Y81.763 E38.27679
G1 X99.676 Y78.364 E38.41279
G1 X99.118 Y78.364 E38.42859
G1 X103.091 Y82.338 E38.58762
G1 X103.108 Y82.913 E38.60391
G1 X98.560 Y78.364 E38.78596
G1 X98.001 Y78.364 E38.80176
G1 X103.125 Y83.489 E39.00684
G1 X103.143 Y84.064 E39.02313
G1 X97.443 Y78.364 E39.25123
G1 X96.885 Y78.364 E39.26703
G1 X103.160 Y84.639 E39.51816
G1 X103.177 Y85.214 E39.53444
G1 X96.327 Y78.364 E39.80860
G1 X95.768 Y78.364 E39.82440
G1 X103.194 Y85.790 E40.12158
G1 X103.211 Y86.365 E40.13786
G1 X74.509 Y57.664 E41.28656
G1 X74.509 Y57.105 E41.30236
G1 X95.475 Y78.071 E42.14147
G1 X95.538 Y77.576 E42.15560
G1 X74.509 Y56.547 E42.99723
G1 X74.509 Y55.989 E43.01303
G1 X95.601 Y77.081 E43.85719
G1 X95.664 Y76.586 E43.87132
G1 X74.509 Y55.430 E44.71799
G1 X74.509 Y54.872 E44.73379
G1 X95.727 Y76.090 E45.58299
G1 X95.790 Y75.595 E45.59712
G1 X70.121 Y49.925 E46.62447
G1 X70.199 Y49.445 E46.63824
G1 X95.853 Y75.100 E47.66498
G1 E45.66498 F1680.00000
G92 E0
G1 X98.606 Y67.245 F12000.000
G1 E2.00000 F1680.00000
G1 X87.028 Y55.667 E2.46337 F2400.000
G1 X87.028 Y56.226 E2.47917
G1 X98.192 Y67.390 E2.92598
G1 X98.192 Y67.948 E2.94178
G1 X87.028 Y56.784 E3.38859
G1 X87.028 Y57.342 E3.40439
G1 X98.192 Y68.506 E3.85120
G1 X98.192 Y69.064 E3.86700
G1 X87.028 Y57.900 E4.31381
G1 X87.028 Y58.459 E4.32961
G1 X97.840 Y69.270 E4.76231
G1 X97.281 Y69.270 E4.77811
G1 X87.028 Y59.017 E5.18847
G1 X87.028 Y59.575 E5.20427
G1 X96.771 Y69.318 E5.59421
G1 X96.688 Y69.794 E5.60786
G1 X87.028 Y60.134 E5.99448
G1 X87.028 Y60.692 E6.01028
G1 X96.605 Y70.269 E6.39357
G1 X96.522 Y70.744 E6.40722
G1 X87.028 Y61.250 E6.78720
G1 X86.649 Y61.430 F12000.000
G1 X96.439 Y71.219 E7.17901 F2400.000
G1 X96.356 Y71.695 E7.19266
G1 X86.091 Y61.430 E7.60349
G1 X85.533 Y61.430 E7.61929
G1 X96.273 Y72.170 E8.04915
G1 X96.190 Y72.645 E8.06280
G1 X84.975 Y61.430 E8.51168
G1 X84.416 Y61.430 E8.52748
G1 X96.107 Y73.121 E8.99538
G1 X96.042 Y73.614 E9.00945
G1 X83.858 Y61.430 E9.49709
G1 X83.300 Y61.430 E9.51289
G1 X95.979 Y74.109 E10.02035
G1 X95.916 Y74.604 E10.03448
G1 X70.277 Y48.965 E11.06061
G1 X70.356 Y48.486 E11.07437
G1 X82.972 Y61.102 E11.57930
G1 X82.972 Y60.543 E11.59510
G1 X70.434 Y48.006 E12.09689
G1 X70.512 Y47.526 E12.11065
G1 X82.972 Y59.985 E12.60931
G1 X82.972 Y59.427 E12.62511
G1 X70.740 Y47.195 E13.11465
G1 X71.270 Y47.167 E13.12968
G1 X82.972 Y58.869 E13.59801
G1 X82.972 Y58.310 E13.61381
G1 X71.800 Y47.139 E14.06093
G1 X72.330 Y47.110 E14.07595
G1 X82.972 Y57.752 E14.50185
G1 X82.972 Y57.194 E14.51765
G1 X72.860 Y47.082 E14.92234
G1 X73.390 Y47.054 E14.93736
G1 X82.972 Y56.635 E15.32084
G1 X82.972 Y56.077 E15.33664
G1 X73.920 Y47.026 E15.69889
G1 X74.450 Y46.998 E15.71392
G1 X82.972 Y55.519 E16.05496
G1 X82.972 Y54.961 E16.07076
G1 X74.981 Y46.969 E16.39059
G1 X75.511 Y46.941 E16.40561
G1 X83.285 Y54.716 E16.71678
G1 X83.844 Y54.716 E16.73258
G1 X76.041 Y46.913 E17.04487
G1 X76.571 Y46.885 E17.05989
G1 X84.402 Y54.716 E17.37331
G1 X84.960 Y54.716 E17.38911
G1 X77.101 Y46.856 E17.70366
G1 X77.631 Y46.828 E17.71869
G1 X85.518 Y54.716 E18.03437
G1 X86.077 Y54.716 E18.05017
G1 X78.161 Y46.800 E18.36698
G1 X78.691 Y46.772 E18.38200
G1 X86.635 Y54.716 E18.69994
G1 X87.028 Y55.109 F12000.000
G1 X99.164 Y67.245 E19.18565 F2400.000
G1 X99.260 Y66.782 E19.19902
G1 X98.530 Y66.052 E19.22824
G1 X98.192 Y65.715 F12000.000
G1 X79.221 Y46.744 E19.98751 F2400.000
G1 X79.751 Y46.715 E20.00253
G1 X96.599 Y63.563 E20.67681
G1 X96.255 Y62.661 F12000.000
G1 X80.281 Y46.687 E21.31612 F2400.000
G1 X80.811 Y46.659 E21.33114
G1 X95.911 Y61.759 E21.93548
G1 X95.568 Y60.857 F12000.000
G1 X81.341 Y46.631 E22.50486 F2400.000
G1 X81.871 Y46.603 E22.51988
G1 X95.491 Y60.222 E23.06496
G1 X95.491 Y59.664 E23.08076
G1 X82.402 Y46.574 E23.60462
G1 X82.932 Y46.546 E23.61965
G1 X95.491 Y59.105 E24.12230
G1 X95.491 Y58.547 E24.13810
G1 X83.462 Y46.518 E24.61953
G1 X83.992 Y46.490 E24.63455
G1 X95.491 Y57.989 E25.09477
G1 X95.491 Y57.431 E25.11057
G1 X84.522 Y46.462 E25.54958
G1 X85.068 Y46.450 E25.56505
G1 X95.491 Y56.872 E25.98218
G1 X95.491 Y56.314 E25.99798
G1 X85.662 Y46.485 E26.39135
G1 X86.252 Y46.517 E26.40806
G1 X95.491 Y55.756 E26.77783
G1 X95.491 Y55.197 E26.79363
G1 X86.841 Y46.548 E27.13980
G1 X87.431 Y46.579 E27.15651
G1 X95.491 Y54.639 E27.47909
G1 X95.611 Y54.201 F12000.000
G1 X88.020 Y46.610 E27.78292 F2400.000
G1 X88.610 Y46.641 E27.79962
G1 X96.171 Y54.202 E28.10224
G1 X96.730 Y54.203 E28.11806
G1 X89.199 Y46.672 E28.41947
G1 X89.788 Y46.704 E28.43618
G1 X97.289 Y54.204 E28.73638
G1 X97.849 Y54.205 E28.75221
G1 X90.378 Y46.735 E29.05121
G1 X90.967 Y46.766 E29.06791
G1 X98.408 Y54.206 E29.36570
G1 X98.967 Y54.207 E29.38153
G1 X91.557 Y46.797 E29.67811
G1 X92.146 Y46.828 E29.69482
G1 X99.526 Y54.208 E29.99020
G1 X100.086 Y54.209 E30.00603
G1 X92.735 Y46.859 E30.30020
G1 X93.325 Y46.890 E30.31690
G1 X100.534 Y54.099 E30.60541
G1 X100.425 Y53.432 E30.62454
G1 X93.914 Y46.922 E30.88510
G1 X94.504 Y46.953 E30.90181
G1 X100.316 Y52.765 E31.13441
G1 X100.207 Y52.097 E31.15355
G1 X95.093 Y46.984 E31.35821
G1 X95.683 Y47.015 E31.37491
G1 X100.098 Y51.430 E31.55162
G1 X99.989 Y50.763 E31.57075
G1 X96.272 Y47.046 E31.71951
G1 X96.861 Y47.077 E31.73622
G1 X99.880 Y50.096 E31.85703
G1 X99.771 Y49.429 E31.87616
G1 X97.451 Y47.108 E31.96902
G1 X98.040 Y47.139 E31.98573
G1 X99.662 Y48.761 E32.05064
G1 X99.553 Y48.094 E32.06977
G1 X98.630 Y47.171 E32.10673
G1 X99.219 Y47.202 E32.12344
G1 X99.437 Y47.420 E32.13217
G1 E30.13217 F1680.00000
G92 E0
G1 X98.192 Y64.598 F12000.000
G1 E2.00000 F1680.00000
G1 X97.683 Y64.089 E2.02038 F2400.000
G1 X97.125 Y64.089 E2.03618
G1 X98.192 Y65.157 E2.07891
G1 X99.088 Y66.052 F12000.000
G1 X99.260 Y66.224 E2.08579 F2400.000
G1 X83.253 Y78.131 F12000.000
G1 X71.174 Y66.052 E2.56921 F2400.000
G1 X70.740 Y66.177 E2.58198
G1 X71.808 Y67.245 E2.62474
G1 X71.808 Y67.803 E2.64052
G1 X73.275 Y69.270 E2.69925
G1 X73.362 Y69.915 E2.71767
G1 X82.963 Y79.516 E3.10192
G1 X82.963 Y80.075 E3.11772
G1 X73.480 Y70.592 E3.49725
G1 X73.598 Y71.268 E3.51668
G1 X82.963 Y80.633 E3.89147
G1 X82.963 Y81.191 E3.90727
G1 X73.716 Y71.944 E4.27734
G1 X73.834 Y72.621 E4.29677
G1 X82.963 Y81.749 E4.66212
G1 X82.963 Y82.308 E4.67792
G1 X73.937 Y73.281 E5.03917
G1 X74.018 Y73.921 E5.05742
G1 X82.963 Y82.866 E5.41542
G1 X82.963 Y83.424 E5.43122
G1 X74.099 Y74.561 E5.78596
G1 X74.181 Y75.200 E5.80421
G1 X82.963 Y83.983 E6.15570
G1 X82.963 Y78.958 F12000.000
G1 X73.244 Y69.239 E6.54467 F2400.000
G1 X72.717 Y69.270 E6.55962
G1 X71.808 Y68.361 E6.59601
G1 X71.808 Y68.919 F12000.000
G1 X72.159 Y69.270 E6.61005 F2400.000
G1 E4.61005 F1680.00000
G92 E0
G1 X70.740 Y66.735 F12000.000
G1 E2.00000 F1680.00000
G1 X71.250 Y67.245 E2.02041 F2400.000
G1 X71.808 Y67.244 E2.03619
G1 X82.963 Y78.400 E2.48265
