; generated by Slic3r 1.2.6 on 2015-03-08 at 20:04:57

; external perimeters extrusion width = 0.50mm
; perimeters extrusion width = 0.50mm
; infill extrusion width = 0.50mm
; solid infill extrusion width = 0.50mm
; top infill extrusion width = 0.50mm

M104 S190 ; set temperature
G28 ; home all axes
G1 Z15 F120 ; lift nozzle
M109 S190 ; wait for temperature to be reached
G21 ; set units to millimeters
G90 ; use absolute coordinates
M82 ; use absolute distances for extrusion
G92 E0
M106 S102
G1 E-2.00000 F1680.00000
G92 E0
G1 Z0.400 F12000.000
G1 X71.096 Y33.457 F12000.000
G1 E2.00000 F1680.00000
G1 X72.683 Y31.852 E2.06758 F1200.000
G1 X74.727 Y30.896 E2.13517
G1 X76.378 Y30.679 E2.18501
G1 X84.335 Y30.677 E2.42329
G1 X84.809 Y30.678 E2.43749 F1200.000
G1 X87.031 Y31.075 E2.50508
G1 X89.591 Y32.817 E2.59781
G1 X90.118 Y33.406 E2.62146
G1 X90.813 Y34.342 E2.65638
G1 X105.261 Y58.031 E3.48724
G1 X105.904 Y59.447 E3.53382
G1 X106.146 Y60.273 E3.55959
G1 X110.370 Y78.137 E4.10925
G1 X110.542 Y79.614 E4.15377
G1 X110.542 Y121.540 E5.40920
G1 X110.277 Y123.364 E5.46440
G1 X106.748 Y135.268 E5.83619
G1 X105.736 Y137.285 E5.90377
G1 X104.088 Y138.827 E5.97136
G1 X102.008 Y139.704 E6.03894
G1 X100.595 Y139.861 E6.08152
G1 X69.405 Y139.861 E7.01547
G1 X67.183 Y139.464 E7.08305
G1 X65.236 Y138.323 E7.15064
G1 X63.805 Y136.578 E7.21822
G1 X63.252 Y135.268 E7.26080
G1 X59.723 Y123.364 E7.63259
G1 X59.458 Y121.540 E7.68778
G1 X59.458 Y79.614 E8.94321
G1 X59.630 Y78.137 E8.98773
G1 X63.881 Y60.165 E9.54072
G1 X70.162 Y35.512 E10.30253
G1 X71.065 Y33.525 E10.36787
G1 E8.36787 F1680.00000
G92 E0
G1 X83.189 Y120.157 F12000.000
G1 E2.00000 F1680.00000
G1 X86.811 Y120.157 E2.10199 F1500.000
G1 X86.811 Y126.376 E2.27706
G1 X83.189 Y126.376 E2.37905
G1 X83.189 Y120.232 E2.55201
G1 X83.189 Y99.165 F12000.000
G1 X83.177 Y92.848 E2.72986 F1500.000
G1 X86.823 Y92.848 E2.83248 F1500.000
G1 X86.823 Y99.165 E3.01033
G1 X83.264 Y99.165 E3.11052
G1 X83.264 Y75.718 F12000.000
G1 X83.186 Y75.718 E3.11270 F1500.000
G1 X83.186 Y69.432 E3.28964
G1 X86.814 Y69.432 E3.39177 F1500.000
G1 X86.814 Y75.718 E3.56870
G1 X83.339 Y75.718 E3.66654
G1 X71.593 Y83.987 F12000.000
G1 X71.593 Y81.962 E3.72355 F1200.000
G1 X70.526 Y81.962 E3.75360
G1 X70.526 Y80.340 E3.79925
G1 X71.593 Y80.340 E3.82931
G1 X71.593 Y78.377 E3.88458
G1 X73.016 Y78.377 E3.92462
G1 X74.295 Y75.019 E4.02577
G1 X74.295 Y68.918 E4.19752
G1 X69.857 Y68.926 E4.32247
G1 X69.188 Y68.883 E4.34131
G1 X70.344 Y61.808 E4.54313
G1 X70.440 Y61.503 E4.55214
G1 X84.999 Y60.728 E4.96260
G1 X85.803 Y60.776 E4.98528
G1 X99.560 Y61.503 E5.37311 F1200.000
G1 X99.656 Y61.808 E5.38211
G1 X100.812 Y68.883 E5.58393
G1 X100.143 Y68.926 E5.60278
G1 X95.705 Y68.918 E5.72772
G1 X95.705 Y75.019 E5.89947
G1 X96.984 Y78.377 E6.00062
G1 X98.407 Y78.377 E6.04066
G1 X98.407 Y80.340 E6.09594
G1 X99.474 Y80.340 E6.12599
G1 X99.474 Y81.962 E6.17164
G1 X98.407 Y81.962 E6.20170
G1 X98.407 Y83.987 E6.25871
G1 X96.946 Y83.987 E6.29981
G1 X96.310 Y87.634 E6.40403
G1 X95.671 Y92.652 E6.54645
G1 X102.143 Y92.652 E6.72865
G1 X103.187 Y92.728 E6.75810
G1 X103.588 Y106.298 E7.14026
G1 X103.576 Y107.368 E7.17039
G1 X95.990 Y107.316 E7.38395
G1 X95.990 Y116.495 E7.64235
G1 X95.965 Y117.223 E7.66286
G1 X98.414 Y117.244 E7.73181
G1 X98.414 Y119.193 E7.78668
G1 X99.474 Y119.193 E7.81652
G1 X99.474 Y120.813 E7.86214
G1 X98.414 Y120.813 E7.89197
G1 X98.414 Y122.856 E7.94949
G1 X95.965 Y122.836 E8.01844
G1 X95.960 Y126.858 E8.13168
G1 X100.131 Y133.194 E8.34522
G1 X69.869 Y133.194 E9.19715
G1 X74.040 Y126.858 E9.41068
G1 X74.035 Y122.836 E9.52392
G1 X71.586 Y122.856 E9.59288
G1 X71.586 Y120.813 E9.65039
G1 X70.526 Y120.813 E9.68023
G1 X70.526 Y119.193 E9.72585
G1 X71.586 Y119.193 E9.75569
G1 X71.586 Y117.244 E9.81056
G1 X74.035 Y117.223 E9.87951
G1 X74.010 Y116.495 E9.90002
G1 X74.010 Y107.316 E10.15841
G1 X66.424 Y107.368 E10.37198
G1 X66.412 Y106.298 E10.40210
G1 X66.813 Y92.728 E10.78427
G1 X67.857 Y92.652 E10.81371
G1 X74.329 Y92.652 E10.99591
G1 X73.690 Y87.634 E11.13833
G1 X73.054 Y83.987 E11.24255
G1 X71.668 Y83.987 E11.28155
G1 X99.724 Y80.352 F12000.000
G1 X103.616 Y80.352 E11.39109 F1200.000
G1 X103.822 Y80.311 E11.39701
G1 X103.870 Y80.090 E11.40338
G1 X103.870 Y79.614 E11.41679
G1 E9.41679 F1680.00000
G92 E0
G1 X103.870 Y82.688 F12000.000
G1 E2.00000 F1680.00000
G1 X103.870 Y82.212 E2.01341 F1200.000
G1 X103.822 Y81.991 E2.01978
G1 X103.616 Y81.950 E2.02570
G1 X99.724 Y81.950 E2.13524
G1 X70.276 Y81.950 F12000.000
G1 X66.384 Y81.950 E2.24479 F1200.000
G1 X66.178 Y81.991 E2.25071
G1 X66.130 Y82.212 E2.25708
G1 X66.130 Y82.688 E2.27049
G1 E0.27049 F1680.00000
G92 E0
G1 X66.130 Y79.614 F12000.000
G1 E2.00000 F1680.00000
G1 X66.130 Y80.090 E2.01341 F1200.000
G1 X66.178 Y80.311 E2.01978
G1 X66.384 Y80.352 E2.02570
G1 X70.276 Y80.352 E2.13524
G1 E0.13524 F1680.00000
G92 E0
G1 X66.130 Y118.467 F12000.000
G1 E2.00000 F1680.00000
G1 X66.130 Y118.943 E2.01341 F1200.000
G1 X66.178 Y119.164 E2.01977
G1 X66.384 Y119.204 E2.02569
G1 X70.276 Y119.204 E2.13524
G1 X70.276 Y120.802 F12000.000
G1 X66.384 Y120.802 E2.24478 F1200.000
G1 X66.178 Y120.843 E2.25070
G1 X66.130 Y121.063 E2.25707
G1 X66.130 Y121.540 E2.27047
G1 E0.27047 F1680.00000
G92 E0
G1 X99.724 Y120.802 F12000.000
G1 E2.00000 F1680.00000
G1 X103.616 Y120.802 E2.10955 F1200.000
G1 X103.822 Y120.843 E2.11547
G1 X103.870 Y121.063 E2.12183
G1 X103.870 Y121.540 E2.13524
G1 E0.13524 F1680.00000
G92 E0
G1 X103.870 Y118.467 F12000.000
G1 E2.00000 F1680.00000
G1 X103.870 Y118.943 E2.01341 F1200.000
G1 X103.822 Y119.164 E2.01977
G1 X103.616 Y119.204 E2.02569
G1 X99.724 Y119.204 E2.13524
G1 X99.260 Y119.806 F12000.000
G1 X98.861 Y119.407 E2.15120 F2400.000
G1 X98.378 Y120.599 F12000.000
G1 X70.646 Y92.867 E3.26112 F2400.000
G1 X71.204 Y92.867 E3.27692
G1 X95.747 Y117.410 E4.25920
G1 X95.765 Y116.870 E4.27449
G1 X71.762 Y92.867 E5.23516
G1 X72.320 Y92.867 E5.25096
G1 X95.775 Y116.322 E6.18968
G1 X95.775 Y115.763 E6.20548
G1 X72.879 Y92.867 E7.12186
G1 X73.437 Y92.867 E7.13766
G1 X95.775 Y115.205 E8.03170
G1 X95.775 Y114.647 E8.04750
G1 X73.995 Y92.867 E8.91919
G1 X74.554 Y92.867 E8.93499
G1 X95.775 Y114.089 E9.78434
G1 X95.775 Y113.530 E9.80014
G1 X74.506 Y92.261 E10.65139
G1 X74.425 Y91.621 E10.66964
G1 X95.775 Y112.972 E11.52414
G1 X95.775 Y112.414 E11.53994
G1 X74.343 Y90.982 E12.39770
G1 X74.262 Y90.342 E12.41594
G1 X82.963 Y99.043 E12.76417
G1 X83.300 Y99.380 F12000.000
G1 X95.775 Y111.855 E13.26348 F2400.000
G1 X95.775 Y111.297 E13.27928
G1 X83.858 Y99.380 E13.75625
G1 X84.416 Y99.380 E13.77204
G1 X95.775 Y110.739 E14.22667
G1 X95.775 Y110.181 E14.24246
G1 X84.975 Y99.380 E14.67474
G1 X85.533 Y99.380 E14.69054
G1 X95.775 Y109.622 E15.10047
G1 X95.775 Y109.064 E15.11627
G1 X86.091 Y99.380 E15.50386
G1 X86.649 Y99.380 E15.51966
G1 X95.775 Y108.506 E15.88491
G1 X95.775 Y107.947 E15.90071
G1 X87.037 Y99.209 E16.25044
G1 X87.037 Y98.651 E16.26624
G1 X95.775 Y107.389 E16.61597
G1 X96.046 Y107.102 F12000.000
G1 X87.037 Y98.092 E16.97655 F2400.000
G1 X87.037 Y97.534 E16.99235
G1 X96.608 Y107.106 E17.37541
G1 X97.170 Y107.109 E17.39132
G1 X87.037 Y96.976 E17.79688
G1 X87.037 Y96.418 E17.81268
G1 X97.733 Y107.113 E18.24074
G1 X98.295 Y107.117 E18.25665
G1 X87.037 Y95.859 E18.70720
G1 X87.037 Y95.301 E18.72300
G1 X98.857 Y107.121 E19.19606
G1 X99.419 Y107.125 E19.21196
G1 X87.037 Y94.743 E19.70751
G1 X87.037 Y94.184 E19.72331
G1 X99.981 Y107.128 E20.24135
G1 X100.543 Y107.132 E20.25726
G1 X87.037 Y93.626 E20.79780
G1 X87.037 Y93.068 E20.81360
G1 X101.105 Y107.136 E21.37663
G1 X101.667 Y107.140 E21.39254
G1 X73.119 Y78.591 E22.53512
G1 X73.286 Y78.201 E22.54714
G1 X102.229 Y107.144 E23.70550
G1 X102.791 Y107.147 E23.72141
G1 X73.440 Y77.796 E24.89610
G1 X73.594 Y77.392 E24.90835
G1 X103.353 Y107.151 E26.09937
G1 X103.371 Y106.611 E26.11467
G1 X73.748 Y76.988 E27.30025
G1 X73.902 Y76.584 E27.31249
G1 X103.364 Y106.045 E28.49161
G1 X103.347 Y105.470 E28.50790
G1 X74.056 Y76.179 E29.68018
G1 X74.210 Y75.775 E29.69242
G1 X103.330 Y104.895 E30.85785
G1 X103.313 Y104.319 E30.87414
G1 X74.364 Y75.371 E32.03273
G1 X74.509 Y74.957 E32.04512
G1 X103.296 Y103.744 E33.19723
G1 X103.279 Y103.169 E33.21352
G1 X74.509 Y74.399 E34.36495
G1 X74.509 Y73.841 E34.38075
G1 X103.262 Y102.593 E35.53149
G1 X103.245 Y102.018 E35.54778
G1 X74.509 Y73.282 E36.69784
G1 X74.509 Y72.724 E36.71364
G1 X103.228 Y101.443 E37.86302
G1 X102.501 Y92.900 F12000.000
G1 X102.989 Y93.388 E37.88258 F2400.000
G1 X103.006 Y93.964 E37.89887
G1 X101.909 Y92.867 E37.94277
G1 X101.351 Y92.867 E37.95857
G1 X103.023 Y94.539 E38.02549
G1 X103.040 Y95.114 E38.04178
G1 X100.793 Y92.867 E38.13173
G1 X100.235 Y92.867 E38.14753
G1 X103.057 Y95.689 E38.26050
G1 X103.074 Y96.265 E38.27679
G1 X99.676 Y92.867 E38.41279
G1 X99.118 Y92.867 E38.42859
G1 X103.091 Y96.840 E38.58762
G1 X103.108 Y97.415 E38.60391
G1 X98.560 Y92.867 E38.78596
G1 X98.001 Y92.867 E38.80176
G1 X103.125 Y97.991 E39.00684
G1 X103.143 Y98.566 E39.02313
G1 X97.443 Y92.867 E39.25123
G1 X96.885 Y92.867 E39.26703
G1 X103.160 Y99.141 E39.51816
G1 X103.177 Y99.717 E39.53444
G1 X96.327 Y92.867 E39.80860
G1 X95.768 Y92.867 E39.82440
G1 X103.194 Y100.292 E40.12158
G1 X103.211 Y100.867 E40.13786
G1 X74.509 Y72.166 E41.28656
G1 X74.509 Y71.608 E41.30236
G1 X95.475 Y92.574 E42.14147
G1 X95.538 Y92.078 E42.15560
G1 X74.509 Y71.049 E42.99723
G1 X74.509 Y70.491 E43.01303
G1 X95.601 Y91.583 E43.85719
G1 X95.664 Y91.088 E43.87132
G1 X74.509 Y69.933 E44.71799
G1 X74.509 Y69.374 E44.73379
G1 X95.727 Y90.593 E45.58299
G1 X95.790 Y90.097 E45.59712
G1 X70.121 Y64.428 E46.62447
G1 X70.199 Y63.948 E46.63824
G1 X95.853 Y89.602 E47.66498
G1 E45.66498 F1680.00000
G92 E0
G1 X98.606 Y81.747 F12000.000
G1 E2.00000 F1680.00000
G1 X87.028 Y70.170 E2.46337 F2400.000
G1 X87.028 Y70.728 E2.47917
G1 X98.192 Y81.892 E2.92598
G1 X98.192 Y82.450 E2.94178
G1 X87.028 Y71.286 E3.38859
G1 X87.028 Y71.844 E3.40439
G1 X98.192 Y83.008 E3.85120
G1 X98.192 Y83.567 E3.86700
G1 X87.028 Y72.403 E4.31381
G1 X87.028 Y72.961 E4.32961
G1 X97.840 Y83.772 E4.76231
G1 X97.281 Y83.772 E4.77811
G1 X87.028 Y73.519 E5.18847
G1 X87.028 Y74.078 E5.20427
G1 X96.771 Y83.821 E5.59421
G1 X96.688 Y84.296 E5.60786
G1 X87.028 Y74.636 E5.99448
G1 X87.028 Y75.194 E6.01028
G1 X96.605 Y84.771 E6.39357
G1 X96.522 Y85.246 E6.40722
G1 X87.028 Y75.752 E6.78720
G1 X86.649 Y75.932 F12000.000
G1 X96.439 Y85.722 E7.17901 F2400.000
G1 X96.356 Y86.197 E7.19266
G1 X86.091 Y75.932 E7.60349
G1 X85.533 Y75.932 E7.61929
G1 X96.273 Y86.672 E8.04915
G1 X96.190 Y87.148 E8.06280
G1 X84.975 Y75.932 E8.51168
G1 X84.416 Y75.932 E8.52748
G1 X96.107 Y87.623 E8.99538
G1 X96.042 Y88.116 E9.00945
G1 X83.858 Y75.932 E9.49709
G1 X83.300 Y75.932 E9.51289
G1 X95.979 Y88.611 E10.02035
G1 X95.916 Y89.107 E10.03448
G1 X70.277 Y63.468 E11.06061
G1 X70.356 Y62.988 E11.07437
G1 X82.972 Y75.604 E11.57930
G1 X82.972 Y75.046 E11.59510
G1 X70.434 Y62.508 E12.09689
G1 X70.512 Y62.028 E12.11065
G1 X82.972 Y74.487 E12.60931
G1 X82.972 Y73.929 E12.62511
G1 X70.740 Y61.697 E13.11465
G1 X71.270 Y61.669 E13.12968
G1 X82.972 Y73.371 E13.59801
G1 X82.972 Y72.813 E13.61381
G1 X71.800 Y61.641 E14.06093
G1 X72.330 Y61.613 E14.07595
G1 X82.972 Y72.254 E14.50185
G1 X82.972 Y71.696 E14.51765
G1 X72.860 Y61.584 E14.92234
G1 X73.390 Y61.556 E14.93736
G1 X82.972 Y71.138 E15.32084
G1 X82.972 Y70.579 E15.33664
G1 X73.920 Y61.528 E15.69889
G1 X74.450 Y61.500 E15.71392
G1 X82.972 Y70.021 E16.05496
G1 X82.972 Y69.463 E16.07076
G1 X74.981 Y61.472 E16.39059
G1 X75.511 Y61.443 E16.40561
G1 X83.285 Y69.218 E16.71678
G1 X83.844 Y69.218 E16.73258
G1 X76.041 Y61.415 E17.04487
G1 X76.571 Y61.387 E17.05989
G1 X84.402 Y69.218 E17.37331
G1 X84.960 Y69.218 E17.38911
G1 X77.101 Y61.359 E17.70366
G1 X77.631 Y61.330 E17.71869
G1 X85.518 Y69.218 E18.03437
G1 X86.077 Y69.218 E18.05017
G1 X78.161 Y61.302 E18.36698
G1 X78.691 Y61.274 E18.38200
G1 X86.635 Y69.218 E18.69994
G1 X87.028 Y69.611 F12000.000
G1 X99.164 Y81.747 E19.18565 F2400.000
G1 X99.260 Y81.285 E19.19902
G1 X98.530 Y80.555 E19.22824
G1 X98.192 Y80.217 F12000.000
G1 X79.221 Y61.246 E19.98751 F2400.000
G1 X79.751 Y61.218 E20.00253
G1 X96.599 Y78.065 E20.67681
G1 X96.255 Y77.163 F12000.000
G1 X80.281 Y61.189 E21.31612 F2400.000
G1 X80.811 Y61.161 E21.33114
G1 X95.911 Y76.261 E21.93548
G1 X95.568 Y75.360 F12000.000
G1 X81.341 Y61.133 E22.50486 F2400.000
G1 X81.871 Y61.105 E22.51988
G1 X95.491 Y74.724 E23.06496
G1 X95.491 Y74.166 E23.08076
G1 X82.402 Y61.077 E23.60462
G1 X82.932 Y61.048 E23.61965
G1 X95.491 Y73.608 E24.12230
G1 X95.491 Y73.049 E24.13810
G1 X83.462 Y61.020 E24.61953
G1 X83.992 Y60.992 E24.63455
G1 X95.491 Y72.491 E25.09477
G1 X95.491 Y71.933 E25.11057
G1 X84.522 Y60.964 E25.54958
G1 X85.068 Y60.952 E25.56505
G1 X95.491 Y71.374 E25.98218
G1 X95.491 Y70.816 E25.99798
G1 X85.662 Y60.987 E26.39135
G1 X86.252 Y61.019 E26.40806
G1 X95.491 Y70.258 E26.77783
G1 X95.491 Y69.700 E26.79363
G1 X86.841 Y61.050 E27.13980
G1 X87.431 Y61.081 E27.15651
G1 X95.491 Y69.141 E27.47909
G1 X95.611 Y68.704 F12000.000
G1 X88.020 Y61.112 E27.78292 F2400.000
G1 X88.610 Y61.143 E27.79962
G1 X96.171 Y68.705 E28.10224
G1 X96.730 Y68.706 E28.11806
G1 X89.199 Y61.175 E28.41947
G1 X89.788 Y61.206 E28.43618
G1 X97.289 Y68.707 E28.73638
G1 X97.849 Y68.708 E28.75221
G1 X90.378 Y61.237 E29.05121
G1 X90.967 Y61.268 E29.06791
G1 X98.408 Y68.709 E29.36570
G1 X98.967 Y68.710 E29.38153
G1 X91.557 Y61.299 E29.67811
G1 X92.146 Y61.330 E29.69482
G1 X99.526 Y68.711 E29.99020
G1 X100.086 Y68.712 E30.00603
G1 X92.735 Y61.361 E30.30020
G1 X93.325 Y61.393 E30.31690
G1 X100.534 Y68.601 E30.60541
G1 X100.425 Y67.934 E30.62454
G1 X93.914 Y61.424 E30.88510
G1 X94.504 Y61.455 E30.90181
G1 X100.316 Y67.267 E31.13441
G1 X100.207 Y66.600 E31.15355
G1 X95.093 Y61.486 E31.35821
G1 X95.683 Y61.517 E31.37491
G1 X100.098 Y65.932 E31.55162
G1 X99.989 Y65.265 E31.57075
G1 X96.272 Y61.548 E31.71951
G1 X96.861 Y61.579 E31.73622
G1 X99.880 Y64.598 E31.85703
G1 X99.771 Y63.931 E31.87616
G1 X97.451 Y61.611 E31.96902
G1 X98.040 Y61.642 E31.98573
G1 X99.662 Y63.264 E32.05064
G1 X99.553 Y62.596 E32.06977
G1 X98.630 Y61.673 E32.10673
G1 X99.219 Y61.704 E32.12344
G1 X99.437 Y61.922 E32.13217
G1 E30.13217 F1680.00000
G92 E0
G1 X98.192 Y79.100 F12000.000
G1 E2.00000 F1680.00000
G1 X97.683 Y78.591 E2.02038 F2400.000
G1 X97.125 Y78.591 E2.03618
G1 X98.192 Y79.659 E2.07891
G1 X99.088 Y80.555 F12000.000
G1 X99.260 Y80.726 E2.08579 F2400.000
G1 X83.253 Y92.633 F12000.000
G1 X71.174 Y80.555 E2.56921 F2400.000
G1 X70.740 Y80.679 E2.58198
G1 X71.808 Y81.747 E2.62474
G1 X71.808 Y82.305 E2.64052
G1 X73.275 Y83.772 E2.69925
G1 X73.362 Y84.418 E2.71767
G1 X82.963 Y94.018 E3.10192
G1 X82.963 Y94.577 E3.11772
G1 X73.480 Y85.094 E3.49725
G1 X73.598 Y85.770 E3.51668
G1 X82.963 Y95.135 E3.89147
G1 X82.963 Y95.693 E3.90727
G1 X73.716 Y86.447 E4.27734
G1 X73.834 Y87.123 E4.29677
G1 X82.963 Y96.252 E4.66212
G1 X82.963 Y96.810 E4.67792
G1 X73.937 Y87.784 E5.03917
G1 X74.018 Y88.423 E5.05742
G1 X82.963 Y97.368 E5.41542
G1 X82.963 Y97.926 E5.43122
G1 X74.099 Y89.063 E5.78596
G1 X74.181 Y89.702 E5.80421
G1 X82.963 Y98.485 E6.15570
G1 X82.963 Y93.460 F12000.000
G1 X73.244 Y83.741 E6.54467 F2400.000
G1 X72.717 Y83.772 E6.55962
G1 X71.808 Y82.863 E6.59601
G1 X71.808 Y83.421 F12000.000
G1 X72.159 Y83.772 E6.61005 F2400.000
G1 E4.61005 F1680.00000
G92 E0
G1 X70.740 Y81.237 F12000.000
G1 E2.00000 F1680.00000
G1 X71.250 Y81.747 E2.02041 F2400.000
G1 X71.808 Y81.747 E2.03619
G1 X82.963 Y92.902 E2.48265
G1 X71.732 Y80.555 F12000.000
