; generated by Slic3r 1.1.7 on 2014-12-04 at 18:53:35

; perimeters extrusion width = 0.50mm
; infill extrusion width = 0.50mm
; solid infill extrusion width = 0.50mm
; top infill extrusion width = 0.50mm

G21 ; set units to millimeters
M104 S190 ; set temperature
G28 ; home all axes
G1 Z15 F120 ; lift nozzle
M109 S190 ; wait for temperature to be reached
G90 ; use absolute coordinates
G92 E0
M82 ; use absolute distances for extrusion
M106 S102
G1 F1680.000 E-2.00000
G92 E0
G1 Z0.350 F12000.000
G1 X43.283 Y43.376 F12000.000
G1 E2.00000 F1680.000
G1 X53.813 Y32.869 E2.47988 F1200.000
G1 X54.236 Y32.509 E2.49782
G1 X54.669 Y32.167 E2.51559
G1 X68.964 Y21.821 E3.08486
G1 X69.424 Y21.508 E3.10280
G1 X70.181 Y21.057 E3.13124
G1 X70.677 Y20.805 E3.14918
G1 X71.485 Y20.455 E3.17761
G1 X72.857 Y20.025 E3.22397
G1 X73.400 Y19.908 E3.24190
G1 X74.272 Y19.776 E3.27035
G1 X75.396 Y19.703 E3.30669
G1 X95.076 Y19.677 E3.94156
G1 X96.504 Y19.843 E3.98793
G1 X97.898 Y20.192 E4.03429 F1200.000
G1 X99.236 Y20.717 E4.08066
G1 X100.495 Y21.409 E4.12702
G1 X101.178 Y21.875 E4.15369
G1 X115.729 Y32.480 E4.73454
G1 X116.574 Y33.225 E4.77088
G1 X130.475 Y47.156 E5.40575
G1 X131.364 Y48.286 E5.45211
G1 X132.100 Y49.520 E5.49848
G1 X132.340 Y50.021 E5.51642
G1 X132.672 Y50.838 E5.54486
G1 X133.070 Y52.220 E5.59123
G1 X133.287 Y53.640 E5.63760
G1 X133.319 Y55.077 E5.68396
G1 X133.252 Y55.962 E5.71260
G1 X123.882 Y138.592 E8.39527
G1 X123.768 Y139.311 E8.41877
G1 X123.626 Y139.981 E8.44086
G1 X123.437 Y140.684 E8.46435
G1 X123.226 Y141.336 E8.48644
G1 X122.965 Y142.016 E8.50995
G1 X122.686 Y142.641 E8.53203
G1 X122.014 Y143.883 E8.57760
G1 X121.617 Y144.494 E8.60111
G1 X121.215 Y145.048 E8.62318
G1 X120.230 Y146.191 E8.67184
G1 X119.274 Y147.097 E8.71432
G1 X118.155 Y147.958 E8.75988
G1 X117.543 Y148.355 E8.78342
G1 X116.951 Y148.697 E8.80547
G1 X115.677 Y149.306 E8.85104
G1 X114.345 Y149.779 E8.89661
G1 X113.642 Y149.967 E8.92010
G1 X112.972 Y150.110 E8.94219
G1 X111.572 Y150.296 E8.98777
G1 X110.500 Y150.343 E9.02238
G1 X59.160 Y150.334 E10.67859
G1 X57.751 Y150.225 E10.72416
G1 X56.362 Y149.969 E10.76973
G1 X55.658 Y149.780 E10.79324
G1 X55.007 Y149.569 E10.81532
G1 X54.327 Y149.308 E10.83882
G1 X53.702 Y149.029 E10.86090
G1 X53.052 Y148.698 E10.88443
G1 X52.460 Y148.357 E10.90649
G1 X51.849 Y147.960 E10.93000
G1 X51.295 Y147.558 E10.95207
G1 X50.729 Y147.099 E10.97557
G1 X50.220 Y146.641 E10.99766
G1 X49.769 Y146.191 E11.01821
G1 X49.247 Y145.618 E11.04324
G1 X48.786 Y145.049 E11.06682
G1 X48.385 Y144.498 E11.08883
G1 X47.989 Y143.886 E11.11233
G1 X47.646 Y143.294 E11.13441
G1 X47.315 Y142.645 E11.15791
G1 X47.037 Y142.020 E11.17999
G1 X46.775 Y141.338 E11.20355
G1 X46.564 Y140.689 E11.22558
G1 X46.233 Y139.315 E11.27115
G1 X46.080 Y138.307 E11.30406
G1 X36.722 Y55.677 E13.98671
G1 X36.677 Y54.240 E14.03308
G1 X36.711 Y53.685 E14.05102
G1 X36.817 Y52.810 E14.07946
G1 X37.140 Y51.409 E14.12583
G1 X37.314 Y50.881 E14.14377
G1 X37.640 Y50.062 E14.17221
G1 X38.309 Y48.790 E14.21858
G1 X38.612 Y48.323 E14.23652
G1 X39.136 Y47.614 E14.26496
G1 X39.882 Y46.769 E14.30132
G1 X43.230 Y43.429 E14.45388
G1 F1680.000 E12.45388
G92 E0
G1 X50.122 Y56.141 F12000.000
G1 E2.00000 F1680.000
G1 X49.780 Y56.558 E2.01741 F900.000
G1 X49.363 Y56.900 E2.03483
G1 X48.887 Y57.155 E2.05224
G1 X48.370 Y57.312 E2.06966
G1 X47.833 Y57.364 E2.08707
G1 X47.296 Y57.312 E2.10448
G1 X46.779 Y57.155 E2.12190
G1 X46.303 Y56.900 E2.13931
G1 X45.886 Y56.558 E2.15673
G1 X45.543 Y56.141 E2.17414
G1 X45.289 Y55.665 E2.19155
G1 X45.132 Y55.148 E2.20897
G1 X45.079 Y54.611 E2.22638
G1 X45.132 Y54.074 E2.24379
G1 X45.289 Y53.557 E2.26121
G1 X45.543 Y53.081 E2.27862
G1 X45.886 Y52.664 E2.29604
G1 X46.303 Y52.321 E2.31345
G1 X46.779 Y52.067 E2.33086
G1 X47.296 Y51.910 E2.34828
G1 X47.833 Y51.857 E2.36569
G1 X47.936 Y51.867 E2.36903
G1 X48.370 Y51.910 E2.38311 F900.000
G1 X48.886 Y52.067 E2.40052
G1 X49.363 Y52.321 E2.41794
G1 X49.780 Y52.664 E2.43535
G1 X49.845 Y52.744 E2.43868
G1 X50.122 Y53.081 E2.45276
G1 X50.377 Y53.557 E2.47018
G1 X50.533 Y54.074 E2.48759
G1 X50.586 Y54.611 E2.50500
G1 X50.533 Y55.148 E2.52242
G1 X50.377 Y55.665 E2.53983
G1 X50.158 Y56.074 E2.55483
G1 X49.705 Y55.862 F12000.000
G1 X49.425 Y56.203 E2.56906 F720.000
G1 X49.083 Y56.483 E2.58330
G1 X48.694 Y56.691 E2.59754
G1 X48.272 Y56.819 E2.61177
G1 X47.833 Y56.862 E2.62601
G1 X47.394 Y56.819 E2.64025
G1 X46.971 Y56.691 E2.65448
G1 X46.582 Y56.483 E2.66872
G1 X46.241 Y56.203 E2.68296
G1 X45.961 Y55.862 E2.69719
G1 X45.753 Y55.472 E2.71143
G1 X45.625 Y55.050 E2.72567
G1 X45.582 Y54.611 E2.73990
G1 X45.625 Y54.172 E2.75414
G1 X45.753 Y53.749 E2.76838
G1 X45.961 Y53.360 E2.78261
G1 X46.241 Y53.019 E2.79685
G1 X46.582 Y52.739 E2.81109
G1 X46.971 Y52.531 E2.82532
G1 X47.447 Y52.398 E2.84127
G1 X47.833 Y52.360 E2.85377 F720.000
G1 X48.272 Y52.403 E2.86800
G1 X48.694 Y52.531 E2.88224
G1 X49.083 Y52.739 E2.89648
G1 X49.425 Y53.019 E2.91071
G1 X49.705 Y53.360 E2.92495
G1 X49.913 Y53.749 E2.93919
G1 X50.041 Y54.172 E2.95342
G1 X50.084 Y54.611 E2.96766
G1 X50.041 Y55.050 E2.98190
G1 X49.913 Y55.472 E2.99613
G1 X49.740 Y55.795 E3.00795
G1 F1680.000 E1.00795
G92 E0
G1 X47.336 Y52.027 F12000.000
G1 X69.124 Y85.728 F12000.000
G1 E2.00000 F1680.000
G1 X69.681 Y85.453 E2.02005 F900.000
G1 X70.270 Y85.253 E2.04010
G1 X70.880 Y85.132 E2.06015
G1 X71.475 Y85.093 E2.07941
G1 X98.525 Y85.093 E2.95201
G1 X99.120 Y85.132 E2.97127
G1 X99.730 Y85.253 E2.99132 F900.000
G1 X100.318 Y85.453 E3.01137
G1 X100.966 Y85.788 E3.03488
G1 X101.393 Y86.073 E3.05144
G1 X101.860 Y86.483 E3.07150
G1 X102.270 Y86.950 E3.09155
G1 X102.615 Y87.467 E3.11160
G1 X102.890 Y88.025 E3.13165
G1 X103.090 Y88.613 E3.15170
G1 X103.211 Y89.223 E3.17175
G1 X103.250 Y89.818 E3.19101
G1 X103.250 Y120.868 E4.19264
G1 X103.211 Y121.463 E4.21190
G1 X103.090 Y122.073 E4.23195
G1 X102.890 Y122.661 E4.25200
G1 X102.615 Y123.219 E4.27205
G1 X102.270 Y123.736 E4.29210
G1 X101.860 Y124.203 E4.31215
G1 X101.303 Y124.673 E4.33566
G1 X100.876 Y124.958 E4.35223
G1 X100.318 Y125.233 E4.37228
G1 X99.730 Y125.433 E4.39233
G1 X99.120 Y125.554 E4.41238
G1 X98.525 Y125.593 E4.43163
G1 X71.475 Y125.593 E5.30424
G1 X70.880 Y125.554 E5.32349
G1 X70.270 Y125.433 E5.34354
G1 X69.681 Y125.233 E5.36359
G1 X69.124 Y124.958 E5.38364
G1 X68.607 Y124.613 E5.40370
G1 X68.140 Y124.203 E5.42375
G1 X67.730 Y123.736 E5.44380
G1 X67.385 Y123.219 E5.46385
G1 X67.110 Y122.661 E5.48390
G1 X66.910 Y122.073 E5.50395
G1 X66.789 Y121.463 E5.52400
G1 X66.750 Y120.868 E5.54326
G1 X66.750 Y89.818 E6.54489
G1 X66.789 Y89.223 E6.56415
G1 X66.910 Y88.613 E6.58420
G1 X67.110 Y88.025 E6.60425
G1 X67.385 Y87.467 E6.62430
G1 X67.730 Y86.950 E6.64435
G1 X68.140 Y86.483 E6.66440
G1 X68.607 Y86.073 E6.68445
G1 X69.062 Y85.770 E6.70208
G1 X69.375 Y86.162 F12000.000
G1 X69.873 Y85.916 E6.72002 F720.000
G1 X70.400 Y85.737 E6.73796
G1 X70.945 Y85.629 E6.75589
G1 X71.492 Y85.593 E6.77356
G1 X98.508 Y85.593 E7.64511 F720.000
G1 X99.055 Y85.629 E7.66278
G1 X99.600 Y85.737 E7.68072
G1 X100.127 Y85.916 E7.69865
G1 X100.625 Y86.162 E7.71659
G1 X101.144 Y86.520 E7.73693
G1 X101.506 Y86.837 E7.75244
G1 X101.872 Y87.255 E7.77038
G1 X102.181 Y87.718 E7.78832
G1 X102.427 Y88.216 E7.80625
G1 X102.606 Y88.743 E7.82419
G1 X102.714 Y89.288 E7.84212
G1 X102.750 Y89.835 E7.85980
G1 X102.750 Y120.851 E8.86037
G1 X102.714 Y121.398 E8.87805
G1 X102.606 Y121.943 E8.89598
G1 X102.427 Y122.470 E8.91392
G1 X102.181 Y122.968 E8.93185
G1 X101.872 Y123.431 E8.94979
G1 X101.506 Y123.849 E8.96773
G1 X101.025 Y124.257 E8.98807
G1 X100.625 Y124.524 E9.00358
G1 X100.127 Y124.770 E9.02152
G1 X99.600 Y124.949 E9.03945
G1 X99.055 Y125.057 E9.05739
G1 X98.508 Y125.093 E9.07506
G1 X71.492 Y125.093 E9.94661
G1 X70.945 Y125.057 E9.96428
G1 X70.400 Y124.949 E9.98221
G1 X69.873 Y124.770 E10.00015
G1 X69.375 Y124.524 E10.01809
G1 X68.912 Y124.215 E10.03602
G1 X68.494 Y123.849 E10.05396
G1 X68.128 Y123.431 E10.07190
G1 X67.819 Y122.968 E10.08983
G1 X67.573 Y122.470 E10.10777
G1 X67.394 Y121.943 E10.12570
G1 X67.286 Y121.398 E10.14364
G1 X67.250 Y120.851 E10.16131
G1 X67.250 Y89.835 E11.16189
G1 X67.286 Y89.288 E11.17956
G1 X67.394 Y88.743 E11.19750
G1 X67.573 Y88.216 E11.21544
G1 X67.819 Y87.718 E11.23337
G1 X68.128 Y87.255 E11.25131
G1 X68.494 Y86.837 E11.26924
G1 X68.912 Y86.471 E11.28718
G1 X69.312 Y86.204 E11.30270
G1 X71.693 Y85.135 F12000.000
G1 X106.348 Y79.862 F12000.000
G1 X105.982 Y79.862 E11.31450 F900.000
G1 X106.810 Y78.313 E11.37116
G1 X107.153 Y77.896 E11.38857
G1 X107.570 Y77.553 E11.40598
G1 X108.046 Y77.299 E11.42340
G1 X108.563 Y77.142 E11.44081
G1 X109.081 Y77.091 E11.45761
G1 X109.081 Y76.726 E11.46940
G1 X110.630 Y77.553 E11.52606
G1 X111.047 Y77.896 E11.54348
G1 X111.390 Y78.313 E11.56089
G1 X111.644 Y78.789 E11.57831
G1 X111.801 Y79.306 E11.59572
G1 X111.854 Y79.843 E11.61313
G1 X111.801 Y80.380 E11.63055
G1 X111.644 Y80.897 E11.64796
G1 X111.390 Y81.373 E11.66538
G1 X111.047 Y81.790 E11.68279
G1 X110.630 Y82.133 E11.70020
G1 X110.154 Y82.387 E11.71762
G1 X109.637 Y82.544 E11.73503
G1 X109.119 Y82.595 E11.75183
G1 X109.119 Y82.961 E11.76363
G1 X107.570 Y82.133 E11.82029
G1 X107.153 Y81.790 E11.83770
G1 X106.810 Y81.373 E11.85511
G1 X106.556 Y80.897 E11.87253
G1 X106.399 Y80.380 E11.88994
G1 X106.356 Y79.937 E11.90432
G1 X106.849 Y79.843 F12000.000
G1 X106.896 Y79.362 E11.91990 F720.000
G1 X106.817 Y79.362 E11.92247
G1 X107.228 Y78.592 E11.95063
G1 X107.508 Y78.251 E11.96486
G1 X107.849 Y77.971 E11.97910
G1 X108.238 Y77.763 E11.99334
G1 X108.661 Y77.635 E12.00757
G1 X109.100 Y77.592 E12.02181
G1 X109.581 Y77.639 E12.03740
G1 X109.581 Y77.560 E12.03996 F720.000
G1 X110.351 Y77.971 E12.06812
G1 X110.692 Y78.251 E12.08236
G1 X111.004 Y78.653 E12.09877
G1 X111.180 Y78.982 E12.11079
G1 X111.308 Y79.404 E12.12503
G1 X111.351 Y79.843 E12.13927
G1 X111.308 Y80.282 E12.15350
G1 X111.180 Y80.705 E12.16774
G1 X110.972 Y81.094 E12.18198
G1 X110.692 Y81.435 E12.19621
G1 X110.351 Y81.715 E12.21045
G1 X109.961 Y81.923 E12.22469
G1 X109.539 Y82.051 E12.23892
G1 X109.100 Y82.094 E12.25316
G1 X108.619 Y82.047 E12.26875
G1 X108.619 Y82.126 E12.27131
G1 X107.849 Y81.715 E12.29947
G1 X107.508 Y81.435 E12.31371
G1 X107.228 Y81.094 E12.32794
G1 X107.020 Y80.705 E12.34218
G1 X106.892 Y80.282 E12.35642
G1 X106.856 Y79.918 E12.36823
G1 F1680.000 E10.36823
G92 E0
G1 X109.525 Y77.583 F12000.000
G1 X120.637 Y56.900 F12000.000
G1 E2.00000 F1680.000
G1 X120.220 Y56.558 E2.01741 F900.000
G1 X119.878 Y56.141 E2.03483
G1 X119.623 Y55.665 E2.05224
G1 X119.467 Y55.148 E2.06966
G1 X119.414 Y54.611 E2.08707
G1 X119.424 Y54.508 E2.09040
G1 X119.467 Y54.074 E2.10448
G1 X119.623 Y53.557 E2.12190
G1 X119.878 Y53.081 E2.13931
G1 X120.220 Y52.664 E2.15672
G1 X120.637 Y52.321 E2.17414
G1 X121.113 Y52.067 E2.19155
G1 X121.630 Y51.910 E2.20897
G1 X122.167 Y51.857 E2.22638
G1 X122.270 Y51.867 E2.22971
G1 X122.704 Y51.910 E2.24379 F900.000
G1 X123.221 Y52.067 E2.26121
G1 X123.697 Y52.321 E2.27862
G1 X124.114 Y52.664 E2.29604
G1 X124.457 Y53.081 E2.31345
G1 X124.711 Y53.557 E2.33087
G1 X124.868 Y54.074 E2.34828
G1 X124.878 Y54.176 E2.35161
G1 X124.921 Y54.611 E2.36569
G1 X124.868 Y55.148 E2.38311
G1 X124.711 Y55.665 E2.40052
G1 X124.457 Y56.141 E2.41793
G1 X124.114 Y56.558 E2.43535
G1 X123.697 Y56.900 E2.45276
G1 X123.221 Y57.155 E2.47018
G1 X122.704 Y57.312 E2.48759
G1 X122.167 Y57.364 E2.50500
G1 X121.630 Y57.312 E2.52242
G1 X121.114 Y57.155 E2.53983
G1 X120.704 Y56.936 E2.55483
G1 X120.917 Y56.483 F12000.000
G1 X120.575 Y56.203 E2.56906 F720.000
G1 X120.295 Y55.862 E2.58330
G1 X120.087 Y55.472 E2.59754
G1 X119.959 Y55.050 E2.61177
G1 X119.916 Y54.611 E2.62601
G1 X119.959 Y54.172 E2.64025
G1 X120.087 Y53.749 E2.65448
G1 X120.295 Y53.360 E2.66872
G1 X120.575 Y53.019 E2.68296
G1 X120.917 Y52.739 E2.69719
G1 X121.306 Y52.531 E2.71143
G1 X121.782 Y52.398 E2.72738
G1 X122.167 Y52.360 E2.73987 F720.000
G1 X122.606 Y52.403 E2.75411
G1 X123.029 Y52.531 E2.76835
G1 X123.418 Y52.739 E2.78258
G1 X123.759 Y53.019 E2.79682
G1 X124.039 Y53.360 E2.81106
G1 X124.247 Y53.749 E2.82529
G1 X124.375 Y54.172 E2.83953
G1 X124.418 Y54.611 E2.85377
G1 X124.375 Y55.050 E2.86800
G1 X124.247 Y55.472 E2.88224
G1 X124.039 Y55.862 E2.89648
G1 X123.759 Y56.203 E2.91071
G1 X123.418 Y56.483 E2.92495
G1 X123.029 Y56.691 E2.93919
G1 X122.606 Y56.819 E2.95342
G1 X122.167 Y56.862 E2.96766
G1 X121.728 Y56.819 E2.98190
G1 X121.306 Y56.691 E2.99613
G1 X120.983 Y56.518 E3.00795
G1 F1680.000 E1.00795
G92 E0
G1 X121.771 Y52.010 F12000.000
G1 X110.262 Y43.465 F12000.000
G1 E2.00000 F1680.000
G1 X109.786 Y43.720 E2.01741 F900.000
G1 X109.269 Y43.877 E2.03483
G1 X108.732 Y43.929 E2.05224
G1 X108.195 Y43.876 E2.06966
G1 X107.678 Y43.720 E2.08707
G1 X107.202 Y43.465 E2.10449
G1 X106.785 Y43.123 E2.12190
G1 X106.720 Y43.043 E2.12523
G1 X106.443 Y42.706 E2.13931
G1 X106.188 Y42.230 E2.15673
G1 X106.032 Y41.713 E2.17414
G1 X105.979 Y41.176 E2.19155
G1 X106.032 Y40.639 E2.20897
G1 X106.188 Y40.122 E2.22638
G1 X106.443 Y39.646 E2.24380
G1 X106.785 Y39.229 E2.26121
G1 X107.202 Y38.886 E2.27862
G1 X107.678 Y38.632 E2.29604
G1 X108.195 Y38.475 E2.31345
G1 X108.732 Y38.422 E2.33087
G1 X108.835 Y38.432 E2.33420
G1 X109.269 Y38.475 E2.34828 F900.000
G1 X109.786 Y38.632 E2.36569
G1 X110.262 Y38.886 E2.38311
G1 X110.679 Y39.229 E2.40052
G1 X111.022 Y39.646 E2.41794
G1 X111.276 Y40.122 E2.43535
G1 X111.433 Y40.639 E2.45276
G1 X111.486 Y41.176 E2.47018
G1 X111.476 Y41.279 E2.47351
G1 X111.433 Y41.713 E2.48759
G1 X111.276 Y42.230 E2.50500
G1 X111.022 Y42.706 E2.52242
G1 X110.679 Y43.123 E2.53983
G1 X110.320 Y43.418 E2.55483
G1 X109.983 Y43.048 F12000.000
G1 X109.594 Y43.256 E2.56906 F720.000
G1 X109.171 Y43.384 E2.58330
G1 X108.732 Y43.427 E2.59754
G1 X108.293 Y43.384 E2.61177
G1 X107.871 Y43.256 E2.62601
G1 X107.482 Y43.048 E2.64025
G1 X107.140 Y42.768 E2.65448
G1 X106.860 Y42.426 E2.66872
G1 X106.652 Y42.037 E2.68296
G1 X106.524 Y41.615 E2.69719
G1 X106.486 Y41.122 E2.71314
G1 X106.524 Y40.737 E2.72564
G1 X106.652 Y40.314 E2.73987
G1 X106.860 Y39.925 E2.75411
G1 X107.140 Y39.584 E2.76835
G1 X107.482 Y39.304 E2.78258
G1 X107.871 Y39.096 E2.79682
G1 X108.347 Y38.963 E2.81277
G1 X108.732 Y38.925 E2.82526 F720.000
G1 X109.171 Y38.968 E2.83950
G1 X109.594 Y39.096 E2.85374
G1 X109.983 Y39.304 E2.86797
G1 X110.324 Y39.584 E2.88221
G1 X110.604 Y39.925 E2.89645
G1 X110.812 Y40.314 E2.91068
G1 X110.940 Y40.737 E2.92492
G1 X110.983 Y41.176 E2.93916
G1 X110.940 Y41.615 E2.95339
G1 X110.812 Y42.037 E2.96763
G1 X110.604 Y42.426 E2.98187
G1 X110.324 Y42.768 E2.99610
G1 X110.041 Y43.000 E3.00792
G1 F1680.000 E1.00792
G92 E0
G1 X108.260 Y38.585 F12000.000
G1 X96.789 Y32.354 F12000.000
G1 E2.00000 F1680.000
G1 X96.447 Y32.771 E2.01741 F900.000
G1 X96.030 Y33.113 E2.03483
G1 X95.554 Y33.368 E2.05224
G1 X95.037 Y33.524 E2.06966
G1 X94.500 Y33.577 E2.08707
G1 X93.963 Y33.524 E2.10448
G1 X93.446 Y33.368 E2.12190
G1 X92.970 Y33.113 E2.13931
G1 X92.553 Y32.771 E2.15672
G1 X92.487 Y32.691 E2.16006
G1 X92.210 Y32.354 E2.17414
G1 X91.956 Y31.878 E2.19155
G1 X91.799 Y31.361 E2.20897
G1 X91.746 Y30.824 E2.22638
G1 X91.799 Y30.287 E2.24380
G1 X91.956 Y29.770 E2.26121
G1 X92.210 Y29.294 E2.27862
G1 X92.553 Y28.877 E2.29604
G1 X92.970 Y28.534 E2.31345
G1 X93.446 Y28.280 E2.33086
G1 X93.963 Y28.123 E2.34828
G1 X94.500 Y28.070 E2.36569
G1 X94.788 Y28.098 E2.37503
G1 X95.037 Y28.123 E2.38311 F900.000
G1 X95.554 Y28.280 E2.40052
G1 X96.030 Y28.534 E2.41794
G1 X96.447 Y28.877 E2.43535
G1 X96.512 Y28.956 E2.43868
G1 X96.789 Y29.294 E2.45276
