; generated by Slic3r 1.1.7 on 2014-12-05 at 20:16:18

; perimeters extrusion width = 0.50mm
; infill extrusion width = 0.50mm
; solid infill extrusion width = 0.50mm
; top infill extrusion width = 0.50mm

G21 ; set units to millimeters
M104 S190 ; set temperature
G28 ; home all axes
G1 Z15 F120 ; lift nozzle
M109 S190 ; wait for temperature to be reached
G90 ; use absolute coordinates
G92 E0
M82 ; use absolute distances for extrusion
M106 S102
G1 F1680.000 E-2.00000
G92 E0
G1 Z0.350 F12000.000
G1 X50.978 Y50.870 F12000.000
G1 E2.00000 F1680.000
G1 X51.568 Y50.345 E2.02549 F1200.000
G1 X52.691 Y49.524 E2.07035
G1 X53.208 Y49.211 E2.08986
G1 X53.904 Y48.845 E2.11524
G1 X55.191 Y48.317 E2.16010
G1 X55.765 Y48.137 E2.17950
G1 X56.531 Y47.948 E2.20498
G1 X57.552 Y47.775 E2.23839
G1 X75.806 Y45.705 E2.83100
G1 X105.143 Y45.760 E3.77741
G1 X106.560 Y46.003 E3.82380 F1200.000
G1 X114.232 Y48.136 E4.08068
G1 X115.544 Y48.596 E4.12554
G1 X116.095 Y48.844 E4.14501
G1 X116.792 Y49.211 E4.17043
G1 X117.956 Y49.972 E4.21529
G1 X118.430 Y50.344 E4.23473
G1 X119.019 Y50.867 E4.26017
G1 X119.967 Y51.885 E4.30503
G1 X120.785 Y53.010 E4.34989
G1 X121.095 Y53.525 E4.36927
G1 X121.461 Y54.225 E4.39477
G1 X121.707 Y54.774 E4.41417
G1 X121.985 Y55.513 E4.43965
G1 X122.350 Y56.855 E4.48451
G1 X122.550 Y58.222 E4.52908
G1 X122.596 Y59.221 E4.56132
G1 X122.551 Y60.133 E4.59080
G1 X122.448 Y61.005 E4.61914
G1 X122.253 Y61.984 E4.65134
G1 X108.746 Y115.961 E6.44630
G1 X108.566 Y116.532 E6.46562
G1 X108.286 Y117.267 E6.49099
G1 X107.671 Y118.508 E6.53566
G1 X107.360 Y119.019 E6.55495
G1 X106.912 Y119.666 E6.58034
G1 X106.019 Y120.724 E6.62501
G1 X105.596 Y121.146 E6.64428
G1 X105.005 Y121.667 E6.66970
G1 X104.534 Y122.035 E6.68899
G1 X103.885 Y122.481 E6.71438
G1 X103.373 Y122.790 E6.73369
G1 X102.676 Y123.155 E6.75907
G1 X101.394 Y123.679 E6.80374
G1 X100.059 Y124.045 E6.84841
G1 X99.471 Y124.152 E6.86768
G1 X98.689 Y124.247 E6.89310
G1 X97.696 Y124.295 E6.92515
G1 X71.968 Y124.283 E7.75514
G1 X71.370 Y124.247 E7.77447
G1 X70.590 Y124.153 E7.79979
G1 X70.003 Y124.046 E7.81906
G1 X69.239 Y123.858 E7.84445
G1 X68.668 Y123.681 E7.86371
G1 X67.932 Y123.403 E7.88910
G1 X66.689 Y122.795 E7.93374
G1 X66.177 Y122.486 E7.95303
G1 X65.529 Y122.041 E7.97839
G1 X64.468 Y121.153 E8.02303
G1 X64.043 Y120.731 E8.04234
G1 X63.521 Y120.145 E8.06768
G1 X63.149 Y119.673 E8.08706
G1 X62.702 Y119.029 E8.11234
G1 X62.391 Y118.519 E8.13161
G1 X62.023 Y117.824 E8.15699
G1 X61.775 Y117.280 E8.17626
G1 X61.493 Y116.546 E8.20165
G1 X61.205 Y115.595 E8.23368
G1 X48.743 Y65.950 E9.88493
G1 X47.663 Y61.600 E10.02949
G1 X47.561 Y61.050 E10.04755
G1 X47.455 Y60.225 E10.07437
G1 X47.404 Y59.210 E10.10718
G1 X47.415 Y58.834 E10.11929
G1 X47.447 Y58.266 E10.13765
G1 X47.542 Y57.450 E10.16414
G1 X47.649 Y56.858 E10.18356
G1 X47.836 Y56.091 E10.20902
G1 X48.292 Y54.777 E10.25388
G1 X48.903 Y53.528 E10.29874
G1 X49.661 Y52.362 E10.34361
G1 X50.553 Y51.296 E10.38847
G1 X50.925 Y50.923 E10.40543
G1 F1680.000 E8.40543
G92 E0
G1 X105.251 Y58.567 F12000.000
G1 E2.00000 F1680.000
G1 X104.862 Y58.775 E2.01424 F720.000
G1 X104.439 Y58.903 E2.02847
G1 X104.000 Y58.946 E2.04271
G1 X103.561 Y58.903 E2.05695
G1 X103.139 Y58.775 E2.07118
G1 X102.749 Y58.567 E2.08542
G1 X102.408 Y58.287 E2.09966
G1 X102.128 Y57.946 E2.11389
G1 X101.920 Y57.557 E2.12813
G1 X101.792 Y57.134 E2.14237
G1 X101.749 Y56.695 E2.15660
G1 X101.792 Y56.256 E2.17084
G1 X101.920 Y55.834 E2.18508
G1 X102.128 Y55.444 E2.19931
G1 X102.408 Y55.103 E2.21355
G1 X102.749 Y54.823 E2.22779
G1 X103.138 Y54.615 E2.24202
G1 X103.561 Y54.487 E2.25626
G1 X104.000 Y54.444 E2.27050
G1 X104.439 Y54.487 E2.28473
G1 X104.861 Y54.615 E2.29897 F720.000
G1 X105.251 Y54.823 E2.31321
G1 X105.592 Y55.103 E2.32744
G1 X105.872 Y55.444 E2.34168
G1 X106.080 Y55.834 E2.35592
G1 X106.208 Y56.256 E2.37015
G1 X106.251 Y56.695 E2.38439
G1 X106.208 Y57.134 E2.39863
G1 X106.080 Y57.557 E2.41286
G1 X105.872 Y57.946 E2.42710
G1 X105.592 Y58.287 E2.44134
G1 X105.309 Y58.519 E2.45315
G1 F1680.000 E0.45315
G92 E0
G1 X78.351 Y56.695 F12000.000
G1 E2.00000 F1680.000
G1 X78.308 Y57.134 E2.01424 F720.000
G1 X78.180 Y57.557 E2.02847
G1 X77.972 Y57.946 E2.04271
G1 X77.692 Y58.287 E2.05695
G1 X77.351 Y58.567 E2.07118
G1 X76.962 Y58.775 E2.08542
G1 X76.539 Y58.903 E2.09966
G1 X76.100 Y58.946 E2.11389
G1 X75.661 Y58.903 E2.12813
G1 X75.239 Y58.775 E2.14237
G1 X74.849 Y58.567 E2.15660
G1 X74.508 Y58.287 E2.17084
G1 X74.228 Y57.946 E2.18508
G1 X74.020 Y57.557 E2.19931
G1 X73.892 Y57.134 E2.21355
G1 X73.849 Y56.695 E2.22779
G1 X73.892 Y56.256 E2.24202
G1 X74.020 Y55.834 E2.25626
G1 X74.228 Y55.444 E2.27050
G1 X74.508 Y55.103 E2.28473
G1 X74.849 Y54.823 E2.29897
G1 X75.238 Y54.615 E2.31321
G1 X75.661 Y54.487 E2.32744
G1 X76.100 Y54.444 E2.34168
G1 X76.539 Y54.487 E2.35592
G1 X76.961 Y54.615 E2.37015 F720.000
G1 X77.351 Y54.823 E2.38439
G1 X77.692 Y55.103 E2.39863
G1 X77.972 Y55.444 E2.41286
G1 X78.180 Y55.834 E2.42710
G1 X78.308 Y56.256 E2.44134
G1 X78.344 Y56.621 E2.45315
G1 X78.846 Y59.945 F12000.000
G1 X101.254 Y59.945 E3.17600 F720.000
G1 X101.637 Y60.227 E3.19136
G1 X102.120 Y60.506 E3.20937
G1 X102.634 Y60.719 E3.22730
G1 X103.171 Y60.863 E3.24523
G1 X103.722 Y60.936 E3.26316
G1 X104.278 Y60.936 E3.28110
G1 X104.829 Y60.863 E3.29903
G1 X105.366 Y60.719 E3.31696
G1 X105.880 Y60.506 E3.33489
G1 X106.366 Y60.226 E3.35301
G1 X106.603 Y60.060 E3.36234
G1 X107.314 Y60.278 E3.38634
G1 X107.897 Y60.538 E3.40690
G1 X108.443 Y60.865 E3.42746
G1 X108.946 Y61.257 E3.44802
G1 X109.397 Y61.707 E3.46858
G1 X109.791 Y62.208 E3.48914
G1 X110.121 Y62.753 E3.50970
G1 X110.383 Y63.334 E3.53025
G1 X110.572 Y63.943 E3.55081
G1 X110.686 Y64.570 E3.57137
G1 X110.723 Y65.206 E3.59193
G1 X110.683 Y65.842 E3.61249
G1 X110.568 Y66.461 E3.63280
G1 X100.564 Y106.476 E4.96339
G1 X100.377 Y107.072 E4.98355
G1 X100.115 Y107.648 E5.00395
G1 X99.787 Y108.188 E5.02436
G1 X99.396 Y108.685 E5.04476
G1 X98.948 Y109.132 E5.06516
G1 X98.449 Y109.521 E5.08556
G1 X97.907 Y109.847 E5.10597
G1 X97.330 Y110.106 E5.12637
G1 X96.726 Y110.294 E5.14677
G1 X96.104 Y110.408 E5.16717
G1 X95.481 Y110.445 E5.18733
G1 X74.519 Y110.445 E5.86353
G1 X73.896 Y110.408 E5.88369
G1 X73.274 Y110.294 E5.90409
G1 X72.670 Y110.106 E5.92450
G1 X72.093 Y109.847 E5.94490
G1 X71.503 Y109.484 E5.96723
G1 X71.052 Y109.131 E5.98569
G1 X70.604 Y108.685 E6.00609
G1 X70.213 Y108.188 E6.02650
G1 X69.885 Y107.648 E6.04690
G1 X69.623 Y107.072 E6.06730
G1 X69.436 Y106.476 E6.08746
G1 X59.432 Y66.461 E7.41805
G1 X59.317 Y65.844 E7.43830
G1 X59.277 Y65.210 E7.45879
G1 X59.313 Y64.576 E7.47928
G1 X59.426 Y63.951 E7.49977
G1 X59.614 Y63.344 E7.52026
G1 X59.873 Y62.764 E7.54075
G1 X60.201 Y62.220 E7.56124
G1 X60.592 Y61.720 E7.58173
G1 X61.040 Y61.270 E7.60222
G1 X61.591 Y60.846 E7.62465
G1 X62.083 Y60.548 E7.64319
G1 X62.662 Y60.287 E7.66368
G1 X63.268 Y60.098 E7.68417
G1 X63.893 Y59.983 E7.70466
G1 X64.519 Y59.945 E7.72491
G1 X73.354 Y59.945 E8.00990
G1 X73.723 Y60.217 E8.02471
G1 X74.220 Y60.506 E8.04326 F720.000
G1 X74.734 Y60.719 E8.06119
G1 X75.271 Y60.863 E8.07912
G1 X75.822 Y60.936 E8.09706
G1 X76.378 Y60.936 E8.11499
G1 X76.929 Y60.863 E8.13292
G1 X77.466 Y60.719 E8.15085
G1 X77.980 Y60.506 E8.16878
G1 X78.463 Y60.227 E8.18680
G1 X78.786 Y59.990 E8.19973
G1 X79.718 Y54.445 F12000.000
G1 X100.382 Y54.445 E8.86632 F720.000
G1 X100.805 Y53.893 E8.88876
G1 X101.198 Y53.500 E8.90669
G1 X101.639 Y53.162 E8.92462
G1 X102.120 Y52.884 E8.94255
G1 X102.634 Y52.671 E8.96048
G1 X103.171 Y52.527 E8.97842
G1 X103.722 Y52.455 E8.99635
G1 X104.278 Y52.455 E9.01428
G1 X104.829 Y52.527 E9.03221
G1 X105.366 Y52.671 E9.05015
G1 X105.880 Y52.884 E9.06808
G1 X106.361 Y53.162 E9.08601
G1 X106.802 Y53.500 E9.10394
G1 X107.195 Y53.893 E9.12187
G1 X107.618 Y54.445 E9.14431
G1 X111.089 Y54.445 E9.25626
G1 X111.670 Y54.480 E9.27504
G1 X112.235 Y54.584 E9.29358
G1 X112.783 Y54.755 E9.31211
G1 X113.307 Y54.992 E9.33065
G1 X113.799 Y55.289 E9.34919
G1 X114.250 Y55.644 E9.36772
G1 X114.656 Y56.051 E9.38626
G1 X115.010 Y56.504 E9.40479
G1 X115.306 Y56.996 E9.42333
G1 X115.541 Y57.521 E9.44186
G1 X115.710 Y58.070 E9.46040
G1 X115.813 Y58.635 E9.47894
G1 X115.846 Y59.208 E9.49746
G1 X115.809 Y59.782 E9.51601
G1 X115.702 Y60.355 E9.53479
G1 X102.306 Y113.940 E11.31664
G1 X102.132 Y114.493 E11.33534
G1 X101.896 Y115.014 E11.35379
G1 X101.598 Y115.503 E11.37225
G1 X101.245 Y115.952 E11.39071
G1 X100.839 Y116.356 E11.40916
G1 X100.388 Y116.708 E11.42762
G1 X99.898 Y117.003 E11.44607
G1 X99.376 Y117.238 E11.46453
G1 X98.830 Y117.407 E11.48299
G1 X98.267 Y117.510 E11.50144
G1 X97.689 Y117.545 E11.52014
G1 X72.367 Y117.545 E12.33702
G1 X71.788 Y117.510 E12.35571
G1 X71.226 Y117.408 E12.37415
G1 X70.680 Y117.238 E12.39259
G1 X70.158 Y117.004 E12.41103
G1 X69.669 Y116.709 E12.42948
G1 X69.218 Y116.358 E12.44792
G1 X68.813 Y115.954 E12.46636
G1 X68.459 Y115.505 E12.48480
G1 X68.161 Y115.017 E12.50325
G1 X67.925 Y114.497 E12.52169
G1 X67.750 Y113.944 E12.54038
G1 X54.298 Y60.354 E14.32281
G1 X54.191 Y59.782 E14.34159
G1 X54.154 Y59.208 E14.36014
G1 X54.187 Y58.635 E14.37865
G1 X54.290 Y58.070 E14.39719
G1 X54.459 Y57.521 E14.41573
G1 X54.694 Y56.996 E14.43427
G1 X54.990 Y56.504 E14.45280
G1 X55.344 Y56.051 E14.47134
G1 X55.750 Y55.644 E14.48987
G1 X56.202 Y55.289 E14.50841
G1 X56.693 Y54.992 E14.52695
G1 X57.217 Y54.755 E14.54548
G1 X57.765 Y54.584 E14.56402
G1 X58.330 Y54.480 E14.58256
G1 X58.912 Y54.445 E14.60134
G1 X72.482 Y54.445 E15.03911
G1 X72.905 Y53.893 E15.06154
G1 X73.298 Y53.500 E15.07948
G1 X73.739 Y53.162 E15.09741
G1 X74.221 Y52.884 E15.11534
G1 X74.734 Y52.671 E15.13327
G1 X75.271 Y52.527 E15.15120
G1 X75.822 Y52.455 E15.16914
G1 X76.378 Y52.455 E15.18707
G1 X76.929 Y52.527 E15.20500
G1 X77.466 Y52.671 E15.22293 F720.000
G1 X77.980 Y52.884 E15.24087
G1 X78.461 Y53.162 E15.25880
G1 X78.902 Y53.500 E15.27673
G1 X79.295 Y53.893 E15.29466
G1 X79.673 Y54.386 E15.31468
G1 X79.625 Y54.788 F12000.000
G1 X84.440 Y59.603 E15.53435 F1200.000
G1 X83.732 Y59.603 E15.55718
G1 X77.041 Y52.912 E15.86242
G1 X78.330 Y53.493 F12000.000
G1 X79.302 Y54.465 E15.90674 F1200.000
G1 X80.332 Y54.788 E15.94157
G1 X85.147 Y59.603 E16.16125
G1 X85.855 Y59.603 E16.18407
G1 X81.040 Y54.788 E16.40374
G1 X81.747 Y54.788 E16.42657
G1 X86.562 Y59.603 E16.64624
G1 X87.270 Y59.603 E16.66907
G1 X82.455 Y54.788 E16.88874
G1 X83.163 Y54.788 E16.91157
G1 X87.978 Y59.603 E17.13124
G1 X88.685 Y59.603 E17.15407
G1 X83.870 Y54.788 E17.37374
G1 X84.578 Y54.788 E17.39656
G1 X89.393 Y59.603 E17.61624
G1 X90.100 Y59.603 E17.63906
G1 X85.285 Y54.788 E17.85874
G1 X85.993 Y54.788 E17.88156
G1 X90.808 Y59.603 E18.10123
G1 X91.515 Y59.603 E18.12406
G1 X86.700 Y54.788 E18.34373
G1 X87.408 Y54.788 E18.36656
G1 X92.223 Y59.603 E18.58623
G1 X92.931 Y59.603 E18.60906
G1 X88.116 Y54.788 E18.82873
G1 X88.823 Y54.788 E18.85156
G1 X93.638 Y59.603 E19.07123
G1 X94.346 Y59.603 E19.09405
G1 X89.531 Y54.788 E19.31373
G1 X90.238 Y54.788 E19.33655
G1 X95.053 Y59.603 E19.55622
G1 X95.761 Y59.603 E19.57905
G1 X90.946 Y54.788 E19.79872
G1 X91.654 Y54.788 E19.82155
G1 X96.469 Y59.603 E20.04122
G1 X97.176 Y59.603 E20.06405
G1 X92.361 Y54.788 E20.28372
G1 X93.069 Y54.788 E20.30655
G1 X97.884 Y59.603 E20.52622
G1 X98.591 Y59.603 E20.54905
G1 X93.776 Y54.788 E20.76872
G1 X94.484 Y54.788 E20.79154
G1 X99.299 Y59.603 E21.01122
G1 X100.006 Y59.603 E21.03404
G1 X95.191 Y54.788 E21.25371
G1 X95.899 Y54.788 E21.27654
G1 X100.714 Y59.603 E21.49621
G1 X101.577 Y59.758 E21.52448
G1 X96.607 Y54.788 E21.75122
G1 X97.314 Y54.788 E21.77405
G1 X102.985 Y60.459 E22.03277
G1 X106.216 Y58.029 F12000.000
G1 X113.988 Y65.801 E22.38734 F1200.000
G1 X113.846 Y66.367 E22.40617
G1 X110.709 Y63.229 E22.54932
G1 X110.966 Y64.194 E22.58153
G1 X113.705 Y66.933 E22.70650
G1 X113.563 Y67.499 E22.72532
G1 X111.054 Y64.989 E22.83981
G1 X111.037 Y65.680 E22.86210
G1 X113.422 Y68.065 E22.97091
G1 X113.280 Y68.631 E22.98973
G1 X110.947 Y66.298 E23.09619
G1 X110.817 Y66.876 E23.11530
G1 X113.139 Y69.197 E23.22120
G1 X112.997 Y69.763 E23.24002
G1 X110.676 Y67.442 E23.34593
G1 X110.534 Y68.008 E23.36475
G1 X112.856 Y70.329 E23.47066
G1 X112.714 Y70.895 E23.48948
G1 X110.393 Y68.574 E23.59538
G1 X110.251 Y69.140 E23.61421
G1 X112.573 Y71.461 E23.72011
G1 X112.431 Y72.027 E23.73893
G1 X110.110 Y69.706 E23.84484
G1 X109.968 Y70.272 E23.86366
G1 X112.290 Y72.593 E23.96957
G1 X112.148 Y73.160 E23.98839
G1 X109.827 Y70.838 E24.09429
G1 X109.685 Y71.404 E24.11312
G1 X112.007 Y73.726 E24.21902
G1 X111.865 Y74.292 E24.23784
G1 X109.544 Y71.970 E24.34375
G1 X109.402 Y72.536 E24.36257
G1 X111.724 Y74.858 E24.46848
G1 X111.582 Y75.424 E24.48730
G1 X109.261 Y73.102 E24.59320
G1 X109.119 Y73.669 E24.61203
G1 X111.441 Y75.990 E24.71793
G1 X111.299 Y76.556 E24.73675
G1 X108.978 Y74.235 E24.84266
G1 X108.836 Y74.801 E24.86148
G1 X111.158 Y77.122 E24.96739
G1 X111.016 Y77.688 E24.98621
G1 X108.695 Y75.367 E25.09211
G1 X108.553 Y75.933 E25.11094
G1 X110.875 Y78.254 E25.21684
G1 X110.733 Y78.820 E25.23567
G1 X108.412 Y76.499 E25.34157
G1 X108.270 Y77.065 E25.36039
G1 X110.592 Y79.386 E25.46630
G1 X110.450 Y79.952 E25.48512
G1 X108.129 Y77.631 E25.59102
G1 X107.987 Y78.197 E25.60985
G1 X110.308 Y80.518 E25.71575
G1 X110.167 Y81.085 E25.73458
G1 X107.846 Y78.763 E25.84048
G1 X107.704 Y79.329 E25.85930
G1 X110.025 Y81.651 E25.96521
G1 X109.884 Y82.217 E25.98403
G1 X107.563 Y79.895 E26.08993
G1 X107.421 Y80.461 E26.10876
G1 X109.742 Y82.783 E26.21466
G1 X109.601 Y83.349 E26.23349
G1 X107.280 Y81.027 E26.33939
G1 X107.138 Y81.594 E26.35821
G1 X109.459 Y83.915 E26.46412
G1 X109.318 Y84.481 E26.48294
G1 X106.997 Y82.160 E26.58885
G1 X106.855 Y82.726 E26.60767
G1 X109.176 Y85.047 E26.71357
G1 X109.035 Y85.613 E26.73240
G1 X106.713 Y83.292 E26.83830
G1 X106.572 Y83.858 E26.85712
G1 X108.893 Y86.179 E26.96303
G1 X108.752 Y86.745 E26.98185
G1 X106.430 Y84.424 E27.08776
G1 X106.289 Y84.990 E27.10658
G1 X108.610 Y87.311 E27.21248
G1 X108.469 Y87.877 E27.23131
G1 X106.147 Y85.556 E27.33721
G1 X106.006 Y86.122 E27.35603
G1 X108.327 Y88.443 E27.46194
G1 X108.186 Y89.009 E27.48076
G1 X105.864 Y86.688 E27.58667
G1 X105.723 Y87.254 E27.60549
G1 X108.044 Y89.576 E27.71139
G1 X107.903 Y90.142 E27.73022
G1 X105.581 Y87.820 E27.83612
G1 X105.440 Y88.386 E27.85494
G1 X107.761 Y90.708 E27.96085
G1 X107.620 Y91.274 E27.97967
G1 X105.298 Y88.952 E28.08558
G1 X105.157 Y89.518 E28.10440
G1 X107.478 Y91.840 E28.21030
G1 X107.337 Y92.406 E28.22913
G1 X105.015 Y90.085 E28.33503
G1 X104.874 Y90.651 E28.35385
G1 X107.195 Y92.972 E28.45976
G1 X107.054 Y93.538 E28.47858
G1 X104.732 Y91.217 E28.58449
G1 X104.591 Y91.783 E28.60331
G1 X106.912 Y94.104 E28.70921
G1 X106.771 Y94.670 E28.72804
G1 X104.449 Y92.349 E28.83394
G1 X104.308 Y92.915 E28.85276
G1 X106.629 Y95.236 E28.95867
G1 X106.488 Y95.802 E28.97749
G1 X104.166 Y93.481 E29.08340
G1 X104.025 Y94.047 E29.10222
G1 X106.346 Y96.368 E29.20812
G1 X106.204 Y96.934 E29.22695
G1 X103.883 Y94.613 E29.33285
G1 X103.742 Y95.179 E29.35167
G1 X106.063 Y97.500 E29.45758
G1 X105.921 Y98.067 E29.47640
G1 X103.600 Y95.745 E29.58231
G1 X103.459 Y96.311 E29.60113
G1 X105.780 Y98.633 E29.70703
G1 X105.638 Y99.199 E29.72586
G1 X103.317 Y96.877 E29.83176
G1 X103.176 Y97.443 E29.85058
G1 X105.497 Y99.765 E29.95649
G1 X105.355 Y100.331 E29.97531
G1 X103.034 Y98.009 E30.08122
G1 X102.893 Y98.576 E30.10004
G1 X105.214 Y100.897 E30.20594
G1 X105.072 Y101.463 E30.22477
G1 X102.751 Y99.142 E30.33067
G1 X102.609 Y99.708 E30.34949
G1 X104.931 Y102.029 E30.45540
