; generated by Slic3r 1.1.7 on 2014-12-04 at 11:48:26

; perimeters extrusion width = 0.50mm
; infill extrusion width = 0.50mm
; solid infill extrusion width = 0.50mm
; top infill extrusion width = 0.50mm

G21 ; set units to millimeters
M104 S190 ; set temperature
G28 ; home all axes
G1 Z15 F120 ; lift nozzle
M109 S190 ; wait for temperature to be reached
G90 ; use absolute coordinates
G92 E0
M82 ; use absolute distances for extrusion
M106 S102
G1 F1680.000 E-2.00000
G92 E0
G1 Z0.350 F12000.000
G1 X35.532 Y55.862 F12000.000
G1 E2.00000 F1680.000
G1 X37.293 Y54.816 E2.06609 F1200.000
G1 X39.099 Y53.886 E2.13163
G1 X40.841 Y53.111 E2.19312
G1 X42.285 Y52.551 E2.24309
G1 X43.822 Y52.038 E2.29536
G1 X45.797 Y51.490 E2.36147
G1 X47.537 Y51.111 E2.41892
G1 X49.466 Y50.800 E2.48196
G1 X51.464 Y50.595 E2.54676
G1 X53.368 Y50.509 E2.60824
G1 X116.874 Y50.512 E4.65693
G1 X118.662 Y50.604 E4.71468 F1200.000
G1 X120.597 Y50.808 E4.77744
G1 X122.597 Y51.138 E4.84283
G1 X124.263 Y51.505 E4.89787
G1 X125.952 Y51.967 E4.95436
G1 X127.836 Y52.595 E5.01841
G1 X129.405 Y53.211 E5.07280
G1 X131.026 Y53.945 E5.13022
G1 X132.762 Y54.846 E5.19330
G1 X134.277 Y55.739 E5.25003
G1 X135.624 Y56.628 E5.30209
G1 X136.064 Y56.938 E5.31945
G1 X137.491 Y58.014 E5.37712
G1 X138.653 Y58.980 E5.42588
G1 X140.085 Y60.299 E5.48867
G1 X141.319 Y61.565 E5.54570
G1 X142.613 Y63.047 E5.60916
G1 X143.654 Y64.373 E5.66356
G1 X144.628 Y65.750 E5.71795
G1 X145.848 Y67.703 E5.79224
G1 X146.704 Y69.272 E5.84991
G1 X147.440 Y70.796 E5.90451
G1 X148.096 Y72.350 E5.95892
G1 X148.791 Y74.278 E6.02503
G1 X149.276 Y75.893 E6.07942
G1 X149.680 Y77.530 E6.13381
G1 X150.065 Y79.542 E6.19991
G1 X150.291 Y81.213 E6.25430
G1 X150.432 Y82.893 E6.30869
G1 X150.462 Y83.445 E6.32653
G1 X150.500 Y85.061 E6.37868
G1 X150.441 Y86.989 E6.44089
G1 X150.304 Y88.669 E6.49529
G1 X150.026 Y90.688 E6.56102
G1 X149.706 Y92.355 E6.61577
G1 X149.289 Y94.059 E6.67237
G1 X148.714 Y95.954 E6.73627
G1 X148.140 Y97.540 E6.79066
G1 X147.449 Y99.184 E6.84820
G1 X146.597 Y100.939 E6.91115
G1 X145.613 Y102.698 E6.97615
G1 X144.695 Y104.153 E7.03164
G1 X143.691 Y105.578 E7.08788
G1 X142.456 Y107.141 E7.15213
G1 X141.344 Y108.408 E7.20653
G1 X140.108 Y109.678 E7.26370
G1 X138.666 Y111.009 E7.32699
G1 X137.316 Y112.127 E7.38355
G1 X136.018 Y113.096 E7.43580
G1 X135.586 Y113.397 E7.45277
G1 X134.090 Y114.374 E7.51044
G1 X132.547 Y115.271 E7.56800
G1 X131.049 Y116.044 E7.62239
G1 X129.514 Y116.742 E7.67678
G1 X127.606 Y117.488 E7.74288
G1 X126.005 Y118.017 E7.79728
G1 X124.379 Y118.465 E7.85166
G1 X122.140 Y118.947 E7.92556
G1 X120.630 Y119.187 E7.97489
G1 X118.678 Y119.395 E8.03823
G1 X116.691 Y119.491 E8.10238
G1 X53.307 Y119.491 E10.14713
G1 X51.261 Y119.391 E10.21323
G1 X49.225 Y119.166 E10.27930
G1 X47.560 Y118.893 E10.33372
G1 X45.912 Y118.538 E10.38811
G1 X43.935 Y117.998 E10.45421
G1 X42.073 Y117.371 E10.51761
G1 X40.304 Y116.661 E10.57909
G1 X38.895 Y116.017 E10.62908
G1 X37.325 Y115.202 E10.68615
G1 X35.467 Y114.096 E10.75591
G1 X34.226 Y113.270 E10.80397
G1 X32.870 Y112.269 E10.85836
G1 X31.287 Y110.968 E10.92445
G1 X29.980 Y109.763 E10.98181
G1 X28.614 Y108.361 E11.04495
G1 X27.302 Y106.848 E11.10955
G1 X26.137 Y105.340 E11.17103
G1 X25.270 Y104.100 E11.21983
G1 X24.372 Y102.673 E11.27422
G1 X23.374 Y100.884 E11.34031
G1 X22.601 Y99.295 E11.39732
G1 X21.837 Y97.481 E11.46082
G1 X21.247 Y95.837 E11.51715
G1 X20.678 Y93.932 E11.58131
G1 X20.230 Y92.046 E11.64383
G1 X19.965 Y90.637 E11.69009
G1 X19.733 Y88.967 E11.74447
G1 X19.554 Y86.926 E11.81057
G1 X19.501 Y84.878 E11.87667
G1 X19.548 Y83.192 E11.93106
G1 X19.688 Y81.413 E11.98864
G1 X19.945 Y79.480 E12.05155
G1 X20.272 Y77.745 E12.10849
G1 X20.794 Y75.652 E12.17811
G1 X21.229 Y74.218 E12.22643
G1 X21.796 Y72.630 E12.28082
G1 X22.585 Y70.740 E12.34691
G1 X23.360 Y69.144 E12.40414
G1 X24.311 Y67.428 E12.46742
G1 X25.205 Y65.999 E12.52180
G1 X26.384 Y64.323 E12.58790
G1 X27.427 Y62.998 E12.64230
G1 X28.781 Y61.460 E12.70841
G1 X29.960 Y60.255 E12.76280
G1 X31.445 Y58.897 E12.82772
G1 X32.922 Y57.692 E12.88921
G1 X34.129 Y56.798 E12.93767
G1 X35.469 Y55.903 E12.98964
G1 F1680.000 E10.98964
G92 E0
G1 X57.250 Y107.060 F12000.000
G1 E2.00000 F1680.000
G1 X57.250 Y96.312 E2.34672 F900.000
G1 X58.042 Y96.033 E2.37382
G1 X58.890 Y95.683 E2.40340
G1 X59.700 Y95.274 E2.43267
G1 X60.476 Y94.804 E2.46194
G1 X61.213 Y94.275 E2.49121
G1 X61.907 Y93.691 E2.52048
G1 X62.554 Y93.055 E2.54975
G1 X63.150 Y92.370 E2.57902
G1 X63.692 Y91.642 E2.60829
G1 X64.175 Y90.875 E2.63756
G1 X64.598 Y90.072 E2.66683
G1 X64.958 Y89.239 E2.69610
G1 X65.253 Y88.381 E2.72537
G1 X65.480 Y87.502 E2.75464
G1 X65.639 Y86.609 E2.78391
G1 X65.728 Y85.706 E2.81318
G1 X65.748 Y84.799 E2.84245
G1 X65.697 Y83.893 E2.87172
G1 X65.576 Y82.984 E2.90130
G1 X65.421 Y82.159 E2.92840
G1 X74.729 Y76.785 E3.27512
G1 X75.408 Y78.935 E3.34786
G1 X75.729 Y80.213 E3.39037
G1 X75.975 Y81.508 E3.43288
G1 X76.143 Y82.815 E3.47539
G1 X76.233 Y84.130 E3.51791
G1 X76.246 Y85.447 E3.56042
G1 X76.180 Y86.763 E3.60293
G1 X76.037 Y88.073 E3.64544
G1 X75.816 Y89.373 E3.68795
G1 X75.519 Y90.657 E3.73046
G1 X75.147 Y91.921 E3.77298
G1 X74.672 Y93.225 E3.81774
G1 X74.181 Y94.371 E3.85800
G1 X73.590 Y95.550 E3.90051
G1 X72.931 Y96.691 E3.94302
G1 X72.206 Y97.791 E3.98553
G1 X71.417 Y98.847 E4.02804
G1 X70.567 Y99.853 E4.07055
G1 X69.658 Y100.808 E4.11307
G1 X68.695 Y101.707 E4.15558
G1 X67.680 Y102.548 E4.19809
G1 X66.617 Y103.327 E4.24060
G1 X65.510 Y104.042 E4.28311
G1 X64.363 Y104.690 E4.32563
G1 X63.179 Y105.269 E4.36814
G1 X61.963 Y105.777 E4.41065
G1 X60.719 Y106.212 E4.45316
G1 X59.452 Y106.572 E4.49567
G1 X57.323 Y107.043 E4.56599
G1 X57.750 Y106.437 F12000.000
G1 X57.750 Y96.666 E4.88121 F720.000
G1 X58.221 Y96.500 E4.89731
G1 X59.098 Y96.138 E4.92792
G1 X59.943 Y95.712 E4.95844
G1 X60.752 Y95.221 E4.98896
G1 X61.520 Y94.670 E5.01947
G1 X62.244 Y94.061 E5.04999
G1 X62.918 Y93.398 E5.08051
G1 X63.540 Y92.684 E5.11102
G1 X64.104 Y91.925 E5.14154
G1 X64.609 Y91.125 E5.17206
G1 X65.050 Y90.288 E5.20257
G1 X65.433 Y89.394 E5.23394
G1 X65.732 Y88.525 E5.26361
G1 X65.969 Y87.609 E5.29412
G1 X66.134 Y86.678 E5.32464
G1 X66.228 Y85.736 E5.35516
G1 X66.248 Y84.791 E5.38567
G1 X66.195 Y83.846 E5.41619
G1 X66.070 Y82.905 E5.44681
G1 X65.978 Y82.415 E5.46291
G1 X74.440 Y77.529 E5.77812
G1 X74.927 Y79.071 E5.83029
G1 X75.241 Y80.321 E5.87184
G1 X75.481 Y81.586 E5.91340
G1 X75.645 Y82.864 E5.95496
G1 X75.733 Y84.149 E5.99651
G1 X75.746 Y85.437 E6.03807
G1 X75.682 Y86.724 E6.07963
G1 X75.542 Y88.004 E6.12118
G1 X75.326 Y89.274 E6.16274
G1 X75.036 Y90.529 E6.20429
G1 X74.671 Y91.765 E6.24585
G1 X74.213 Y93.028 E6.28918
G1 X73.727 Y94.161 E6.32896
G1 X73.150 Y95.312 E6.37052
G1 X72.506 Y96.428 E6.41207
G1 X71.797 Y97.504 E6.45363
G1 X71.025 Y98.535 E6.49518
G1 X70.194 Y99.519 E6.53674
G1 X69.306 Y100.453 E6.57830
G1 X68.365 Y101.332 E6.61985
G1 X67.373 Y102.153 E6.66141
G1 X66.334 Y102.915 E6.70296
G1 X65.252 Y103.614 E6.74452
G1 X64.130 Y104.247 E6.78608
G1 X62.973 Y104.813 E6.82763
G1 X61.784 Y105.310 E6.86919
G1 X60.568 Y105.735 E6.91074
G1 X59.329 Y106.087 E6.95230
G1 X57.823 Y106.421 E7.00205
G1 X57.251 Y106.473 F12000.000
G1 F1680.000 E5.00205
G92 E0
G1 X62.171 Y76.530 F12000.000
G1 E2.00000 F1680.000
G1 X61.533 Y75.983 E2.02710 F900.000
G1 X60.807 Y75.423 E2.05668
G1 X60.048 Y74.927 E2.08595
G1 X59.252 Y74.490 E2.11522
G1 X58.426 Y74.116 E2.14449
G1 X57.573 Y73.807 E2.17376
G1 X56.698 Y73.565 E2.20303
G1 X55.808 Y73.390 E2.23230
G1 X54.907 Y73.286 E2.26157
G1 X54.000 Y73.251 E2.29084
G1 X53.093 Y73.286 E2.32011
G1 X52.192 Y73.390 E2.34938
G1 X51.302 Y73.565 E2.37865
G1 X50.427 Y73.807 E2.40792
G1 X49.574 Y74.116 E2.43719
G1 X48.748 Y74.490 E2.46646
G1 X47.952 Y74.927 E2.49573
G1 X47.193 Y75.423 E2.52500
G1 X46.467 Y75.983 E2.55458
G1 X45.829 Y76.529 E2.58168
G1 X36.521 Y71.156 E2.92840
G1 X38.044 Y69.493 E3.00114
G1 X38.990 Y68.575 E3.04365
G1 X39.988 Y67.716 E3.08616
G1 X41.036 Y66.916 E3.12867
G1 X42.130 Y66.181 E3.17119
G1 X43.264 Y65.511 E3.21370
G1 X44.437 Y64.910 E3.25621
G1 X45.643 Y64.379 E3.29872
G1 X46.879 Y63.920 E3.34123
G1 X48.139 Y63.535 E3.38374
G1 X49.420 Y63.226 E3.42626
G1 X50.717 Y62.993 E3.46877
G1 X52.026 Y62.837 E3.51128
G1 X53.341 Y62.759 E3.55379
G1 X54.659 Y62.759 E3.59630
G1 X55.974 Y62.837 E3.63881
G1 X57.283 Y62.993 E3.68133
G1 X58.648 Y63.243 E3.72609
G1 X59.861 Y63.535 E3.76635
G1 X61.121 Y63.920 E3.80886
G1 X62.357 Y64.379 E3.85137
G1 X63.563 Y64.910 E3.89388
G1 X64.736 Y65.511 E3.93639
G1 X65.929 Y66.220 E3.98116
G1 X66.964 Y66.916 E4.02141
G1 X68.012 Y67.716 E4.06393
G1 X69.010 Y68.575 E4.10644
G1 X69.956 Y69.493 E4.14895
G1 X71.479 Y71.156 E4.22169
G1 X62.236 Y76.492 E4.56599
G1 X62.228 Y75.920 F12000.000
G1 X61.849 Y75.595 E4.58209 F720.000
G1 X61.097 Y75.015 E4.61271
G1 X60.305 Y74.498 E4.64323
G1 X59.476 Y74.042 E4.67374
G1 X58.614 Y73.652 E4.70426
G1 X57.725 Y73.330 E4.73478
G1 X56.813 Y73.078 E4.76529
G1 X55.885 Y72.896 E4.79581
G1 X54.945 Y72.787 E4.82633
G1 X54.000 Y72.750 E4.85684
G1 X53.055 Y72.787 E4.88736
G1 X52.115 Y72.896 E4.91788
G1 X51.187 Y73.078 E4.94839
G1 X50.275 Y73.330 E4.97891
G1 X49.386 Y73.652 E5.00943
G1 X48.524 Y74.042 E5.03994
G1 X47.695 Y74.498 E5.07046
G1 X46.903 Y75.015 E5.10098
G1 X46.151 Y75.595 E5.13160
G1 X45.772 Y75.920 E5.14770
G1 X37.310 Y71.034 E5.46291
G1 X38.402 Y69.841 E5.51508
G1 X39.327 Y68.945 E5.55663
G1 X40.303 Y68.104 E5.59819
G1 X41.328 Y67.323 E5.63975
G1 X42.396 Y66.604 E5.68130
G1 X43.506 Y65.949 E5.72286
G1 X44.652 Y65.361 E5.76441
G1 X45.831 Y64.842 E5.80597
G1 X47.039 Y64.394 E5.84753
G1 X48.271 Y64.018 E5.88908
G1 X49.523 Y63.716 E5.93064
G1 X50.791 Y63.488 E5.97220
G1 X52.070 Y63.336 E6.01375
G1 X53.356 Y63.259 E6.05531
G1 X54.644 Y63.259 E6.09686
G1 X55.930 Y63.336 E6.13842
G1 X57.209 Y63.488 E6.17998
G1 X58.477 Y63.716 E6.22153
G1 X59.729 Y64.018 E6.26309
G1 X60.961 Y64.394 E6.30464
G1 X62.169 Y64.842 E6.34620
G1 X63.348 Y65.361 E6.38776
G1 X64.494 Y65.949 E6.42931
G1 X65.649 Y66.635 E6.47264
G1 X66.672 Y67.323 E6.51242
G1 X67.697 Y68.104 E6.55398
G1 X68.673 Y68.945 E6.59553
G1 X69.598 Y69.841 E6.63709
G1 X70.690 Y71.034 E6.68926
G1 X62.293 Y75.882 E7.00205
G1 X61.863 Y76.260 F12000.000
G1 X57.671 Y81.116 F12000.000
G1 X57.784 Y81.216 E7.00693 F900.000
G1 X58.246 Y81.742 E7.02951
G1 X58.635 Y82.324 E7.05209
G1 X58.944 Y82.952 E7.07467
G1 X59.169 Y83.615 E7.09726
G1 X59.306 Y84.301 E7.11984
G1 X59.352 Y85.000 E7.14242
G1 X59.289 Y85.782 E7.16772
G1 X59.169 Y86.385 E7.18757
G1 X58.944 Y87.048 E7.21015
G1 X58.635 Y87.676 E7.23273
G1 X58.246 Y88.258 E7.25531
G1 X57.784 Y88.784 E7.27790
G1 X57.258 Y89.246 E7.30048
G1 X56.676 Y89.635 E7.32306
G1 X55.968 Y89.971 E7.34836
G1 X55.385 Y90.169 E7.36821
G1 X54.699 Y90.306 E7.39079
G1 X54.000 Y90.352 E7.41337
G1 X53.301 Y90.306 E7.43595
G1 X52.615 Y90.169 E7.45854
G1 X51.952 Y89.944 E7.48112
G1 X51.254 Y89.588 E7.50642
G1 X50.742 Y89.246 E7.52626
G1 X50.216 Y88.784 E7.54885
G1 X49.754 Y88.258 E7.57143
G1 X49.328 Y87.600 E7.59672
G1 X49.056 Y87.048 E7.61657
G1 X48.831 Y86.385 E7.63916
G1 X48.694 Y85.699 E7.66174
G1 X48.648 Y85.000 E7.68432
G1 X48.694 Y84.301 E7.70690
G1 X48.831 Y83.615 E7.72949
G1 X49.056 Y82.952 E7.75207
G1 X49.365 Y82.324 E7.77465
G1 X49.754 Y81.742 E7.79723
G1 X50.216 Y81.216 E7.81982
G1 X50.742 Y80.754 E7.84240
G1 X51.324 Y80.365 E7.86498
G1 X51.952 Y80.056 E7.88756
G1 X52.615 Y79.831 E7.91014
G1 X53.301 Y79.694 E7.93273
G1 X54.085 Y79.654 E7.95803
G1 X54.699 Y79.694 E7.97787 F900.000
G1 X55.385 Y79.831 E8.00046
G1 X56.048 Y80.056 E8.02304
G1 X56.676 Y80.365 E8.04562
G1 X57.258 Y80.754 E8.06820
G1 X57.614 Y81.067 E8.08349
G1 X57.341 Y81.492 F12000.000
G1 X57.430 Y81.570 E8.08731 F720.000
G1 X57.848 Y82.047 E8.10778
G1 X58.201 Y82.575 E8.12824
G1 X58.481 Y83.144 E8.14871
G1 X58.685 Y83.745 E8.16918
G1 X58.809 Y84.367 E8.18965
G1 X58.851 Y85.000 E8.21012
G1 X58.799 Y85.684 E8.23225
G1 X58.685 Y86.255 E8.25104
G1 X58.481 Y86.856 E8.27151
G1 X58.201 Y87.425 E8.29198
G1 X57.848 Y87.953 E8.31244
G1 X57.391 Y88.464 E8.33458
G1 X56.953 Y88.848 E8.35337
G1 X56.425 Y89.201 E8.37384
G1 X55.856 Y89.481 E8.39430
G1 X55.255 Y89.685 E8.41477
G1 X54.581 Y89.812 E8.43690
G1 X54.000 Y89.851 E8.45570
G1 X53.367 Y89.809 E8.47616
G1 X52.745 Y89.685 E8.49663
G1 X52.144 Y89.481 E8.51710
G1 X51.531 Y89.172 E8.53923
G1 X51.047 Y88.848 E8.55802
G1 X50.570 Y88.430 E8.57849
G1 X50.152 Y87.953 E8.59896
G1 X49.776 Y87.379 E8.62109
G1 X49.519 Y86.856 E8.63988
G1 X49.315 Y86.255 E8.66035
G1 X49.191 Y85.633 E8.68082
G1 X49.149 Y85.000 E8.70129
G1 X49.191 Y84.367 E8.72175
G1 X49.315 Y83.745 E8.74222
G1 X49.519 Y83.144 E8.76269
G1 X49.799 Y82.575 E8.78316
G1 X50.152 Y82.047 E8.80363
G1 X50.570 Y81.570 E8.82410
G1 X51.047 Y81.152 E8.84456
G1 X51.575 Y80.799 E8.86503
G1 X52.144 Y80.519 E8.88550
G1 X52.745 Y80.315 E8.90597
G1 X53.419 Y80.188 E8.92810
G1 X54.000 Y80.149 E8.94689 F720.000
G1 X54.633 Y80.191 E8.96736
G1 X55.255 Y80.315 E8.98783
G1 X55.856 Y80.519 E9.00829
G1 X56.425 Y80.799 E9.02876
G1 X56.953 Y81.152 E9.04923
G1 X57.284 Y81.443 E9.06346
G1 F1680.000 E7.06346
G92 E0
G1 X53.189 Y79.744 F12000.000
G1 X42.579 Y82.159 F12000.000
G1 E2.00000 F1680.000
G1 X42.424 Y82.984 E2.02710 F900.000
G1 X42.303 Y83.893 E2.05668
G1 X42.252 Y84.799 E2.08595
G1 X42.272 Y85.706 E2.11522
G1 X42.361 Y86.609 E2.14449
G1 X42.520 Y87.502 E2.17376
G1 X42.747 Y88.381 E2.20303
G1 X43.042 Y89.239 E2.23230
G1 X43.402 Y90.072 E2.26157
G1 X43.825 Y90.875 E2.29084
G1 X44.308 Y91.642 E2.32011
G1 X44.850 Y92.370 E2.34938
G1 X45.446 Y93.055 E2.37865
G1 X46.093 Y93.691 E2.40792
G1 X46.787 Y94.275 E2.43719
G1 X47.524 Y94.804 E2.46646
G1 X48.300 Y95.274 E2.49573
G1 X49.110 Y95.683 E2.52500
G1 X49.958 Y96.033 E2.55458
G1 X50.750 Y96.312 E2.58168
G1 X50.750 Y107.060 E2.92840
G1 X48.548 Y106.572 E3.00114
G1 X47.281 Y106.212 E3.04365
G1 X46.037 Y105.777 E3.08616
G1 X44.821 Y105.269 E3.12867
G1 X43.637 Y104.690 E3.17119
G1 X42.490 Y104.042 E3.21370
G1 X41.383 Y103.327 E3.25621
G1 X40.320 Y102.548 E3.29872
G1 X39.305 Y101.707 E3.34123
G1 X38.342 Y100.808 E3.38375
G1 X37.388 Y99.800 E3.42851
G1 X36.583 Y98.847 E3.46877
G1 X35.794 Y97.791 E3.51128
G1 X35.069 Y96.691 E3.55379
G1 X34.410 Y95.550 E3.59630
G1 X33.819 Y94.371 E3.63881
G1 X33.300 Y93.160 E3.68132
G1 X32.853 Y91.921 E3.72384
G1 X32.481 Y90.657 E3.76635
G1 X32.184 Y89.373 E3.80886
G1 X31.963 Y88.073 E3.85137
G1 X31.820 Y86.763 E3.89388
G1 X31.754 Y85.447 E3.93640
G1 X31.767 Y84.130 E3.97891
G1 X31.857 Y82.815 E4.02142
G1 X32.025 Y81.508 E4.06393
G1 X32.271 Y80.213 E4.10644
G1 X32.592 Y78.935 E4.14895
G1 X33.271 Y76.785 E4.22169
G1 X42.514 Y82.121 E4.56600
G1 X42.022 Y82.415 F12000.000
G1 X41.930 Y82.905 E4.58210 F720.000
G1 X41.805 Y83.846 E4.61271
G1 X41.752 Y84.791 E4.64323
G1 X41.772 Y85.736 E4.67375
G1 X41.866 Y86.678 E4.70426
G1 X42.038 Y87.635 E4.73564
G1 X42.268 Y88.525 E4.76530
G1 X42.575 Y89.420 E4.79581
G1 X42.950 Y90.288 E4.82633
G1 X43.391 Y91.125 E4.85685
G1 X43.896 Y91.925 E4.88736
G1 X44.460 Y92.684 E4.91788
G1 X45.100 Y93.416 E4.94925
G1 X45.756 Y94.061 E4.97891
G1 X46.480 Y94.670 E5.00943
G1 X47.248 Y95.221 E5.03994
G1 X48.057 Y95.712 E5.07046
G1 X48.902 Y96.138 E5.10098
G1 X49.779 Y96.500 E5.13160
G1 X50.250 Y96.666 E5.14770
G1 X50.250 Y106.437 E5.46291
G1 X48.671 Y106.087 E5.51508
G1 X47.432 Y105.735 E5.55663
G1 X46.216 Y105.310 E5.59819
G1 X45.027 Y104.813 E5.63975
G1 X43.870 Y104.247 E5.68130
G1 X42.748 Y103.614 E5.72286
G1 X41.666 Y102.915 E5.76441
G1 X40.627 Y102.153 E5.80597
