; generated by Slic3r 1.2.1 on 2015-01-24 at 17:38:09

; external perimeters extrusion width = 0.50mm
; perimeters extrusion width = 0.50mm
; infill extrusion width = 0.50mm
; solid infill extrusion width = 0.50mm
; top infill extrusion width = 0.50mm

M104 S190 ; set temperature
G28 ; home all axes
G1 Z15 F120 ; lift nozzle
M109 S190 ; wait for temperature to be reached
G21 ; set units to millimeters
G90 ; use absolute coordinates
M82 ; use absolute distances for extrusion
G92 E0
M106 S102
G1 E-2.00000 F1680.000
G92 E0
G1 Z0.350 F12000.000
G1 X9.348 Y24.388 F12000.000
G1 E2.00000 F1680.000
G1 X12.500 Y23.564 E2.09172 F1200.000
G1 X157.500 Y23.564 E6.17374
G1 X159.725 Y23.961 E6.23738
G1 X161.676 Y25.102 E6.30101 F1200.000
G1 X163.112 Y26.848 E6.36464
G1 X163.936 Y30.000 E6.45636
G1 X163.936 Y128.000 E9.21524
G1 X163.539 Y130.225 E9.27888
G1 X162.398 Y132.176 E9.34251
G1 X160.652 Y133.612 E9.40614
G1 X159.051 Y134.247 E9.45463
G1 X110.718 Y146.247 E10.85661
G1 X109.167 Y146.436 E10.90060
G1 X60.833 Y146.436 E12.26127
G1 X59.282 Y146.247 E12.30526
G1 X10.949 Y134.247 E13.70724
G1 X8.885 Y133.325 E13.77088
G1 X7.267 Y131.747 E13.83451
G1 X6.294 Y129.707 E13.89814
G1 X6.064 Y128.000 E13.94663
G1 X6.064 Y30.000 E16.70551
G1 X6.461 Y27.775 E16.76915
G1 X7.602 Y25.824 E16.83278
G1 X9.290 Y24.436 E16.89430
G1 E14.89430 F1680.000
G92 E0
G1 X63.583 Y127.750 F12000.000
G1 E2.00000 F1680.000
G1 X106.417 Y127.750 E3.11491 F720.000
G1 X106.417 Y137.250 E3.36219
G1 X63.583 Y137.250 E4.47710 F720.000
G1 X63.583 Y127.825 E4.72242
G1 X12.750 Y50.355 F12000.000
G1 X12.750 Y30.250 E5.24573 F720.000
G1 X157.250 Y30.250 E9.00692
G1 X157.250 Y127.750 E11.54475
G1 X108.917 Y127.750 E12.80281 F720.000
G1 X108.917 Y139.750 E13.11516
G1 X61.083 Y139.750 E14.36022
G1 X61.083 Y127.750 E14.67256
G1 X12.750 Y127.750 E15.93063
G1 X12.750 Y50.430 E17.94320
G1 X13.022 Y78.929 F12000.000
G1 X63.311 Y129.217 E19.79434 F1200.000
G1 X63.311 Y128.647 E19.80919
G1 X13.022 Y78.358 E21.66034
G1 X13.022 Y77.788 E21.67519
G1 X63.311 Y128.076 E23.52633
G1 X63.311 Y127.505 E23.54119
G1 X13.022 Y77.217 E25.39233
G1 X13.022 Y76.646 E25.40719
G1 X63.854 Y127.478 E27.27831
G1 X64.424 Y127.478 E27.29316
G1 X13.022 Y76.076 E29.18530
G1 X13.022 Y75.505 E29.20015
G1 X64.995 Y127.478 E31.11329
G1 X65.566 Y127.478 E31.12814
G1 X13.022 Y74.934 E33.06229
G1 X13.022 Y74.364 E33.07714
G1 X66.136 Y127.478 E35.03230
G1 X66.707 Y127.478 E35.04715
G1 X13.022 Y73.793 E37.02331
G1 X13.022 Y73.222 E37.03817
G1 X67.278 Y127.478 E39.03534
G1 X67.848 Y127.478 E39.05019
G1 X13.022 Y72.652 E41.06837
G1 X13.022 Y72.081 E41.08322
G1 X68.419 Y127.478 E43.12240
G1 X68.990 Y127.478 E43.13726
G1 X13.022 Y71.510 E45.19745
G1 X13.022 Y70.939 E45.21230
G1 X69.561 Y127.478 E47.29350
G1 X70.131 Y127.478 E47.30836
G1 X13.022 Y70.369 E49.41056
G1 X13.022 Y69.798 E49.42542
G1 X70.702 Y127.478 E51.54863
G1 X71.273 Y127.478 E51.56348
G1 X13.022 Y69.227 E53.70770
G1 X13.022 Y68.657 E53.72256
G1 X71.843 Y127.478 E55.88778
G1 X72.414 Y127.478 E55.90264
G1 X13.022 Y68.086 E58.08887
G1 X13.022 Y67.515 E58.10373
G1 X72.985 Y127.478 E60.31097
G1 X73.555 Y127.478 E60.32582
G1 X13.022 Y66.945 E62.55407
G1 X13.022 Y66.374 E62.56893
G1 X74.126 Y127.478 E64.81818
G1 X74.697 Y127.478 E64.83304
G1 X13.022 Y65.803 E67.10330
G1 X13.022 Y65.233 E67.11815
G1 X75.267 Y127.478 E69.40943
G1 X75.838 Y127.478 E69.42428
G1 X13.022 Y64.662 E71.73656
G1 X13.022 Y64.091 E71.75141
G1 X76.409 Y127.478 E74.08470
G1 X76.979 Y127.478 E74.09955
G1 X13.022 Y63.521 E76.45385
G1 X13.022 Y62.950 E76.46870
G1 X77.550 Y127.478 E78.84400
G1 X78.121 Y127.478 E78.85885
G1 X13.022 Y62.379 E81.25516
G1 X13.022 Y61.808 E81.27002
G1 X78.692 Y127.478 E83.68733
G1 X79.262 Y127.478 E83.70219
G1 X13.022 Y61.238 E86.14051
G1 X13.022 Y60.667 E86.15536
G1 X79.833 Y127.478 E88.61469
G1 X80.404 Y127.478 E88.62955
G1 X13.022 Y60.096 E91.10988
G1 X13.022 Y59.526 E91.12474
G1 X80.974 Y127.478 E93.62608
G1 X81.545 Y127.478 E93.64094
G1 X13.022 Y58.955 E96.16329
G1 X13.022 Y58.384 E96.17814
G1 X82.116 Y127.478 E98.72150
G1 X82.686 Y127.478 E98.73636
G1 X13.022 Y57.814 E101.30072
G1 X13.022 Y57.243 E101.31558
G1 X83.257 Y127.478 E103.90095
G1 X83.828 Y127.478 E103.91580
G1 X13.022 Y56.672 E106.52218
G1 X13.022 Y56.102 E106.53704
G1 X84.398 Y127.478 E109.16443
G1 X84.969 Y127.478 E109.17928
G1 X13.022 Y55.531 E111.82768
G1 X13.022 Y54.960 E111.84253
G1 X85.540 Y127.478 E114.51193
G1 X86.110 Y127.478 E114.52679
G1 X13.022 Y54.390 E117.21720
G1 X13.022 Y53.819 E117.23205
G1 X86.681 Y127.478 E119.94347
G1 X87.252 Y127.478 E119.95833
G1 X13.022 Y53.248 E122.69075
G1 X13.022 Y52.677 E122.70560
G1 X87.823 Y127.478 E125.45904
G1 X88.393 Y127.478 E125.47389
G1 X13.022 Y52.107 E128.24833
G1 X13.022 Y51.536 E128.26318
G1 X88.964 Y127.478 E131.05863
G1 X89.535 Y127.478 E131.07349
G1 X13.022 Y50.965 E133.88994
G1 X13.022 Y50.395 E133.90479
G1 X90.105 Y127.478 E136.74226
G1 X90.676 Y127.478 E136.75711
G1 X13.022 Y49.824 E139.61558
G1 X13.022 Y49.253 E139.63043
G1 X91.247 Y127.478 E142.50991
G1 X91.817 Y127.478 E142.52476
G1 X13.022 Y48.683 E145.42525
G1 X13.022 Y48.112 E145.44010
G1 X92.388 Y127.478 E148.36159
G1 X92.959 Y127.478 E148.37645
G1 X13.022 Y47.541 E151.31894
G1 X13.022 Y46.971 E151.33380
G1 X93.529 Y127.478 E154.29730
G1 X94.100 Y127.478 E154.31216
G1 X13.022 Y46.400 E157.29667
G1 X13.022 Y45.829 E157.31153
G1 X94.671 Y127.478 E160.31705
G1 X95.241 Y127.478 E160.33190
G1 X13.022 Y45.259 E163.35843
G1 X13.022 Y44.688 E163.37328
G1 X95.812 Y127.478 E166.42082
G1 X96.383 Y127.478 E166.43567
G1 X13.022 Y44.117 E169.50421
G1 X13.022 Y43.546 E169.51907
G1 X96.954 Y127.478 E172.60862
G1 X97.524 Y127.478 E172.62347
G1 X13.022 Y42.976 E175.73403
G1 X13.022 Y42.405 E175.74888
G1 X98.095 Y127.478 E178.88045
G1 X98.666 Y127.478 E178.89530
G1 X13.022 Y41.834 E182.04787
G1 X13.022 Y41.264 E182.06273
G1 X99.236 Y127.478 E185.23631
G1 X99.807 Y127.478 E185.25116
G1 X13.022 Y40.693 E188.44575
G1 X13.022 Y40.122 E188.46060
G1 X100.378 Y127.478 E191.67619
G1 X100.948 Y127.478 E191.69105
G1 X13.022 Y39.552 E194.92765
G1 X13.022 Y38.981 E194.94250
G1 X101.519 Y127.478 E198.20011
G1 X102.090 Y127.478 E198.21497
G1 X13.022 Y38.410 E201.49358
G1 X13.022 Y37.840 E201.50843
G1 X102.660 Y127.478 E204.80806
G1 X103.231 Y127.478 E204.82291
G1 X13.022 Y37.269 E208.14354
G1 X13.022 Y36.698 E208.15840
G1 X103.802 Y127.478 E211.50003
G1 X104.372 Y127.478 E211.51489
G1 X13.022 Y36.128 E214.87753
G1 X13.022 Y35.557 E214.89239
G1 X104.943 Y127.478 E218.27604
G1 X105.514 Y127.478 E218.29089
G1 X13.022 Y34.986 E221.69555
G1 X13.022 Y34.415 E221.71041
G1 X106.085 Y127.478 E225.13607
G1 E223.13607 F1680.000
G92 E0
G1 X63.311 Y136.636 F12000.000
G1 E2.00000 F1680.000
G1 X61.356 Y134.681 E2.07197 F1200.000
G1 X61.356 Y134.111 E2.08682
G1 X63.311 Y136.066 E2.15879
G1 X63.311 Y135.495 E2.17364
G1 X61.356 Y133.540 E2.24561
G1 X61.356 Y132.969 E2.26046
G1 X63.311 Y134.924 E2.33243
G1 X63.311 Y134.354 E2.34729
G1 X61.356 Y132.399 E2.41925
G1 X61.356 Y131.828 E2.43411
G1 X63.311 Y133.783 E2.50607
G1 X63.311 Y133.212 E2.52093
G1 X61.356 Y131.257 E2.59290
G1 X61.356 Y130.687 E2.60775
G1 X63.311 Y132.642 E2.67972
G1 X63.311 Y132.071 E2.69457
G1 X61.356 Y130.116 E2.76654
G1 X61.356 Y129.545 E2.78139
G1 X63.311 Y131.500 E2.85336
G1 X63.311 Y130.930 E2.86822
G1 X61.356 Y128.974 E2.94018
G1 X61.356 Y128.404 E2.95504
G1 X63.311 Y130.359 E3.02700
G1 X63.311 Y129.788 E3.04186
G1 X13.022 Y79.500 E4.89300
G1 X13.022 Y80.070 E4.90786
G1 X60.430 Y127.478 E6.65294
G1 X59.859 Y127.478 E6.66779
G1 X13.022 Y80.641 E8.39186
G1 X13.022 Y81.212 E8.40672
G1 X59.288 Y127.478 E10.10978
G1 X58.717 Y127.478 E10.12464
G1 X13.022 Y81.783 E11.80670
G1 X13.022 Y82.353 E11.82155
G1 X58.147 Y127.478 E13.48260
G1 X57.576 Y127.478 E13.49746
G1 X13.022 Y82.924 E15.13750
G1 X13.022 Y83.495 E15.15235
G1 X57.005 Y127.478 E16.77139
G1 X56.435 Y127.478 E16.78625
G1 X13.022 Y84.065 E18.38427
G1 X13.022 Y84.636 E18.39913
G1 X55.864 Y127.478 E19.97615
G1 X55.293 Y127.478 E19.99101
G1 X13.022 Y85.207 E21.54702
G1 X13.022 Y85.777 E21.56187
G1 X54.723 Y127.478 E23.09688
G1 X54.152 Y127.478 E23.11174
G1 X13.022 Y86.348 E24.62574
G1 X13.022 Y86.919 E24.64059
G1 X53.581 Y127.478 E26.13358
G1 X53.011 Y127.478 E26.14844
G1 X13.022 Y87.489 E27.62042
G1 X13.022 Y88.060 E27.63528
G1 X52.440 Y127.478 E29.08625
G1 X51.869 Y127.478 E29.10111
G1 X13.022 Y88.631 E30.53108
G1 X13.022 Y89.201 E30.54593
G1 X51.299 Y127.478 E31.95490
G1 X50.728 Y127.478 E31.96975
G1 X13.022 Y89.772 E33.35771
G1 X13.022 Y90.343 E33.37256
G1 X50.157 Y127.478 E34.73951
G1 X49.586 Y127.478 E34.75436
G1 X13.022 Y90.914 E36.10031
G1 X13.022 Y91.484 E36.11516
G1 X49.016 Y127.478 E37.44009
G1 X48.445 Y127.478 E37.45495
G1 X13.022 Y92.055 E38.75888
G1 X13.022 Y92.626 E38.77373
G1 X47.874 Y127.478 E40.05665
G1 X47.304 Y127.478 E40.07150
G1 X13.022 Y93.196 E41.33342
G1 X13.022 Y93.767 E41.34827
G1 X46.733 Y127.478 E42.58917
G1 X46.162 Y127.478 E42.60403
G1 X13.022 Y94.338 E43.82393
G1 X13.022 Y94.908 E43.83878
G1 X45.592 Y127.478 E45.03767
G1 X45.021 Y127.478 E45.05252
G1 X13.022 Y95.479 E46.23041
G1 X13.022 Y96.050 E46.24526
G1 X44.450 Y127.478 E47.40214
G1 X43.880 Y127.478 E47.41699
G1 X13.022 Y96.620 E48.55286
G1 X13.022 Y97.191 E48.56771
G1 X43.309 Y127.478 E49.68257
G1 X42.738 Y127.478 E49.69743
G1 X13.022 Y97.762 E50.79128
G1 X13.022 Y98.332 E50.80614
G1 X42.168 Y127.478 E51.87898
G1 X41.597 Y127.478 E51.89384
G1 X13.022 Y98.903 E52.94568
G1 X13.022 Y99.474 E52.96053
G1 X41.026 Y127.478 E53.99136
G1 X40.455 Y127.478 E54.00622
G1 X13.022 Y100.045 E55.01604
G1 X13.022 Y100.615 E55.03089
G1 X39.885 Y127.478 E56.01971
G1 X39.314 Y127.478 E56.03457
G1 X13.022 Y101.186 E57.00238
G1 X13.022 Y101.757 E57.01723
G1 X38.743 Y127.478 E57.96403
G1 X38.173 Y127.478 E57.97889
G1 X13.022 Y102.327 E58.90468
G1 X13.022 Y102.898 E58.91954
G1 X37.602 Y127.478 E59.82432
G1 X37.031 Y127.478 E59.83918
G1 X13.022 Y103.469 E60.72296
G1 X13.022 Y104.039 E60.73781
G1 X36.461 Y127.478 E61.60058
G1 X35.890 Y127.478 E61.61544
G1 X13.022 Y104.610 E62.45720
G1 X13.022 Y105.181 E62.47206
G1 X35.319 Y127.478 E63.29282
G1 X34.749 Y127.478 E63.30767
G1 X13.022 Y105.751 E64.10742
G1 X13.022 Y106.322 E64.12228
G1 X34.178 Y127.478 E64.90102
G1 X33.607 Y127.478 E64.91587
G1 X13.022 Y106.893 E65.67361
G1 X13.022 Y107.463 E65.68846
G1 X33.037 Y127.478 E66.42519
G1 X32.466 Y127.478 E66.44005
G1 X13.022 Y108.034 E67.15577
G1 X13.022 Y108.605 E67.17062
G1 X31.895 Y127.478 E67.86534
G1 X31.324 Y127.478 E67.88019
G1 X13.022 Y109.176 E68.55390
G1 X13.022 Y109.746 E68.56875
G1 X30.754 Y127.478 E69.22145
G1 X30.183 Y127.478 E69.23631
G1 X13.022 Y110.317 E69.86800
G1 X13.022 Y110.888 E69.88285
G1 X29.612 Y127.478 E70.49354
G1 X29.042 Y127.478 E70.50839
G1 X13.022 Y111.458 E71.09807
G1 X13.022 Y112.029 E71.11293
G1 X28.471 Y127.478 E71.68160
G1 X27.900 Y127.478 E71.69645
G1 X13.022 Y112.600 E72.24411
G1 X13.022 Y113.170 E72.25897
G1 X27.330 Y127.478 E72.78562
G1 X26.759 Y127.478 E72.80048
G1 X13.022 Y113.741 E73.30613
G1 X13.022 Y114.312 E73.32098
G1 X26.188 Y127.478 E73.80562
G1 X25.618 Y127.478 E73.82048
G1 X13.022 Y114.882 E74.28411
G1 X13.022 Y115.453 E74.29896
G1 X25.047 Y127.478 E74.74159
G1 X24.476 Y127.478 E74.75644
G1 X13.022 Y116.024 E75.17806
G1 X13.022 Y116.594 E75.19292
G1 X23.906 Y127.478 E75.59353
G1 X23.335 Y127.478 E75.60838
G1 X13.022 Y117.165 E75.98799
G1 X13.022 Y117.736 E76.00284
G1 X22.764 Y127.478 E76.36144
G1 X22.193 Y127.478 E76.37629
G1 X13.022 Y118.307 E76.71388
G1 X13.022 Y118.877 E76.72874
G1 X21.623 Y127.478 E77.04532
G1 X21.052 Y127.478 E77.06017
G1 X13.022 Y119.448 E77.35575
G1 X13.022 Y120.019 E77.37060
G1 X20.481 Y127.478 E77.64517
G1 X19.911 Y127.478 E77.66003
G1 X13.022 Y120.589 E77.91359
G1 X13.022 Y121.160 E77.92844
G1 X19.340 Y127.478 E78.16099
G1 X18.769 Y127.478 E78.17585
G1 X13.022 Y121.731 E78.38739
G1 X13.022 Y122.301 E78.40225
G1 X18.199 Y127.478 E78.59279
G1 X17.628 Y127.478 E78.60764
G1 X13.022 Y122.872 E78.77717
G1 X13.022 Y123.443 E78.79203
G1 X17.057 Y127.478 E78.94055
G1 X16.487 Y127.478 E78.95540
G1 X13.022 Y124.013 E79.08292
G1 X13.022 Y124.584 E79.09778
G1 X15.916 Y127.478 E79.20428
G1 X15.345 Y127.478 E79.21914
G1 X13.022 Y125.155 E79.30464
G1 X13.022 Y125.725 E79.31949
G1 X14.775 Y127.478 E79.38399
G1 X14.204 Y127.478 E79.39884
G1 X13.022 Y126.296 E79.44233
G1 X13.022 Y126.867 E79.45718
G1 X13.633 Y127.478 E79.47966
G1 X13.062 Y127.478 E79.49452
G1 X13.022 Y127.438 E79.49599
G1 E77.49599 F1680.000
G92 E0
G1 X61.586 Y139.478 F12000.000
G1 E2.00000 F1680.000
G1 X61.356 Y139.247 E2.00849 F1200.000
G1 X61.356 Y138.676 E2.02335
G1 X62.157 Y139.478 E2.05285
G1 X62.728 Y139.478 E2.06770
G1 X61.356 Y138.105 E2.11821
G1 X61.356 Y137.535 E2.13306
G1 X63.299 Y139.478 E2.20458
G1 X63.869 Y139.478 E2.21943
G1 X61.356 Y136.964 E2.31195
G1 X61.356 Y136.393 E2.32681
G1 X64.440 Y139.478 E2.44034
G1 X65.011 Y139.478 E2.45519
G1 X61.356 Y135.823 E2.58973
G1 X61.356 Y135.252 E2.60458
G1 X65.581 Y139.478 E2.76013
G1 X66.152 Y139.478 E2.77498
G1 X64.197 Y137.522 E2.84695
G1 X64.768 Y137.522 E2.86180
G1 X66.723 Y139.478 E2.93377
G1 X67.293 Y139.478 E2.94862
G1 X65.338 Y137.522 E3.02059
G1 X65.909 Y137.522 E3.03544
G1 X67.864 Y139.478 E3.10741
G1 X68.435 Y139.478 E3.12227
G1 X66.480 Y137.522 E3.19423
G1 X67.050 Y137.522 E3.20909
G1 X69.005 Y139.478 E3.28105
G1 X69.576 Y139.478 E3.29591
G1 X67.621 Y137.522 E3.36788
G1 X68.192 Y137.522 E3.38273
G1 X70.147 Y139.478 E3.45470
G1 X70.717 Y139.478 E3.46955
G1 X68.762 Y137.522 E3.54152
G1 X69.333 Y137.522 E3.55637
G1 X71.288 Y139.478 E3.62834
G1 X71.859 Y139.478 E3.64319
G1 X69.904 Y137.522 E3.71516
G1 X70.474 Y137.522 E3.73002
G1 X72.430 Y139.478 E3.80198
G1 X73.000 Y139.478 E3.81684
G1 X71.045 Y137.522 E3.88880
G1 X71.616 Y137.522 E3.90366
G1 X73.571 Y139.478 E3.97563
G1 X74.142 Y139.478 E3.99048
G1 X72.187 Y137.522 E4.06245
G1 X72.757 Y137.522 E4.07730
G1 X74.712 Y139.478 E4.14927
G1 X75.283 Y139.478 E4.16412
G1 X73.328 Y137.522 E4.23609
G1 X73.899 Y137.522 E4.25095
G1 X75.854 Y139.478 E4.32291
G1 X76.424 Y139.478 E4.33777
G1 X74.469 Y137.522 E4.40973
G1 X75.040 Y137.522 E4.42459
G1 X76.995 Y139.478 E4.49656
G1 X77.566 Y139.478 E4.51141
G1 X75.611 Y137.522 E4.58338
G1 X76.181 Y137.522 E4.59823
G1 X78.136 Y139.478 E4.67020
G1 X78.707 Y139.478 E4.68505
G1 X76.752 Y137.522 E4.75702
G1 X77.323 Y137.522 E4.77187
G1 X79.278 Y139.478 E4.84384
G1 X79.848 Y139.478 E4.85870
G1 X77.893 Y137.522 E4.93066
G1 X78.464 Y137.522 E4.94552
G1 X80.419 Y139.478 E5.01748
G1 X80.990 Y139.478 E5.03234
G1 X79.035 Y137.522 E5.10431
G1 X79.605 Y137.522 E5.11916
G1 X81.561 Y139.478 E5.19113
G1 X82.131 Y139.478 E5.20598
G1 X80.176 Y137.522 E5.27795
G1 X80.747 Y137.522 E5.29280
G1 X82.702 Y139.478 E5.36477
G1 X83.273 Y139.478 E5.37963
G1 X81.318 Y137.522 E5.45159
G1 X81.888 Y137.522 E5.46645
G1 X83.843 Y139.478 E5.53841
G1 X84.414 Y139.478 E5.55327
G1 X82.459 Y137.522 E5.62524
G1 X83.030 Y137.522 E5.64009
G1 X84.985 Y139.478 E5.71206
G1 X85.555 Y139.478 E5.72691
G1 X83.600 Y137.522 E5.79888
G1 X84.171 Y137.522 E5.81373
G1 X86.126 Y139.478 E5.88570
G1 X86.697 Y139.478 E5.90055
G1 X84.742 Y137.522 E5.97252
G1 X85.312 Y137.522 E5.98738
G1 X87.267 Y139.478 E6.05934
G1 X87.838 Y139.478 E6.07420
G1 X85.883 Y137.522 E6.14617
G1 X86.454 Y137.522 E6.16102
G1 X88.409 Y139.478 E6.23299
G1 X88.979 Y139.478 E6.24784
G1 X87.024 Y137.522 E6.31981
G1 X87.595 Y137.522 E6.33466
G1 X89.550 Y139.478 E6.40663
G1 X90.121 Y139.478 E6.42148
G1 X88.166 Y137.522 E6.49345
