; generated by Slic3r 1.2.1 on 2015-01-27 at 16:21:10

; external perimeters extrusion width = 0.50mm
; perimeters extrusion width = 0.50mm
; infill extrusion width = 0.50mm
; solid infill extrusion width = 0.50mm
; top infill extrusion width = 0.50mm

M104 S190 ; set temperature
G28 ; home all axes
G1 Z15 F120 ; lift nozzle
M109 S190 ; wait for temperature to be reached
G21 ; set units to millimeters
G90 ; use absolute coordinates
M82 ; use absolute distances for extrusion
G92 E0
M106 S102
G1 E-2.00000 F1680.000
G92 E0
G1 Z0.350 F12000.000
G1 X9.348 Y24.388 F12000.000
G1 E2.00000 F1680.000
G1 X12.500 Y23.564 E2.09172 F1200.000
G1 X157.500 Y23.564 E6.17374
G1 X159.725 Y23.961 E6.23738
G1 X161.676 Y25.102 E6.30101 F1200.000
G1 X163.112 Y26.848 E6.36464
G1 X163.936 Y30.000 E6.45636
G1 X163.936 Y128.000 E9.21524
G1 X163.539 Y130.225 E9.27888
G1 X162.398 Y132.176 E9.34251
G1 X160.652 Y133.612 E9.40614
G1 X159.051 Y134.247 E9.45463
G1 X110.718 Y146.247 E10.85661
G1 X109.167 Y146.436 E10.90060
G1 X60.833 Y146.436 E12.26127
G1 X59.282 Y146.247 E12.30526
G1 X10.949 Y134.247 E13.70724
G1 X8.885 Y133.325 E13.77088
G1 X7.267 Y131.747 E13.83451
G1 X6.294 Y129.707 E13.89814
G1 X6.064 Y128.000 E13.94663
G1 X6.064 Y30.000 E16.70551
G1 X6.461 Y27.775 E16.76915
G1 X7.602 Y25.824 E16.83278
G1 X9.290 Y24.436 E16.89430
G1 E14.89430 F1680.000
G92 E0
G1 X63.583 Y127.750 F12000.000
G1 E2.00000 F1680.000
G1 X106.417 Y127.750 E3.11491 F720.000
G1 X106.417 Y137.250 E3.36219
G1 X63.583 Y137.250 E4.47710 F720.000
G1 X63.583 Y127.825 E4.72242
G1 X157.250 Y112.435 F12000.000
G1 X157.250 Y127.750 E5.12105 F720.000
G1 X108.917 Y127.750 E6.37912 F720.000
G1 X108.917 Y139.750 E6.69146
G1 X61.083 Y139.750 E7.93652
G1 X61.083 Y127.750 E8.24887
G1 X12.750 Y127.750 E9.50693
G1 X12.750 Y30.250 E12.04476
G1 X157.250 Y30.250 E15.80595
G1 X157.250 Y112.360 E17.94320
G1 X106.085 Y127.478 F12000.000
G1 X13.022 Y34.415 E21.36886 F1200.000
G1 X13.022 Y34.986 E21.38372
G1 X105.514 Y127.478 E24.78838
G1 X104.943 Y127.478 E24.80323
G1 X13.022 Y35.557 E28.18688
G1 X13.022 Y36.128 E28.20174
G1 X104.372 Y127.478 E31.56438
G1 X103.802 Y127.478 E31.57924
G1 X13.022 Y36.698 E34.92087
G1 X13.022 Y37.269 E34.93573
G1 X103.231 Y127.478 E38.25636
G1 X102.660 Y127.478 E38.27121
G1 X13.022 Y37.840 E41.57084
G1 X13.022 Y38.410 E41.58569
G1 X102.090 Y127.478 E44.86431
G1 X101.519 Y127.478 E44.87916
G1 X13.022 Y38.981 E48.13677
G1 X13.022 Y39.552 E48.15162
G1 X100.948 Y127.478 E51.38822
G1 X100.378 Y127.478 E51.40308
G1 X13.022 Y40.122 E54.61867
G1 X13.022 Y40.693 E54.63352
G1 X99.807 Y127.478 E57.82811
G1 X99.236 Y127.478 E57.84297
G1 X13.022 Y41.264 E61.01654
G1 X13.022 Y41.834 E61.03140
G1 X98.666 Y127.478 E64.18397
G1 X98.095 Y127.478 E64.19882
G1 X13.022 Y42.405 E67.33039
G1 X13.022 Y42.976 E67.34524
G1 X97.524 Y127.478 E70.45580
G1 X96.954 Y127.478 E70.47065
G1 X13.022 Y43.546 E73.56020
G1 X13.022 Y44.117 E73.57506
G1 X96.383 Y127.478 E76.64360
G1 X95.812 Y127.478 E76.65845
G1 X13.022 Y44.688 E79.70599
G1 X13.022 Y45.259 E79.72084
G1 X95.241 Y127.478 E82.74737
G1 X94.671 Y127.478 E82.76222
G1 X13.022 Y45.829 E85.76774
G1 X13.022 Y46.400 E85.78260
G1 X94.100 Y127.478 E88.76711
G1 X93.529 Y127.478 E88.78197
G1 X13.022 Y46.971 E91.74547
G1 X13.022 Y47.541 E91.76033
G1 X92.959 Y127.478 E94.70282
G1 X92.388 Y127.478 E94.71768
G1 X13.022 Y48.112 E97.63917
G1 X13.022 Y48.683 E97.65402
G1 X91.817 Y127.478 E100.55451
G1 X91.247 Y127.478 E100.56936
G1 X13.022 Y49.253 E103.44884
G1 X13.022 Y49.824 E103.46369
G1 X90.676 Y127.478 E106.32216
G1 X90.105 Y127.478 E106.33701
G1 X13.022 Y50.395 E109.17448
G1 X13.022 Y50.965 E109.18933
G1 X89.535 Y127.478 E112.00578
G1 X88.964 Y127.478 E112.02064
G1 X13.022 Y51.536 E114.81609
G1 X13.022 Y52.107 E114.83094
G1 X88.393 Y127.478 E117.60538
G1 X87.823 Y127.478 E117.62023
G1 X13.022 Y52.677 E120.37367
G1 X13.022 Y53.248 E120.38852
G1 X87.252 Y127.478 E123.12095
G1 X86.681 Y127.478 E123.13580
G1 X13.022 Y53.819 E125.84722
G1 X13.022 Y54.390 E125.86207
G1 X86.110 Y127.478 E128.55248
G1 X85.540 Y127.478 E128.56734
G1 X13.022 Y54.960 E131.23674
G1 X13.022 Y55.531 E131.25159
G1 X84.969 Y127.478 E133.89999
G1 X84.398 Y127.478 E133.91484
G1 X13.022 Y56.102 E136.54223
G1 X13.022 Y56.672 E136.55709
G1 X83.828 Y127.478 E139.16347
G1 X83.257 Y127.478 E139.17832
G1 X13.022 Y57.243 E141.76369
G1 X13.022 Y57.814 E141.77855
G1 X82.686 Y127.478 E144.34291
G1 X82.116 Y127.478 E144.35777
G1 X13.022 Y58.384 E146.90113
G1 X13.022 Y58.955 E146.91598
G1 X81.545 Y127.478 E149.43833
G1 X80.974 Y127.478 E149.45319
G1 X13.022 Y59.526 E151.95453
G1 X13.022 Y60.096 E151.96939
G1 X80.404 Y127.478 E154.44972
G1 X79.833 Y127.478 E154.46458
G1 X13.022 Y60.667 E156.92391
G1 X13.022 Y61.238 E156.93876
G1 X79.262 Y127.478 E159.37708
G1 X78.692 Y127.478 E159.39194
G1 X13.022 Y61.808 E161.80925
G1 X13.022 Y62.379 E161.82411
G1 X78.121 Y127.478 E164.22042
G1 X77.550 Y127.478 E164.23527
G1 X13.022 Y62.950 E166.61057
G1 X13.022 Y63.521 E166.62542
G1 X76.979 Y127.478 E168.97972
G1 X76.409 Y127.478 E168.99457
G1 X13.022 Y64.091 E171.32786
G1 X13.022 Y64.662 E171.34271
G1 X75.838 Y127.478 E173.65499
G1 X75.267 Y127.478 E173.66984
G1 X13.022 Y65.233 E175.96112
G1 X13.022 Y65.803 E175.97597
G1 X74.697 Y127.478 E178.24623
G1 X74.126 Y127.478 E178.26109
G1 X13.022 Y66.374 E180.51034
G1 X13.022 Y66.945 E180.52520
G1 X73.555 Y127.478 E182.75345
G1 X72.985 Y127.478 E182.76830
G1 X13.022 Y67.515 E184.97554
G1 X13.022 Y68.086 E184.99040
G1 X72.414 Y127.478 E187.17663
G1 X71.843 Y127.478 E187.19149
G1 X13.022 Y68.657 E189.35671
G1 X13.022 Y69.227 E189.37157
G1 X71.273 Y127.478 E191.51579
G1 X70.702 Y127.478 E191.53064
G1 X13.022 Y69.798 E193.65386
G1 X13.022 Y70.369 E193.66871
G1 X70.131 Y127.478 E195.77091
G1 X69.561 Y127.478 E195.78577
G1 X13.022 Y70.939 E197.86697
G1 X13.022 Y71.510 E197.88182
G1 X68.990 Y127.478 E199.94201
G1 X68.419 Y127.478 E199.95687
G1 X13.022 Y72.081 E201.99605
G1 X13.022 Y72.652 E202.01090
G1 X67.848 Y127.478 E204.02908
G1 X67.278 Y127.478 E204.04393
G1 X13.022 Y73.222 E206.04110
G1 X13.022 Y73.793 E206.05596
G1 X66.707 Y127.478 E208.03212
G1 X66.136 Y127.478 E208.04697
G1 X13.022 Y74.364 E210.00213
G1 X13.022 Y74.934 E210.01698
G1 X65.566 Y127.478 E211.95113
G1 X64.995 Y127.478 E211.96598
G1 X13.022 Y75.505 E213.87912
G1 X13.022 Y76.076 E213.89397
G1 X64.424 Y127.478 E215.78611
G1 X63.854 Y127.478 E215.80096
G1 X13.022 Y76.646 E217.67208
G1 X13.022 Y77.217 E217.68694
G1 X63.311 Y127.505 E219.53808
G1 X63.311 Y128.076 E219.55294
G1 X13.022 Y77.788 E221.40408
G1 X13.022 Y78.358 E221.41893
G1 X63.311 Y128.647 E223.27008
G1 X63.311 Y129.217 E223.28493
G1 X13.022 Y78.929 E225.13607
G1 X13.022 Y127.438 F12000.000
G1 X13.062 Y127.478 E225.13755 F1200.000
G1 X13.633 Y127.478 E225.15240
G1 X13.022 Y126.867 E225.17488
G1 X13.022 Y126.296 E225.18973
G1 X14.204 Y127.478 E225.23322
G1 X14.775 Y127.478 E225.24808
G1 X13.022 Y125.725 E225.31257
G1 X13.022 Y125.155 E225.32742
G1 X15.345 Y127.478 E225.41293
G1 X15.916 Y127.478 E225.42778
G1 X13.022 Y124.584 E225.53429
G1 X13.022 Y124.013 E225.54914
G1 X16.487 Y127.478 E225.67666
G1 X17.057 Y127.478 E225.69151
G1 X13.022 Y123.443 E225.84004
G1 X13.022 Y122.872 E225.85489
G1 X17.628 Y127.478 E226.02442
G1 X18.199 Y127.478 E226.03928
G1 X13.022 Y122.301 E226.22982
G1 X13.022 Y121.731 E226.24467
G1 X18.769 Y127.478 E226.45622
G1 X19.340 Y127.478 E226.47107
G1 X13.022 Y121.160 E226.70362
G1 X13.022 Y120.589 E226.71848
G1 X19.911 Y127.478 E226.97204
G1 X20.481 Y127.478 E226.98689
G1 X13.022 Y120.019 E227.26146
G1 X13.022 Y119.448 E227.27632
G1 X21.052 Y127.478 E227.57189
G1 X21.623 Y127.478 E227.58674
G1 X13.022 Y118.877 E227.90333
G1 X13.022 Y118.307 E227.91818
G1 X22.193 Y127.478 E228.25577
G1 X22.764 Y127.478 E228.27063
G1 X13.022 Y117.736 E228.62922
G1 X13.022 Y117.165 E228.64408
G1 X23.335 Y127.478 E229.02368
G1 X23.906 Y127.478 E229.03854
G1 X13.022 Y116.594 E229.43915
G1 X13.022 Y116.024 E229.45400
G1 X24.476 Y127.478 E229.87562
G1 X25.047 Y127.478 E229.89048
G1 X13.022 Y115.453 E230.33310
G1 X13.022 Y114.882 E230.34796
G1 X25.618 Y127.478 E230.81159
G1 X26.188 Y127.478 E230.82644
G1 X13.022 Y114.312 E231.31108
G1 X13.022 Y113.741 E231.32594
G1 X26.759 Y127.478 E231.83159
G1 X27.330 Y127.478 E231.84644
G1 X13.022 Y113.170 E232.37310
G1 X13.022 Y112.600 E232.38795
G1 X27.900 Y127.478 E232.93561
G1 X28.471 Y127.478 E232.95047
G1 X13.022 Y112.029 E233.51914
G1 X13.022 Y111.458 E233.53399
G1 X29.042 Y127.478 E234.12367
G1 X29.612 Y127.478 E234.13853
G1 X13.022 Y110.888 E234.74921
G1 X13.022 Y110.317 E234.76406
G1 X30.183 Y127.478 E235.39576
G1 X30.754 Y127.478 E235.41061
G1 X13.022 Y109.746 E236.06331
G1 X13.022 Y109.176 E236.07817
G1 X31.324 Y127.478 E236.75187
G1 X31.895 Y127.478 E236.76673
G1 X13.022 Y108.605 E237.46144
G1 X13.022 Y108.034 E237.47630
G1 X32.466 Y127.478 E238.19202
G1 X33.037 Y127.478 E238.20687
G1 X13.022 Y107.463 E238.94360
G1 X13.022 Y106.893 E238.95845
G1 X33.607 Y127.478 E239.71619
G1 X34.178 Y127.478 E239.73105
G1 X13.022 Y106.322 E240.50979
G1 X13.022 Y105.751 E240.52464
G1 X34.749 Y127.478 E241.32439
G1 X35.319 Y127.478 E241.33925
G1 X13.022 Y105.181 E242.16001
G1 X13.022 Y104.610 E242.17486
G1 X35.890 Y127.478 E243.01663
G1 X36.461 Y127.478 E243.03148
G1 X13.022 Y104.039 E243.89425
G1 X13.022 Y103.469 E243.90911
G1 X37.031 Y127.478 E244.79289
G1 X37.602 Y127.478 E244.80774
G1 X13.022 Y102.898 E245.71253
G1 X13.022 Y102.327 E245.72738
G1 X38.173 Y127.478 E246.65318
G1 X38.743 Y127.478 E246.66803
G1 X13.022 Y101.757 E247.61484
G1 X13.022 Y101.186 E247.62969
G1 X39.314 Y127.478 E248.59750
G1 X39.885 Y127.478 E248.61235
G1 X13.022 Y100.615 E249.60117
G1 X13.022 Y100.045 E249.61602
G1 X40.455 Y127.478 E250.62585
G1 X41.026 Y127.478 E250.64070
G1 X13.022 Y99.474 E251.67153
G1 X13.022 Y98.903 E251.68639
G1 X41.597 Y127.478 E252.73823
G1 X42.168 Y127.478 E252.75308
G1 X13.022 Y98.332 E253.82593
G1 X13.022 Y97.762 E253.84078
G1 X42.738 Y127.478 E254.93464
G1 X43.309 Y127.478 E254.94949
G1 X13.022 Y97.191 E256.06435
G1 X13.022 Y96.620 E256.07921
G1 X43.880 Y127.478 E257.21507
G1 X44.450 Y127.478 E257.22993
G1 X13.022 Y96.050 E258.38680
G1 X13.022 Y95.479 E258.40166
G1 X45.021 Y127.478 E259.57954
G1 X45.592 Y127.478 E259.59439
G1 X13.022 Y94.908 E260.79328
G1 X13.022 Y94.338 E260.80814
G1 X46.162 Y127.478 E262.02804
G1 X46.733 Y127.478 E262.04289
G1 X13.022 Y93.767 E263.28380
G1 X13.022 Y93.196 E263.29865
G1 X47.304 Y127.478 E264.56056
G1 X47.874 Y127.478 E264.57542
G1 X13.022 Y92.626 E265.85834
G1 X13.022 Y92.055 E265.87319
G1 X48.445 Y127.478 E267.17712
G1 X49.016 Y127.478 E267.19197
G1 X13.022 Y91.484 E268.51690
G1 X13.022 Y90.914 E268.53176
G1 X49.586 Y127.478 E269.87770
G1 X50.157 Y127.478 E269.89255
G1 X13.022 Y90.343 E271.25950
G1 X13.022 Y89.772 E271.27436
G1 X50.728 Y127.478 E272.66231
G1 X51.299 Y127.478 E272.67717
G1 X13.022 Y89.201 E274.08613
G1 X13.022 Y88.631 E274.10099
G1 X51.869 Y127.478 E275.53096
G1 X52.440 Y127.478 E275.54581
G1 X13.022 Y88.060 E276.99679
G1 X13.022 Y87.489 E277.01164
G1 X53.011 Y127.478 E278.48363
G1 X53.581 Y127.478 E278.49848
G1 X13.022 Y86.919 E279.99147
G1 X13.022 Y86.348 E280.00633
G1 X54.152 Y127.478 E281.52033
G1 X54.723 Y127.478 E281.53518
G1 X13.022 Y85.777 E283.07019
G1 X13.022 Y85.207 E283.08505
G1 X55.293 Y127.478 E284.64106
G1 X55.864 Y127.478 E284.65591
G1 X13.022 Y84.636 E286.23294
G1 X13.022 Y84.065 E286.24779
G1 X56.435 Y127.478 E287.84582
G1 X57.005 Y127.478 E287.86067
G1 X13.022 Y83.495 E289.47971
G1 X13.022 Y82.924 E289.49456
G1 X57.576 Y127.478 E291.13461
G1 X58.147 Y127.478 E291.14946
G1 X13.022 Y82.353 E292.81051
G1 X13.022 Y81.783 E292.82537
G1 X58.717 Y127.478 E294.50743
G1 X59.288 Y127.478 E294.52228
G1 X13.022 Y81.212 E296.22535
G1 X13.022 Y80.641 E296.24020
G1 X59.859 Y127.478 E297.96427
G1 X60.430 Y127.478 E297.97913
G1 X13.022 Y80.070 E299.72421
G1 X13.022 Y79.500 E299.73906
G1 X63.311 Y129.788 E301.59021
G1 X63.311 Y130.359 E301.60506
G1 X61.356 Y128.404 E301.67703
G1 X61.356 Y128.974 E301.69188
G1 X63.311 Y130.930 E301.76385
G1 X63.311 Y131.500 E301.77870
G1 X61.356 Y129.545 E301.85067
G1 X61.356 Y130.116 E301.86553
G1 X63.311 Y132.071 E301.93749
G1 X63.311 Y132.642 E301.95235
G1 X61.356 Y130.687 E302.02431
G1 X61.356 Y131.257 E302.03917
G1 X63.311 Y133.212 E302.11114
G1 X63.311 Y133.783 E302.12599
G1 X61.356 Y131.828 E302.19796
G1 X61.356 Y132.399 E302.21281
G1 X63.311 Y134.354 E302.28478
G1 X63.311 Y134.924 E302.29963
G1 X61.356 Y132.969 E302.37160
G1 X61.356 Y133.540 E302.38645
G1 X63.311 Y135.495 E302.45842
G1 X63.311 Y136.066 E302.47328
G1 X61.356 Y134.111 E302.54524
G1 X61.356 Y134.681 E302.56010
G1 X63.311 Y136.636 E302.63206
G1 X61.586 Y139.478 F12000.000
G1 X61.356 Y139.247 E302.64056 F1200.000
G1 X61.356 Y138.676 E302.65541
G1 X62.157 Y139.478 E302.68491
G1 X62.728 Y139.478 E302.69977
G1 X61.356 Y138.105 E302.75027
G1 X61.356 Y137.535 E302.76513
G1 X63.299 Y139.478 E302.83664
G1 X63.869 Y139.478 E302.85150
G1 X61.356 Y136.964 E302.94402
G1 X61.356 Y136.393 E302.95887
G1 X64.440 Y139.478 E303.07240
G1 X65.011 Y139.478 E303.08726
G1 X61.356 Y135.823 E303.22179
G1 X61.356 Y135.252 E303.23665
G1 X65.581 Y139.478 E303.39219
G1 X66.152 Y139.478 E303.40704
G1 X64.197 Y137.522 E303.47901
G1 X64.768 Y137.522 E303.49387
G1 X66.723 Y139.478 E303.56583
G1 X67.293 Y139.478 E303.58069
G1 X65.338 Y137.522 E303.65265
G1 X65.909 Y137.522 E303.66751
G1 X67.864 Y139.478 E303.73948
G1 X68.435 Y139.478 E303.75433
G1 X66.480 Y137.522 E303.82630
G1 X67.050 Y137.522 E303.84115
G1 X69.005 Y139.478 E303.91312
G1 X69.576 Y139.478 E303.92797
G1 X67.621 Y137.522 E303.99994
G1 X68.192 Y137.522 E304.01479
G1 X70.147 Y139.478 E304.08676
G1 X70.717 Y139.478 E304.10162
G1 X68.762 Y137.522 E304.17358
G1 X69.333 Y137.522 E304.18844
G1 X71.288 Y139.478 E304.26041
G1 X71.859 Y139.478 E304.27526
G1 X69.904 Y137.522 E304.34723
G1 X70.474 Y137.522 E304.36208
G1 X72.430 Y139.478 E304.43405
G1 X73.000 Y139.478 E304.44890
G1 X71.045 Y137.522 E304.52087
G1 X71.616 Y137.522 E304.53572
G1 X73.571 Y139.478 E304.60769
G1 X74.142 Y139.478 E304.62255
G1 X72.187 Y137.522 E304.69451
G1 X72.757 Y137.522 E304.70937
G1 X74.712 Y139.478 E304.78133
G1 X75.283 Y139.478 E304.79619
G1 X73.328 Y137.522 E304.86816
G1 X73.899 Y137.522 E304.88301
G1 X75.854 Y139.478 E304.95498
G1 X76.424 Y139.478 E304.96983
G1 X74.469 Y137.522 E305.04180
G1 X75.040 Y137.522 E305.05665
G1 X76.995 Y139.478 E305.12862
G1 X77.566 Y139.478 E305.14347
G1 X75.611 Y137.522 E305.21544
G1 X76.181 Y137.522 E305.23030
G1 X78.136 Y139.478 E305.30226
G1 X78.707 Y139.478 E305.31712
G1 X76.752 Y137.522 E305.38908
G1 X77.323 Y137.522 E305.40394
G1 X79.278 Y139.478 E305.47591
G1 X79.848 Y139.478 E305.49076
G1 X77.893 Y137.522 E305.56273
G1 X78.464 Y137.522 E305.57758
G1 X80.419 Y139.478 E305.64955
G1 X80.990 Y139.478 E305.66440
G1 X79.035 Y137.522 E305.73637
G1 X79.605 Y137.522 E305.75123
G1 X81.561 Y139.478 E305.82319
G1 X82.131 Y139.478 E305.83805
G1 X80.176 Y137.522 E305.91001
G1 X80.747 Y137.522 E305.92487
G1 X82.702 Y139.478 E305.99684
G1 X83.273 Y139.478 E306.01169
G1 X81.318 Y137.522 E306.08366
G1 X81.888 Y137.522 E306.09851
G1 X83.843 Y139.478 E306.17048
G1 X84.414 Y139.478 E306.18533
G1 X82.459 Y137.522 E306.25730
G1 X83.030 Y137.522 E306.27215
G1 X84.985 Y139.478 E306.34412
G1 X85.555 Y139.478 E306.35898
G1 X83.600 Y137.522 E306.43094
G1 X84.171 Y137.522 E306.44580
G1 X86.126 Y139.478 E306.51777
G1 X86.697 Y139.478 E306.53262
G1 X84.742 Y137.522 E306.60459
G1 X85.312 Y137.522 E306.61944
