; generated by Slic3r 1.2.1 on 2015-01-24 at 17:38:31

; external perimeters extrusion width = 0.50mm
; perimeters extrusion width = 0.50mm
; infill extrusion width = 0.50mm
; solid infill extrusion width = 0.50mm
; top infill extrusion width = 0.50mm

M104 S190 ; set temperature
G28 ; home all axes
G1 Z15 F120 ; lift nozzle
M109 S190 ; wait for temperature to be reached
G21 ; set units to millimeters
G90 ; use absolute coordinates
M82 ; use absolute distances for extrusion
G92 E0
M106 S102
G1 E-2.00000 F1680.000
G92 E0
G1 Z0.350 F12000.000
G1 X9.348 Y24.388 F12000.000
G1 E2.00000 F1680.000
G1 X12.500 Y23.564 E2.09172 F1200.000
G1 X157.500 Y23.564 E6.17374
G1 X159.725 Y23.961 E6.23738
G1 X161.676 Y25.102 E6.30101 F1200.000
G1 X163.112 Y26.848 E6.36464
G1 X163.936 Y30.000 E6.45636
G1 X163.936 Y128.000 E9.21524
G1 X163.539 Y130.225 E9.27888
G1 X162.398 Y132.176 E9.34251
G1 X160.652 Y133.612 E9.40614
G1 X159.051 Y134.247 E9.45463
G1 X110.718 Y146.247 E10.85661
G1 X109.167 Y146.436 E10.90060
G1 X60.833 Y146.436 E12.26127
G1 X59.282 Y146.247 E12.30526
G1 X10.949 Y134.247 E13.70724
G1 X8.885 Y133.325 E13.77088
G1 X7.267 Y131.747 E13.83451
G1 X6.294 Y129.707 E13.89814
G1 X6.064 Y128.000 E13.94663
G1 X6.064 Y30.000 E16.70551
G1 X6.461 Y27.775 E16.76915
G1 X7.602 Y25.824 E16.83278
G1 X9.290 Y24.436 E16.89430
G1 E14.89430 F1680.000
G92 E0
G1 X63.583 Y127.750 F12000.000
G1 E2.00000 F1680.000
G1 X106.417 Y127.750 E3.11491 F720.000
G1 X106.417 Y137.250 E3.36219
G1 X63.583 Y137.250 E4.47710 F720.000
G1 X63.583 Y127.825 E4.72242
G1 X157.250 Y59.605 F12000.000
G1 X157.250 Y127.750 E6.49617 F720.000
G1 X108.917 Y127.750 E7.75423 F720.000
G1 X108.917 Y139.750 E8.06658
G1 X61.083 Y139.750 E9.31164
G1 X61.083 Y127.750 E9.62399
G1 X12.750 Y127.750 E10.88205
G1 X12.750 Y30.250 E13.41988
G1 X157.250 Y30.250 E17.18107
G1 X157.250 Y59.530 E17.94320
G1 X156.938 Y30.522 F12000.000
G1 X156.978 Y30.562 E17.94467 F1200.000
G1 X156.978 Y31.133 E17.95952
G1 X156.367 Y30.522 E17.98200
G1 X155.796 Y30.522 E17.99686
G1 X156.978 Y31.704 E18.04035
G1 X156.978 Y32.275 E18.05520
G1 X155.225 Y30.522 E18.11969
G1 X154.655 Y30.522 E18.13455
G1 X156.978 Y32.845 E18.22005
G1 X156.978 Y33.416 E18.23490
G1 X154.084 Y30.522 E18.34141
G1 X153.513 Y30.522 E18.35627
G1 X156.978 Y33.987 E18.48378
G1 X156.978 Y34.557 E18.49864
G1 X152.943 Y30.522 E18.64716
G1 X152.372 Y30.522 E18.66202
G1 X156.978 Y35.128 E18.83155
G1 X156.978 Y35.699 E18.84640
G1 X151.801 Y30.522 E19.03694
G1 X151.231 Y30.522 E19.05180
G1 X156.978 Y36.269 E19.26334
G1 X156.978 Y36.840 E19.27820
G1 X150.660 Y30.522 E19.51075
G1 X150.089 Y30.522 E19.52560
G1 X156.978 Y37.411 E19.77916
G1 X156.978 Y37.981 E19.79402
G1 X149.519 Y30.522 E20.06859
G1 X148.948 Y30.522 E20.08344
G1 X156.978 Y38.552 E20.37901
G1 X156.978 Y39.123 E20.39387
G1 X148.377 Y30.522 E20.71045
G1 X147.807 Y30.522 E20.72531
G1 X156.978 Y39.693 E21.06290
G1 X156.978 Y40.264 E21.07775
G1 X147.236 Y30.522 E21.43635
G1 X146.665 Y30.522 E21.45120
G1 X156.978 Y40.835 E21.83081
G1 X156.978 Y41.406 E21.84566
G1 X146.094 Y30.522 E22.24627
G1 X145.524 Y30.522 E22.26113
G1 X156.978 Y41.976 E22.68275
G1 X156.978 Y42.547 E22.69760
G1 X144.953 Y30.522 E23.14023
G1 X144.382 Y30.522 E23.15508
G1 X156.978 Y43.118 E23.61871
G1 X156.978 Y43.688 E23.63357
G1 X143.812 Y30.522 E24.11821
G1 X143.241 Y30.522 E24.13306
G1 X156.978 Y44.259 E24.63871
G1 X156.978 Y44.830 E24.65357
G1 X142.670 Y30.522 E25.18022
G1 X142.100 Y30.522 E25.19508
G1 X156.978 Y45.400 E25.74274
G1 X156.978 Y45.971 E25.75759
G1 X141.529 Y30.522 E26.32626
G1 X140.958 Y30.522 E26.34112
G1 X156.978 Y46.542 E26.93080
G1 X156.978 Y47.112 E26.94565
G1 X140.388 Y30.522 E27.55634
G1 X139.817 Y30.522 E27.57119
G1 X156.978 Y47.683 E28.20288
G1 X156.978 Y48.254 E28.21774
G1 X139.246 Y30.522 E28.87044
G1 X138.676 Y30.522 E28.88529
G1 X156.978 Y48.824 E29.55900
G1 X156.978 Y49.395 E29.57385
G1 X138.105 Y30.522 E30.26857
G1 X137.534 Y30.522 E30.28342
G1 X156.978 Y49.966 E30.99914
G1 X156.978 Y50.537 E31.01400
G1 X136.963 Y30.522 E31.75073
G1 X136.393 Y30.522 E31.76558
G1 X156.978 Y51.107 E32.52332
G1 X156.978 Y51.678 E32.53817
G1 X135.822 Y30.522 E33.31691
G1 X135.251 Y30.522 E33.33177
G1 X156.978 Y52.249 E34.13152
G1 X156.978 Y52.819 E34.14637
G1 X134.681 Y30.522 E34.96713
G1 X134.110 Y30.522 E34.98199
G1 X156.978 Y53.390 E35.82375
G1 X156.978 Y53.961 E35.83861
G1 X133.539 Y30.522 E36.70138
G1 X132.969 Y30.522 E36.71623
G1 X156.978 Y54.531 E37.60001
G1 X156.978 Y55.102 E37.61487
G1 X132.398 Y30.522 E38.51966
G1 X131.827 Y30.522 E38.53451
G1 X156.978 Y55.673 E39.46030
G1 X156.978 Y56.243 E39.47516
G1 X131.257 Y30.522 E40.42196
G1 X130.686 Y30.522 E40.43682
G1 X156.978 Y56.814 E41.40463
G1 X156.978 Y57.385 E41.41948
G1 X130.115 Y30.522 E42.40830
G1 X129.545 Y30.522 E42.42315
G1 X156.978 Y57.955 E43.43297
G1 X156.978 Y58.526 E43.44783
G1 X128.974 Y30.522 E44.47866
G1 X128.403 Y30.522 E44.49352
G1 X156.978 Y59.097 E45.54535
G1 X156.978 Y59.668 E45.56021
G1 X127.832 Y30.522 E46.63305
G1 X127.262 Y30.522 E46.64791
G1 X156.978 Y60.238 E47.74176
G1 X156.978 Y60.809 E47.75662
G1 X126.691 Y30.522 E48.87148
G1 X126.120 Y30.522 E48.88633
G1 X156.978 Y61.380 E50.02220
G1 X156.978 Y61.950 E50.03705
G1 X125.550 Y30.522 E51.19393
G1 X124.979 Y30.522 E51.20878
G1 X156.978 Y62.521 E52.38667
G1 X156.978 Y63.092 E52.40152
G1 X124.408 Y30.522 E53.60041
G1 X123.838 Y30.522 E53.61527
G1 X156.978 Y63.662 E54.83516
G1 X156.978 Y64.233 E54.85002
G1 X123.267 Y30.522 E56.09092
G1 X122.696 Y30.522 E56.10578
G1 X156.978 Y64.804 E57.36769
G1 X156.978 Y65.374 E57.38254
G1 X122.126 Y30.522 E58.66546
G1 X121.555 Y30.522 E58.68032
G1 X156.978 Y65.945 E59.98424
G1 X156.978 Y66.516 E59.99910
G1 X120.984 Y30.522 E61.32403
G1 X120.414 Y30.522 E61.33889
G1 X156.978 Y67.086 E62.68483
G1 X156.978 Y67.657 E62.69968
G1 X119.843 Y30.522 E64.06663
G1 X119.272 Y30.522 E64.08149
G1 X156.978 Y68.228 E65.46944
G1 X156.978 Y68.799 E65.48430
G1 X118.701 Y30.522 E66.89326
G1 X118.131 Y30.522 E66.90811
G1 X156.978 Y69.369 E68.33808
G1 X156.978 Y69.940 E68.35294
G1 X117.560 Y30.522 E69.80392
G1 X116.989 Y30.522 E69.81877
G1 X156.978 Y70.511 E71.29076
G1 X156.978 Y71.081 E71.30561
G1 X116.419 Y30.522 E72.79860
G1 X115.848 Y30.522 E72.81346
G1 X156.978 Y71.652 E74.32746
G1 X156.978 Y72.223 E74.34231
G1 X115.277 Y30.522 E75.87732
G1 X114.707 Y30.522 E75.89217
G1 X156.978 Y72.793 E77.44819
G1 X156.978 Y73.364 E77.46304
G1 X114.136 Y30.522 E79.04006
G1 X113.565 Y30.522 E79.05492
G1 X156.978 Y73.935 E80.65295
G1 X156.978 Y74.505 E80.66780
G1 X112.995 Y30.522 E82.28684
G1 X112.424 Y30.522 E82.30169
G1 X156.978 Y75.076 E83.94174
G1 X156.978 Y75.647 E83.95659
G1 X111.853 Y30.522 E85.61764
G1 X111.283 Y30.522 E85.63250
G1 X156.978 Y76.217 E87.31456
G1 X156.978 Y76.788 E87.32941
G1 X110.712 Y30.522 E89.03248
G1 X110.141 Y30.522 E89.04733
G1 X156.978 Y77.359 E90.77140
G1 X156.978 Y77.930 E90.78626
G1 X109.570 Y30.522 E92.53134
G1 X109.000 Y30.522 E92.54619
G1 X156.978 Y78.500 E94.31228
G1 X156.978 Y79.071 E94.32714
G1 X108.429 Y30.522 E96.11423
G1 X107.858 Y30.522 E96.12909
G1 X156.978 Y79.642 E97.93719
G1 X156.978 Y80.212 E97.95204
G1 X107.288 Y30.522 E99.78115
G1 X106.717 Y30.522 E99.79601
G1 X156.978 Y80.783 E101.64612
G1 X156.978 Y81.354 E101.66098
G1 X106.146 Y30.522 E103.53210
G1 X105.576 Y30.522 E103.54696
G1 X156.978 Y81.924 E105.43909
G1 X156.978 Y82.495 E105.45394
G1 X105.005 Y30.522 E107.36708
G1 X104.434 Y30.522 E107.38194
G1 X156.978 Y83.066 E109.31608
G1 X156.978 Y83.636 E109.33094
G1 X103.864 Y30.522 E111.28609
G1 X103.293 Y30.522 E111.30095
G1 X156.978 Y84.207 E113.27711
G1 X156.978 Y84.778 E113.29196
G1 X102.722 Y30.522 E115.28913
G1 X102.152 Y30.522 E115.30398
G1 X156.978 Y85.348 E117.32216
G1 X156.978 Y85.919 E117.33701
G1 X101.581 Y30.522 E119.37620
G1 X101.010 Y30.522 E119.39105
G1 X156.978 Y86.490 E121.45124
G1 X156.978 Y87.061 E121.46610
G1 X100.439 Y30.522 E123.54729
G1 X99.869 Y30.522 E123.56215
G1 X156.978 Y87.631 E125.66435
G1 X156.978 Y88.202 E125.67921
G1 X99.298 Y30.522 E127.80242
G1 X98.727 Y30.522 E127.81728
G1 X156.978 Y88.773 E129.96149
G1 X156.978 Y89.343 E129.97635
G1 X98.157 Y30.522 E132.14158
G1 X97.586 Y30.522 E132.15643
G1 X156.978 Y89.914 E134.34267
G1 X156.978 Y90.485 E134.35752
G1 X97.015 Y30.522 E136.56476
G1 X96.445 Y30.522 E136.57962
G1 X156.978 Y91.055 E138.80786
G1 X156.978 Y91.626 E138.82272
G1 X95.874 Y30.522 E141.07198
G1 X95.303 Y30.522 E141.08683
G1 X156.978 Y92.197 E143.35709
G1 X156.978 Y92.767 E143.37195
G1 X94.733 Y30.522 E145.66322
G1 X94.162 Y30.522 E145.67807
G1 X156.978 Y93.338 E147.99035
G1 X156.978 Y93.909 E148.00521
G1 X93.591 Y30.522 E150.33849
G1 X93.021 Y30.522 E150.35335
G1 X156.978 Y94.479 E152.70764
G1 X156.978 Y95.050 E152.72249
G1 X92.450 Y30.522 E155.09779
G1 X91.879 Y30.522 E155.11265
G1 X156.978 Y95.621 E157.50896
G1 X156.978 Y96.192 E157.52381
G1 X91.308 Y30.522 E159.94113
G1 X90.738 Y30.522 E159.95598
G1 X156.978 Y96.762 E162.39430
G1 X156.978 Y97.333 E162.40916
G1 X90.167 Y30.522 E164.86849
G1 X89.596 Y30.522 E164.88334
G1 X156.978 Y97.904 E167.36368
G1 X156.978 Y98.474 E167.37853
G1 X89.026 Y30.522 E169.87988
G1 X88.455 Y30.522 E169.89473
G1 X156.978 Y99.045 E172.41708
G1 X156.978 Y99.616 E172.43194
G1 X87.884 Y30.522 E174.97530
G1 X87.314 Y30.522 E174.99015
G1 X156.978 Y100.186 E177.55452
G1 X156.978 Y100.757 E177.56937
G1 X86.743 Y30.522 E180.15474
G1 X86.172 Y30.522 E180.16960
G1 X156.978 Y101.328 E182.77598
G1 X156.978 Y101.898 E182.79083
G1 X85.602 Y30.522 E185.41822
G1 X85.031 Y30.522 E185.43308
G1 X156.978 Y102.469 E188.08147
G1 X156.978 Y103.040 E188.09633
G1 X84.460 Y30.522 E190.76573
G1 X83.890 Y30.522 E190.78058
G1 X156.978 Y103.610 E193.47099
G1 X156.978 Y104.181 E193.48585
G1 X83.319 Y30.522 E196.19727
G1 X82.748 Y30.522 E196.21212
G1 X156.978 Y104.752 E198.94454
G1 X156.978 Y105.323 E198.95940
G1 X82.177 Y30.522 E201.71283
G1 X81.607 Y30.522 E201.72769
G1 X156.978 Y105.893 E204.50213
G1 X156.978 Y106.464 E204.51698
G1 X81.036 Y30.522 E207.31243
G1 X80.465 Y30.522 E207.32728
G1 X156.978 Y107.035 E210.14373
G1 X156.978 Y107.605 E210.15859
G1 X79.895 Y30.522 E212.99605
G1 X79.324 Y30.522 E213.01091
G1 X156.978 Y108.176 E215.86937
G1 X156.978 Y108.747 E215.88423
G1 X78.753 Y30.522 E218.76370
G1 X78.183 Y30.522 E218.77856
G1 X156.978 Y109.317 E221.67904
G1 X156.978 Y109.888 E221.69390
G1 X77.612 Y30.522 E224.61539
G1 X77.041 Y30.522 E224.63024
G1 X156.978 Y110.459 E227.57274
G1 X156.978 Y111.029 E227.58759
G1 X76.471 Y30.522 E230.55110
G1 X75.900 Y30.522 E230.56595
G1 X156.978 Y111.600 E233.55047
G1 X156.978 Y112.171 E233.56532
G1 X75.329 Y30.522 E236.57084
G1 X74.759 Y30.522 E236.58570
G1 X156.978 Y112.741 E239.61222
G1 X156.978 Y113.312 E239.62708
G1 X74.188 Y30.522 E242.67461
G1 X73.617 Y30.522 E242.68947
G1 X156.978 Y113.883 E245.75801
G1 X156.978 Y114.454 E245.77286
G1 X73.046 Y30.522 E248.86241
G1 X72.476 Y30.522 E248.87727
G1 X156.978 Y115.024 E251.98782
G1 X156.978 Y115.595 E252.00268
G1 X71.905 Y30.522 E255.13424
G1 X71.334 Y30.522 E255.14910
G1 X156.978 Y116.166 E258.30167
G1 X156.978 Y116.736 E258.31652
G1 X70.764 Y30.522 E261.49010
G1 X70.193 Y30.522 E261.50495
G1 X156.978 Y117.307 E264.69954
G1 X156.978 Y117.878 E264.71439
G1 X69.622 Y30.522 E267.92999
G1 X69.052 Y30.522 E267.94484
G1 X156.978 Y118.448 E271.18144
G1 X156.978 Y119.019 E271.19630
G1 X68.481 Y30.522 E274.45391
G1 X67.910 Y30.522 E274.46876
G1 X156.978 Y119.590 E277.74738
G1 X156.978 Y120.160 E277.76223
G1 X67.340 Y30.522 E281.06185
G1 X66.769 Y30.522 E281.07671
G1 X156.978 Y120.731 E284.39734
G1 X156.978 Y121.302 E284.41219
G1 X66.198 Y30.522 E287.75383
G1 X65.628 Y30.522 E287.76868
G1 X156.978 Y121.872 E291.13133
G1 X156.978 Y122.443 E291.14618
G1 X65.057 Y30.522 E294.52983
G1 X64.486 Y30.522 E294.54469
G1 X156.978 Y123.014 E297.94935
G1 X156.978 Y123.585 E297.96420
G1 X63.915 Y30.522 E301.38987
G1 X63.345 Y30.522 E301.40472
G1 X156.978 Y124.155 E304.85140
G1 X156.978 Y124.726 E304.86625
G1 X62.774 Y30.522 E308.33393
G1 X62.203 Y30.522 E308.34879
G1 X156.978 Y125.297 E311.83748
G1 X156.978 Y125.867 E311.85233
G1 X61.633 Y30.522 E315.36203
G1 X61.062 Y30.522 E315.37688
G1 X156.978 Y126.438 E318.90758
G1 X156.978 Y127.009 E318.92244
G1 X60.491 Y30.522 E322.47415
G1 X59.921 Y30.522 E322.48900
G1 X156.876 Y127.478 E326.05797
G1 X156.305 Y127.478 E326.07283
G1 X59.350 Y30.522 E329.64180
G1 X58.779 Y30.522 E329.65665
G1 X155.734 Y127.478 E333.22562
G1 X155.164 Y127.478 E333.24048
G1 X58.209 Y30.522 E336.80945
G1 X57.638 Y30.522 E336.82430
G1 X154.593 Y127.478 E340.39327
G1 X154.022 Y127.478 E340.40813
G1 X57.067 Y30.522 E343.97710
G1 X56.497 Y30.522 E343.99195
G1 X153.452 Y127.478 E347.56092
G1 X152.881 Y127.478 E347.57577
G1 X55.926 Y30.522 E351.14474
G1 X55.355 Y30.522 E351.15960
G1 X152.310 Y127.478 E354.72857
G1 X151.740 Y127.478 E354.74342
G1 X54.784 Y30.522 E358.31239
G1 X54.214 Y30.522 E358.32725
G1 X151.169 Y127.478 E361.89622
G1 X150.598 Y127.478 E361.91107
G1 X53.643 Y30.522 E365.48004
G1 X53.072 Y30.522 E365.49490
G1 X150.027 Y127.478 E369.06387
G1 X149.457 Y127.478 E369.07872
G1 X52.502 Y30.522 E372.64769
G1 X51.931 Y30.522 E372.66255
G1 X148.886 Y127.478 E376.23152
G1 X148.315 Y127.478 E376.24637
G1 X51.360 Y30.522 E379.81534
G1 X50.790 Y30.522 E379.83019
G1 X147.745 Y127.478 E383.39917
G1 X147.174 Y127.478 E383.41402
G1 X50.219 Y30.522 E386.98299
G1 X49.648 Y30.522 E386.99784
G1 X146.603 Y127.478 E390.56681
G1 X146.033 Y127.478 E390.58167
G1 X49.078 Y30.522 E394.15064
G1 X48.507 Y30.522 E394.16549
G1 X145.462 Y127.478 E397.73446
G1 X144.891 Y127.478 E397.74932
G1 X47.936 Y30.522 E401.31829
G1 X47.366 Y30.522 E401.33314
G1 X144.321 Y127.478 E404.90211
G1 X143.750 Y127.478 E404.91697
G1 X46.795 Y30.522 E408.48594
G1 X46.224 Y30.522 E408.50079
G1 X143.179 Y127.478 E412.06976
G1 X142.609 Y127.478 E412.08462
G1 X45.653 Y30.522 E415.65359
G1 X45.083 Y30.522 E415.66844
G1 X142.038 Y127.478 E419.23741
G1 X141.467 Y127.478 E419.25226
G1 X44.512 Y30.522 E422.82123
G1 X43.941 Y30.522 E422.83609
G1 X140.896 Y127.478 E426.40506
G1 X140.326 Y127.478 E426.41991
G1 X43.371 Y30.522 E429.98888
G1 X42.800 Y30.522 E430.00374
G1 X139.755 Y127.478 E433.57271
G1 X139.184 Y127.478 E433.58756
G1 X42.229 Y30.522 E437.15653
G1 X41.659 Y30.522 E437.17139
G1 X138.614 Y127.478 E440.74036
G1 X138.043 Y127.478 E440.75521
G1 X41.088 Y30.522 E444.32418
G1 X40.517 Y30.522 E444.33904
G1 X137.472 Y127.478 E447.90801
G1 X136.902 Y127.478 E447.92286
G1 X39.947 Y30.522 E451.49183
G1 X39.376 Y30.522 E451.50668
G1 X136.331 Y127.478 E455.07566
G1 X135.760 Y127.478 E455.09051
G1 X38.805 Y30.522 E458.65948
G1 X38.235 Y30.522 E458.67433
G1 X135.190 Y127.478 E462.24330
G1 X134.619 Y127.478 E462.25816
G1 X37.664 Y30.522 E465.82713
G1 X37.093 Y30.522 E465.84198
G1 X134.048 Y127.478 E469.41095
G1 X133.478 Y127.478 E469.42581
G1 X36.522 Y30.522 E472.99478
G1 X35.952 Y30.522 E473.00963
G1 X132.907 Y127.478 E476.57860
G1 X132.336 Y127.478 E476.59346
G1 X35.381 Y30.522 E480.16243
G1 X34.810 Y30.522 E480.17728
G1 X131.765 Y127.478 E483.74625
G1 X131.195 Y127.478 E483.76111
G1 X34.240 Y30.522 E487.33008
G1 X33.669 Y30.522 E487.34493
G1 X130.624 Y127.478 E490.91390
G1 X130.053 Y127.478 E490.92875
G1 X33.098 Y30.522 E494.49772
G1 X32.528 Y30.522 E494.51258
G1 X129.483 Y127.478 E498.08155
G1 X128.912 Y127.478 E498.09640
G1 X31.957 Y30.522 E501.66537
G1 X31.386 Y30.522 E501.68023
G1 X128.341 Y127.478 E505.24920
G1 X127.771 Y127.478 E505.26405
G1 X30.816 Y30.522 E508.83302
G1 X30.245 Y30.522 E508.84788
