; generated by Slic3r 0.9.9 on 2013-05-28 at 02:00:04

; layer_height = 0.4
; perimeters = 3
; top_solid_layers = 3
; bottom_solid_layers = 3
; fill_density = 0.4
; perimeter_speed = 30
; infill_speed = 60
; travel_speed = 130
; nozzle_diameter = 0.5
; filament_diameter = 3
; extrusion_multiplier = 1
; perimeters extrusion width = 0.53mm
; infill extrusion width = 0.53mm
; solid infill extrusion width = 0.53mm
; top infill extrusion width = 0.53mm
; first layer extrusion width = 0.70mm

G21 ; set units to millimeters
M107
M104 S200 ; set temperature
G28 ; home all axes
G1 Z5 F5000 ; lift nozzle

M109 S200 ; wait for temperature to be reached
G90 ; use absolute coordinates
G92 E0
M82 ; use absolute distances for extrusion
G1 F1800.000 E-1.00000
G92 E0
G1 Z0.350 F7800.000
G1 X102.609 Y58.904
G1 F1800.000 E1.00000
G1 X102.949 Y58.334 F540.000 E1.02159
G1 X103.349 Y57.794 E1.04346
G1 X103.569 Y57.544 E1.05429
G1 X108.799 Y52.314 E1.29493
G1 X109.419 Y51.764 E1.32190
G1 X109.859 Y51.444 E1.33960
G1 X110.339 Y51.164 E1.35768
G1 X110.829 Y50.924 E1.37543
G1 X111.339 Y50.724 E1.39325
G1 X112.139 Y50.504 E1.42025
G1 X112.409 Y50.454 E1.42918
G1 X112.679 Y50.414 E1.43806
G1 X113.499 Y50.364 E1.46479
G1 X120.769 Y50.374 E1.70132
G1 X121.319 Y50.414 E1.71926
G1 X121.859 Y50.504 E1.73708
G1 X122.659 Y50.724 E1.76407
G1 X123.169 Y50.924 E1.78189
G1 X123.659 Y51.164 E1.79965
G1 X124.139 Y51.444 E1.81773
G1 X124.579 Y51.764 E1.83543
G1 X124.999 Y52.124 E1.85342
G1 X130.199 Y57.304 E2.09223
G1 X130.579 Y57.704 E2.11018
G1 X130.749 Y57.924 E2.11922
G1 X131.069 Y58.364 E2.13692
G1 X131.219 Y58.604 E2.14613
G1 X131.479 Y59.084 E2.16389
G1 X131.799 Y59.854 E2.19102
G1 X132.019 Y60.644 E2.21770
G1 X132.069 Y60.914 E2.22664
G1 X132.109 Y61.194 E2.23584
G1 X132.159 Y62.014 E2.26257
G1 X132.159 Y97.014 E3.40130
G1 X132.129 Y97.594 E3.42019
G1 X132.059 Y98.174 E3.43920
G1 X131.849 Y99.014 E3.46737
G1 X131.649 Y99.564 E3.48641
G1 X131.259 Y100.344 E3.51479
G1 X130.949 Y100.834 E3.53365
G1 X100.029 Y144.974 E5.28705
G1 X99.689 Y145.414 E5.30514
G1 X99.319 Y145.834 E5.32335
G1 X98.909 Y146.214 E5.34154
G1 X98.469 Y146.554 E5.35963
G1 X97.999 Y146.864 E5.37795
G1 X97.509 Y147.134 E5.39615
G1 X94.389 Y148.514 E5.50715
G1 X93.819 Y148.734 E5.52703
G1 X93.229 Y148.894 E5.54692
G1 X89.919 Y149.514 E5.65648
G1 X89.299 Y149.604 E5.67686
G1 X88.979 Y149.624 E5.68730
G1 X88.359 Y149.624 E5.70747
G1 X85.259 Y149.464 E5.80846
G1 X84.949 Y149.444 E5.81857
G1 X84.339 Y149.354 E5.83863
G1 X83.749 Y149.204 E5.85844
G1 X80.779 Y148.344 E5.95903
G1 X80.479 Y148.254 E5.96922
G1 X79.899 Y148.024 E5.98952
G1 X79.349 Y147.744 E6.00960
G1 X76.649 Y146.214 E6.11057
G1 X76.109 Y145.874 E6.13133
G1 X75.609 Y145.494 E6.15177
G1 X75.379 Y145.284 E6.16190
G1 X73.119 Y143.164 E6.26272
G1 X72.689 Y142.724 E6.28273
G1 X72.489 Y142.484 E6.29290
G1 X72.129 Y141.994 E6.31268
G1 X70.409 Y139.414 E6.41356
G1 X70.089 Y138.884 E6.43371
G1 X69.829 Y138.334 E6.45350
G1 X68.629 Y135.144 E6.56439
G1 X68.439 Y134.544 E6.58487
G1 X68.259 Y133.614 E6.61568
G1 X67.889 Y130.534 E6.71661
G1 X67.859 Y130.234 E6.72642
G1 X67.839 Y129.624 E6.74628
G1 X67.879 Y129.014 E6.76617
G1 X68.219 Y125.934 E6.86699
G1 X68.319 Y125.314 E6.88742
G1 X68.389 Y125.004 E6.89776
G1 X68.579 Y124.404 E6.91824
G1 X69.629 Y121.494 E7.01889
G1 X69.999 Y120.644 E7.04905
G1 X102.563 Y58.991 E9.31755
G1 F1800.000 E8.31755
G92 E0
G1 X87.986 Y125.831 F7800.000
G1 F1800.000 E1.00000
G1 X89.301 Y126.504 F540.000 E1.04805
G1 X90.396 Y127.495 E1.09609
G1 X91.197 Y128.736 E1.14414
G1 X91.650 Y130.141 E1.19218
G1 X91.724 Y131.616 E1.24023
G1 X91.413 Y133.060 E1.28828
G1 X90.740 Y134.374 E1.33632
G1 X89.749 Y135.469 E1.38437
G1 X88.509 Y136.270 E1.43242
G1 X87.103 Y136.723 E1.48046
G1 X85.628 Y136.797 E1.52851
G1 X84.185 Y136.487 E1.57655
G1 X82.870 Y135.813 E1.62460
G1 X81.775 Y134.822 E1.67264
G1 X80.974 Y133.582 E1.72069
G1 X80.521 Y132.177 E1.76874
G1 X80.447 Y130.702 E1.81678
G1 X80.758 Y129.258 E1.86483
G1 X81.431 Y127.944 E1.91288
G1 X82.422 Y126.849 E1.96092
G1 X83.662 Y126.047 E2.00897
G1 X85.068 Y125.594 E2.05701
G1 X86.543 Y125.520 E2.10506
G1 X87.890 Y125.810 E2.14990
G1 X87.764 Y126.455 F7800.000
G1 X88.924 Y127.050 F540.000 E2.19232
G1 X89.891 Y127.924 E2.23473
G1 X90.598 Y129.019 E2.27715
G1 X90.998 Y130.260 E2.31957
G1 X91.063 Y131.562 E2.36198
G1 X90.789 Y132.837 E2.40440
G1 X90.195 Y133.997 E2.44682
G1 X89.320 Y134.964 E2.48924
G1 X88.225 Y135.672 E2.53165
G1 X86.984 Y136.071 E2.57407
G1 X85.682 Y136.137 E2.61649
G1 X84.407 Y135.863 E2.65890
G1 X83.247 Y135.268 E2.70132
G1 X82.280 Y134.393 E2.74374
G1 X81.573 Y133.298 E2.78616
G1 X81.173 Y132.057 E2.82857
G1 X81.108 Y130.755 E2.87099
G1 X81.382 Y129.481 E2.91341
G1 X81.976 Y128.320 E2.95582
G1 X82.851 Y127.354 E2.99824
G1 X83.946 Y126.646 E3.04066
G1 X85.187 Y126.246 E3.08307
G1 X86.489 Y126.181 E3.12549
G1 X87.667 Y126.434 E3.16470
G1 X87.541 Y127.079 F7800.000
G1 X88.547 Y127.595 F540.000 E3.20149
G1 X89.386 Y128.354 E3.23828
G1 X89.999 Y129.303 E3.27507
G1 X90.346 Y130.380 E3.31185
G1 X90.403 Y131.509 E3.34864
G1 X90.165 Y132.614 E3.38543
G1 X89.649 Y133.621 E3.42222
G1 X88.891 Y134.459 E3.45901
G1 X87.941 Y135.073 E3.49579
G1 X86.865 Y135.420 E3.53258
G1 X85.735 Y135.476 E3.56937
G1 X84.630 Y135.238 E3.60616
G1 X83.624 Y134.723 E3.64295
G1 X82.785 Y133.964 E3.67973
G1 X82.172 Y133.014 E3.71652
G1 X81.825 Y131.938 E3.75331
G1 X81.768 Y130.809 E3.79010
G1 X82.006 Y129.703 E3.82689
G1 X82.522 Y128.697 E3.86367
G1 X83.280 Y127.859 E3.90046
G1 X84.230 Y127.245 E3.93725
G1 X85.306 Y126.898 E3.97404
G1 X86.436 Y126.842 E4.01083
G1 X87.445 Y127.059 E4.04441
G1 X88.060 Y126.676 F7800.000
G1 X97.732 Y128.069
G1 X93.289 Y139.936 F540.000 E4.45667
G1 X91.263 Y140.832 E4.52876
G1 X88.594 Y141.326 E4.61708
G1 X85.883 Y141.190 E4.70539
G1 X83.277 Y140.431 E4.79370
G1 X80.917 Y139.091 E4.88201
G1 X78.930 Y137.241 E4.97032
G1 X77.425 Y134.982 E5.05863
G1 X76.482 Y132.437 E5.14694
G1 X76.153 Y129.743 E5.23525
G1 X76.455 Y127.045 E5.32356
G1 X77.373 Y124.491 E5.41188
G1 X78.862 Y122.209 E5.50052
G1 X84.866 Y116.367 E5.77308
G1 X90.840 Y110.202 E6.05236
G1 X95.519 Y105.081 E6.27806
G1 X104.580 Y113.159 E6.67302
G1 X103.194 Y115.818 E6.77060
G1 X97.772 Y127.979 E7.20378
G1 X98.340 Y128.318 F7800.000
G1 X93.808 Y140.425 F540.000 E7.62438
G1 X91.458 Y141.464 E7.70797
G1 X88.638 Y141.986 E7.80128
G1 X85.773 Y141.842 E7.89460
G1 X83.019 Y141.040 E7.98792
G1 X81.719 Y140.302 E8.03658
G1 X80.525 Y139.624 E8.08124
G1 X78.426 Y137.669 E8.17456
G1 X76.835 Y135.283 E8.26788
G1 X75.839 Y132.593 E8.36120
G1 X75.491 Y129.746 E8.45452
G1 X75.811 Y126.896 E8.54784
G1 X76.781 Y124.196 E8.64116
G1 X78.351 Y121.789 E8.73468
G1 X84.401 Y115.902 E9.00930
G1 X90.361 Y109.752 E9.28795
G1 X95.472 Y104.158 E9.53446
G1 X105.399 Y113.009 E9.96718
G1 X103.786 Y116.104 E10.08075
G1 X98.380 Y128.228 E10.51262
G1 X98.948 Y128.567 F7800.000
G1 X94.326 Y140.914 F378.000 E10.94156
G1 X91.653 Y142.096 E11.03664
G1 X88.682 Y142.646 E11.13497
G1 X85.663 Y142.495 E11.23330
G1 X82.762 Y141.650 E11.33163
G1 X80.134 Y140.157 E11.42995
G1 X77.922 Y138.098 E11.52828
G1 X77.859 Y138.004 E11.53197
G1 X76.246 Y135.583 E11.62661
G1 X75.196 Y132.749 E11.72493
G1 X74.830 Y129.749 E11.82326
G1 X75.167 Y126.746 E11.92159
G1 X76.188 Y123.902 E12.01991
G1 X77.841 Y121.369 E12.11831
G1 X83.936 Y115.438 E12.39499
G1 X89.882 Y109.302 E12.67301
G1 X95.424 Y103.236 E12.94032
G1 X106.218 Y112.859 E13.41081
G1 X104.377 Y116.390 E13.54038
G1 X98.989 Y128.477 E13.97094
G1 X98.298 Y128.662 F7800.000
G1 F1800.000 E12.97094
G92 E0
G1 X109.623 Y104.925 F7800.000
G1 F1800.000 E1.00000
G1 X98.010 Y86.971 F540.000 E1.69567
G1 X100.455 Y83.094 E1.84480
G1 X103.236 Y78.149 E2.02939
G1 X105.767 Y73.071 E2.21399
G1 X108.041 Y67.873 E2.39858
G1 X109.912 Y62.936 E2.57036
G1 X111.858 Y60.990 E2.65991
G1 X111.858 Y88.667 E3.56038
G1 X122.144 Y88.667 E3.89502
G1 X122.144 Y60.990 E4.79549
G1 X123.858 Y62.704 E4.87438
G1 X123.858 Y96.093 E5.96069
G1 X113.193 Y102.479 E6.36514
G1 X109.704 Y104.870 E6.50274
G1 X109.437 Y105.849 F7800.000
G1 X97.231 Y86.976 F540.000 E7.23402
G1 X99.890 Y82.757 E7.39626
G1 X102.656 Y77.841 E7.57979
G1 X105.172 Y72.793 E7.76331
G1 X107.432 Y67.625 E7.94683
G1 X109.348 Y62.571 E8.12267
G1 X112.515 Y59.403 E8.26842
G1 X112.515 Y88.009 E9.19913
G1 X121.487 Y88.009 E9.49101
G1 X121.487 Y59.403 E10.42171
G1 X124.515 Y62.432 E10.56107
G1 X124.515 Y96.465 E11.66835
G1 X113.548 Y103.033 E12.08427
G1 X109.519 Y105.793 E12.24317
G1 X109.040 Y106.445 F7800.000
G1 X96.451 Y86.980 F378.000 E12.99736
G1 X99.325 Y82.421 E13.17272
G1 X102.075 Y77.533 E13.35517
G1 X104.576 Y72.514 E13.53762
G1 X106.824 Y67.376 E13.72008
G1 X108.783 Y62.206 E13.89997
G1 X113.173 Y57.817 E14.10192
G1 X113.173 Y87.352 E15.06286
G1 X120.830 Y87.352 E15.31199
G1 X120.830 Y57.817 E16.27293
G1 X125.173 Y62.160 E16.47275
G1 X125.173 Y96.838 E17.60100
G1 X113.902 Y103.586 E18.02838
G1 X109.252 Y106.772 E18.21179
G1 X109.094 Y106.527 E18.22128
G1 X109.340 Y105.860 F7800.000
G1 F1800.000 E17.22128
G92 E0
G1 X103.985 Y113.267 F7800.000
G1 F1800.000 E1.00000
G1 X103.668 Y113.879 F1080.000 E1.02245
G1 X95.546 Y105.757 E1.39640
G1 X95.102 Y106.243 E1.41783
G1 X103.349 Y114.490 E1.79754
G1 X103.030 Y115.101 E1.81998
G1 X94.658 Y106.729 E2.20547
G1 X94.214 Y107.215 E2.22689
G1 X102.717 Y115.718 E2.61839
G1 X102.430 Y116.361 E2.64132
G1 X93.770 Y107.701 E3.04005
G1 X93.326 Y108.187 E3.06148
G1 X102.143 Y117.004 E3.46746
G1 X101.857 Y117.647 E3.49038
G1 X92.882 Y108.673 E3.90360
G1 X92.438 Y109.159 E3.92503
G1 X101.570 Y118.290 E4.34548
G1 X101.283 Y118.934 E4.36840
G1 X91.994 Y109.645 E4.79610
G1 X91.550 Y110.130 E4.81753
G1 X100.996 Y119.577 E5.25246
G1 X100.710 Y120.220 E5.27538
G1 X91.104 Y110.614 E5.71767
G1 X90.646 Y111.086 E5.73908
G1 X100.423 Y120.863 E6.18923
G1 X100.136 Y121.506 E6.21215
G1 X90.189 Y111.558 E6.67018
G1 X89.731 Y112.031 E6.69159
G1 X99.850 Y122.149 E7.15747
G1 X99.563 Y122.792 E7.18040
G1 X89.273 Y112.503 E7.65416
G1 X88.816 Y112.975 E7.67557
G1 X99.276 Y123.436 E8.15719
G1 X98.989 Y124.079 E8.18012
G1 X88.358 Y113.447 E8.66961
G1 X87.900 Y113.920 E8.69102
G1 X98.703 Y124.722 E9.18839
G1 X98.416 Y125.365 E9.21131
G1 X87.443 Y114.392 E9.71654
G1 X86.985 Y114.864 E9.73795
G1 X98.129 Y126.008 E10.25105
G1 X97.842 Y126.651 E10.27398
G1 X86.527 Y115.336 E10.79495
G1 X86.070 Y115.809 E10.81636
G1 X97.556 Y127.294 E11.34519
G1 X97.271 Y127.940 E11.36816
G1 X85.612 Y116.281 E11.90498
G1 X85.153 Y116.752 E11.92639
G1 X97.018 Y128.617 E12.47269
G1 X96.765 Y129.293 E12.49621
G1 X84.682 Y117.210 E13.05255
G1 X84.211 Y117.669 E13.07396
G1 X96.512 Y129.970 E13.64033
G1 X96.258 Y130.646 E13.66385
G1 X83.739 Y118.127 E14.24026
G1 X83.268 Y118.586 E14.26167
G1 X96.005 Y131.323 E14.84812
G1 X95.752 Y132.000 E14.87164
G1 X82.797 Y119.045 E15.46812
G1 X82.325 Y119.503 E15.48953
G1 X88.256 Y125.434 E15.76260
G1 X87.031 Y125.138 E15.80366
G1 X81.854 Y119.962 E16.04199
G1 X81.383 Y120.420 E16.06340
G1 X86.032 Y125.069 E16.27745
G1 X85.146 Y125.113 E16.30631
G1 X80.912 Y120.879 E16.50128
G1 X80.440 Y121.338 E16.52269
G1 X84.409 Y125.306 E16.70542
G1 X83.706 Y125.533 E16.72948
G1 X79.969 Y121.796 E16.90153
G1 X79.498 Y122.255 E16.92293
G1 X83.092 Y125.849 E17.08842
G1 X82.527 Y126.214 E17.11031
G1 X79.072 Y122.759 E17.26939
G1 X78.705 Y123.321 E17.29127
G1 X81.994 Y126.611 E17.44274
G1 X81.553 Y127.099 E17.46417
G1 X78.338 Y123.884 E17.61221
G1 X77.970 Y124.447 E17.63409
G1 X81.111 Y127.588 E17.77869
G1 X80.774 Y128.181 E17.80090
G1 X77.669 Y125.075 E17.94388
G1 X77.423 Y125.760 E17.96755
G1 X80.459 Y128.796 E18.10733
G1 X80.221 Y129.487 E18.13115
G1 X77.178 Y126.444 E18.27128
G1 X76.932 Y127.128 E18.29495
G1 X80.057 Y130.253 E18.43882
G1 X79.991 Y131.117 E18.46704
G1 X76.832 Y127.958 E18.61249
G1 X76.738 Y128.794 E18.63988
G1 X80.040 Y132.096 E18.79189
G1 X80.415 Y133.401 E18.83610
G1 X76.645 Y129.630 E19.00970
G1 X76.745 Y130.660 E19.04338
G1 X86.846 Y140.761 E19.50847
G1 X85.834 Y140.680 E19.54151
G1 X76.874 Y131.719 E19.95406
G1 X77.183 Y132.958 E19.99562
G1 X84.523 Y140.298 E20.33356
G1 X83.049 Y139.754 E20.38471
G1 X77.730 Y134.435 E20.62962
G1 X79.297 Y136.932 E20.72563
G1 X83.880 Y136.866 F7800.000
G1 X87.825 Y140.810 F1080.000 E20.90724
G1 X88.756 Y140.812 E20.93755
G1 X85.119 Y137.175 E21.10499
G1 X86.123 Y137.249 E21.13778
G1 X89.540 Y140.666 E21.29511
G1 X90.325 Y140.521 E21.32109
G1 X87.009 Y137.205 E21.47377
G1 X87.749 Y137.015 E21.49865
G1 X91.110 Y140.376 E21.65336
G1 X91.756 Y140.093 E21.67635
G1 X88.453 Y136.789 E21.82847
G1 X89.069 Y136.475 E21.85098
G1 X92.401 Y139.808 E22.00441
G1 X92.966 Y139.442 E22.02630
G1 X89.634 Y136.110 E22.17970
G1 X90.169 Y135.715 E22.20134
G1 X93.219 Y138.765 E22.34179
G1 X93.472 Y138.089 E22.36531
G1 X90.610 Y135.227 E22.49707
G1 X91.052 Y134.739 E22.51851
G1 X93.725 Y137.412 E22.64160
G1 X93.979 Y136.736 E22.66512
G1 X91.391 Y134.148 E22.78427
G1 X91.706 Y133.533 E22.80676
G1 X94.232 Y136.059 E22.92307
G1 X94.485 Y135.383 E22.94659
G1 X91.947 Y132.844 E23.06346
G1 X92.112 Y132.079 E23.08895
G1 X94.739 Y134.706 E23.20991
G1 X94.992 Y134.029 E23.23343
G1 X92.181 Y131.218 E23.36286
G1 X92.132 Y130.239 E23.39477
G1 X95.245 Y133.353 E23.53811
G1 X95.498 Y132.676 E23.56163
G1 X91.764 Y128.942 E23.73358
G1 F1800.000 E22.73358
G92 E0
G1 X109.757 Y104.256 F7800.000
G1 F1800.000 E1.00000
G1 X110.309 Y103.878 F1080.000 E1.02181
G1 X108.052 Y101.621 E1.12581
G1 X106.348 Y98.986 E1.22806
G1 X110.862 Y103.499 E1.43604
G1 X111.414 Y103.121 E1.45785
G1 X104.644 Y96.351 E1.76981
G1 X102.940 Y93.716 E1.87206
G1 X111.966 Y102.742 E2.28800
G1 X112.518 Y102.364 E2.30981
G1 X101.236 Y91.081 E2.82973
G1 X99.532 Y88.447 E2.93198
G1 X113.078 Y101.993 E3.55621
G1 X113.660 Y101.644 E3.57832
G1 X98.733 Y86.718 E4.26617
G1 X99.093 Y86.147 E4.28815
G1 X114.242 Y101.296 E4.98625
G1 X114.824 Y100.947 E5.00836
G1 X99.453 Y85.576 E5.71669
G1 X99.813 Y85.005 E5.73868
G1 X115.406 Y100.599 E6.45726
G1 X115.988 Y100.250 E6.47936
G1 X100.173 Y84.434 E7.20818
G1 X100.532 Y83.863 E7.23017
G1 X116.571 Y99.902 E7.96923
G1 X117.153 Y99.553 E7.99134
G1 X100.890 Y83.291 E8.74073
G1 X101.225 Y82.695 E8.76300
G1 X117.735 Y99.204 E9.52378
G1 X118.317 Y98.856 E9.54589
G1 X101.560 Y82.099 E10.31805
G1 X101.896 Y81.504 E10.34032
G1 X118.899 Y98.507 E11.12387
G1 X119.481 Y98.159 E11.14598
G1 X102.231 Y80.908 E11.94091
G1 X102.566 Y80.313 E11.96318
G1 X111.382 Y89.129 E12.36945
G1 X111.396 Y89.143 F7800.000
G1 X120.063 Y97.810 F1080.000 E12.76886
G1 X120.645 Y97.462 E12.79097
G1 X112.327 Y89.143 E13.17431
G1 X113.257 Y89.143 E13.20464
G1 X121.227 Y97.113 E13.57192
G1 X121.810 Y96.765 E13.59403
G1 X114.188 Y89.143 E13.94525
G1 X115.119 Y89.143 E13.97557
G1 X122.392 Y96.416 E14.31073
G1 X122.974 Y96.067 E14.33284
G1 X116.049 Y89.143 E14.65194
G1 X116.980 Y89.143 E14.68226
G1 X123.382 Y95.545 E14.97729
G1 X123.382 Y94.614 E15.00761
G1 X117.910 Y89.143 E15.25976
G1 X118.841 Y89.143 E15.29008
G1 X123.382 Y93.684 E15.49933
G1 X123.382 Y92.753 E15.52966
G1 X119.772 Y89.143 E15.69603
G1 X120.702 Y89.143 E15.72635
G1 X123.382 Y91.822 E15.84983
G1 X123.382 Y90.892 E15.88016
G1 X121.633 Y89.143 E15.96075
G1 X122.564 Y89.143 E15.99108
G1 X123.382 Y89.961 E16.02878
G1 X111.382 Y88.198 F7800.000
G1 X102.901 Y79.717 F1080.000 E16.41962
G1 X103.236 Y79.121 E16.44189
G1 X111.382 Y87.268 E16.81728
G1 X111.382 Y86.337 E16.84761
G1 X103.571 Y78.526 E17.20757
G1 X103.887 Y77.911 E17.23008
G1 X111.382 Y85.406 E17.57547
G1 X111.382 Y84.476 E17.60580
