; generated by Slic3r 1.1.7 on 2014-12-04 at 09:29:01

; perimeters extrusion width = 0.50mm
; infill extrusion width = 0.50mm
; solid infill extrusion width = 0.50mm
; top infill extrusion width = 0.50mm

G21 ; set units to millimeters
M104 S190 ; set temperature
G28 ; home all axes
G1 Z15 F120 ; lift nozzle
M109 S190 ; wait for temperature to be reached
G90 ; use absolute coordinates
G92 E0
M82 ; use absolute distances for extrusion
M106 S102
G1 F1680.000 E-2.00000
G92 E0
G1 Z0.350 F12000.000
G1 X64.264 Y62.276 F12000.000
G1 E2.00000 F1680.000
G1 X66.105 Y60.376 E2.08535 F1200.000
G1 X67.946 Y59.046 E2.15863
G1 X70.772 Y58.399 E2.25216
G1 X108.902 Y58.399 E3.48219
G1 X111.138 Y58.796 E3.55547
G1 X113.227 Y60.047 E3.63402 F1200.000
G1 X124.455 Y70.057 E4.11925
G1 X125.860 Y71.841 E4.19253
G1 X126.565 Y74.000 E4.26581
G1 X126.485 Y76.271 E4.33909
G1 X126.113 Y77.448 E4.37892
G1 X114.070 Y105.823 E5.37331
G1 X112.831 Y107.726 E5.44659
G1 X110.715 Y109.228 E5.53029
G1 X107.880 Y110.481 E5.63027
G1 X106.435 Y110.928 E5.67905
G1 X103.388 Y111.492 E5.77904
G1 X102.205 Y111.601 E5.81737
G1 X63.750 Y111.592 E7.05791
G1 X60.655 Y111.437 E7.15789
G1 X59.164 Y111.186 E7.20666
G1 X56.188 Y110.320 E7.30664
G1 X54.795 Y109.731 E7.35544
G1 X52.100 Y108.201 E7.45542
G1 X50.881 Y107.306 E7.50419
G1 X48.612 Y105.194 E7.60418
G1 X47.633 Y104.042 E7.65297
G1 X45.914 Y101.463 E7.75295
G1 X45.227 Y100.116 E7.80173
G1 X44.151 Y97.209 E7.90171
G1 X43.794 Y95.739 E7.95051
G1 X43.419 Y92.663 E8.05049
G1 X43.411 Y91.151 E8.09925
G1 X43.757 Y88.071 E8.19923
G1 X44.099 Y86.598 E8.24804
G1 X45.147 Y83.681 E8.34801
G1 X45.820 Y82.327 E8.39678
G1 X47.513 Y79.732 E8.49676
G1 X48.289 Y78.760 E8.53689
G1 X64.211 Y62.330 E9.27496
G1 F1680.000 E7.27496
G92 E0
G1 X102.340 Y96.523 F12000.000
G1 E2.00000 F1680.000
G1 X101.408 Y97.126 E2.03581 F720.000
G1 X100.352 Y97.466 E2.07162
G1 X99.243 Y97.522 E2.10743
G1 X98.158 Y97.288 E2.14323
G1 X97.170 Y96.782 E2.17905
G1 X96.347 Y96.037 E2.21486
G1 X95.744 Y95.105 E2.25066
G1 X95.404 Y94.048 E2.28647
G1 X95.348 Y92.940 E2.32228
G1 X95.582 Y91.854 E2.35809
G1 X96.088 Y90.866 E2.39390
G1 X96.833 Y90.043 E2.42971
G1 X97.765 Y89.441 E2.46552
G1 X98.822 Y89.101 E2.50133
G1 X99.930 Y89.045 E2.53713
G1 X100.967 Y89.268 E2.57134
G1 X102.003 Y89.785 E2.60870 F720.000
G1 X102.826 Y90.529 E2.64451
G1 X103.429 Y91.462 E2.68032
G1 X103.769 Y92.518 E2.71613
G1 X103.825 Y93.627 E2.75194
G1 X103.591 Y94.712 E2.78775
G1 X103.085 Y95.700 E2.82356
G1 X102.391 Y96.468 E2.85695
G1 X119.817 Y74.966 F12000.000
G1 X117.949 Y78.549 E2.98732 F720.000
G1 X112.522 Y90.721 E3.41726
G1 X107.889 Y103.097 E3.84356
G1 X105.178 Y104.296 E3.93920
G1 X102.188 Y104.849 E4.03728
G1 X99.151 Y104.697 E4.13537
G1 X96.232 Y103.847 E4.23346
G1 X93.588 Y102.346 E4.33155
G1 X91.362 Y100.274 E4.42963
G1 X89.676 Y97.744 E4.52772
G1 X88.620 Y94.892 E4.62581
G1 X88.252 Y91.874 E4.72390
G1 X88.590 Y88.852 E4.82199
G1 X89.618 Y85.991 E4.92008
G1 X91.281 Y83.443 E5.01822
G1 X97.381 Y77.507 E5.29280
G1 X103.326 Y71.372 E5.56839
G1 X108.920 Y65.250 E5.83590
G1 X119.761 Y74.916 E6.30446
G1 X119.119 Y74.801 F12000.000
G1 X119.380 Y75.063 E6.31640 F1200.000
G1 X119.136 Y75.531 E6.33344
G1 X112.555 Y68.950 E6.63370
G1 X108.799 Y65.906 F12000.000
G1 X118.892 Y76.000 E7.09418 F1200.000
G1 X118.648 Y76.468 E7.11121
G1 X108.451 Y66.271 E7.57641
G1 X108.111 Y66.643 E7.59268
G1 X118.404 Y76.936 E8.06226
G1 X118.160 Y77.404 E8.07930
G1 X107.771 Y67.015 E8.55326
G1 X107.431 Y67.388 E8.56952
G1 X117.916 Y77.872 E9.04786
G1 X117.671 Y78.341 E9.06490
G1 X107.091 Y67.760 E9.54762
G1 X106.751 Y68.132 E9.56388
G1 X117.449 Y78.830 E10.05196
G1 X117.229 Y79.323 E10.06936
G1 X106.410 Y68.504 E10.56293
G1 X106.070 Y68.877 E10.57919
G1 X117.009 Y79.816 E11.07825
G1 X116.790 Y80.308 E11.09566
G1 X105.730 Y69.249 E11.60022
G1 X105.390 Y69.621 E11.61648
G1 X116.570 Y80.801 E12.12653
G1 X116.350 Y81.294 E12.14394
G1 X105.050 Y69.993 E12.65949
G1 X104.710 Y70.366 E12.67575
G1 X116.131 Y81.786 E13.19680
G1 X115.911 Y82.279 E13.21420
G1 X104.370 Y70.738 E13.74074
G1 X104.030 Y71.110 E13.75700
G1 X115.691 Y82.772 E14.28904
G1 X115.472 Y83.264 E14.30644
G1 X103.690 Y71.482 E14.84397
G1 X103.342 Y71.848 E14.86022
G1 X115.252 Y83.757 E15.40357
G1 X115.032 Y84.250 E15.42097
G1 X102.992 Y72.209 E15.97028
G1 X102.641 Y72.571 E15.98654
G1 X114.813 Y84.743 E16.54183
G1 X114.593 Y85.235 E16.55923
G1 X102.291 Y72.933 E17.12049
G1 X101.940 Y73.295 E17.13674
G1 X114.373 Y85.728 E17.70398
G1 X114.154 Y86.221 E17.72138
G1 X101.590 Y73.656 E18.29459
G1 X101.239 Y74.018 E18.31084
G1 X113.934 Y86.713 E18.89002
G1 X113.714 Y87.206 E18.90742
G1 X100.888 Y74.380 E19.49258
G1 X100.538 Y74.742 E19.50883
G1 X113.495 Y87.699 E20.09995
G1 X113.275 Y88.191 E20.11736
G1 X100.187 Y75.103 E20.71446
G1 X99.837 Y75.465 E20.73071
G1 X113.056 Y88.684 E21.33378
G1 X112.836 Y89.177 E21.35119
G1 X99.486 Y75.827 E21.96023
G1 X99.135 Y76.189 E21.97648
G1 X112.616 Y89.670 E22.59150
G1 X112.397 Y90.162 E22.60891
G1 X98.785 Y76.551 E23.22990
G1 X98.434 Y76.912 E23.24615
G1 X112.180 Y90.658 E23.87327
G1 X111.986 Y91.177 E23.89112
G1 X98.084 Y77.274 E24.52538
G1 X97.733 Y77.636 E24.54163
G1 X111.792 Y91.695 E25.18303
G1 X111.598 Y92.213 E25.20089
G1 X97.375 Y77.990 E25.84976
G1 X97.014 Y78.342 E25.86601
G1 X111.404 Y92.731 E26.52250
G1 X111.210 Y93.250 E26.54035
G1 X96.653 Y78.693 E27.20446
G1 X96.292 Y79.044 E27.22071
G1 X111.016 Y93.768 E27.89244
G1 X110.822 Y94.286 E27.91029
G1 X95.931 Y79.396 E28.58964
G1 X95.570 Y79.747 E28.60589
G1 X110.628 Y94.805 E29.29285
G1 X110.434 Y95.323 E29.31071
G1 X95.209 Y80.098 E30.00529
G1 X94.848 Y80.450 E30.02154
G1 X110.240 Y95.841 E30.72375
G1 X110.046 Y96.360 E30.74160
G1 X94.487 Y80.801 E31.45142
G1 X94.126 Y81.152 E31.46767
G1 X109.852 Y96.878 E32.18511
G1 X109.658 Y97.396 E32.20297
G1 X103.820 Y91.558 E32.46931
G1 X104.115 Y92.566 E32.50316
G1 X109.464 Y97.915 E32.74720
G1 X109.270 Y98.433 E32.76505
G1 X104.152 Y93.315 E32.99852
G1 X104.092 Y93.968 E33.01966
G1 X109.076 Y98.951 E33.24700
G1 X108.882 Y99.470 E33.26486
G1 X103.972 Y94.560 E33.48884
G1 X103.785 Y95.085 E33.50683
G1 X108.687 Y99.988 E33.73049
G1 X108.493 Y100.506 E33.74834
G1 X103.544 Y95.556 E33.97416
G1 X103.275 Y96.000 E33.99090
G1 X108.299 Y101.024 E34.22011
G1 X108.105 Y101.543 E34.23797
G1 X102.937 Y96.374 E34.47376
G1 X102.598 Y96.748 E34.49003
G1 X107.911 Y102.061 E34.73241
G1 X107.717 Y102.579 E34.75027
G1 X102.175 Y97.038 E35.00310
G1 X101.743 Y97.317 E35.01972
G1 X107.375 Y102.950 E35.27670
G1 X106.881 Y103.168 E35.29412
G1 X101.250 Y97.536 E35.55105
G1 X100.711 Y97.710 E35.56931
G1 X106.387 Y103.387 E35.82828
G1 X105.893 Y103.605 E35.84571
G1 X100.110 Y97.821 E36.10958
G1 X99.431 Y97.855 E36.13149
G1 X105.399 Y103.823 E36.40378
G1 X104.869 Y104.005 E36.42188
G1 X98.597 Y97.733 E36.70801
G1 X97.474 Y97.323 F12000.000
G1 X104.267 Y104.116 E37.01793 F1200.000
G1 X103.666 Y104.227 E37.03765
G1 X88.870 Y89.431 E37.71269
G1 X88.967 Y88.816 E37.73278
G1 X95.483 Y95.332 E38.03005
G1 X95.107 Y94.243 F12000.000
G1 X89.156 Y88.292 E38.30155 F1200.000
G1 X89.344 Y87.768 E38.31951
G1 X95.031 Y93.455 E38.57898
G1 X95.039 Y92.750 E38.60172
G1 X89.532 Y87.244 E38.85293
G1 X89.721 Y86.720 E38.87090
G1 X95.165 Y92.164 E39.11927
G1 X95.322 Y91.609 E39.13788
G1 X89.909 Y86.196 E39.38486
G1 X90.181 Y85.755 E39.40155
G1 X95.564 Y91.138 E39.64713
G1 X95.806 Y90.668 E39.66419
G1 X90.462 Y85.324 E39.90797
G1 X90.743 Y84.893 E39.92458
G1 X96.144 Y90.294 E40.17097
G1 X96.482 Y89.920 E40.18724
G1 X91.025 Y84.462 E40.43623
G1 X91.306 Y84.031 E40.45284
G1 X96.880 Y89.605 E40.70713
G1 X97.313 Y89.326 E40.72376
G1 X91.599 Y83.611 E40.98444
G1 X91.960 Y83.260 E41.00070
G1 X97.777 Y89.077 E41.26609
G1 X98.316 Y88.904 E41.28435
G1 X92.321 Y82.909 E41.55786
G1 X92.682 Y82.557 E41.57411
G1 X98.879 Y88.755 E41.85684
G1 X99.557 Y88.721 E41.87875
G1 X93.043 Y82.206 E42.17596
G1 X93.404 Y81.855 E42.19222
G1 X100.330 Y88.781 E42.50818
G1 X101.302 Y89.040 E42.54064
G1 X93.765 Y81.504 E42.88448
G1 X88.798 Y90.072 F12000.000
G1 X103.065 Y104.339 E43.53537 F1200.000
G1 X102.464 Y104.450 E43.55509
G1 X88.727 Y90.712 E44.18183
G1 X88.655 Y91.353 E44.20262
G1 X101.788 Y104.486 E44.80181
G1 X101.038 Y104.449 E44.82604
G1 X88.615 Y92.026 E45.39281
G1 X88.714 Y92.837 E45.41918
G1 X100.288 Y104.411 E45.94722
G1 X99.539 Y104.374 E45.97144
G1 X88.813 Y93.648 E46.46075
G1 X88.912 Y94.460 E46.48712
G1 X98.646 Y104.193 E46.93118
G1 X97.641 Y103.901 E46.96495
G1 X89.193 Y95.453 E47.35037
G1 X89.612 Y96.584 F12000.000
G1 X96.636 Y103.608 E47.67083 F1200.000
G1 X95.160 Y102.845 F12000.000
G1 X90.145 Y97.829 E47.89964 F1200.000
G1 X91.568 Y99.965 F12000.000
G1 X92.037 Y100.433 E47.92100 F1200.000
G1 F1680.000 E45.92100
G92 E0
G1 X64.697 Y90.529 F12000.000
G1 E2.00000 F1680.000
G1 X65.300 Y91.462 E2.03581 F720.000
G1 X65.640 Y92.518 E2.07162
G1 X65.696 Y93.627 E2.10743
G1 X65.462 Y94.712 E2.14324
G1 X64.956 Y95.700 E2.17905
G1 X64.211 Y96.523 E2.21486
G1 X63.279 Y97.126 E2.25067
G1 X62.222 Y97.466 E2.28648
G1 X61.114 Y97.522 E2.32229
G1 X60.029 Y97.288 E2.35810
G1 X59.040 Y96.782 E2.39391
G1 X58.218 Y96.037 E2.42972
G1 X57.600 Y95.058 E2.46708
G1 X57.275 Y94.048 E2.50128
G1 X57.219 Y92.940 E2.53709
G1 X57.452 Y91.854 E2.57290
G1 X57.992 Y90.830 E2.61026
G1 X58.703 Y90.043 E2.64447
G1 X59.636 Y89.441 E2.68028
G1 X60.692 Y89.101 E2.71609
G1 X61.801 Y89.045 E2.75189
G1 X62.838 Y89.268 E2.78610
G1 X63.874 Y89.785 E2.82346 F720.000
G1 X64.642 Y90.479 E2.85685
G1 X81.688 Y74.966 F12000.000
G1 X79.820 Y78.549 E2.98722 F720.000
G1 X74.393 Y90.721 E3.41715
G1 X69.760 Y103.097 E3.84345
G1 X67.048 Y104.296 E3.93909
G1 X64.059 Y104.849 E4.03718
G1 X61.022 Y104.697 E4.13527
G1 X58.103 Y103.847 E4.23335
G1 X55.459 Y102.346 E4.33144
G1 X53.233 Y100.274 E4.42953
G1 X51.547 Y97.744 E4.52762
G1 X50.491 Y94.892 E4.62571
G1 X50.123 Y91.874 E4.72380
G1 X50.461 Y88.852 E4.82189
G1 X51.489 Y85.991 E4.91997
G1 X53.152 Y83.443 E5.01811
G1 X59.252 Y77.507 E5.29269
G1 X65.197 Y71.372 E5.56829
G1 X70.790 Y65.250 E5.83580
G1 X81.632 Y74.916 E6.30436
G1 X80.989 Y74.801 F12000.000
G1 X81.251 Y75.063 E6.31630 F1200.000
G1 X81.007 Y75.531 E6.33333
G1 X74.426 Y68.950 E6.63359
G1 X70.670 Y65.906 F12000.000
G1 X80.763 Y76.000 E7.09407 F1200.000
G1 X80.519 Y76.468 E7.11111
G1 X70.322 Y66.271 E7.57631
G1 X69.982 Y66.643 E7.59258
G1 X80.275 Y76.936 E8.06216
G1 X80.031 Y77.404 E8.07919
G1 X69.642 Y67.015 E8.55315
G1 X69.302 Y67.388 E8.56942
G1 X79.786 Y77.872 E9.04776
G1 X79.542 Y78.341 E9.06479
G1 X68.961 Y67.760 E9.54751
G1 X68.621 Y68.132 E9.56378
G1 X79.320 Y78.830 E10.05185
G1 X79.100 Y79.323 E10.06925
G1 X68.281 Y68.504 E10.56282
G1 X67.941 Y68.877 E10.57909
G1 X78.880 Y79.816 E11.07815
G1 X78.661 Y80.308 E11.09555
G1 X67.601 Y69.249 E11.60011
G1 X67.261 Y69.621 E11.61638
G1 X78.441 Y80.801 E12.12643
G1 X78.221 Y81.294 E12.14383
G1 X66.921 Y69.993 E12.65938
G1 X66.581 Y70.366 E12.67565
G1 X78.002 Y81.786 E13.19669
G1 X77.782 Y82.279 E13.21409
G1 X66.241 Y70.738 E13.74063
G1 X65.901 Y71.110 E13.75690
G1 X77.562 Y82.772 E14.28893
G1 X77.343 Y83.264 E14.30634
G1 X65.560 Y71.482 E14.84386
G1 X65.213 Y71.848 E14.86012
G1 X77.123 Y83.757 E15.40346
G1 X76.903 Y84.250 E15.42086
G1 X64.863 Y72.209 E15.97018
G1 X64.512 Y72.571 E15.98643
G1 X76.684 Y84.743 E16.54172
G1 X76.464 Y85.235 E16.55912
G1 X64.162 Y72.933 E17.12038
G1 X63.811 Y73.295 E17.13664
G1 X76.244 Y85.728 E17.70387
G1 X76.025 Y86.221 E17.72127
G1 X63.460 Y73.656 E18.29448
G1 X63.110 Y74.018 E18.31073
G1 X75.805 Y86.713 E18.88991
G1 X75.585 Y87.206 E18.90732
G1 X62.759 Y74.380 E19.49247
G1 X62.409 Y74.742 E19.50872
G1 X75.366 Y87.699 E20.09985
G1 X75.146 Y88.191 E20.11725
G1 X62.058 Y75.103 E20.71435
G1 X61.707 Y75.465 E20.73060
G1 X74.926 Y88.684 E21.33368
G1 X74.707 Y89.177 E21.35108
G1 X61.357 Y75.827 E21.96013
G1 X61.006 Y76.189 E21.97638
G1 X74.487 Y89.670 E22.59140
G1 X74.267 Y90.162 E22.60880
G1 X60.656 Y76.551 E23.22980
G1 X60.305 Y76.912 E23.24605
G1 X74.051 Y90.658 E23.87316
G1 X73.857 Y91.177 E23.89102
G1 X59.955 Y77.274 E24.52528
G1 X59.604 Y77.636 E24.54153
G1 X73.663 Y91.695 E25.18293
G1 X73.469 Y92.213 E25.20078
G1 X59.246 Y77.990 E25.84965
G1 X58.885 Y78.342 E25.86590
G1 X73.275 Y92.731 E26.52239
G1 X73.081 Y93.250 E26.54025
G1 X58.524 Y78.693 E27.20436
G1 X58.163 Y79.044 E27.22061
G1 X72.887 Y93.768 E27.89233
G1 X72.693 Y94.286 E27.91019
G1 X57.802 Y79.396 E28.58953
G1 X57.441 Y79.747 E28.60578
G1 X72.499 Y94.805 E29.29275
G1 X72.305 Y95.323 E29.31060
G1 X57.080 Y80.098 E30.00519
G1 X56.719 Y80.450 E30.02144
G1 X72.111 Y95.841 E30.72364
G1 X71.917 Y96.360 E30.74149
G1 X56.358 Y80.801 E31.45132
G1 X55.997 Y81.152 E31.46757
G1 X71.723 Y96.878 E32.18501
G1 X71.529 Y97.396 E32.20286
G1 X65.691 Y91.558 E32.46920
G1 X65.985 Y92.566 E32.50306
G1 X71.334 Y97.915 E32.74709
G1 X71.140 Y98.433 E32.76495
G1 X66.023 Y93.315 E32.99841
G1 X65.963 Y93.968 E33.01955
G1 X70.946 Y98.951 E33.24690
G1 X70.752 Y99.470 E33.26475
G1 X65.843 Y94.560 E33.48874
G1 X65.656 Y95.085 E33.50673
G1 X70.558 Y99.988 E33.73039
G1 X70.364 Y100.506 E33.74824
G1 X65.414 Y95.556 E33.97406
G1 X65.146 Y96.000 E33.99080
G1 X70.170 Y101.024 E34.22001
G1 X69.976 Y101.543 E34.23786
G1 X64.808 Y96.374 E34.47366
G1 X64.469 Y96.748 E34.48993
G1 X69.782 Y102.061 E34.73231
G1 X69.588 Y102.579 E34.75016
G1 X64.046 Y97.038 E35.00300
G1 X63.613 Y97.317 E35.01962
G1 X69.246 Y102.950 E35.27659
G1 X68.752 Y103.168 E35.29401
G1 X63.120 Y97.536 E35.55095
G1 X62.582 Y97.710 E35.56921
G1 X68.258 Y103.387 E35.82818
G1 X67.764 Y103.605 E35.84560
G1 X61.980 Y97.821 E36.10947
G1 X61.302 Y97.855 E36.13139
G1 X67.270 Y103.823 E36.40367
G1 X66.739 Y104.005 E36.42177
G1 X60.468 Y97.733 E36.70791
G1 X59.345 Y97.323 F12000.000
G1 X66.138 Y104.116 E37.01783 F1200.000
G1 X65.537 Y104.227 E37.03755
G1 X50.741 Y89.431 E37.71259
G1 X50.838 Y88.816 E37.73268
G1 X57.354 Y95.332 E38.02994
G1 X56.978 Y94.243 F12000.000
G1 X51.027 Y88.292 E38.30144 F1200.000
G1 X51.215 Y87.768 E38.31941
G1 X56.902 Y93.455 E38.57887
G1 X56.910 Y92.750 E38.60161
G1 X51.403 Y87.244 E38.85283
G1 X51.591 Y86.720 E38.87079
G1 X57.036 Y92.164 E39.11917
G1 X57.193 Y91.609 E39.13777
G1 X51.780 Y86.196 E39.38475
G1 X52.052 Y85.755 E39.40145
G1 X57.435 Y91.138 E39.64702
G1 X57.677 Y90.668 E39.66409
G1 X52.333 Y85.324 E39.90787
G1 X52.614 Y84.893 E39.92447
G1 X58.015 Y90.294 E40.17086
G1 X58.353 Y89.920 E40.18713
G1 X52.896 Y84.462 E40.43613
G1 X53.177 Y84.031 E40.45273
G1 X58.751 Y89.605 E40.70703
G1 X59.184 Y89.326 E40.72365
G1 X53.470 Y83.611 E40.98434
G1 X53.831 Y83.260 E41.00059
G1 X59.648 Y89.077 E41.26599
G1 X60.187 Y88.904 E41.28425
G1 X54.192 Y82.909 E41.55775
G1 X54.553 Y82.557 E41.57400
G1 X60.750 Y88.755 E41.85674
G1 X61.428 Y88.721 E41.87865
G1 X54.914 Y82.206 E42.17586
G1 X55.275 Y81.855 E42.19211
G1 X62.201 Y88.781 E42.50808
G1 X63.172 Y89.040 E42.54053
G1 X55.636 Y81.504 E42.88437
G1 X50.669 Y90.072 F12000.000
G1 X64.936 Y104.339 E43.53526 F1200.000
G1 X64.335 Y104.450 E43.55498
G1 X50.597 Y90.712 E44.18173
G1 X50.526 Y91.353 E44.20252
G1 X63.659 Y104.486 E44.80171
G1 X62.909 Y104.449 E44.82593
G1 X50.486 Y92.026 E45.39271
G1 X50.585 Y92.837 E45.41907
G1 X62.159 Y104.411 E45.94712
G1 X61.409 Y104.374 E45.97134
G1 X50.684 Y93.648 E46.46065
G1 X50.783 Y94.460 E46.48702
G1 X60.517 Y104.193 E46.93108
G1 X59.512 Y103.901 E46.96484
G1 X51.064 Y95.453 E47.35026
G1 X51.483 Y96.584 F12000.000
G1 X58.507 Y103.608 E47.67072 F1200.000
G1 X57.031 Y102.845 F12000.000
G1 X52.016 Y97.829 E47.89953 F1200.000
