; generated by Slic3r 0.9.8 on 2013-09-28 at 23:15:45

; layer_height = 0.25
; perimeters = 2
; top_solid_layers = 3
; bottom_solid_layers = 3
; fill_density = 0.9
; perimeter_speed = 40
; infill_speed = 50
; travel_speed = 200
; scale = 1
; nozzle_diameter = 0.5
; filament_diameter = 2.9
; extrusion_multiplier = 0.95
; perimeters extrusion width = 0.80mm
; infill extrusion width = 0.80mm
; first layer extrusion width = 0.77mm

M107
M190 S100 ; wait for bed temperature to be reached
M104 S230 ; set temperature
G28 ; home all axes
G1 Z15 F120 ; lift nozzle
M109 S230 ; wait for temperature to be reached
G90 ; use absolute coordinates
G21 ; set units to millimeters
G92 E0
M82 ; use absolute distances for extrusion
G1 F1680.000 E-2.00000
G92 E0
G1 Z0.438 F12000.000
G1 X103.190 Y104.020
G1 F1680.000 E2.00000
G1 X102.850 Y104.340 F1200.000 E2.02082
G1 X101.640 Y105.390 E2.09225
G1 X100.290 Y106.430 E2.16824
G1 X99.270 Y107.120 E2.22315
G1 X97.330 Y108.270 E2.32371
G1 X96.590 Y108.650 E2.36080
G1 X94.500 Y109.540 E2.46209
G1 X92.950 Y110.090 E2.53543
G1 X91.760 Y110.440 E2.59073
G1 X91.290 Y110.560 E2.61236
G1 X90.090 Y110.820 E2.66711
G1 X88.540 Y111.080 E2.73719
G1 X88.050 Y111.140 E2.75920
G1 X86.450 Y111.280 E2.83082
G1 X84.770 Y111.320 E2.90575
G1 X83.540 Y111.280 E2.96062
G1 X81.940 Y111.140 E3.03224
G1 X81.450 Y111.080 E3.05425
G1 X79.900 Y110.820 E3.12433
G1 X78.700 Y110.560 E3.17908
G1 X78.230 Y110.440 E3.20071
G1 X77.040 Y110.090 E3.25602
G1 X75.490 Y109.540 E3.32935
G1 X75.100 Y109.380 E3.34815
G1 X73.640 Y108.740 E3.41923
G1 X72.110 Y107.960 E3.49580
G1 X71.050 Y107.330 E3.55079
G1 X69.700 Y106.430 E3.62313
G1 X69.320 Y106.150 E3.64418
G1 X68.040 Y105.130 E3.71716
G1 X66.900 Y104.110 E3.78537
G1 X65.970 Y103.190 E3.84370
G1 X64.840 Y101.930 E3.91916
G1 X63.840 Y100.670 E3.99089
G1 X63.560 Y100.290 E4.01194
G1 X62.660 Y98.940 E4.08428
G1 X62.030 Y97.880 E4.13927
G1 X61.250 Y96.350 E4.21584
G1 X60.450 Y94.500 E4.30571
G1 X59.900 Y92.950 E4.37905
G1 X59.550 Y91.760 E4.43436
G1 X59.430 Y91.290 E4.45599
G1 X59.170 Y90.090 E4.51073
G1 X58.920 Y88.610 E4.57766
G1 X58.860 Y88.140 E4.59879
G1 X58.710 Y86.450 E4.67444
G1 X58.670 Y85.210 E4.72976
G1 X58.710 Y83.540 E4.80425
G1 X58.860 Y81.850 E4.87990
G1 X58.920 Y81.380 E4.90102
G1 X59.170 Y79.900 E4.96795
G1 X59.430 Y78.700 E5.02270
G1 X59.550 Y78.230 E5.04433
G1 X59.900 Y77.040 E5.09964
G1 X60.450 Y75.490 E5.17297
G1 X61.250 Y73.640 E5.26285
G1 X62.030 Y72.110 E5.33942
G1 X62.660 Y71.050 E5.39440
G1 X63.560 Y69.700 E5.46675
G1 X63.840 Y69.320 E5.48780
G1 X64.840 Y68.060 E5.55952
G1 X65.650 Y67.140 E5.61418
G1 X65.950 Y66.830 E5.63341
G1 X67.140 Y65.650 E5.70814
G1 X68.060 Y64.840 E5.76280
G1 X69.320 Y63.840 E5.83452
G1 X69.700 Y63.560 E5.85557
G1 X71.050 Y62.660 E5.92791
G1 X72.110 Y62.030 E5.98290
G1 X73.640 Y61.250 E6.05947
G1 X75.100 Y60.610 E6.13055
G1 X75.490 Y60.450 E6.14935
G1 X77.040 Y59.900 E6.22268
G1 X78.230 Y59.550 E6.27799
G1 X78.700 Y59.430 E6.29962
G1 X79.900 Y59.170 E6.35437
G1 X81.450 Y58.910 E6.42445
G1 X81.920 Y58.850 E6.44558
G1 X83.660 Y58.700 E6.52345
G1 X84.820 Y58.670 E6.57519
G1 X86.450 Y58.710 E6.64789
G1 X88.050 Y58.850 E6.71951
G1 X88.540 Y58.910 E6.74152
G1 X90.090 Y59.170 E6.81160
G1 X91.290 Y59.430 E6.86635
G1 X91.760 Y59.550 E6.88798
G1 X92.950 Y59.900 E6.94329
G1 X94.500 Y60.450 E7.01662
G1 X96.350 Y61.250 E7.10649
G1 X97.880 Y62.030 E7.18307
G1 X98.940 Y62.660 E7.23805
G1 X100.290 Y63.560 E7.31040
G1 X100.670 Y63.840 E7.33144
G1 X101.930 Y64.840 E7.40317
G1 X103.190 Y65.970 E7.47864
G1 X104.110 Y66.900 E7.53697
G1 X105.130 Y68.040 E7.60518
G1 X106.150 Y69.320 E7.67816
G1 X106.430 Y69.700 E7.69920
G1 X107.330 Y71.050 E7.77155
G1 X107.960 Y72.110 E7.82653
G1 X108.900 Y73.970 E7.91946
G1 X109.420 Y75.170 E7.97777
G1 X110.090 Y77.040 E8.06634
G1 X110.440 Y78.230 E8.12165
G1 X110.560 Y78.700 E8.14328
G1 X110.820 Y79.900 E8.19803
G1 X111.080 Y81.450 E8.26811
G1 X111.140 Y81.940 E8.29012
G1 X111.280 Y83.540 E8.36174
G1 X111.320 Y84.770 E8.41661
G1 X111.280 Y86.450 E8.49154
G1 X111.140 Y88.050 E8.56316
G1 X111.080 Y88.540 E8.58517
G1 X110.820 Y90.090 E8.65525
G1 X110.560 Y91.290 E8.71000
G1 X110.440 Y91.760 E8.73162
G1 X110.090 Y92.950 E8.78693
G1 X109.540 Y94.500 E8.86027
G1 X109.380 Y94.890 E8.87906
G1 X108.740 Y96.350 E8.95015
G1 X108.190 Y97.450 E9.00498
G1 X107.960 Y97.880 E9.02673
G1 X107.120 Y99.270 E9.09914
G1 X106.430 Y100.290 E9.15405
G1 X105.390 Y101.640 E9.23004
G1 X104.360 Y102.820 E9.29988
G1 X103.265 Y103.944 E9.36987
G1 X103.190 Y104.020 E9.37461
G1 F1680.000 E7.37461
G92 E0
G1 X85.000 Y66.092 F12000.000
G1 F1680.000 E2.00000
G1 X86.187 Y66.129 F1200.000 E2.05296
G1 X87.370 Y66.241 E2.10593
G1 X88.543 Y66.427 E2.15889
G1 X89.702 Y66.686 E2.21186
G1 X90.843 Y67.017 E2.26482
G1 X91.961 Y67.420 E2.31779
G1 X93.051 Y67.892 E2.37075
G1 X94.109 Y68.431 E2.42372
G1 X95.131 Y69.035 E2.47668
G1 X96.114 Y69.703 E2.52965
G1 X97.052 Y70.431 E2.58261
G1 X97.978 Y71.251 E2.63775
G1 X98.783 Y72.057 E2.68853
G1 X99.569 Y72.948 E2.74150
G1 X100.297 Y73.886 E2.79446
G1 X100.965 Y74.869 E2.84743
G1 X101.569 Y75.891 E2.90039
G1 X102.108 Y76.949 E2.95336
G1 X102.580 Y78.039 E3.00632
G1 X102.983 Y79.157 E3.05929
G1 X103.314 Y80.298 E3.11225
G1 X103.573 Y81.457 E3.16521
G1 X103.759 Y82.630 E3.21818
G1 X103.871 Y83.813 E3.27114
G1 X103.908 Y85.000 E3.32411
G1 X103.871 Y86.187 E3.37707
G1 X103.759 Y87.370 E3.43004
G1 X103.573 Y88.543 E3.48300
G1 X103.314 Y89.702 E3.53597
G1 X102.983 Y90.843 E3.58893
G1 X102.580 Y91.961 E3.64189
G1 X102.108 Y93.051 E3.69486
G1 X101.569 Y94.109 E3.74782
G1 X100.965 Y95.131 E3.80079
G1 X100.297 Y96.114 E3.85375
G1 X99.599 Y97.014 E3.90453
G1 X98.783 Y97.943 E3.95968
G1 X97.943 Y98.783 E4.01264
G1 X97.089 Y99.536 E4.06342
G1 X96.114 Y100.297 E4.11857
G1 X95.131 Y100.965 E4.17153
G1 X94.109 Y101.569 E4.22449
G1 X93.051 Y102.108 E4.27746
G1 X91.961 Y102.580 E4.33042
G1 X90.843 Y102.983 E4.38339
G1 X89.702 Y103.314 E4.43635
G1 X88.543 Y103.573 E4.48932
G1 X87.370 Y103.759 E4.54228
G1 X86.187 Y103.871 E4.59525
G1 X85.392 Y103.896 E4.63072
G1 X85.000 Y103.908 E4.64821
G1 X83.813 Y103.871 E4.70118
G1 X82.630 Y103.759 E4.75414
G1 X81.457 Y103.573 E4.80711
G1 X80.298 Y103.314 E4.86007
G1 X79.157 Y102.983 E4.91303
G1 X78.039 Y102.580 E4.96600
G1 X76.949 Y102.108 E5.01896
G1 X75.891 Y101.569 E5.07193
G1 X74.869 Y100.965 E5.12489
G1 X73.886 Y100.297 E5.17786
G1 X72.986 Y99.599 E5.22864
G1 X72.057 Y98.783 E5.28378
G1 X71.217 Y97.943 E5.33675
G1 X70.431 Y97.052 E5.38971
G1 X69.703 Y96.114 E5.44267
G1 X69.063 Y95.172 E5.49345
G1 X68.431 Y94.109 E5.54860
G1 X67.892 Y93.051 E5.60156
G1 X67.420 Y91.961 E5.65453
G1 X67.017 Y90.843 E5.70749
G1 X66.686 Y89.702 E5.76046
G1 X66.427 Y88.543 E5.81342
G1 X66.241 Y87.370 E5.86639
G1 X66.129 Y86.187 E5.91935
G1 X66.092 Y85.000 E5.97231
G1 X66.129 Y83.813 E6.02528
G1 X66.241 Y82.630 E6.07824
G1 X66.427 Y81.457 E6.13121
G1 X66.686 Y80.298 E6.18417
G1 X67.017 Y79.157 E6.23714
G1 X67.420 Y78.039 E6.29010
G1 X67.892 Y76.949 E6.34307
G1 X68.431 Y75.891 E6.39603
G1 X69.035 Y74.869 E6.44900
G1 X69.703 Y73.886 E6.50196
G1 X70.431 Y72.948 E6.55492
G1 X71.217 Y72.057 E6.60789
G1 X72.057 Y71.217 E6.66085
G1 X72.948 Y70.431 E6.71382
G1 X73.886 Y69.703 E6.76678
G1 X74.869 Y69.035 E6.81975
G1 X75.891 Y68.431 E6.87271
G1 X76.949 Y67.892 E6.92568
G1 X78.039 Y67.420 E6.97864
G1 X79.157 Y67.017 E7.03160
G1 X80.298 Y66.686 E7.08457
G1 X81.457 Y66.427 E7.13753
G1 X82.630 Y66.241 E7.19050
G1 X83.813 Y66.129 E7.24346
G1 X84.894 Y66.095 E7.29169
G1 X85.000 Y66.092 E7.29643
G1 X85.000 Y65.383 F12000.000
G1 X86.232 Y65.422 F960.000 E7.35138
G1 X87.459 Y65.538 E7.40633
G1 X88.676 Y65.730 E7.46128
G1 X89.879 Y65.999 E7.51623
G1 X91.062 Y66.343 E7.57118
G1 X92.221 Y66.761 E7.62613
G1 X93.353 Y67.250 E7.68108
G1 X94.451 Y67.809 E7.73603
G1 X95.511 Y68.437 E7.79098
G1 X96.531 Y69.130 E7.84593
G1 X97.504 Y69.885 E7.90088
G1 X98.429 Y70.700 E7.95583
G1 X99.347 Y71.625 E8.01395
G1 X100.115 Y72.496 E8.06573
G1 X100.870 Y73.469 E8.12068
G1 X101.563 Y74.489 E8.17563
G1 X102.191 Y75.549 E8.23058
G1 X102.750 Y76.647 E8.28553
G1 X103.264 Y77.846 E8.34365
G1 X103.657 Y78.938 E8.39542
G1 X104.001 Y80.121 E8.45037
G1 X104.270 Y81.324 E8.50532
G1 X104.462 Y82.541 E8.56027
G1 X104.578 Y83.768 E8.61523
G1 X104.617 Y85.000 E8.67018
G1 X104.578 Y86.232 E8.72513
G1 X104.462 Y87.459 E8.78008
G1 X104.270 Y88.676 E8.83503
G1 X104.001 Y89.879 E8.88998
G1 X103.657 Y91.062 E8.94493
G1 X103.239 Y92.221 E8.99988
G1 X102.750 Y93.353 E9.05483
G1 X102.191 Y94.451 E9.10978
G1 X101.563 Y95.511 E9.16473
G1 X100.870 Y96.531 E9.21968
G1 X100.115 Y97.504 E9.27463
G1 X99.347 Y98.375 E9.32640
G1 X98.429 Y99.300 E9.38452
G1 X97.504 Y100.115 E9.43948
G1 X96.531 Y100.870 E9.49443
G1 X95.511 Y101.563 E9.54938
G1 X93.934 Y102.496 E9.63108
G1 X93.934 Y102.454 E9.63296
G1 X93.353 Y102.750 E9.66207
G1 X92.221 Y103.239 E9.71702
G1 X91.062 Y103.657 E9.77197
G1 X89.879 Y104.001 E9.82692
G1 X88.676 Y104.270 E9.88187
G1 X87.459 Y104.462 E9.93682
G1 X86.232 Y104.578 E9.99177
G1 X85.000 Y104.617 E10.04672
G1 X83.768 Y104.578 E10.10167
G1 X82.541 Y104.462 E10.15662
G1 X81.324 Y104.270 E10.21158
G1 X80.121 Y104.001 E10.26653
G1 X78.938 Y103.657 E10.32148
G1 X77.778 Y103.239 E10.37643
G1 X76.647 Y102.750 E10.43138
G1 X75.549 Y102.191 E10.48633
G1 X74.489 Y101.563 E10.54128
G1 X73.469 Y100.870 E10.59623
G1 X72.496 Y100.115 E10.65118
G1 X71.625 Y99.347 E10.70295
G1 X70.700 Y98.429 E10.76107
G1 X69.885 Y97.504 E10.81602
G1 X69.130 Y96.531 E10.87097
G1 X68.437 Y95.511 E10.92592
G1 X67.809 Y94.451 E10.98088
G1 X67.250 Y93.353 E11.03583
G1 X66.761 Y92.221 E11.09078
G1 X66.343 Y91.062 E11.14573
G1 X65.999 Y89.879 E11.20068
G1 X65.730 Y88.676 E11.25563
G1 X65.549 Y87.529 E11.30740
G1 X65.422 Y86.232 E11.36552
G1 X65.383 Y85.000 E11.42047
G1 X65.422 Y83.768 E11.47542
G1 X65.549 Y82.471 E11.53354
G1 X65.730 Y81.324 E11.58532
G1 X65.999 Y80.121 E11.64027
G1 X66.343 Y78.938 E11.69522
G1 X66.761 Y77.778 E11.75017
G1 X67.250 Y76.647 E11.80512
G1 X67.809 Y75.549 E11.86007
G1 X68.437 Y74.489 E11.91502
G1 X69.130 Y73.469 E11.96997
G1 X69.885 Y72.496 E12.02492
G1 X70.700 Y71.571 E12.07987
G1 X71.571 Y70.700 E12.13482
G1 X72.496 Y69.885 E12.18977
G1 X73.469 Y69.130 E12.24472
G1 X74.489 Y68.437 E12.29967
G1 X75.549 Y67.809 E12.35462
G1 X76.647 Y67.250 E12.40957
G1 X77.778 Y66.761 E12.46452
G1 X78.938 Y66.343 E12.51948
G1 X80.121 Y65.999 E12.57443
G1 X81.324 Y65.730 E12.62938
G1 X82.541 Y65.538 E12.68433
G1 X83.768 Y65.422 E12.73928
G1 X84.894 Y65.386 E12.78949
G1 X85.000 Y65.383 E12.79423
G1 X85.348 Y66.000 F12000.000
G1 F1680.000 E10.79423
G92 E0
G1 X93.543 Y68.827 F12000.000
G1 F1680.000 E2.00000
G1 X101.173 Y76.457 F1800.000 E2.48436
G1 X102.081 Y78.374 E2.57954
G1 X91.626 Y67.919 E3.24317
G1 X90.069 Y67.370 E3.31731
G1 X102.630 Y79.931 E4.11468
G1 X102.986 Y81.297 E4.17802
G1 X88.703 Y67.014 E5.08471
G1 X87.464 Y66.784 E5.14127
G1 X103.216 Y82.536 E6.14119
G1 X103.351 Y83.679 E6.19284
G1 X86.321 Y66.649 E7.27383
G1 X85.253 Y66.590 E7.32184
G1 X103.410 Y84.747 E8.47436
G1 X103.408 Y85.754 E8.51957
G1 X84.246 Y66.592 E9.73594
G1 X83.290 Y66.645 E9.77892
G1 X103.355 Y86.710 E11.05262
G1 X103.262 Y87.626 E11.09394
G1 X82.374 Y66.738 E12.41987
G1 X81.503 Y66.876 E12.45945
G1 X103.124 Y88.497 E13.83190
G1 X102.947 Y89.328 E13.87008
G1 X80.672 Y67.053 E15.28412
G1 X79.868 Y67.258 E15.32135
G1 X102.742 Y90.132 E16.77338
G1 X102.512 Y90.911 E16.80981
G1 X79.089 Y67.488 E18.29663
G1 X78.348 Y67.755 E18.33202
G1 X102.245 Y91.652 E19.84897
G1 X101.954 Y92.370 E19.88374
G1 X77.630 Y68.046 E21.42780
G1 X76.931 Y68.356 E21.46212
G1 X101.644 Y93.069 E23.03089
G1 X101.304 Y93.738 E23.06456
G1 X76.262 Y68.696 E24.65413
G1 X75.615 Y69.058 E24.68741
G1 X100.942 Y94.385 E26.29510
G1 X100.565 Y95.016 E26.32812
G1 X74.984 Y69.435 E27.95197
G1 X74.383 Y69.843 E27.98457
G1 X100.157 Y95.617 E29.62064
G1 X99.733 Y96.202 E29.65306
G1 X73.798 Y70.267 E31.29932
G1 X73.230 Y70.708 E31.33159
G1 X99.292 Y96.770 E32.98594
G1 X98.822 Y97.309 E33.01803
G1 X72.691 Y71.178 E34.67681
G1 X72.164 Y71.660 E34.70886
G1 X98.339 Y97.835 E36.37039
G1 X97.835 Y98.340 E36.40241
G1 X71.660 Y72.164 E38.06399
G1 X71.178 Y72.691 E38.09604
G1 X97.309 Y98.822 E39.75482
G1 X96.770 Y99.292 E39.78691
G1 X70.708 Y73.230 E41.44126
G1 X70.267 Y73.798 E41.47354
G1 X96.202 Y99.733 E43.11980
G1 X95.617 Y100.157 E43.15222
G1 X69.844 Y74.384 E44.78824
G1 X69.435 Y74.984 E44.82082
G1 X95.016 Y100.565 E46.44467
G1 X94.385 Y100.942 E46.47770
G1 X69.058 Y75.615 E48.08539
G1 X68.696 Y76.262 E48.11866
G1 X93.738 Y101.304 E49.70824
G1 X93.069 Y101.644 E49.74190
G1 X68.356 Y76.931 E51.31067
G1 X68.046 Y77.630 E51.34499
G1 X92.370 Y101.954 E52.88906
G1 X91.652 Y102.245 E52.92383
G1 X67.755 Y78.348 E54.44078
G1 X67.488 Y79.089 E54.47617
G1 X90.911 Y102.512 E55.96298
G1 X90.132 Y102.742 E55.99942
G1 X67.258 Y79.868 E57.45145
G1 X67.053 Y80.672 E57.48868
G1 X89.328 Y102.947 E58.90272
G1 X88.497 Y103.124 E58.94090
G1 X66.876 Y81.503 E60.31335
G1 X66.738 Y82.374 E60.35293
G1 X87.626 Y103.262 E61.67886
G1 X86.711 Y103.356 E61.72014
G1 X66.644 Y83.289 E62.99398
G1 X66.592 Y84.246 E63.03700
G1 X85.754 Y103.408 E64.25337
G1 X84.747 Y103.410 E64.29858
G1 X66.591 Y85.254 E65.45104
G1 X66.649 Y86.321 E65.49900
G1 X83.679 Y103.351 E66.57999
G1 X82.536 Y103.216 E66.63165
G1 X66.784 Y87.464 E67.63157
G1 X67.014 Y88.703 E67.68813
G1 X81.297 Y102.986 E68.59482
G1 X79.931 Y102.629 E68.65820
G1 X67.370 Y90.068 E69.45553
G1 X67.919 Y91.626 E69.52966
G1 X78.374 Y102.081 E70.19330
G1 X76.457 Y101.173 E70.28848
G1 X68.831 Y93.546 E70.77262
G1 F1680.000 E68.77262
G92 E0
G1 X71.507 Y97.232 F12000.000
G1 F1680.000 E2.00000
G1 X72.008 Y97.733 F1800.000 E2.03184
G1 F1680.000 E0.03184
G92 E0
G1 X97.724 Y71.999 F12000.000
G1 F1680.000 E2.00000
G1 X97.232 Y71.507 F1800.000 E2.03122
M106 S250
M104 S225 ; set temperature
M140 S105 ; set bed temperature
G1 F1680.000 E0.03122
G92 E0
G1 Z0.688 F12000.000
G1 X79.174 Y102.930
G1 F1680.000 E2.00000
G1 X78.060 Y102.529 F2400.000 E2.03178
G1 X76.973 Y102.059 E2.06357
G1 X75.917 Y101.521 E2.09535
G1 X74.898 Y100.918 E2.12714
G1 X74.066 Y100.353 E2.15414
G1 X72.983 Y99.527 E2.19070
G1 X72.094 Y98.743 E2.22248
G1 X71.383 Y98.032 E2.24948
G1 X70.473 Y97.017 E2.28604
G1 X69.748 Y96.082 E2.31783
G1 X69.182 Y95.249 E2.34483
G1 X68.479 Y94.083 E2.38139
G1 X67.941 Y93.027 E2.41317
G1 X67.542 Y92.104 E2.44017
G1 X67.070 Y90.826 E2.47673
G1 X66.739 Y89.689 E2.50851
G1 X66.418 Y88.252 E2.54802
G1 X66.436 Y88.252 E2.54851
G1 X66.296 Y87.363 E2.57267
G1 X66.184 Y86.184 E2.60445
G1 X66.147 Y85.000 E2.63623
G1 X66.184 Y83.816 E2.66802
G1 X66.296 Y82.637 E2.69980
G1 X66.520 Y81.293 E2.73636
G1 X66.739 Y80.311 E2.76336
G1 X67.070 Y79.174 E2.79515
G1 X67.542 Y77.896 E2.83170
G1 X67.941 Y76.973 E2.85871
G1 X68.479 Y75.917 E2.89049
G1 X69.082 Y74.898 E2.92227
G1 X69.748 Y73.918 E2.95406
G1 X70.473 Y72.983 E2.98584
G1 X71.257 Y72.094 E3.01763
G1 X72.094 Y71.257 E3.04941
G1 X72.983 Y70.473 E3.08120
G1 X73.918 Y69.748 E3.11298
G1 X74.898 Y69.082 E3.14476
G1 X76.076 Y68.398 E3.18132
G1 X76.973 Y67.941 E3.20832
G1 X78.060 Y67.471 E3.24011
G1 X79.174 Y67.070 E3.27189
G1 X80.311 Y66.739 E3.30368
G1 X81.467 Y66.481 E3.33546
G1 X82.637 Y66.296 E3.36724
G1 X83.816 Y66.184 E3.39903
G1 X85.000 Y66.147 E3.43081
G1 X86.184 Y66.184 E3.46260
G1 X87.363 Y66.296 E3.49438
G1 X88.707 Y66.520 E3.53094
G1 X89.689 Y66.739 E3.55794
G1 X90.826 Y67.070 E3.58973
G1 X92.104 Y67.542 E3.62628
G1 X93.027 Y67.941 E3.65329
G1 X94.083 Y68.479 E3.68507
G1 X95.249 Y69.182 E3.72163
G1 X96.082 Y69.748 E3.74863
G1 X97.017 Y70.473 E3.78041
G1 X98.032 Y71.383 E3.81697
G1 X98.743 Y72.094 E3.84397
G1 X99.527 Y72.983 E3.87576
G1 X100.353 Y74.066 E3.91232
G1 X100.918 Y74.898 E3.93932
G1 X101.521 Y75.917 E3.97110
G1 X102.059 Y76.973 E4.00289
G1 X102.529 Y78.060 E4.03467
G1 X102.930 Y79.174 E4.06646
G1 X103.261 Y80.311 E4.09824
G1 X103.519 Y81.467 E4.13002
G1 X103.704 Y82.637 E4.16181
G1 X103.816 Y83.816 E4.19359
G1 X103.853 Y85.000 E4.22538
G1 X103.821 Y86.006 E4.25238
G1 X103.704 Y87.363 E4.28894
