; generated by Slic3r 0.9.10b on 2013-11-30 at 23:40:28

; layer_height = 0.3
; perimeters = 1
; top_solid_layers = 2
; bottom_solid_layers = 2
; fill_density = 0.2
; perimeter_speed = 30
; infill_speed = 30
; travel_speed = 200
; nozzle_diameter = 0.5
; filament_diameter = 2.9
; extrusion_multiplier = 0.95
; perimeters extrusion width = 0.50mm
; infill extrusion width = 0.50mm
; solid infill extrusion width = 0.50mm
; top infill extrusion width = 0.50mm

G21 ; set units to millimeters
M107
M190 S100 ; wait for bed temperature to be reached
M104 S240 ; set temperature
G28 ; home all axes
G1 Z15 F120 ; lift nozzle
M109 S240 ; wait for temperature to be reached
G90 ; use absolute coordinates
G92 E0
M82 ; use absolute distances for extrusion
G1 F1680.000 E-2.00000
G92 E0
G1 Z0.450 F12000.000
G1 X66.700 Y65.820
G1 F1680.000 E2.00000
G1 X67.940 Y64.710 F900.000 E2.05386
G1 X68.260 Y64.450 E2.06720
G1 X69.250 Y63.680 E2.10779
G1 X70.650 Y62.720 E2.16272
G1 X72.410 Y61.680 E2.22887
G1 X73.890 Y60.940 E2.28242
G1 X75.400 Y60.290 E2.33562
G1 X76.580 Y59.860 E2.37626
G1 X78.210 Y59.380 E2.43125
G1 X78.630 Y59.270 E2.44530
G1 X80.210 Y58.930 E2.49760
G1 X81.450 Y58.730 E2.53825
G1 X83.240 Y58.560 E2.59644
G1 X83.650 Y58.530 E2.60974
G1 X85.140 Y58.500 E2.65797
G1 X86.400 Y58.530 E2.69875
G1 X86.870 Y58.560 E2.71399
G1 X88.540 Y58.730 E2.76832
G1 X89.780 Y58.930 E2.80896
G1 X91.360 Y59.270 E2.86126
G1 X92.990 Y59.730 E2.91607
G1 X93.410 Y59.860 E2.93030
G1 X94.590 Y60.290 E2.97094
G1 X94.950 Y60.440 E2.98356
G1 X96.100 Y60.940 E3.02414
G1 X97.580 Y61.680 E3.07769
G1 X99.020 Y62.520 E3.13164
G1 X100.380 Y63.420 E3.18441
G1 X101.730 Y64.450 E3.23936
G1 X102.060 Y64.730 E3.25337
G1 X103.350 Y65.880 E3.30929
G1 X104.170 Y66.700 E3.34682
G1 X105.280 Y67.940 E3.40068
G1 X105.540 Y68.260 E3.41402
G1 X106.310 Y69.250 E3.45461
G1 X107.270 Y70.650 E3.50954
G1 X108.310 Y72.410 E3.57570
G1 X109.050 Y73.890 E3.62924
G1 X109.700 Y75.400 E3.68244
G1 X110.130 Y76.580 E3.72309
G1 X110.610 Y78.210 E3.77807
G1 X110.720 Y78.630 E3.79212
G1 X111.060 Y80.210 E3.84442
G1 X111.260 Y81.450 E3.88507
G1 X111.430 Y83.120 E3.93939
G1 X111.460 Y83.580 E3.95431
G1 X111.490 Y85.140 E4.00480
G1 X111.460 Y86.400 E4.04559
G1 X111.430 Y86.870 E4.06083
G1 X111.260 Y88.540 E4.11515
G1 X111.060 Y89.780 E4.15580
G1 X110.720 Y91.360 E4.20810
G1 X110.260 Y92.990 E4.26291
G1 X110.130 Y93.410 E4.27713
G1 X109.700 Y94.590 E4.31778
G1 X109.550 Y94.950 E4.33040
G1 X109.050 Y96.100 E4.37098
G1 X108.310 Y97.580 E4.42452
G1 X107.470 Y99.020 E4.47847
G1 X106.570 Y100.380 E4.53125
G1 X106.310 Y100.740 E4.54562
G1 X105.280 Y102.050 E4.59955
G1 X104.170 Y103.290 E4.65340
G1 X103.350 Y104.110 E4.69093
G1 X101.730 Y105.540 E4.76086
G1 X100.740 Y106.310 E4.80144
G1 X99.340 Y107.270 E4.85638
G1 X97.580 Y108.310 E4.92253
G1 X96.100 Y109.050 E4.97608
G1 X94.590 Y109.700 E5.02928
G1 X93.410 Y110.130 E5.06992
G1 X91.780 Y110.610 E5.12491
G1 X91.360 Y110.720 E5.13896
G1 X89.780 Y111.060 E5.19126
G1 X88.540 Y111.260 E5.23191
G1 X86.870 Y111.430 E5.28623
G1 X86.400 Y111.460 E5.30147
G1 X84.830 Y111.490 E5.35228
G1 X83.580 Y111.460 E5.39275
G1 X83.120 Y111.430 E5.40766
G1 X81.450 Y111.260 E5.46199
G1 X80.210 Y111.060 E5.50263
G1 X78.630 Y110.720 E5.55493
G1 X77.000 Y110.260 E5.60974
G1 X76.580 Y110.130 E5.62397
G1 X75.400 Y109.700 E5.66461
G1 X75.040 Y109.550 E5.67723
G1 X73.890 Y109.050 E5.71781
G1 X72.410 Y108.310 E5.77136
G1 X70.970 Y107.470 E5.82531
G1 X69.610 Y106.570 E5.87808
G1 X69.250 Y106.310 E5.89245
G1 X67.940 Y105.280 E5.94638
G1 X66.700 Y104.170 E6.00024
G1 X65.880 Y103.350 E6.03777
G1 X64.450 Y101.730 E6.10769
G1 X63.680 Y100.740 E6.14828
G1 X62.720 Y99.340 E6.20321
G1 X61.680 Y97.580 E6.26937
G1 X60.940 Y96.100 E6.32292
G1 X60.290 Y94.590 E6.37612
G1 X59.860 Y93.410 E6.41676
G1 X59.380 Y91.780 E6.47175
G1 X59.270 Y91.360 E6.48580
G1 X58.930 Y89.780 E6.53810
G1 X58.730 Y88.540 E6.57874
G1 X58.560 Y86.870 E6.63306
G1 X58.530 Y86.400 E6.64830
G1 X58.500 Y84.830 E6.69912
G1 X58.530 Y83.580 E6.73958
G1 X58.560 Y83.120 E6.75450
G1 X58.730 Y81.450 E6.80882
G1 X58.930 Y80.210 E6.84947
G1 X59.270 Y78.630 E6.90177
G1 X59.730 Y77.000 E6.95658
G1 X59.860 Y76.580 E6.97081
G1 X60.290 Y75.400 E7.01145
G1 X60.440 Y75.040 E7.02407
G1 X60.940 Y73.890 E7.06465
G1 X61.680 Y72.410 E7.11820
G1 X62.520 Y70.970 E7.17214
G1 X63.420 Y69.610 E7.22492
G1 X63.680 Y69.250 E7.23929
G1 X64.710 Y67.940 E7.29322
G1 X65.820 Y66.700 E7.34707
G1 X66.647 Y65.873 E7.38492
G1 F1680.000 E5.38492
G92 E0
G1 X71.480 Y70.603 F12000.000
G1 F1680.000 E2.00000
G1 X72.472 Y69.735 F720.000 E2.04266
G1 X73.391 Y69.022 E2.08030
G1 X74.417 Y68.325 E2.12045
G1 X75.485 Y67.693 E2.16060
G1 X76.591 Y67.130 E2.20075
G1 X77.730 Y66.637 E2.24090
G1 X78.897 Y66.217 E2.28105
G1 X80.088 Y65.871 E2.32120
G1 X81.299 Y65.600 E2.36135
G1 X82.525 Y65.406 E2.40150
G1 X83.760 Y65.289 E2.44165
G1 X85.000 Y65.250 E2.48180
G1 X86.240 Y65.289 E2.52195
G1 X87.475 Y65.406 E2.56211
G1 X88.701 Y65.600 E2.60226
G1 X89.912 Y65.871 E2.64241
G1 X91.176 Y66.243 E2.68507
G1 X92.270 Y66.637 E2.72270
G1 X93.409 Y67.130 E2.76285
G1 X94.515 Y67.693 E2.80300
G1 X95.583 Y68.325 E2.84316
G1 X96.609 Y69.022 E2.88331
G1 X97.647 Y69.834 E2.92597
G1 X98.520 Y70.603 E2.96360
G1 X99.397 Y71.480 E3.00375
G1 X100.265 Y72.472 E3.04642
G1 X100.978 Y73.391 E3.08405
G1 X101.675 Y74.417 E3.12420
G1 X102.307 Y75.485 E3.16435
G1 X102.870 Y76.591 E3.20450
G1 X103.389 Y77.803 E3.24717
G1 X103.783 Y78.897 E3.28480
G1 X104.129 Y80.088 E3.32495
G1 X104.400 Y81.299 E3.36510
G1 X104.594 Y82.525 E3.40525
G1 X104.711 Y83.760 E3.44540
G1 X104.750 Y85.000 E3.48555
G1 X104.711 Y86.240 E3.52570
G1 X104.594 Y87.475 E3.56585
G1 X104.400 Y88.701 E3.60600
G1 X104.129 Y89.912 E3.64616
G1 X103.783 Y91.103 E3.68631
G1 X103.389 Y92.197 E3.72394
G1 X102.870 Y93.409 E3.76660
G1 X102.307 Y94.515 E3.80675
G1 X101.675 Y95.583 E3.84690
G1 X100.978 Y96.609 E3.88705
G1 X100.218 Y97.589 E3.92721
G1 X99.448 Y98.461 E3.96484
G1 X98.520 Y99.397 E4.00750
G1 X97.589 Y100.218 E4.04765
G1 X96.670 Y100.930 E4.08529
G1 X95.583 Y101.675 E4.12795
G1 X94.515 Y102.307 E4.16810
G1 X93.409 Y102.870 E4.20825
G1 X92.270 Y103.363 E4.24840
G1 X91.176 Y103.757 E4.28603
G1 X89.912 Y104.129 E4.32870
G1 X88.701 Y104.400 E4.36885
G1 X87.475 Y104.594 E4.40900
G1 X86.240 Y104.711 E4.44915
G1 X85.000 Y104.750 E4.48930
G1 X83.760 Y104.711 E4.52945
G1 X82.525 Y104.594 E4.56960
G1 X81.299 Y104.400 E4.60975
G1 X80.088 Y104.129 E4.64990
G1 X78.897 Y103.783 E4.69005
G1 X77.803 Y103.389 E4.72769
G1 X76.591 Y102.870 E4.77035
G1 X75.485 Y102.307 E4.81050
G1 X74.417 Y101.675 E4.85065
G1 X73.391 Y100.978 E4.89080
G1 X72.411 Y100.218 E4.93095
G1 X71.480 Y99.397 E4.97110
G1 X70.603 Y98.520 E5.01126
G1 X69.782 Y97.589 E5.05141
G1 X69.022 Y96.609 E5.09156
G1 X68.325 Y95.583 E5.13171
G1 X67.693 Y94.515 E5.17186
G1 X67.165 Y93.478 E5.20949
G1 X66.637 Y92.270 E5.25215
G1 X66.217 Y91.103 E5.29231
G1 X65.871 Y89.912 E5.33246
G1 X65.600 Y88.701 E5.37261
G1 X65.406 Y87.475 E5.41276
G1 X65.289 Y86.240 E5.45291
G1 X65.250 Y85.000 E5.49306
G1 X65.289 Y83.760 E5.53321
G1 X65.406 Y82.525 E5.57336
G1 X65.600 Y81.299 E5.61351
G1 X65.892 Y80.014 E5.65618
G1 X66.217 Y78.897 E5.69381
G1 X66.637 Y77.730 E5.73396
G1 X67.130 Y76.591 E5.77411
G1 X67.693 Y75.485 E5.81426
G1 X68.325 Y74.417 E5.85441
G1 X69.022 Y73.391 E5.89456
G1 X69.782 Y72.411 E5.93471
G1 X70.603 Y71.480 E5.97486
G1 X71.427 Y70.656 E6.01259
G1 X95.740 Y68.869 F12000.000
G1 X101.130 Y74.260 F1200.000 E6.25930
G1 X102.162 Y75.999 E6.32472
G1 X94.001 Y67.838 E6.69820
G1 X92.654 Y67.198 E6.74648
G1 X102.802 Y77.346 E7.21095
G1 X103.259 Y78.510 E7.25139
G1 X91.490 Y66.741 E7.79000
G1 X90.444 Y66.403 E7.82556
G1 X103.597 Y79.556 E8.42751
G1 X103.855 Y80.520 E8.45981
G1 X89.480 Y66.145 E9.11766
G1 X88.574 Y65.947 E9.14767
G1 X104.053 Y81.426 E9.85607
G1 X104.186 Y82.266 E9.88360
G1 X87.734 Y65.814 E10.63653
G1 X86.932 Y65.718 E10.66268
G1 X104.282 Y83.068 E11.45670
G1 X104.351 Y83.845 E11.48193
G1 X86.155 Y65.649 E12.31467
G1 X85.425 Y65.626 E12.33831
G1 X104.374 Y84.575 E13.20551
G1 X104.378 Y85.286 E13.22854
G1 X84.714 Y65.622 E14.12850
G1 X84.028 Y65.643 E14.15069
G1 X104.357 Y85.972 E15.08104
G1 X104.310 Y86.632 E15.10246
G1 X83.370 Y65.693 E16.06076
G1 X82.722 Y65.752 E16.08182
G1 X104.249 Y87.278 E17.06699
G1 X104.160 Y87.897 E17.08721
G1 X82.103 Y65.840 E18.09668
G1 X81.493 Y65.936 E18.11668
G1 X104.064 Y88.507 E19.14965
G1 X103.941 Y89.092 E19.16898
G1 X80.908 Y66.059 E20.22310
G1 X80.330 Y66.188 E20.24227
G1 X103.812 Y89.670 E21.31693
G1 X103.661 Y90.226 E21.33557
G1 X79.774 Y66.339 E22.42874
G1 X79.226 Y66.498 E22.44720
G1 X103.502 Y90.774 E23.55816
G1 X103.325 Y91.305 E23.57627
G1 X78.695 Y66.674 E24.70347
G1 X78.175 Y66.862 E24.72136
G1 X103.138 Y91.825 E25.86379
G1 X102.941 Y92.334 E25.88147
G1 X77.666 Y67.059 E27.03817
G1 X77.172 Y67.273 E27.05557
G1 X102.727 Y92.828 E28.22508
G1 X102.510 Y93.318 E28.24243
G1 X76.682 Y67.490 E29.42444
G1 X76.214 Y67.729 E29.44145
G1 X102.271 Y93.786 E30.63398
G1 X102.033 Y94.255 E30.65099
G1 X75.745 Y67.967 E31.85404
G1 X75.297 Y68.226 E31.87079
G1 X101.774 Y94.703 E33.08255
G1 X101.512 Y95.148 E33.09925
G1 X74.852 Y68.488 E34.31931
G1 X74.419 Y68.762 E34.33590
G1 X101.238 Y95.581 E35.56329
G1 X100.952 Y96.002 E35.57977
G1 X73.998 Y69.048 E36.81333
G1 X73.578 Y69.336 E36.82979
G1 X100.664 Y96.422 E38.06939
G1 X100.355 Y96.820 E38.08570
G1 X73.180 Y69.645 E39.32939
G1 X72.782 Y69.953 E39.34570
G1 X100.047 Y97.218 E40.59348
G1 X99.723 Y97.602 E40.60972
G1 X72.398 Y70.277 E41.86025
G1 X72.022 Y70.608 E41.87646
G1 X99.392 Y97.978 E43.12903
G1 X99.056 Y98.349 E43.14523
G1 X71.651 Y70.944 E44.39939
G1 X71.298 Y71.298 E44.41557
G1 X98.702 Y98.702 E45.66974
G1 X98.349 Y99.056 E45.68592
G1 X70.944 Y71.651 E46.94008
G1 X70.608 Y72.022 E46.95628
G1 X97.976 Y99.390 E48.20876
G1 X97.601 Y99.722 E48.22497
G1 X70.277 Y72.398 E49.47546
G1 X69.953 Y72.782 E49.49170
G1 X97.218 Y100.047 E50.73948
G1 X96.820 Y100.355 E50.75579
G1 X69.645 Y73.180 E51.99948
G1 X69.336 Y73.578 E52.01579
G1 X96.422 Y100.664 E53.25539
G1 X96.002 Y100.952 E53.27185
G1 X69.048 Y73.998 E54.50541
G1 X68.762 Y74.419 E54.52189
G1 X95.581 Y101.238 E55.74928
G1 X95.148 Y101.512 E55.76587
G1 X68.488 Y74.852 E56.98593
G1 X68.226 Y75.297 E57.00264
G1 X94.703 Y101.774 E58.21439
G1 X94.255 Y102.033 E58.23114
G1 X67.967 Y75.745 E59.43419
G1 X67.729 Y76.214 E59.45120
G1 X93.786 Y102.271 E60.64373
G1 X93.318 Y102.510 E60.66074
G1 X67.490 Y76.682 E61.84275
G1 X67.273 Y77.172 E61.86010
G1 X92.828 Y102.727 E63.02961
G1 X92.334 Y102.941 E63.04701
G1 X67.059 Y77.666 E64.20371
G1 X66.862 Y78.175 E64.22139
G1 X91.825 Y103.138 E65.36382
G1 X91.305 Y103.325 E65.38171
G1 X66.674 Y78.695 E66.50891
G1 X66.498 Y79.226 E66.52702
G1 X90.774 Y103.502 E67.63798
G1 X90.226 Y103.661 E67.65644
G1 X66.339 Y79.774 E68.74961
G1 X66.188 Y80.330 E68.76825
G1 X89.670 Y103.812 E69.84291
G1 X89.092 Y103.941 E69.86208
G1 X66.059 Y80.908 E70.91620
G1 X65.936 Y81.493 E70.93553
G1 X88.507 Y104.064 E71.96850
G1 X87.897 Y104.160 E71.98850
G1 X65.840 Y82.103 E72.99797
G1 X65.751 Y82.722 E73.01820
G1 X87.278 Y104.249 E74.00338
G1 X86.632 Y104.310 E74.02438
G1 X65.690 Y83.368 E74.98280
G1 X65.643 Y84.028 E75.00422
G1 X85.972 Y104.357 E75.93457
G1 X85.286 Y104.378 E75.95676
G1 X65.622 Y84.714 E76.85672
G1 X65.626 Y85.425 E76.87975
G1 X84.575 Y104.374 E77.74695
G1 X83.845 Y104.351 E77.77059
G1 X65.649 Y86.155 E78.60333
G1 X65.718 Y86.932 E78.62856
G1 X83.068 Y104.282 E79.42258
G1 X82.266 Y104.186 E79.44873
G1 X65.814 Y87.734 E80.20167
G1 X65.947 Y88.574 E80.22919
G1 X81.426 Y104.053 E80.93759
G1 X80.520 Y103.855 E80.96760
G1 X66.145 Y89.480 E81.62545
G1 X66.403 Y90.444 E81.65776
G1 X79.556 Y103.597 E82.25970
G1 X78.510 Y103.259 E82.29526
G1 X66.741 Y91.490 E82.83387
G1 X67.201 Y92.657 E82.87447
G1 X77.346 Y102.802 E83.33876
G1 X75.999 Y102.162 E83.38705
G1 X67.838 Y94.001 E83.76053
G1 X68.869 Y95.740 E83.82594
G1 X74.260 Y101.131 E84.07266
M140 S105 ; set bed temperature
G1 F1680.000 E82.07266
G92 E0
G1 Z0.750 F12000.000
G1 X74.417 Y101.675
G1 F1680.000 E2.00000
G1 X73.391 Y100.978 F1440.000 E2.02677
G1 X72.585 Y100.353 E2.04878
G1 X71.480 Y99.397 E2.08029
G1 X70.603 Y98.520 E2.10706
G1 X69.782 Y97.589 E2.13383
G1 X69.022 Y96.609 E2.16059
G1 X68.325 Y95.583 E2.18736
G1 X67.693 Y94.515 E2.21413
G1 X67.130 Y93.409 E2.24090
G1 X66.637 Y92.270 E2.26766
G1 X66.217 Y91.103 E2.29443
G1 X65.871 Y89.912 E2.32120
G1 X65.648 Y88.916 E2.34321
G1 X65.406 Y87.475 E2.37472
G1 X65.289 Y86.240 E2.40149
G1 X65.250 Y85.000 E2.42826
G1 X65.289 Y83.760 E2.45503
G1 X65.406 Y82.525 E2.48179
G1 X65.600 Y81.299 E2.50856
G1 X65.871 Y80.088 E2.53533
G1 X66.217 Y78.897 E2.56209
G1 X66.637 Y77.730 E2.58886
G1 X67.130 Y76.591 E2.61563
G1 X67.693 Y75.485 E2.64240
G1 X68.325 Y74.417 E2.66916
G1 X69.157 Y73.217 E2.70068
G1 X69.782 Y72.411 E2.72269
G1 X70.603 Y71.480 E2.74946
G1 X71.646 Y70.457 E2.78097
G1 X72.411 Y69.782 E2.80298
G1 X73.391 Y69.022 E2.82975
G1 X74.417 Y68.325 E2.85652
G1 X75.485 Y67.693 E2.88328
G1 X76.591 Y67.130 E2.91005
G1 X77.730 Y66.637 E2.93682
G1 X78.897 Y66.217 E2.96358
G1 X80.088 Y65.871 E2.99035
G1 X81.299 Y65.600 E3.01712
G1 X82.525 Y65.406 E3.04389
G1 X83.760 Y65.289 E3.07065
G1 X85.000 Y65.250 E3.09742
G1 X86.240 Y65.289 E3.12419
G1 X87.693 Y65.440 E3.15571
G1 X88.701 Y65.600 E3.17771
G1 X89.912 Y65.871 E3.20448
G1 X91.103 Y66.217 E3.23125
G1 X92.270 Y66.637 E3.25802
G1 X93.409 Y67.130 E3.28478
G1 X94.515 Y67.693 E3.31155
G1 X95.583 Y68.325 E3.33832
G1 X96.783 Y69.157 E3.36983
G1 X97.589 Y69.782 E3.39184
G1 X98.520 Y70.603 E3.41861
G1 X99.543 Y71.646 E3.45013
G1 X100.218 Y72.411 E3.47214
G1 X100.978 Y73.391 E3.49890
G1 X101.675 Y74.417 E3.52567
G1 X102.307 Y75.485 E3.55244
G1 X102.870 Y76.591 E3.57920
G1 X103.438 Y77.937 E3.61072
G1 X103.783 Y78.897 E3.63273
G1 X104.129 Y80.088 E3.65950
G1 X104.400 Y81.299 E3.68627
G1 X104.594 Y82.525 E3.71303
G1 X104.711 Y83.760 E3.73980
G1 X104.750 Y85.000 E3.76657
G1 X104.718 Y86.020 E3.78857
G1 X104.594 Y87.475 E3.82009
G1 X104.400 Y88.701 E3.84686
G1 X104.129 Y89.912 E3.87363
G1 X103.783 Y91.103 E3.90039
G1 X103.438 Y92.063 E3.92240
G1 X102.870 Y93.409 E3.95392
G1 X102.307 Y94.515 E3.98069
G1 X101.675 Y95.583 E4.00745
G1 X100.978 Y96.609 E4.03422
G1 X100.353 Y97.415 E4.05623
G1 X99.397 Y98.520 E4.08775
G1 X98.520 Y99.397 E4.11452
G1 X97.589 Y100.218 E4.14128
G1 X96.609 Y100.978 E4.16805
G1 X95.583 Y101.675 E4.19482
G1 X94.515 Y102.307 E4.22158
G1 X93.409 Y102.870 E4.24835
G1 X92.270 Y103.363 E4.27512
G1 X91.311 Y103.709 E4.29713
G1 X89.912 Y104.129 E4.32864
G1 X88.701 Y104.400 E4.35541
G1 X87.693 Y104.560 E4.37742
G1 X86.240 Y104.711 E4.40894
G1 X85.000 Y104.750 E4.43571
G1 X83.980 Y104.718 E4.45771
G1 X82.525 Y104.594 E4.48923
G1 X81.299 Y104.400 E4.51600
G1 X80.088 Y104.129 E4.54277
G1 X78.897 Y103.783 E4.56953
G1 X77.730 Y103.363 E4.59630
G1 X76.591 Y102.870 E4.62307
G1 X75.485 Y102.307 E4.64983
G1 X74.482 Y101.714 E4.67498
G1 X94.680 Y101.788 F12000.000
G1 X101.788 Y94.680 F2400.000 E4.89186
G1 X102.570 Y93.191 E4.92813
G1 X93.191 Y102.570 E5.21426
G1 X91.967 Y103.087 E5.24294
G1 X103.087 Y91.967 E5.58223
G1 X103.472 Y90.874 E5.60722
G1 X90.874 Y103.472 E5.99158
G1 X89.878 Y103.762 E6.01397
G1 X103.762 Y89.878 E6.43758
G1 X103.970 Y88.962 E6.45784
G1 X88.962 Y103.970 E6.91573
G1 X88.097 Y104.129 E6.93472
G1 X104.129 Y88.097 E7.42387
G1 X104.250 Y87.269 E7.44192
G1 X87.269 Y104.250 E7.96001
G1 X86.488 Y104.324 E7.97694
G1 X104.324 Y86.488 E8.52111
