; generated by Slic3r 0.9.9 on 2013-05-28 at 01:05:36

; layer_height = 0.4
; perimeters = 3
; top_solid_layers = 3
; bottom_solid_layers = 3
; fill_density = 0.4
; perimeter_speed = 30
; infill_speed = 60
; travel_speed = 130
; nozzle_diameter = 0.5
; filament_diameter = 3
; extrusion_multiplier = 1
; perimeters extrusion width = 0.53mm
; infill extrusion width = 0.53mm
; solid infill extrusion width = 0.53mm
; top infill extrusion width = 0.53mm
; first layer extrusion width = 0.70mm

G21 ; set units to millimeters
M107
M104 S200 ; set temperature
G28 ; home all axes
G1 Z5 F5000 ; lift nozzle

M109 S200 ; wait for temperature to be reached
G90 ; use absolute coordinates
G92 E0
M82 ; use absolute distances for extrusion
G1 F1800.000 E-1.00000
G92 E0
G1 Z0.350 F7800.000
G1 X80.710 Y81.590
G1 F1800.000 E1.00000
G1 X81.590 Y80.710 F540.000 E1.04049
G1 X82.840 Y79.590 E1.09510
G1 X84.150 Y78.560 E1.14931
G1 X84.520 Y78.290 E1.16422
G1 X85.890 Y77.380 E1.21773
G1 X86.970 Y76.740 E1.25857
G1 X88.830 Y75.790 E1.32652
G1 X89.980 Y75.290 E1.36732
G1 X91.530 Y74.720 E1.42105
G1 X91.960 Y74.580 E1.43577
G1 X93.590 Y74.120 E1.49087
G1 X94.820 Y73.850 E1.53184
G1 X96.850 Y73.520 E1.59875
G1 X98.580 Y73.370 E1.65525
G1 X99.830 Y73.340 E1.69593
G1 X101.410 Y73.370 E1.74735
G1 X101.890 Y73.400 E1.76299
G1 X103.140 Y73.520 E1.80385
G1 X105.170 Y73.850 E1.87076
G1 X106.400 Y74.120 E1.91174
G1 X108.030 Y74.580 E1.96684
G1 X108.460 Y74.720 E1.98155
G1 X110.010 Y75.290 E2.03528
G1 X111.160 Y75.790 E2.07608
G1 X112.650 Y76.540 E2.13035
G1 X113.020 Y76.740 E2.14404
G1 X114.430 Y77.590 E2.19760
G1 X115.470 Y78.290 E2.23839
G1 X116.830 Y79.330 E2.29409
G1 X117.160 Y79.600 E2.30797
G1 X118.440 Y80.750 E2.36395
G1 X119.280 Y81.590 E2.40260
G1 X120.400 Y82.840 E2.45721
G1 X121.430 Y84.150 E2.51142
G1 X121.700 Y84.520 E2.52633
G1 X122.620 Y85.910 E2.58056
G1 X123.290 Y87.050 E2.62358
G1 X124.200 Y88.830 E2.68862
G1 X124.700 Y89.980 E2.72942
G1 X125.310 Y91.670 E2.78788
G1 X125.750 Y93.120 E2.83718
G1 X126.140 Y94.820 E2.89393
G1 X126.470 Y96.850 E2.96084
G1 X126.620 Y98.580 E3.01734
G1 X126.650 Y99.830 E3.05802
G1 X126.620 Y101.410 E3.10943
G1 X126.590 Y101.890 E3.12508
G1 X126.470 Y103.140 E3.16593
G1 X126.140 Y105.170 E3.23285
G1 X125.870 Y106.400 E3.27382
G1 X125.410 Y108.030 E3.32892
G1 X125.270 Y108.460 E3.34364
G1 X124.700 Y110.010 E3.39737
G1 X124.200 Y111.160 E3.43817
G1 X123.450 Y112.650 E3.49244
G1 X123.250 Y113.020 E3.50612
G1 X122.400 Y114.430 E3.55969
G1 X121.700 Y115.470 E3.60048
G1 X120.710 Y116.770 E3.65364
G1 X120.450 Y117.090 E3.66705
G1 X119.280 Y118.400 E3.72420
G1 X118.400 Y119.280 E3.76469
G1 X117.180 Y120.360 E3.81770
G1 X115.870 Y121.410 E3.87232
G1 X115.470 Y121.700 E3.88840
G1 X114.100 Y122.610 E3.94191
G1 X113.020 Y123.250 E3.98275
G1 X111.160 Y124.200 E4.05071
G1 X110.010 Y124.700 E4.09150
G1 X108.480 Y125.260 E4.14451
G1 X106.880 Y125.750 E4.19896
G1 X105.170 Y126.140 E4.25602
G1 X103.140 Y126.470 E4.32293
G1 X101.890 Y126.590 E4.36379
G1 X100.060 Y126.650 E4.42336
G1 X98.580 Y126.620 E4.47152
G1 X96.850 Y126.470 E4.52802
G1 X94.820 Y126.140 E4.59493
G1 X93.120 Y125.750 E4.65168
G1 X91.670 Y125.310 E4.70098
G1 X89.980 Y124.700 E4.75944
G1 X88.830 Y124.200 E4.80024
G1 X87.400 Y123.480 E4.85233
G1 X87.050 Y123.290 E4.86528
G1 X85.560 Y122.400 E4.92175
G1 X84.520 Y121.700 E4.96254
G1 X83.160 Y120.660 E5.01824
G1 X82.840 Y120.400 E5.03165
G1 X81.590 Y119.280 E5.08626
G1 X80.750 Y118.440 E5.12491
G1 X79.600 Y117.160 E5.18089
G1 X78.560 Y115.840 E5.23557
G1 X78.290 Y115.470 E5.25047
G1 X77.380 Y114.100 E5.30398
G1 X76.740 Y113.020 E5.34483
G1 X75.790 Y111.160 E5.41278
G1 X75.290 Y110.010 E5.45358
G1 X74.720 Y108.460 E5.50731
G1 X74.580 Y108.030 E5.52202
G1 X74.120 Y106.400 E5.57712
G1 X73.850 Y105.170 E5.61810
G1 X73.580 Y103.560 E5.67121
G1 X73.520 Y103.140 E5.68501
G1 X73.370 Y101.410 E5.74151
G1 X73.340 Y100.150 E5.78252
G1 X73.370 Y98.580 E5.83360
G1 X73.520 Y96.850 E5.89010
G1 X73.580 Y96.430 E5.90391
G1 X73.850 Y94.820 E5.95702
G1 X74.120 Y93.590 E5.99799
G1 X74.580 Y91.960 E6.05309
G1 X75.150 Y90.350 E6.10866
G1 X75.290 Y89.980 E6.12153
G1 X75.790 Y88.830 E6.16233
G1 X75.970 Y88.460 E6.17572
G1 X76.740 Y86.970 E6.23029
G1 X77.380 Y85.890 E6.27113
G1 X78.290 Y84.520 E6.32464
G1 X78.560 Y84.150 E6.33954
G1 X79.590 Y82.840 E6.39376
G1 X80.643 Y81.662 E6.44516
G1 F1800.000 E5.44516
G92 E0
G1 X86.619 Y87.434 F7800.000
G1 F1800.000 E1.00000
G1 X87.434 Y86.619 F540.000 E1.03752
G1 X88.299 Y85.856 E1.07504
G1 X89.210 Y85.149 E1.11256
G1 X90.164 Y84.501 E1.15008
G1 X91.157 Y83.914 E1.18760
G1 X92.184 Y83.391 E1.22511
G1 X93.257 Y82.927 E1.26312
G1 X94.328 Y82.542 E1.30015
G1 X95.435 Y82.220 E1.33767
G1 X96.560 Y81.969 E1.37519
G1 X97.699 Y81.788 E1.41271
G1 X98.847 Y81.680 E1.45023
G1 X100.000 Y81.644 E1.48775
G1 X101.153 Y81.680 E1.52527
G1 X102.316 Y81.791 E1.56327
G1 X103.440 Y81.969 E1.60030
G1 X104.565 Y82.220 E1.63782
G1 X105.672 Y82.542 E1.67534
G1 X106.757 Y82.933 E1.71286
G1 X107.816 Y83.391 E1.75038
G1 X108.843 Y83.914 E1.78790
G1 X109.836 Y84.501 E1.82542
G1 X110.790 Y85.149 E1.86294
G1 X111.701 Y85.856 E1.90045
G1 X112.566 Y86.619 E1.93797
G1 X113.391 Y87.445 E1.97598
G1 X114.144 Y88.299 E2.01301
G1 X114.851 Y89.210 E2.05053
G1 X115.499 Y90.164 E2.08805
G1 X116.086 Y91.157 E2.12557
G1 X116.609 Y92.184 E2.16309
G1 X117.073 Y93.257 E2.20109
G1 X117.458 Y94.328 E2.23813
G1 X117.780 Y95.435 E2.27564
G1 X118.031 Y96.560 E2.31316
G1 X118.212 Y97.699 E2.35068
G1 X118.320 Y98.847 E2.38820
G1 X118.356 Y100.000 E2.42572
G1 X118.320 Y101.153 E2.46324
G1 X118.212 Y102.301 E2.50076
G1 X118.031 Y103.440 E2.53828
G1 X117.780 Y104.565 E2.57580
G1 X117.458 Y105.672 E2.61331
G1 X117.073 Y106.743 E2.65035
G1 X116.609 Y107.816 E2.68835
G1 X116.086 Y108.843 E2.72587
G1 X115.499 Y109.836 E2.76339
G1 X114.851 Y110.790 E2.80091
G1 X114.153 Y111.689 E2.83794
G1 X113.381 Y112.566 E2.87595
G1 X112.566 Y113.381 E2.91346
G1 X111.712 Y114.134 E2.95050
G1 X110.790 Y114.851 E2.98850
G1 X109.836 Y115.499 E3.02602
G1 X108.843 Y116.086 E3.06354
G1 X107.816 Y116.609 E3.10106
G1 X106.757 Y117.067 E3.13858
G1 X105.687 Y117.453 E3.17561
G1 X104.565 Y117.780 E3.21362
G1 X103.440 Y118.031 E3.25114
G1 X102.301 Y118.212 E3.28865
G1 X101.153 Y118.320 E3.32617
G1 X100.000 Y118.356 E3.36369
G1 X98.847 Y118.320 E3.40121
G1 X97.699 Y118.212 E3.43873
G1 X96.560 Y118.031 E3.47625
G1 X95.435 Y117.780 E3.51377
G1 X94.328 Y117.458 E3.55129
G1 X93.257 Y117.073 E3.58832
G1 X92.184 Y116.609 E3.62633
G1 X91.157 Y116.086 E3.66384
G1 X90.164 Y115.499 E3.70136
G1 X89.210 Y114.851 E3.73888
G1 X88.299 Y114.144 E3.77640
G1 X87.434 Y113.381 E3.81392
G1 X86.619 Y112.566 E3.85144
G1 X85.866 Y111.712 E3.88847
G1 X85.149 Y110.790 E3.92648
G1 X84.501 Y109.836 E3.96400
G1 X83.922 Y108.856 E4.00103
G1 X83.391 Y107.816 E4.03903
G1 X82.933 Y106.757 E4.07655
G1 X82.547 Y105.687 E4.11358
G1 X82.220 Y104.565 E4.15159
G1 X81.969 Y103.440 E4.18911
G1 X81.791 Y102.316 E4.22614
G1 X81.680 Y101.153 E4.26414
G1 X81.644 Y100.000 E4.30166
G1 X81.680 Y98.847 E4.33918
G1 X81.788 Y97.699 E4.37670
G1 X81.972 Y96.546 E4.41471
G1 X82.220 Y95.435 E4.45174
G1 X82.542 Y94.328 E4.48926
G1 X82.933 Y93.243 E4.52678
G1 X83.391 Y92.184 E4.56430
G1 X83.914 Y91.157 E4.60181
G1 X84.501 Y90.164 E4.63933
G1 X85.149 Y89.210 E4.67685
G1 X85.856 Y88.299 E4.71437
G1 X86.554 Y87.508 E4.74868
G1 X86.139 Y86.984 F7800.000
G1 X86.984 Y86.139 F540.000 E4.78755
G1 X87.880 Y85.350 E4.82641
G1 X88.824 Y84.617 E4.86527
G1 X89.812 Y83.946 E4.90414
G1 X90.840 Y83.338 E4.94300
G1 X91.904 Y82.796 E4.98186
G1 X93.034 Y82.309 E5.02188
G1 X94.124 Y81.917 E5.05958
G1 X95.271 Y81.583 E5.09845
G1 X96.437 Y81.323 E5.13731
G1 X97.617 Y81.136 E5.17617
G1 X98.806 Y81.024 E5.21503
G1 X100.000 Y80.986 E5.25390
G1 X101.194 Y81.024 E5.29276
G1 X102.383 Y81.136 E5.33162
G1 X103.563 Y81.323 E5.37049
G1 X104.729 Y81.583 E5.40935
G1 X105.909 Y81.929 E5.44937
G1 X106.999 Y82.321 E5.48707
G1 X108.096 Y82.796 E5.52593
G1 X109.160 Y83.338 E5.56480
G1 X110.188 Y83.946 E5.60366
G1 X111.176 Y84.617 E5.64252
G1 X112.120 Y85.350 E5.68138
G1 X113.016 Y86.139 E5.72025
G1 X113.884 Y87.011 E5.76027
G1 X114.650 Y87.880 E5.79797
G1 X115.383 Y88.824 E5.83683
G1 X116.054 Y89.812 E5.87570
G1 X116.662 Y90.840 E5.91456
G1 X117.204 Y91.904 E5.95342
G1 X117.691 Y93.034 E5.99344
G1 X118.083 Y94.124 E6.03115
G1 X118.417 Y95.271 E6.07001
G1 X118.677 Y96.437 E6.10887
G1 X118.864 Y97.617 E6.14773
G1 X118.977 Y98.842 E6.18775
G1 X119.014 Y100.000 E6.22546
G1 X118.976 Y101.194 E6.26432
G1 X118.864 Y102.383 E6.30318
G1 X118.677 Y103.563 E6.34204
G1 X118.417 Y104.729 E6.38091
G1 X118.083 Y105.876 E6.41977
G1 X117.679 Y106.999 E6.45863
G1 X117.204 Y108.096 E6.49750
G1 X116.662 Y109.160 E6.53636
G1 X116.054 Y110.188 E6.57522
G1 X115.383 Y111.176 E6.61408
G1 X114.672 Y112.092 E6.65179
G1 X113.861 Y113.016 E6.69181
G1 X113.016 Y113.861 E6.73067
G1 X112.147 Y114.627 E6.76837
G1 X111.176 Y115.383 E6.80839
G1 X110.188 Y116.054 E6.84726
G1 X109.160 Y116.662 E6.88612
G1 X108.096 Y117.204 E6.92498
G1 X106.999 Y117.679 E6.96384
G1 X105.909 Y118.071 E7.00155
G1 X104.729 Y118.417 E7.04157
G1 X103.563 Y118.677 E7.08043
G1 X102.383 Y118.864 E7.11929
G1 X101.194 Y118.976 E7.15816
G1 X100.000 Y119.014 E7.19702
G1 X98.842 Y118.977 E7.23472
G1 X97.617 Y118.864 E7.27474
G1 X96.437 Y118.677 E7.31360
G1 X95.271 Y118.417 E7.35247
G1 X94.124 Y118.083 E7.39133
G1 X93.034 Y117.691 E7.42903
G1 X91.904 Y117.204 E7.46905
G1 X90.840 Y116.662 E7.50792
G1 X89.812 Y116.054 E7.54678
G1 X88.824 Y115.383 E7.58564
G1 X87.908 Y114.672 E7.62334
G1 X86.984 Y113.861 E7.66336
G1 X86.139 Y113.016 E7.70223
G1 X85.350 Y112.120 E7.74109
G1 X84.617 Y111.176 E7.77995
G1 X83.946 Y110.188 E7.81881
G1 X83.338 Y109.160 E7.85768
G1 X82.796 Y108.096 E7.89654
G1 X82.321 Y106.999 E7.93540
G1 X81.917 Y105.876 E7.97427
G1 X81.583 Y104.729 E8.01313
G1 X81.323 Y103.563 E8.05199
G1 X81.142 Y102.418 E8.08969
G1 X81.024 Y101.194 E8.12971
G1 X80.986 Y100.000 E8.16858
G1 X81.024 Y98.806 E8.20744
G1 X81.136 Y97.617 E8.24630
G1 X81.323 Y96.437 E8.28517
G1 X81.583 Y95.271 E8.32403
G1 X81.917 Y94.124 E8.36289
G1 X82.321 Y93.001 E8.40175
G1 X82.796 Y91.904 E8.44062
G1 X83.338 Y90.840 E8.47948
G1 X83.946 Y89.812 E8.51834
G1 X84.617 Y88.824 E8.55720
G1 X85.350 Y87.880 E8.59607
G1 X86.074 Y87.058 E8.63172
G1 X85.660 Y86.534 F7800.000
G1 X86.534 Y85.660 F378.000 E8.67193
G1 X87.461 Y84.843 E8.71214
G1 X88.437 Y84.086 E8.75234
G1 X89.460 Y83.391 E8.79255
G1 X90.523 Y82.762 E8.83275
G1 X91.624 Y82.201 E8.87296
G1 X92.759 Y81.710 E8.91317
G1 X93.921 Y81.291 E8.95337
G1 X95.108 Y80.947 E8.99358
G1 X96.314 Y80.677 E9.03379
G1 X97.535 Y80.484 E9.07399
G1 X98.662 Y80.371 E9.11086
G1 X100.000 Y80.329 E9.15441
G1 X101.235 Y80.368 E9.19462
G1 X102.465 Y80.484 E9.23483
G1 X103.741 Y80.689 E9.27686
G1 X104.892 Y80.947 E9.31523
G1 X106.079 Y81.291 E9.35544
G1 X107.241 Y81.710 E9.39565
G1 X108.376 Y82.201 E9.43585
G1 X109.477 Y82.762 E9.47606
G1 X110.540 Y83.391 E9.51627
G1 X111.562 Y84.086 E9.55647
G1 X112.539 Y84.843 E9.59668
G1 X113.466 Y85.660 E9.63689
G1 X114.340 Y86.534 E9.67709
G1 X115.157 Y87.461 E9.71730
G1 X115.914 Y88.438 E9.75751
G1 X116.609 Y89.460 E9.79771
G1 X117.238 Y90.523 E9.83792
G1 X117.799 Y91.624 E9.87812
G1 X118.309 Y92.811 E9.92016
G1 X118.709 Y93.921 E9.95853
G1 X119.053 Y95.108 E9.99874
G1 X119.323 Y96.314 E10.03895
G1 X119.516 Y97.535 E10.07915
G1 X119.632 Y98.765 E10.11936
G1 X119.671 Y100.000 E10.15957
G1 X119.632 Y101.235 E10.19977
G1 X119.516 Y102.465 E10.23998
G1 X119.323 Y103.686 E10.28018
G1 X119.053 Y104.892 E10.32039
G1 X118.709 Y106.079 E10.36060
G1 X118.309 Y107.189 E10.39897
G1 X117.799 Y108.376 E10.44101
G1 X117.238 Y109.477 E10.48121
G1 X116.609 Y110.540 E10.52142
G1 X115.914 Y111.562 E10.56163
G1 X115.192 Y112.494 E10.60000
G1 X114.340 Y113.466 E10.64204
G1 X113.466 Y114.340 E10.68224
G1 X112.581 Y115.120 E10.72062
G1 X111.562 Y115.914 E10.76265
G1 X110.540 Y116.609 E10.80286
G1 X109.477 Y117.238 E10.84306
G1 X108.376 Y117.799 E10.88327
G1 X107.241 Y118.290 E10.92348
G1 X106.132 Y118.689 E10.96185
G1 X104.892 Y119.053 E11.00389
G1 X103.686 Y119.323 E11.04409
G1 X102.465 Y119.516 E11.08430
G1 X101.235 Y119.632 E11.12451
G1 X100.000 Y119.671 E11.16471
G1 X98.765 Y119.632 E11.20492
G1 X97.535 Y119.516 E11.24512
G1 X96.314 Y119.323 E11.28533
G1 X95.108 Y119.053 E11.32554
G1 X93.921 Y118.709 E11.36574
G1 X92.811 Y118.309 E11.40412
G1 X91.624 Y117.799 E11.44615
G1 X90.523 Y117.238 E11.48636
G1 X89.460 Y116.609 E11.52657
G1 X88.438 Y115.914 E11.56677
G1 X87.506 Y115.192 E11.60515
G1 X86.534 Y114.340 E11.64718
G1 X85.660 Y113.466 E11.68739
G1 X84.843 Y112.539 E11.72759
G1 X84.086 Y111.562 E11.76780
G1 X83.391 Y110.540 E11.80801
G1 X82.762 Y109.477 E11.84821
G1 X82.201 Y108.376 E11.88842
G1 X81.710 Y107.241 E11.92863
G1 X81.311 Y106.132 E11.96700
G1 X80.947 Y104.892 E12.00904
G1 X80.677 Y103.686 E12.04924
G1 X80.493 Y102.521 E12.08762
G1 X80.368 Y101.235 E12.12965
G1 X80.330 Y99.944 E12.17169
G1 X80.368 Y98.765 E12.21006
G1 X80.484 Y97.535 E12.25027
G1 X80.689 Y96.259 E12.29230
G1 X80.947 Y95.108 E12.33068
G1 X81.291 Y93.921 E12.37088
G1 X81.710 Y92.759 E12.41109
G1 X82.201 Y91.624 E12.45130
G1 X82.762 Y90.523 E12.49150
G1 X83.391 Y89.460 E12.53171
G1 X84.086 Y88.438 E12.57191
G1 X84.843 Y87.461 E12.61212
G1 X85.595 Y86.608 E12.64912
G1 X86.298 Y86.691 F7800.000
G1 X84.412 Y108.749
G1 X91.251 Y115.588 F1080.000 E12.96610
G1 X93.074 Y116.476 E13.03257
G1 X83.524 Y106.926 E13.47520
G1 X82.969 Y105.434 E13.52737
G1 X94.566 Y117.031 E14.06490
G1 X95.857 Y117.386 E14.10877
G1 X82.614 Y104.143 E14.72255
G1 X82.376 Y102.970 E14.76180
G1 X97.030 Y117.624 E15.44099
G1 X98.116 Y117.773 E15.47689
G1 X82.227 Y101.884 E16.21329
G1 X82.147 Y100.868 E16.24669
G1 X99.132 Y117.853 E17.03389
G1 X100.092 Y117.877 E17.06538
G1 X82.123 Y99.908 E17.89823
G1 X82.151 Y99.000 E17.92798
G1 X101.000 Y117.849 E18.80157
G1 X101.862 Y117.775 E18.82994
G1 X82.225 Y98.138 E19.74007
G1 X82.332 Y97.309 E19.76747
G1 X102.691 Y117.668 E20.71106
G1 X103.491 Y117.532 E20.73766
G1 X82.468 Y96.509 E21.71205
G1 X82.639 Y95.744 E21.73774
G1 X104.256 Y117.361 E22.73965
G1 X104.991 Y117.160 E22.76463
G1 X82.840 Y95.009 E23.79132
G1 X83.060 Y94.293 E23.81586
G1 X105.707 Y116.939 E24.86549
G1 X106.395 Y116.692 E24.88946
G1 X83.308 Y93.605 E25.95950
G1 X83.582 Y92.942 E25.98300
G1 X107.058 Y116.418 E27.07110
G1 X107.706 Y116.131 E27.09435
G1 X83.869 Y92.294 E28.19916
G1 X84.185 Y91.674 E28.22197
G1 X108.326 Y115.815 E29.34088
G1 X108.929 Y115.482 E29.36346
G1 X84.518 Y91.071 E30.49488
G1 X84.866 Y90.482 E30.51728
G1 X109.518 Y115.134 E31.65984
G1 X110.078 Y114.758 E31.68195
G1 X85.242 Y89.922 E32.83310
G1 X85.627 Y89.371 E32.85512
G1 X110.629 Y114.373 E34.01391
G1 X111.156 Y113.964 E34.03578
G1 X86.036 Y88.844 E35.20005
G1 X86.461 Y88.333 E35.22183
G1 X111.667 Y113.539 E36.39009
G1 X112.164 Y113.100 E36.41182
G1 X86.900 Y87.836 E37.58281
G1 X87.363 Y87.363 E37.60451
G1 X112.637 Y112.637 E38.77590
G1 X113.100 Y112.164 E38.79759
G1 X87.836 Y86.900 E39.96858
G1 X88.333 Y86.461 E39.99032
G1 X113.539 Y111.667 E41.15858
G1 X113.964 Y111.156 E41.18036
G1 X88.844 Y86.036 E42.34463
G1 X89.371 Y85.627 E42.36650
G1 X114.373 Y110.629 E43.52528
G1 X114.758 Y110.078 E43.54731
G1 X89.922 Y85.242 E44.69845
G1 X90.482 Y84.866 E44.72057
G1 X115.134 Y109.518 E45.86313
G1 X115.482 Y108.929 E45.88552
G1 X91.071 Y84.518 E47.01694
G1 X91.674 Y84.185 E47.03952
G1 X115.815 Y108.326 E48.15843
G1 X116.131 Y107.706 E48.18124
G1 X92.294 Y83.869 E49.28606
G1 X92.942 Y83.582 E49.30930
G1 X116.418 Y107.058 E50.39740
G1 X116.692 Y106.395 E50.42090
G1 X93.605 Y83.308 E51.49094
G1 X94.293 Y83.060 E51.51492
G1 X116.940 Y105.707 E52.56454
G1 X117.160 Y104.991 E52.58908
G1 X95.009 Y82.840 E53.61577
G1 X95.744 Y82.639 E53.64075
G1 X117.361 Y104.256 E54.64266
G1 X117.532 Y103.491 E54.66835
G1 X96.509 Y82.468 E55.64273
G1 X97.309 Y82.332 E55.66933
G1 X117.668 Y102.691 E56.61293
G1 X117.775 Y101.862 E56.64032
G1 X98.138 Y82.225 E57.55046
G1 X99.000 Y82.151 E57.57882
