; generated by Slic3r 1.0.0RC1 on 2013-11-30 at 23:04:00

; layer_height = 0.4
; perimeters = 3
; top_solid_layers = 3
; bottom_solid_layers = 3
; fill_density = 0.4
; perimeter_speed = 30
; infill_speed = 60
; travel_speed = 130
; nozzle_diameter = 0.5
; filament_diameter = 3
; extrusion_multiplier = 1
; perimeters extrusion width = 0.50mm
; infill extrusion width = 0.53mm
; solid infill extrusion width = 0.53mm
; top infill extrusion width = 0.53mm
; first layer extrusion width = 0.70mm

G21 ; set units to millimeters
M107
M104 S200 ; set temperature
G28 ; home all axes
G1 Z5 F5000 ; lift nozzle

M109 S200 ; wait for temperature to be reached
G90 ; use absolute coordinates
G92 E0
M82 ; use absolute distances for extrusion
G1 F1800.000 E-1.00000
G92 E0
G1 Z0.350 F7800.000
G1 X81.590 Y80.710 F7800.000
G1 E1.00000 F1800.000
G1 X82.840 Y79.590 E1.05461 F540.000
G1 X84.150 Y78.560 E1.10882
G1 X84.520 Y78.290 E1.12373
G1 X85.890 Y77.380 E1.17724
G1 X86.970 Y76.740 E1.21808
G1 X88.460 Y75.970 E1.27265
G1 X88.870 Y75.780 E1.28735
G1 X90.390 Y75.140 E1.34101
G1 X91.500 Y74.730 E1.37951
G1 X93.170 Y74.230 E1.43623
G1 X93.590 Y74.120 E1.45035
G1 X95.190 Y73.780 E1.50357
G1 X96.890 Y73.520 E1.55952
G1 X98.210 Y73.400 E1.60265
G1 X100.160 Y73.340 E1.66612
G1 X101.410 Y73.370 E1.70680
G1 X103.140 Y73.520 E1.76330
G1 X105.170 Y73.850 E1.83021
G1 X106.400 Y74.120 E1.87118
G1 X108.030 Y74.580 E1.92629
G1 X108.460 Y74.720 E1.94100
G1 X110.010 Y75.290 E1.99473
G1 X111.160 Y75.790 E2.03553
G1 X113.020 Y76.740 E2.10348
G1 X114.100 Y77.380 E2.14433
G1 X115.470 Y78.290 E2.19784
G1 X115.840 Y78.560 E2.21274
G1 X117.150 Y79.590 E2.26696
G1 X118.400 Y80.710 E2.32156
G1 X119.280 Y81.590 E2.36205
G1 X120.400 Y82.840 E2.41666
G1 X120.660 Y83.160 E2.43007
G1 X121.700 Y84.520 E2.48578
G1 X122.400 Y85.560 E2.52656
G1 X123.250 Y86.970 E2.58013
G1 X123.450 Y87.340 E2.59381
G1 X124.200 Y88.830 E2.64808
G1 X124.700 Y89.980 E2.68888
G1 X125.270 Y91.530 E2.74262
G1 X125.410 Y91.960 E2.75733
G1 X125.870 Y93.590 E2.81243
G1 X126.140 Y94.820 E2.85340
G1 X126.470 Y96.850 E2.92032
G1 X126.590 Y98.100 E2.96117
G1 X126.650 Y100.200 E3.02952
G1 X126.590 Y101.890 E3.08454
G1 X126.470 Y103.140 E3.12540
G1 X126.140 Y105.170 E3.19231
G1 X125.870 Y106.400 E3.23328
G1 X125.410 Y108.030 E3.28839
G1 X125.270 Y108.460 E3.30310
G1 X124.700 Y110.010 E3.35683
G1 X124.200 Y111.160 E3.39763
G1 X123.250 Y113.020 E3.46558
G1 X122.610 Y114.100 E3.50643
G1 X121.700 Y115.470 E3.55994
G1 X121.430 Y115.840 E3.57484
G1 X120.400 Y117.150 E3.62906
G1 X119.280 Y118.400 E3.68366
G1 X118.400 Y119.280 E3.72415
G1 X117.150 Y120.400 E3.77876
G1 X116.830 Y120.660 E3.79217
G1 X115.470 Y121.700 E3.84788
G1 X114.430 Y122.400 E3.88866
G1 X113.020 Y123.250 E3.94223
G1 X112.650 Y123.450 E3.95591
G1 X111.160 Y124.200 E4.01019
G1 X110.010 Y124.700 E4.05099
G1 X108.460 Y125.270 E4.10472
G1 X108.030 Y125.410 E4.11943
G1 X106.400 Y125.870 E4.17453
G1 X105.170 Y126.140 E4.21550
G1 X103.140 Y126.470 E4.28242
G1 X101.890 Y126.590 E4.32327
G1 X99.780 Y126.650 E4.39195
G1 X98.100 Y126.590 E4.44665
G1 X96.850 Y126.470 E4.48750
G1 X95.190 Y126.210 E4.54217
G1 X93.590 Y125.870 E4.59539
G1 X91.960 Y125.410 E4.65049
G1 X91.530 Y125.270 E4.66520
G1 X89.990 Y124.700 E4.71863
G1 X88.900 Y124.230 E4.75725
G1 X86.970 Y123.250 E4.82767
G1 X85.890 Y122.610 E4.86852
G1 X84.520 Y121.700 E4.92203
G1 X84.150 Y121.430 E4.93693
G1 X82.840 Y120.400 E4.99115
G1 X81.590 Y119.280 E5.04575
G1 X80.710 Y118.400 E5.08624
G1 X79.590 Y117.150 E5.14085
G1 X79.330 Y116.830 E5.15427
G1 X78.290 Y115.470 E5.20997
G1 X77.590 Y114.430 E5.25076
G1 X76.740 Y113.020 E5.30432
G1 X76.540 Y112.650 E5.31800
G1 X75.790 Y111.160 E5.37228
G1 X75.290 Y110.010 E5.41308
G1 X74.720 Y108.460 E5.46681
G1 X74.580 Y108.030 E5.48152
G1 X74.120 Y106.400 E5.53662
G1 X73.850 Y105.170 E5.57760
G1 X73.520 Y103.140 E5.64451
G1 X73.400 Y101.890 E5.68537
G1 X73.370 Y101.410 E5.70101
G1 X73.340 Y99.830 E5.75243
G1 X73.370 Y98.580 E5.79311
G1 X73.400 Y98.100 E5.80876
G1 X73.520 Y96.850 E5.84961
G1 X73.780 Y95.190 E5.90428
G1 X74.240 Y93.120 E5.97327
G1 X74.570 Y91.970 E6.01219
G1 X75.290 Y89.980 E6.08105
G1 X75.790 Y88.830 E6.12185
G1 X76.540 Y87.340 E6.17612
G1 X77.380 Y85.890 E6.23064
G1 X77.630 Y85.510 E6.24544
G1 X78.580 Y84.140 E6.29968
G1 X79.590 Y82.840 E6.35324
G1 X80.710 Y81.590 E6.40785
G1 X81.520 Y80.780 E6.44513
G1 F1800.000 E5.44513
G92 E0
G1 X87.449 Y86.634 F7800.000
G1 E1.00000 F1800.000
G1 X88.313 Y85.873 E1.03748 F540.000
G1 X89.223 Y85.167 E1.07495
G1 X90.176 Y84.519 E1.11243
G1 X91.180 Y83.926 E1.15037
G1 X92.193 Y83.410 E1.18738
G1 X93.250 Y82.953 E1.22485
G1 X94.334 Y82.562 E1.26233
G1 X95.440 Y82.241 E1.29980
G1 X96.564 Y81.990 E1.33728
G1 X97.702 Y81.810 E1.37475
G1 X98.849 Y81.701 E1.41223
G1 X100.014 Y81.665 E1.45017
G1 X101.151 Y81.701 E1.48717
G1 X102.298 Y81.810 E1.52465
G1 X103.436 Y81.990 E1.56213
G1 X104.560 Y82.241 E1.59960
G1 X105.666 Y82.562 E1.63708
G1 X106.750 Y82.953 E1.67455
G1 X107.807 Y83.410 E1.71203
G1 X108.845 Y83.940 E1.74997
G1 X109.824 Y84.519 E1.78698
G1 X110.777 Y85.167 E1.82445
G1 X111.698 Y85.882 E1.86239
G1 X112.551 Y86.634 E1.89940
G1 X113.366 Y87.449 E1.93688
G1 X114.151 Y88.343 E1.97561
G1 X114.833 Y89.223 E2.01182
G1 X115.481 Y90.176 E2.04930
G1 X116.067 Y91.167 E2.08677
G1 X116.590 Y92.193 E2.12425
G1 X117.047 Y93.250 E2.16172
G1 X117.438 Y94.334 E2.19920
G1 X117.759 Y95.440 E2.23667
G1 X118.010 Y96.564 E2.27415
G1 X118.190 Y97.702 E2.31162
G1 X118.299 Y98.849 E2.34910
G1 X118.335 Y100.000 E2.38657
G1 X118.299 Y101.151 E2.42405
G1 X118.190 Y102.298 E2.46153
G1 X118.010 Y103.436 E2.49900
G1 X117.759 Y104.560 E2.53648
G1 X117.438 Y105.666 E2.57395
G1 X117.047 Y106.750 E2.61143
G1 X116.596 Y107.794 E2.64843
G1 X116.067 Y108.833 E2.68637
G1 X115.481 Y109.824 E2.72385
G1 X114.833 Y110.777 E2.76133
G1 X114.127 Y111.687 E2.79880
G1 X113.366 Y112.551 E2.83628
G1 X112.551 Y113.366 E2.87375
G1 X111.687 Y114.127 E2.91123
G1 X110.777 Y114.833 E2.94870
G1 X109.824 Y115.481 E2.98618
G1 X108.833 Y116.067 E3.02365
G1 X107.807 Y116.590 E3.06113
G1 X106.750 Y117.047 E3.09860
G1 X105.666 Y117.438 E3.13608
G1 X104.560 Y117.759 E3.17355
G1 X103.436 Y118.010 E3.21103
G1 X102.298 Y118.190 E3.24850
G1 X101.151 Y118.299 E3.28598
G1 X100.000 Y118.335 E3.32345
G1 X98.849 Y118.299 E3.36093
G1 X97.702 Y118.190 E3.39840
G1 X96.564 Y118.010 E3.43588
G1 X95.440 Y117.759 E3.47335
G1 X94.334 Y117.438 E3.51083
G1 X93.250 Y117.047 E3.54830
G1 X92.193 Y116.590 E3.58578
G1 X91.167 Y116.067 E3.62325
G1 X90.176 Y115.481 E3.66073
G1 X89.223 Y114.833 E3.69820
G1 X88.313 Y114.127 E3.73568
G1 X87.449 Y113.366 E3.77315
G1 X86.634 Y112.551 E3.81063
G1 X85.873 Y111.687 E3.84811
G1 X85.167 Y110.777 E3.88558
G1 X84.519 Y109.824 E3.92306
G1 X83.933 Y108.833 E3.96053
G1 X83.410 Y107.807 E3.99801
G1 X82.953 Y106.750 E4.03548
G1 X82.562 Y105.666 E4.07296
G1 X82.245 Y104.573 E4.10997
G1 X81.990 Y103.436 E4.14791
G1 X81.810 Y102.298 E4.18538
G1 X81.701 Y101.151 E4.22286
G1 X81.665 Y100.000 E4.26033
G1 X81.701 Y98.849 E4.29781
G1 X81.810 Y97.702 E4.33528
G1 X81.990 Y96.564 E4.37276
G1 X82.241 Y95.440 E4.41023
G1 X82.562 Y94.334 E4.44771
G1 X82.953 Y93.250 E4.48518
G1 X83.410 Y92.193 E4.52266
G1 X83.933 Y91.167 E4.56013
G1 X84.519 Y90.176 E4.59761
G1 X85.167 Y89.223 E4.63508
G1 X85.873 Y88.313 E4.67256
G1 X86.634 Y87.449 E4.71003
G1 X87.379 Y86.704 E4.74430
G1 X86.999 Y86.155 F7800.000
G1 X87.894 Y85.366 E4.78312 F540.000
G1 X88.837 Y84.635 E4.82194
G1 X89.823 Y83.964 E4.86076
G1 X90.881 Y83.341 E4.90071
G1 X91.913 Y82.815 E4.93839
G1 X93.008 Y82.341 E4.97721
G1 X94.131 Y81.937 E5.01603
G1 X95.277 Y81.604 E5.05485
G1 X96.441 Y81.344 E5.09367
G1 X97.620 Y81.157 E5.13249
G1 X98.807 Y81.045 E5.17131
G1 X100.035 Y81.009 E5.21126
G1 X101.193 Y81.045 E5.24894
G1 X102.380 Y81.157 E5.28776
G1 X103.559 Y81.344 E5.32658
G1 X104.723 Y81.604 E5.36540
G1 X105.869 Y81.937 E5.40422
G1 X106.992 Y82.341 E5.44304
G1 X108.087 Y82.815 E5.48185
G1 X109.150 Y83.357 E5.52067
G1 X110.177 Y83.964 E5.55949
G1 X111.163 Y84.635 E5.59831
G1 X112.106 Y85.366 E5.63713
G1 X113.001 Y86.155 E5.67595
G1 X113.845 Y86.999 E5.71477
G1 X114.670 Y87.941 E5.75552
G1 X115.365 Y88.837 E5.79240
G1 X116.036 Y89.823 E5.83122
G1 X116.643 Y90.850 E5.87004
G1 X117.185 Y91.913 E5.90886
G1 X117.659 Y93.008 E5.94768
G1 X118.063 Y94.131 E5.98650
G1 X118.396 Y95.277 E6.02531
G1 X118.656 Y96.441 E6.06413
G1 X118.846 Y97.654 E6.10409
G1 X118.955 Y98.807 E6.14177
G1 X118.992 Y100.000 E6.18059
G1 X118.955 Y101.193 E6.21941
G1 X118.846 Y102.346 E6.25709
G1 X118.656 Y103.559 E6.29704
G1 X118.396 Y104.723 E6.33586
G1 X118.063 Y105.869 E6.37468
G1 X117.659 Y106.992 E6.41350
G1 X117.199 Y108.054 E6.45118
G1 X116.643 Y109.150 E6.49113
G1 X116.036 Y110.177 E6.52995
G1 X115.365 Y111.163 E6.56877
G1 X114.634 Y112.106 E6.60759
G1 X113.845 Y113.001 E6.64641
G1 X113.001 Y113.845 E6.68523
G1 X112.106 Y114.634 E6.72405
G1 X111.163 Y115.365 E6.76287
G1 X110.177 Y116.036 E6.80168
G1 X109.150 Y116.643 E6.84050
G1 X108.087 Y117.185 E6.87932
G1 X106.992 Y117.659 E6.91814
G1 X105.869 Y118.063 E6.95696
G1 X104.723 Y118.396 E6.99578
G1 X103.559 Y118.656 E7.03460
G1 X102.380 Y118.843 E7.07342
G1 X101.193 Y118.955 E7.11224
G1 X100.000 Y118.992 E7.15105
G1 X98.807 Y118.955 E7.18987
G1 X97.654 Y118.846 E7.22755
G1 X96.441 Y118.656 E7.26751
G1 X95.277 Y118.396 E7.30633
G1 X94.131 Y118.063 E7.34515
G1 X93.008 Y117.659 E7.38397
G1 X91.946 Y117.199 E7.42165
G1 X90.850 Y116.643 E7.46160
G1 X89.823 Y116.036 E7.50042
G1 X88.837 Y115.365 E7.53924
G1 X87.894 Y114.634 E7.57806
G1 X87.025 Y113.868 E7.61574
G1 X86.155 Y113.001 E7.65569
G1 X85.366 Y112.106 E7.69451
G1 X84.635 Y111.163 E7.73333
G1 X83.964 Y110.177 E7.77215
G1 X83.357 Y109.150 E7.81097
G1 X82.815 Y108.087 E7.84979
G1 X82.341 Y106.992 E7.88861
G1 X81.937 Y105.869 E7.92742
G1 X81.604 Y104.723 E7.96624
G1 X81.344 Y103.559 E8.00506
G1 X81.157 Y102.380 E8.04388
G1 X81.045 Y101.193 E8.08270
G1 X81.008 Y100.000 E8.12152
G1 X81.045 Y98.807 E8.16034
G1 X81.157 Y97.620 E8.19916
G1 X81.344 Y96.441 E8.23797
G1 X81.614 Y95.243 E8.27793
G1 X81.937 Y94.131 E8.31561
G1 X82.341 Y93.008 E8.35443
G1 X82.815 Y91.913 E8.39325
G1 X83.357 Y90.850 E8.43207
G1 X83.964 Y89.823 E8.47089
G1 X84.635 Y88.837 E8.50970
G1 X85.366 Y87.894 E8.54852
G1 X86.155 Y86.999 E8.58734
G1 X86.929 Y86.225 E8.62295
G1 X86.549 Y85.676 F7800.000
G1 X87.519 Y84.825 E8.66492 F378.000
G1 X88.450 Y84.103 E8.70328
G1 X89.471 Y83.409 E8.74344
G1 X90.534 Y82.781 E8.78360
G1 X91.634 Y82.220 E8.82376
G1 X92.766 Y81.730 E8.86393
G1 X93.928 Y81.312 E8.90409
G1 X95.113 Y80.968 E8.94425
G1 X96.318 Y80.698 E8.98441
G1 X97.537 Y80.505 E9.02458
G1 X98.766 Y80.389 E9.06474
G1 X100.056 Y80.352 E9.10671
G1 X101.234 Y80.389 E9.14506
G1 X102.463 Y80.505 E9.18522
G1 X103.682 Y80.698 E9.22539
G1 X104.887 Y80.968 E9.26555
G1 X105.685 Y81.199 E9.29258
G1 X105.685 Y81.172 E9.29346
G1 X107.234 Y81.730 E9.34702
G1 X108.366 Y82.220 E9.38718
G1 X109.466 Y82.781 E9.42734
G1 X110.529 Y83.409 E9.46751
G1 X111.550 Y84.103 E9.50767
G1 X112.525 Y84.860 E9.54783
G1 X113.451 Y85.676 E9.58799
G1 X114.324 Y86.549 E9.62816
G1 X115.140 Y87.475 E9.66832
G1 X115.897 Y88.450 E9.70848
G1 X116.591 Y89.471 E9.74864
G1 X117.219 Y90.534 E9.78881
G1 X117.780 Y91.634 E9.82897
G1 X118.270 Y92.766 E9.86913
G1 X118.635 Y93.744 E9.90309
G1 X119.032 Y95.113 E9.94947
G1 X119.302 Y96.318 E9.98963
G1 X119.495 Y97.537 E10.02980
G1 X119.611 Y98.766 E10.06996
G1 X119.650 Y100.000 E10.11012
G1 X119.611 Y101.234 E10.15028
G1 X119.495 Y102.463 E10.19045
G1 X119.302 Y103.682 E10.23061
G1 X119.032 Y104.887 E10.27077
G1 X118.688 Y106.072 E10.31093
G1 X118.270 Y107.234 E10.35110
G1 X117.780 Y108.366 E10.39126
G1 X117.219 Y109.466 E10.43142
G1 X116.591 Y110.529 E10.47158
G1 X115.897 Y111.550 E10.51175
G1 X115.140 Y112.525 E10.55191
G1 X114.324 Y113.451 E10.59207
G1 X113.451 Y114.324 E10.63223
G1 X112.525 Y115.140 E10.67240
G1 X111.550 Y115.897 E10.71256
G1 X110.529 Y116.591 E10.75272
G1 X109.466 Y117.219 E10.79288
G1 X108.366 Y117.780 E10.83305
G1 X107.234 Y118.270 E10.87321
G1 X106.072 Y118.688 E10.91337
G1 X104.887 Y119.032 E10.95353
G1 X103.682 Y119.302 E10.99370
G1 X102.463 Y119.495 E11.03386
G1 X101.234 Y119.611 E11.07402
G1 X100.000 Y119.650 E11.11418
G1 X98.766 Y119.611 E11.15435
G1 X97.537 Y119.495 E11.19451
G1 X96.318 Y119.302 E11.23467
G1 X95.113 Y119.032 E11.27483
G1 X93.928 Y118.688 E11.31500
G1 X92.766 Y118.270 E11.35516
G1 X91.685 Y117.802 E11.39351
G1 X90.534 Y117.219 E11.43548
G1 X89.471 Y116.591 E11.47564
G1 X88.450 Y115.897 E11.51581
G1 X87.475 Y115.140 E11.55597
G1 X86.549 Y114.324 E11.59613
G1 X85.676 Y113.451 E11.63629
G1 X84.860 Y112.525 E11.67646
G1 X84.103 Y111.550 E11.71662
G1 X83.409 Y110.529 E11.75678
G1 X82.781 Y109.466 E11.79694
G1 X82.220 Y108.366 E11.83711
G1 X81.730 Y107.234 E11.87727
G1 X81.172 Y105.685 E11.93083
G1 X81.199 Y105.685 E11.93171
G1 X80.968 Y104.887 E11.95874
G1 X80.698 Y103.682 E11.99890
G1 X80.505 Y102.463 E12.03907
G1 X80.389 Y101.234 E12.07923
G1 X80.350 Y100.000 E12.11939
G1 X80.389 Y98.766 E12.15955
G1 X80.505 Y97.537 E12.19972
G1 X80.698 Y96.318 E12.23988
G1 X80.983 Y95.060 E12.28185
G1 X81.312 Y93.928 E12.32020
G1 X81.730 Y92.766 E12.36036
G1 X82.220 Y91.634 E12.40052
G1 X82.781 Y90.534 E12.44069
G1 X83.409 Y89.471 E12.48085
G1 X84.103 Y88.450 E12.52101
G1 X84.860 Y87.475 E12.56117
G1 X85.676 Y86.549 E12.60134
G1 X86.479 Y85.746 E12.63829
G1 X87.175 Y85.874 F7800.000
G1 X106.854 Y83.481 F7800.000
G1 X116.519 Y93.146 E13.08572 F1080.000
G1 X117.059 Y94.621 F7800.000
G1 X105.379 Y82.941 E13.62643 F1080.000
G1 X104.095 Y82.591 E13.67000
G1 X117.409 Y95.905 E14.28633
G1 X117.642 Y97.074 E14.32533
G1 X102.926 Y82.358 E15.00656
G1 X101.846 Y82.212 E15.04226
G1 X117.788 Y98.154 E15.78028
G1 X117.865 Y99.167 E15.81351
G1 X100.833 Y82.135 E16.60197
G1 X99.876 Y82.112 E16.63331
G1 X117.888 Y100.124 E17.46712
G1 X117.859 Y101.030 E17.49681
G1 X98.970 Y82.141 E18.37125
G1 X98.110 Y82.217 E18.39949
G1 X117.784 Y101.890 E19.31023
G1 X117.675 Y102.716 E19.33752
G1 X97.284 Y82.325 E20.28151
G1 X96.486 Y82.462 E20.30802
G1 X117.538 Y103.514 E21.28262
G1 X117.368 Y104.279 E21.30825
G1 X95.721 Y82.632 E22.31031
G1 X94.988 Y82.834 E22.33521
G1 X117.166 Y105.012 E23.36189
G1 X116.945 Y105.726 E23.38635
G1 X94.274 Y83.055 E24.43584
G1 X93.587 Y83.303 E24.45976
G1 X116.697 Y106.413 E25.52962
G1 X116.424 Y107.074 E25.55305
G1 X92.926 Y83.577 E26.64084
G1 X92.279 Y83.864 E26.66403
G1 X116.136 Y107.721 E27.76846
G1 X115.820 Y108.341 E27.79121
G1 X91.659 Y84.180 E28.90971
G1 X91.057 Y84.513 E28.93222
G1 X115.487 Y108.943 E30.06316
G1 X115.140 Y109.530 E30.08550
G1 X90.470 Y84.860 E31.22754
G1 X89.910 Y85.236 E31.24960
G1 X114.764 Y110.090 E32.40018
G1 X114.379 Y110.639 E32.42215
G1 X89.361 Y85.621 E33.58033
G1 X88.834 Y86.029 E33.60214
G1 X113.971 Y111.166 E34.76579
G1 X113.546 Y111.676 E34.78752
G1 X88.324 Y86.454 E35.95514
G1 X87.846 Y86.911 E35.97679
G1 X113.089 Y112.154 E37.14537
G1 X112.622 Y112.622 E37.16701
G1 X87.378 Y87.378 E38.33559
G1 X86.911 Y87.846 E38.35723
G1 X112.154 Y113.089 E39.52582
G1 X111.676 Y113.546 E39.54746
G1 X86.454 Y88.324 E40.71508
G1 X86.029 Y88.834 E40.73681
G1 X111.166 Y113.971 E41.90046
G1 X110.639 Y114.379 E41.92227
G1 X85.621 Y89.361 E43.08045
G1 X85.236 Y89.910 E43.10243
G1 X110.090 Y114.764 E44.25300
G1 X109.530 Y115.140 E44.27506
G1 X84.860 Y90.470 E45.41711
G1 X84.513 Y91.057 E45.43945
G1 X108.943 Y115.487 E46.57038
G1 X108.341 Y115.820 E46.59290
G1 X84.180 Y91.659 E47.71139
G1 X83.864 Y92.278 E47.73415
G1 X107.722 Y116.136 E48.83858
G1 X107.075 Y116.424 E48.86176
G1 X83.576 Y92.925 E49.94957
G1 X83.303 Y93.587 E49.97300
G1 X106.413 Y116.697 E51.04286
G1 X105.726 Y116.945 E51.06678
G1 X83.055 Y94.274 E52.11627
G1 X82.834 Y94.988 E52.14073
G1 X105.012 Y117.166 E53.16741
G1 X104.279 Y117.368 E53.19231
G1 X82.632 Y95.721 E54.19438
G1 X82.462 Y96.486 E54.22001
G1 X103.514 Y117.538 E55.19461
G1 X102.716 Y117.675 E55.22111
G1 X82.325 Y97.284 E56.16511
G1 X82.216 Y98.110 E56.19239
G1 X101.890 Y117.784 E57.10315
