; generated by Slic3r 1.0.0RC1 on 2014-01-20 at 19:16:16

; layer_height = 0.4
; perimeters = 3
; top_solid_layers = 3
; bottom_solid_layers = 3
; fill_density = 0.4
; perimeter_speed = 30
; infill_speed = 60
; travel_speed = 130
; nozzle_diameter = 0.5
; filament_diameter = 3
; extrusion_multiplier = 1
; perimeters extrusion width = 0.50mm
; infill extrusion width = 0.53mm
; solid infill extrusion width = 0.53mm
; top infill extrusion width = 0.53mm
; first layer extrusion width = 0.70mm

G21 ; set units to millimeters
M107
M104 S200 ; set temperature
G28 ; home all axes
G1 Z5 F5000 ; lift nozzle

M109 S200 ; wait for temperature to be reached
G90 ; use absolute coordinates
G92 E0
M82 ; use absolute distances for extrusion
G1 F1800.000 E-1.00000
G92 E0
G1 Z0.350 F7800.000
G1 X85.290 Y85.290 F7800.000
G1 E1.00000 F1800.000
G1 X86.300 Y84.460 E1.04253 F540.000
G1 X87.450 Y83.850 E1.08489
G1 X88.700 Y83.470 E1.12739
G1 X90.000 Y83.340 E1.16990
G1 X110.000 Y83.340 E1.82060
G1 X111.300 Y83.470 E1.86311
G1 X112.550 Y83.850 E1.90562
G1 X113.700 Y84.460 E1.94797
G1 X114.710 Y85.290 E1.99050
G1 X115.540 Y86.300 E2.03304
G1 X116.150 Y87.450 E2.07539
G1 X116.530 Y88.700 E2.11790
G1 X116.660 Y90.000 E2.16040
G1 X116.660 Y110.000 E2.81111
G1 X116.530 Y111.300 E2.85361
G1 X116.150 Y112.550 E2.89612
G1 X115.540 Y113.700 E2.93847
G1 X114.710 Y114.710 E2.98101
G1 X113.700 Y115.540 E3.02354
G1 X112.550 Y116.150 E3.06589
G1 X111.300 Y116.530 E3.10840
G1 X110.000 Y116.660 E3.15091
G1 X90.000 Y116.660 E3.80161
G1 X88.700 Y116.530 E3.84412
G1 X87.450 Y116.150 E3.88662
G1 X86.300 Y115.540 E3.92898
G1 X85.290 Y114.710 E3.97151
G1 X84.460 Y113.700 E4.01404
G1 X83.850 Y112.550 E4.05640
G1 X83.470 Y111.300 E4.09890
G1 X83.340 Y110.000 E4.14141
G1 X83.340 Y90.000 E4.79211
G1 X83.470 Y88.700 E4.83462
G1 X83.850 Y87.450 E4.87713
G1 X84.460 Y86.300 E4.91948
G1 X85.227 Y85.366 E4.95881
G1 F1800.000 E3.95881
G92 E0
G1 X91.664 Y91.664 F7800.000
G1 E1.00000 F1800.000
G1 X108.336 Y91.664 E1.54242 F540.000
G1 X108.336 Y108.336 E2.08483
G1 X91.664 Y108.336 E2.62725
G1 X91.664 Y91.763 E3.16646
G1 X91.007 Y91.007 F7800.000
G1 X108.993 Y91.007 E3.75163 F540.000
G1 X108.993 Y108.993 E4.33681
G1 X91.007 Y108.993 E4.92198
G1 X91.007 Y91.106 E5.50395
G1 X90.350 Y90.350 F7800.000
G1 X109.650 Y90.350 E6.13188 F378.000
G1 X109.650 Y109.650 E6.75981
G1 X90.350 Y109.650 E7.38774
G1 X90.350 Y90.449 E8.01246
G1 X90.919 Y90.679 F7800.000
G1 X107.893 Y92.174 F7800.000
G1 X107.826 Y92.107 E8.01563 F1080.000
G1 X106.873 Y92.107 E8.04741
G1 X107.893 Y93.127 E8.09552
G1 X107.893 Y94.080 E8.12730
G1 X105.920 Y92.107 E8.22035
G1 X104.968 Y92.107 E8.25213
G1 X107.893 Y95.032 E8.39012
G1 X107.893 Y95.985 E8.42190
G1 X104.015 Y92.107 E8.60483
G1 X103.062 Y92.107 E8.63660
G1 X107.893 Y96.937 E8.86447
G1 X107.893 Y97.890 E8.89625
G1 X102.110 Y92.107 E9.16905
G1 X101.157 Y92.107 E9.20083
G1 X107.893 Y98.843 E9.51857
G1 X107.893 Y99.795 E9.55035
G1 X100.205 Y92.107 E9.91303
G1 X99.252 Y92.107 E9.94481
G1 X107.893 Y100.748 E10.35243
G1 X107.893 Y101.701 E10.38420
G1 X98.299 Y92.107 E10.83676
G1 X97.347 Y92.107 E10.86854
G1 X107.893 Y102.653 E11.36603
G1 X107.893 Y103.606 E11.39781
G1 X96.394 Y92.107 E11.94025
G1 X95.441 Y92.107 E11.97202
G1 X107.893 Y104.559 E12.55940
G1 X107.893 Y105.511 E12.59117
G1 X94.489 Y92.107 E13.22348
G1 X93.536 Y92.107 E13.25526
G1 X107.893 Y106.464 E13.93251
G1 X107.893 Y107.417 E13.96429
G1 X92.583 Y92.107 E14.68647
G1 X92.107 Y92.583 E14.70894
G1 X107.417 Y107.893 E15.43113
G1 X106.464 Y107.893 E15.46291
G1 X92.107 Y93.536 E16.14016
G1 X92.107 Y94.488 E16.17194
G1 X105.512 Y107.893 E16.80425
G1 X104.559 Y107.893 E16.83603
G1 X92.107 Y95.441 E17.42340
G1 X92.107 Y96.394 E17.45518
G1 X103.606 Y107.893 E17.99761
G1 X102.654 Y107.893 E18.02939
G1 X92.107 Y97.346 E18.52689
G1 X92.107 Y98.299 E18.55866
G1 X101.701 Y107.893 E19.01122
G1 X100.748 Y107.893 E19.04300
G1 X92.107 Y99.252 E19.45062
G1 X92.107 Y100.204 E19.48240
G1 X99.796 Y107.893 E19.84508
G1 X98.843 Y107.893 E19.87686
G1 X92.107 Y101.157 E20.19460
G1 X92.107 Y102.110 E20.22638
G1 X97.890 Y107.893 E20.49919
G1 X96.938 Y107.893 E20.53096
G1 X92.107 Y103.062 E20.75883
G1 X92.107 Y104.015 E20.79061
G1 X95.985 Y107.893 E20.97354
G1 X95.032 Y107.893 E21.00531
G1 X92.107 Y104.968 E21.14331
G1 X92.107 Y105.920 E21.17508
G1 X94.080 Y107.893 E21.26814
G1 X93.127 Y107.893 E21.29991
G1 X92.107 Y106.873 E21.34803
G1 X92.107 Y107.826 E21.37980
G1 X92.174 Y107.893 E21.38298
M106 S255
G1 F1800.000 E20.38298
G92 E0
G1 Z0.750 F7800.000
G1 X91.250 Y108.750 F7800.000
G1 E1.00000 F1800.000
G1 X91.250 Y91.250 E1.49515 F1080.318
G1 X108.750 Y91.250 E1.99030
G1 X108.750 Y108.750 E2.48545
G1 X91.325 Y108.750 E2.97847
G1 X90.750 Y109.250 F7800.000
G1 X90.750 Y90.750 E3.50192 F1080.318
G1 X109.250 Y90.750 E4.02536
G1 X109.250 Y109.250 E4.54880
G1 X90.825 Y109.250 E5.07012
G1 X90.250 Y109.750 F7800.000
G1 X90.250 Y90.250 E5.62186 F756.222
G1 X109.750 Y90.250 E6.17360
G1 X109.750 Y109.750 E6.72533
G1 X90.325 Y109.750 E7.27495
G1 X90.500 Y109.317 F7800.000
G1 X91.643 Y91.591 F7800.000
G1 X91.591 Y91.643 E7.27717 F2160.636
G1 X91.591 Y92.388 E7.29939
G1 X92.388 Y91.591 E7.33303
G1 X93.134 Y91.591 E7.35525
G1 X91.591 Y93.134 E7.42031
G1 X91.591 Y93.879 E7.44253
G1 X93.879 Y91.591 E7.53901
G1 X94.624 Y91.591 E7.56123
G1 X91.591 Y94.624 E7.68914
G1 X91.591 Y95.369 E7.71136
G1 X95.369 Y91.591 E7.87069
G1 X96.114 Y91.591 E7.89291
G1 X91.591 Y96.114 E8.08366
G1 X91.591 Y96.859 E8.10588
G1 X96.859 Y91.591 E8.32805
G1 X97.605 Y91.591 E8.35027
G1 X91.591 Y97.605 E8.60386
G1 X91.591 Y98.350 E8.62608
G1 X98.350 Y91.591 E8.91110
G1 X99.095 Y91.591 E8.93332
G1 X91.591 Y99.095 E9.24976
G1 X91.591 Y99.840 E9.27198
G1 X99.840 Y91.591 E9.61984
G1 X100.585 Y91.591 E9.64206
G1 X91.591 Y100.585 E10.02134
G1 X91.591 Y101.330 E10.04356
G1 X101.330 Y91.591 E10.45426
G1 X102.076 Y91.591 E10.47648
G1 X91.591 Y102.076 E10.91861
G1 X91.591 Y102.821 E10.94083
G1 X102.821 Y91.591 E11.41438
G1 X103.566 Y91.591 E11.43660
G1 X91.591 Y103.566 E11.94157
G1 X91.591 Y104.311 E11.96379
G1 X104.311 Y91.591 E12.50018
G1 X105.056 Y91.591 E12.52240
G1 X91.591 Y105.056 E13.09021
G1 X91.591 Y105.801 E13.11243
G1 X105.801 Y91.591 E13.71167
G1 X106.547 Y91.591 E13.73389
G1 X91.591 Y106.547 E14.36455
G1 X91.591 Y107.292 E14.38677
G1 X107.292 Y91.591 E15.04885
G1 X108.037 Y91.591 E15.07107
G1 X91.591 Y108.037 E15.76457
G1 X91.963 Y108.409 E15.78028
G1 X108.409 Y91.963 E16.47379
G1 X108.409 Y92.708 E16.49600
G1 X92.708 Y108.409 E17.15809
G1 X93.453 Y108.409 E17.18031
G1 X108.409 Y93.453 E17.81097
G1 X108.409 Y94.199 E17.83319
G1 X94.199 Y108.409 E18.43243
G1 X94.944 Y108.409 E18.45465
G1 X108.409 Y94.944 E19.02246
G1 X108.409 Y95.689 E19.04468
G1 X95.689 Y108.409 E19.58108
G1 X96.434 Y108.409 E19.60330
G1 X108.409 Y96.434 E20.10827
G1 X108.409 Y97.179 E20.13049
G1 X97.179 Y108.409 E20.60404
G1 X97.924 Y108.409 E20.62626
G1 X108.409 Y97.924 E21.06839
G1 X108.409 Y98.670 E21.09061
G1 X98.670 Y108.409 E21.50132
G1 X99.415 Y108.409 E21.52353
G1 X108.409 Y99.415 E21.90282
G1 X108.409 Y100.160 E21.92504
G1 X100.160 Y108.409 E22.27290
G1 X100.905 Y108.409 E22.29512
G1 X108.409 Y100.905 E22.61156
G1 X108.409 Y101.650 E22.63378
G1 X101.650 Y108.409 E22.91880
G1 X102.395 Y108.409 E22.94102
G1 X108.409 Y102.395 E23.19462
G1 X108.409 Y103.141 E23.21684
G1 X103.141 Y108.409 E23.43901
G1 X103.886 Y108.409 E23.46123
G1 X108.409 Y103.886 E23.65199
G1 X108.409 Y104.631 E23.67420
G1 X104.631 Y108.409 E23.83354
G1 X105.376 Y108.409 E23.85576
G1 X108.409 Y105.376 E23.98366
G1 X108.409 Y106.121 E24.00588
G1 X106.121 Y108.409 E24.10237
G1 X106.866 Y108.409 E24.12459
G1 X108.409 Y106.866 E24.18966
G1 X108.409 Y107.612 E24.21187
G1 X107.612 Y108.409 E24.24552
G1 X108.357 Y108.409 E24.26774
G1 X108.409 Y108.357 E24.26996
G1 F1800.000 E23.26996
G92 E0
G1 Z1.150 F7800.000
G1 X108.750 Y108.750 F7800.000
G1 E1.00000 F1800.000
G1 X91.250 Y108.750 E1.49515 F1080.318
G1 X91.250 Y91.250 E1.99030
G1 X108.750 Y91.250 E2.48545
G1 X108.750 Y108.675 E2.97847
G1 X109.250 Y109.250 F7800.000
G1 X90.750 Y109.250 E3.50192 F1080.318
G1 X90.750 Y90.750 E4.02536
G1 X109.250 Y90.750 E4.54880
G1 X109.250 Y109.175 E5.07012
G1 X109.750 Y109.750 F7800.000
G1 X90.250 Y109.750 E5.62186 F756.222
G1 X90.250 Y90.250 E6.17360
G1 X109.750 Y90.250 E6.72533
G1 X109.750 Y109.675 E7.27495
G1 X109.317 Y109.500 F7800.000
G1 X91.643 Y108.409 F7800.000
G1 X91.591 Y108.357 E7.27717 F2160.636
G1 X91.591 Y107.612 E7.29939
G1 X92.388 Y108.409 E7.33303
G1 X93.134 Y108.409 E7.35525
G1 X91.591 Y106.866 E7.42032
G1 X91.591 Y106.121 E7.44254
G1 X93.879 Y108.409 E7.53902
G1 X94.624 Y108.409 E7.56124
G1 X91.591 Y105.376 E7.68915
G1 X91.591 Y104.631 E7.71137
G1 X95.369 Y108.409 E7.87070
G1 X96.114 Y108.409 E7.89292
G1 X91.591 Y103.886 E8.08368
G1 X91.591 Y103.141 E8.10590
G1 X96.859 Y108.409 E8.32807
G1 X97.605 Y108.409 E8.35029
G1 X91.591 Y102.395 E8.60389
G1 X91.591 Y101.650 E8.62611
G1 X98.350 Y108.409 E8.91113
G1 X99.095 Y108.409 E8.93334
G1 X91.591 Y100.905 E9.24979
G1 X91.591 Y100.160 E9.27201
G1 X99.840 Y108.409 E9.61987
G1 X100.585 Y108.409 E9.64209
G1 X91.591 Y99.415 E10.02137
G1 X91.591 Y98.670 E10.04359
G1 X101.330 Y108.409 E10.45430
G1 X102.076 Y108.409 E10.47652
G1 X91.591 Y97.924 E10.91865
G1 X91.591 Y97.179 E10.94087
G1 X102.821 Y108.409 E11.41442
G1 X103.566 Y108.409 E11.43664
G1 X91.591 Y96.434 E11.94161
G1 X91.591 Y95.689 E11.96383
G1 X104.311 Y108.409 E12.50023
G1 X105.056 Y108.409 E12.52244
G1 X91.591 Y94.944 E13.09026
G1 X91.591 Y94.199 E13.11248
G1 X105.801 Y108.409 E13.71172
G1 X106.547 Y108.409 E13.73394
G1 X91.591 Y93.453 E14.36460
G1 X91.591 Y92.708 E14.38682
G1 X107.292 Y108.409 E15.04890
G1 X108.037 Y108.409 E15.07112
G1 X91.591 Y91.963 E15.76463
G1 X91.963 Y91.591 E15.78034
G1 X108.409 Y108.037 E16.47384
G1 X108.409 Y107.292 E16.49606
G1 X92.708 Y91.591 E17.15814
G1 X93.453 Y91.591 E17.18036
G1 X108.409 Y106.547 E17.81102
G1 X108.409 Y105.801 E17.83324
G1 X94.199 Y91.591 E18.43248
G1 X94.944 Y91.591 E18.45470
G1 X108.409 Y105.056 E19.02251
G1 X108.409 Y104.311 E19.04473
G1 X95.689 Y91.591 E19.58112
G1 X96.434 Y91.591 E19.60334
G1 X108.409 Y103.566 E20.10831
G1 X108.409 Y102.821 E20.13053
G1 X97.179 Y91.591 E20.60408
G1 X97.924 Y91.591 E20.62630
G1 X108.409 Y102.076 E21.06843
G1 X108.409 Y101.330 E21.09065
G1 X98.670 Y91.591 E21.50135
G1 X99.415 Y91.591 E21.52357
G1 X108.409 Y100.585 E21.90285
G1 X108.409 Y99.840 E21.92507
G1 X100.160 Y91.591 E22.27293
G1 X100.905 Y91.591 E22.29515
G1 X108.409 Y99.095 E22.61159
G1 X108.409 Y98.350 E22.63381
G1 X101.650 Y91.591 E22.91883
G1 X102.395 Y91.591 E22.94104
G1 X108.409 Y97.605 E23.19464
G1 X108.409 Y96.859 E23.21686
G1 X103.141 Y91.591 E23.43903
G1 X103.886 Y91.591 E23.46125
G1 X108.409 Y96.114 E23.65200
G1 X108.409 Y95.369 E23.67422
G1 X104.631 Y91.591 E23.83355
G1 X105.376 Y91.591 E23.85577
G1 X108.409 Y94.624 E23.98368
G1 X108.409 Y93.879 E24.00589
G1 X106.121 Y91.591 E24.10238
G1 X106.866 Y91.591 E24.12460
G1 X108.409 Y93.134 E24.18966
G1 X108.409 Y92.388 E24.21188
G1 X107.612 Y91.591 E24.24552
G1 X108.357 Y91.591 E24.26774
G1 X108.409 Y91.643 E24.26996
G1 F1800.000 E23.26996
G92 E0
G1 Z1.550 F7800.000
G1 X108.750 Y91.250 F7800.000
G1 E1.00000 F1800.000
G1 X108.750 Y108.750 E1.49515 F794.231
G1 X91.250 Y108.750 E1.99030
G1 X91.250 Y91.250 E2.48545
G1 X108.675 Y91.250 E2.97847
G1 X109.250 Y90.750 F7800.000
G1 X109.250 Y109.250 E3.50192 F794.231
G1 X90.750 Y109.250 E4.02536
G1 X90.750 Y90.750 E4.54880
G1 X109.175 Y90.750 E5.07012
G1 X109.750 Y90.250 F7800.000
G1 X109.750 Y109.750 E5.62186 F600.000
G1 X90.250 Y109.750 E6.17360
G1 X90.250 Y90.250 E6.72533
G1 X109.675 Y90.250 E7.27495
G1 X109.500 Y90.683 F7800.000
G1 X108.383 Y92.417 F7800.000
G1 X108.293 Y92.326 E7.27871 F1588.463
G1 X107.423 Y92.559 E7.30518
G1 X106.481 Y91.617 E7.34437
G1 X104.644 Y91.617 E7.39839
G1 X104.914 Y91.887 E7.40961
G1 X105.783 Y91.654 E7.43608
G1 X107.056 Y92.927 E7.48901
G1 X106.823 Y93.796 E7.51548
G1 X108.096 Y95.069 E7.56841
G1 X108.383 Y94.992 E7.57716
G1 X108.383 Y97.193 E7.64190
G1 X107.495 Y96.306 E7.67881
G1 X107.728 Y95.436 E7.70528
G1 X106.455 Y94.164 E7.75821
G1 X105.586 Y94.396 E7.78468
G1 X104.313 Y93.124 E7.83761
G1 X104.546 Y92.254 E7.86408
G1 X103.909 Y91.617 E7.89058
G1 X102.027 Y91.617 E7.94591
G1 X101.804 Y92.451 E7.97131
G1 X103.076 Y93.724 E8.02424
G1 X103.946 Y93.491 E8.05071
G1 X105.219 Y94.764 E8.10364
G1 X104.986 Y95.633 E8.13010
G1 X106.259 Y96.906 E8.18303
G1 X107.128 Y96.673 E8.20950
G1 X108.383 Y97.928 E8.26170
G1 X108.383 Y98.012 E8.26415
G1 X108.168 Y98.815 E8.28862
G1 X108.383 Y99.031 E8.29757
G1 X108.383 Y99.766 E8.31918
G1 X107.800 Y99.183 E8.34341
G1 X106.931 Y99.416 E8.36988
G1 X105.658 Y98.143 E8.42281
G1 X105.891 Y97.274 E8.44928
G1 X104.618 Y96.001 E8.50221
G1 X103.749 Y96.234 E8.52867
G1 X102.476 Y94.961 E8.58161
G1 X102.709 Y94.091 E8.60807
G1 X101.436 Y92.819 E8.66100
G1 X100.567 Y93.052 E8.68747
G1 X99.294 Y91.779 E8.74040
G1 X99.337 Y91.617 E8.74533
G1 X97.295 Y91.617 E8.80538
G1 X98.057 Y92.379 E8.83708
G1 X98.926 Y92.146 E8.86354
G1 X100.199 Y93.419 E8.91647
G1 X99.966 Y94.288 E8.94294
G1 X101.239 Y95.561 E8.99587
G1 X102.109 Y95.328 E9.02234
G1 X103.381 Y96.601 E9.07527
G1 X103.148 Y97.470 E9.10173
G1 X104.421 Y98.743 E9.15467
G1 X105.291 Y98.510 E9.18113
G1 X106.564 Y99.783 E9.23406
G1 X106.331 Y100.653 E9.26053
G1 X107.603 Y101.925 E9.31346
G1 X108.383 Y101.716 E9.33720
G1 X108.383 Y104.406 F7800.000
G1 X108.276 Y104.435 E9.34046 F1588.463
G1 X107.003 Y103.162 E9.39339
G1 X107.236 Y102.293 E9.41986
G1 X105.963 Y101.020 E9.47279
G1 X105.094 Y101.253 E9.49925
G1 X103.821 Y99.980 E9.55219
G1 X104.054 Y99.111 E9.57865
G1 X102.781 Y97.838 E9.63158
G1 X101.912 Y98.071 E9.65805
G1 X100.639 Y96.798 E9.71098
G1 X100.872 Y95.929 E9.73745
G1 X99.599 Y94.656 E9.79038
G1 X98.730 Y94.889 E9.81684
G1 X97.457 Y93.616 E9.86978
G1 X97.690 Y92.747 E9.89624
G1 X96.560 Y91.617 E9.94322
G1 X95.882 Y91.617 E9.96315
G1 X95.547 Y91.707 E9.97334
G1 X95.458 Y91.617 E9.97707
G1 X94.723 Y91.617 E9.99868
G1 X95.180 Y92.074 E10.01769
G1 X94.947 Y92.943 E10.04416
G1 X96.220 Y94.216 E10.09709
G1 X97.089 Y93.983 E10.12355
G1 X98.362 Y95.256 E10.17649
G1 X98.129 Y96.126 E10.20295
G1 X99.402 Y97.398 E10.25588
G1 X100.271 Y97.165 E10.28235
G1 X101.544 Y98.438 E10.33528
G1 X101.311 Y99.308 E10.36175
G1 X102.584 Y100.580 E10.41468
G1 X103.453 Y100.348 E10.44114
G1 X104.726 Y101.620 E10.49408
G1 X104.493 Y102.490 E10.52054
G1 X105.766 Y103.763 E10.57347
G1 X106.636 Y103.530 E10.59994
G1 X107.908 Y104.802 E10.65287
G1 X107.675 Y105.672 E10.67934
G1 X108.383 Y106.379 E10.70876
G1 X108.383 Y107.114 E10.73037
G1 X107.308 Y106.039 E10.77508
G1 X106.439 Y106.272 E10.80154
G1 X105.166 Y104.999 E10.85447
G1 X105.399 Y104.130 E10.88094
G1 X104.126 Y102.857 E10.93387
G1 X103.257 Y103.090 E10.96034
G1 X101.984 Y101.817 E11.01327
G1 X102.217 Y100.948 E11.03973
G1 X100.944 Y99.675 E11.09267
G1 X100.074 Y99.908 E11.11913
G1 X98.802 Y98.635 E11.17206
G1 X99.035 Y97.766 E11.19853
G1 X97.762 Y96.493 E11.25146
G1 X96.892 Y96.726 E11.27793
G1 X95.620 Y95.453 E11.33086
G1 X95.852 Y94.584 E11.35732
G1 X94.580 Y93.311 E11.41026
G1 X93.710 Y93.544 E11.43672
G1 X92.437 Y92.271 E11.48965
G1 X92.613 Y91.617 E11.50956
G1 X91.617 Y92.760 E11.55414
G1 X92.070 Y92.638 E11.56793
G1 X93.343 Y93.911 E11.62086
G1 X93.110 Y94.781 E11.64733
G1 X94.383 Y96.053 E11.70026
G1 X95.252 Y95.821 E11.72673
G1 X96.525 Y97.093 E11.77966
G1 X96.292 Y97.963 E11.80612
