; generated by Slic3r 0.9.9 on 2013-05-28 at 00:38:45

; layer_height = 0.4
; perimeters = 3
; top_solid_layers = 3
; bottom_solid_layers = 3
; fill_density = 0.4
; perimeter_speed = 30
; infill_speed = 60
; travel_speed = 130
; nozzle_diameter = 0.5
; filament_diameter = 3
; extrusion_multiplier = 1
; perimeters extrusion width = 0.53mm
; infill extrusion width = 0.53mm
; solid infill extrusion width = 0.53mm
; top infill extrusion width = 0.53mm
; first layer extrusion width = 0.70mm

G21 ; set units to millimeters
M107
M104 S220 ; set temperature
G28 ; home all axes
G1 Z5 F5000 ; lift nozzle

M109 S200 ; wait for temperature to be reached
G90 ; use absolute coordinates
G92 E0
M82 ; use absolute distances for extrusion
G1 F1800.000 E-1.00000
G92 E0
G1 Z0.350 F7800.000
G1 X85.200 Y85.390
G1 F1800.000 E1.00000
G1 X85.790 Y84.840 F540.000 E1.02624
G1 X86.220 Y84.520 E1.04368
G1 X86.670 Y84.230 E1.06110
G1 X87.390 Y83.880 E1.08715
G1 X87.890 Y83.690 E1.10455
G1 X88.670 Y83.480 E1.13083
G1 X89.460 Y83.360 E1.15683
G1 X90.000 Y83.340 E1.17441
G1 X110.000 Y83.340 E1.82511
G1 X110.540 Y83.360 E1.84269
G1 X111.070 Y83.430 E1.86009
G1 X111.590 Y83.540 E1.87738
G1 X112.110 Y83.690 E1.89499
G1 X112.610 Y83.880 E1.91239
G1 X113.330 Y84.230 E1.93844
G1 X113.560 Y84.370 E1.94720
G1 X114.210 Y84.840 E1.97329
G1 X114.610 Y85.200 E1.99080
G1 X115.160 Y85.790 E2.01705
G1 X115.480 Y86.220 E2.03449
G1 X115.770 Y86.670 E2.05190
G1 X116.120 Y87.390 E2.07795
G1 X116.310 Y87.890 E2.09535
G1 X116.520 Y88.670 E2.12163
G1 X116.640 Y89.460 E2.14763
G1 X116.660 Y90.000 E2.16521
G1 X116.660 Y110.000 E2.81592
G1 X116.640 Y110.540 E2.83350
G1 X116.570 Y111.070 E2.85089
G1 X116.460 Y111.590 E2.86818
G1 X116.310 Y112.110 E2.88579
G1 X116.120 Y112.610 E2.90319
G1 X115.770 Y113.330 E2.92924
G1 X115.630 Y113.560 E2.93800
G1 X115.160 Y114.210 E2.96410
G1 X114.800 Y114.610 E2.98161
G1 X114.210 Y115.160 E3.00785
G1 X113.780 Y115.480 E3.02529
G1 X113.330 Y115.770 E3.04271
G1 X112.610 Y116.120 E3.06875
G1 X112.110 Y116.310 E3.08616
G1 X111.330 Y116.520 E3.11244
G1 X110.540 Y116.640 E3.13843
G1 X110.000 Y116.660 E3.15601
G1 X90.000 Y116.660 E3.80672
G1 X89.460 Y116.640 E3.82430
G1 X88.930 Y116.570 E3.84169
G1 X88.410 Y116.460 E3.85899
G1 X87.890 Y116.310 E3.87659
G1 X87.390 Y116.120 E3.89400
G1 X86.670 Y115.770 E3.92004
G1 X86.440 Y115.630 E3.92880
G1 X85.790 Y115.160 E3.95490
G1 X85.390 Y114.800 E3.97241
G1 X84.840 Y114.210 E3.99865
G1 X84.520 Y113.780 E4.01609
G1 X84.230 Y113.330 E4.03351
G1 X83.880 Y112.610 E4.05956
G1 X83.690 Y112.110 E4.07696
G1 X83.480 Y111.330 E4.10324
G1 X83.360 Y110.540 E4.12924
G1 X83.340 Y110.000 E4.14682
G1 X83.340 Y90.000 E4.79752
G1 X83.360 Y89.460 E4.81510
G1 X83.430 Y88.930 E4.83250
G1 X83.540 Y88.410 E4.84979
G1 X83.690 Y87.890 E4.86740
G1 X83.880 Y87.390 E4.88480
G1 X84.230 Y86.670 E4.91085
G1 X84.370 Y86.440 E4.91961
G1 X84.840 Y85.790 E4.94570
G1 X85.134 Y85.463 E4.96001
G1 F1800.000 E3.96001
G92 E0
G1 X91.643 Y91.643 F7800.000
G1 F1800.000 E1.00000
G1 X108.357 Y91.643 F540.000 E1.54381
G1 X108.357 Y108.357 E2.08763
G1 X91.643 Y108.357 E2.63144
G1 X91.643 Y91.741 E3.17205
G1 X90.986 Y90.986 F7800.000
G1 X109.014 Y90.986 F540.000 E3.75862
G1 X109.014 Y109.014 E4.34519
G1 X90.986 Y109.014 E4.93175
G1 X90.986 Y91.084 E5.51512
G1 X90.329 Y90.329 F7800.000
G1 X109.671 Y90.329 F378.000 E6.14444
G1 X109.671 Y109.671 E6.77377
G1 X90.329 Y109.671 E7.40310
G1 X90.329 Y90.427 E8.02922
G1 X90.898 Y90.657 F7800.000
G1 X107.881 Y92.119
G1 X106.926 Y92.119 F1080.000 E8.06117
G1 X107.881 Y93.074 E8.10636
G1 X107.881 Y94.030 E8.13831
G1 X105.970 Y92.119 E8.22869
G1 X105.015 Y92.119 E8.26064
G1 X107.881 Y94.985 E8.39620
G1 X107.881 Y95.940 E8.42815
G1 X104.060 Y92.119 E8.60889
G1 X103.105 Y92.119 E8.64084
G1 X107.881 Y96.895 E8.86677
G1 X107.881 Y97.851 E8.89872
G1 X102.149 Y92.119 E9.16983
G1 X101.194 Y92.119 E9.20178
G1 X107.881 Y98.806 E9.51808
G1 X107.881 Y99.761 E9.55003
G1 X100.239 Y92.119 E9.91151
G1 X99.283 Y92.119 E9.94346
G1 X107.881 Y100.717 E10.35012
G1 X107.881 Y101.672 E10.38207
G1 X98.328 Y92.119 E10.83392
G1 X97.373 Y92.119 E10.86587
G1 X107.881 Y102.627 E11.36290
G1 X107.881 Y103.582 E11.39485
G1 X96.418 Y92.119 E11.93707
G1 X95.462 Y92.119 E11.96902
G1 X107.881 Y104.538 E12.55642
G1 X107.881 Y105.493 E12.58837
G1 X94.507 Y92.119 E13.22095
G1 X93.552 Y92.119 E13.25290
G1 X107.881 Y106.448 E13.93067
G1 X107.881 Y107.403 E13.96262
G1 X92.597 Y92.119 E14.68557
G1 X92.119 Y92.597 E14.70816
G1 X107.403 Y107.881 E15.43112
G1 X106.448 Y107.881 E15.46307
G1 X92.119 Y93.552 E16.14084
G1 X92.119 Y94.507 E16.17279
G1 X105.493 Y107.881 E16.80537
G1 X104.538 Y107.881 E16.83732
G1 X92.119 Y95.462 E17.42472
G1 X92.119 Y96.418 E17.45667
G1 X103.582 Y107.881 E17.99889
G1 X102.627 Y107.881 E18.03084
G1 X92.119 Y97.373 E18.52787
G1 X92.119 Y98.328 E18.55982
G1 X101.672 Y107.881 E19.01167
G1 X100.717 Y107.881 E19.04362
G1 X92.119 Y99.283 E19.45029
G1 X92.119 Y100.239 E19.48224
G1 X99.761 Y107.881 E19.84372
G1 X98.806 Y107.881 E19.87567
G1 X92.119 Y101.194 E20.19196
G1 X92.119 Y102.149 E20.22391
G1 X97.851 Y107.881 E20.49503
G1 X96.895 Y107.881 E20.52698
G1 X92.119 Y103.105 E20.75291
G1 X92.119 Y104.060 E20.78486
G1 X95.940 Y107.881 E20.96560
G1 X94.985 Y107.881 E20.99755
G1 X92.119 Y105.015 E21.13311
G1 X92.119 Y105.970 E21.16506
G1 X94.030 Y107.881 E21.25544
G1 X93.074 Y107.881 E21.28739
G1 X92.119 Y106.926 E21.33258
G1 X92.119 Y107.881 E21.36454
M106 S255
G1 F1800.000 E20.36454
G92 E0
G1 Z0.750 F7800.000
G1 X91.299 Y108.701
G1 F1800.000 E1.00000
G1 X91.299 Y91.299 F1071.421 E1.51171
G1 X108.701 Y91.299 E2.02341
G1 X108.701 Y108.701 E2.53512
G1 X91.377 Y108.701 E3.04453
G1 X90.779 Y109.221 F7800.000
G1 X90.779 Y90.779 F1071.421 E3.58680
G1 X109.221 Y90.779 E4.12907
G1 X109.221 Y109.221 E4.67133
G1 X90.857 Y109.221 E5.21131
G1 X90.260 Y109.740 F7800.000
G1 X90.260 Y90.260 F749.995 E5.78413
G1 X109.740 Y90.260 E6.35696
G1 X109.740 Y109.740 E6.92979
G1 X90.338 Y109.740 E7.50032
G1 X90.520 Y109.290 F7800.000
G1 X91.676 Y91.676
G1 X91.676 Y92.416 F2142.842 E7.52223
G1 X92.416 Y91.676 E7.55322
G1 X93.156 Y91.676 E7.57513
G1 X91.676 Y93.156 E7.63710
G1 X91.676 Y93.896 E7.65901
G1 X93.896 Y91.676 E7.75196
G1 X94.636 Y91.676 E7.77386
G1 X91.676 Y94.636 E7.89780
G1 X91.676 Y95.375 E7.91971
G1 X95.375 Y91.676 E8.07462
G1 X96.115 Y91.676 E8.09653
G1 X91.676 Y96.115 E8.28243
G1 X91.676 Y96.855 E8.30433
G1 X96.855 Y91.676 E8.52121
G1 X97.595 Y91.676 E8.54312
G1 X91.676 Y97.595 E8.79098
G1 X91.676 Y98.335 E8.81289
G1 X98.335 Y91.676 E9.09173
G1 X99.075 Y91.676 E9.11364
G1 X91.676 Y99.075 E9.42347
G1 X91.676 Y99.815 E9.44538
G1 X99.815 Y91.676 E9.78618
G1 X100.555 Y91.676 E9.80809
G1 X91.676 Y100.555 E10.17988
G1 X91.676 Y101.295 E10.20179
G1 X101.295 Y91.676 E10.60456
G1 X102.035 Y91.676 E10.62647
G1 X91.676 Y102.035 E11.06022
G1 X91.676 Y102.775 E11.08213
G1 X102.775 Y91.676 E11.54686
G1 X103.515 Y91.676 E11.56877
G1 X91.676 Y103.515 E12.06449
G1 X91.676 Y104.255 E12.08639
G1 X104.255 Y91.676 E12.61309
G1 X104.995 Y91.676 E12.63500
G1 X91.676 Y104.995 E13.19268
G1 X91.676 Y105.735 E13.21459
G1 X105.735 Y91.676 E13.80325
G1 X106.474 Y91.676 E13.82516
G1 X91.676 Y106.474 E14.44481
G1 X91.676 Y107.214 E14.46671
G1 X107.214 Y91.676 E15.11734
G1 X107.954 Y91.676 E15.13925
G1 X91.676 Y107.954 E15.82086
G1 X92.046 Y108.324 E15.83635
G1 X108.324 Y92.046 E16.51796
G1 X108.324 Y92.786 E16.53987
G1 X92.786 Y108.324 E17.19050
G1 X93.525 Y108.324 E17.21241
G1 X108.324 Y93.525 E17.83205
G1 X108.324 Y94.265 E17.85396
G1 X94.265 Y108.324 E18.44263
G1 X95.005 Y108.324 E18.46453
G1 X108.324 Y95.005 E19.02222
G1 X108.324 Y95.745 E19.04412
G1 X95.745 Y108.324 E19.57083
G1 X96.485 Y108.324 E19.59273
G1 X108.324 Y96.485 E20.08845
G1 X108.324 Y97.225 E20.11036
G1 X97.225 Y108.324 E20.57510
G1 X97.965 Y108.324 E20.59701
G1 X108.324 Y97.965 E21.03076
G1 X108.324 Y98.705 E21.05267
G1 X98.705 Y108.324 E21.45544
G1 X99.445 Y108.324 E21.47735
G1 X108.324 Y99.445 E21.84914
G1 X108.324 Y100.185 E21.87105
G1 X100.185 Y108.324 E22.21186
G1 X100.925 Y108.324 E22.23377
G1 X108.324 Y100.925 E22.54360
G1 X108.324 Y101.665 E22.56550
G1 X101.665 Y108.324 E22.84435
G1 X102.405 Y108.324 E22.86626
G1 X108.324 Y102.405 E23.11412
G1 X108.324 Y103.145 E23.13603
G1 X103.145 Y108.324 E23.35291
G1 X103.885 Y108.324 E23.37482
G1 X108.324 Y103.885 E23.56072
G1 X108.324 Y104.624 E23.58263
G1 X104.624 Y108.324 E23.73754
G1 X105.364 Y108.324 E23.75945
G1 X108.324 Y105.364 E23.88339
G1 X108.324 Y106.104 E23.90530
G1 X106.104 Y108.324 E23.99825
G1 X106.844 Y108.324 E24.02016
G1 X108.324 Y106.844 E24.08213
G1 X108.324 Y107.584 E24.10404
G1 X107.584 Y108.324 E24.13503
G1 X108.324 Y108.324 E24.15694
G1 F1800.000 E23.15694
G92 E0
G1 Z1.150 F7800.000
G1 X108.701 Y108.701
G1 F1800.000 E1.00000
G1 X91.299 Y108.701 F1071.421 E1.51171
G1 X91.299 Y91.299 E2.02341
G1 X108.701 Y91.299 E2.53512
G1 X108.701 Y108.623 E3.04453
G1 X109.221 Y109.221 F7800.000
G1 X90.779 Y109.221 F1071.421 E3.58680
G1 X90.779 Y90.779 E4.12907
G1 X109.221 Y90.779 E4.67133
G1 X109.221 Y109.143 E5.21131
G1 X109.740 Y109.740 F7800.000
G1 X90.260 Y109.740 F749.995 E5.78413
G1 X90.260 Y90.260 E6.35696
G1 X109.740 Y90.260 E6.92979
G1 X109.740 Y109.662 E7.50032
G1 X109.290 Y109.480 F7800.000
G1 X91.676 Y108.324
G1 X91.676 Y107.584 F2142.842 E7.52223
G1 X92.416 Y108.324 E7.55322
G1 X93.156 Y108.324 E7.57513
G1 X91.676 Y106.844 E7.63710
G1 X91.676 Y106.104 E7.65901
G1 X93.896 Y108.324 E7.75197
G1 X94.636 Y108.324 E7.77387
G1 X91.676 Y105.364 E7.89781
G1 X91.676 Y104.624 E7.91972
G1 X95.376 Y108.324 E8.07464
G1 X96.115 Y108.324 E8.09654
G1 X91.676 Y103.885 E8.28244
G1 X91.676 Y103.145 E8.30435
G1 X96.855 Y108.324 E8.52123
G1 X97.595 Y108.324 E8.54314
G1 X91.676 Y102.405 E8.79100
G1 X91.676 Y101.665 E8.81291
G1 X98.335 Y108.324 E9.09176
G1 X99.075 Y108.324 E9.11367
G1 X91.676 Y100.925 E9.42349
G1 X91.676 Y100.185 E9.44540
G1 X99.815 Y108.324 E9.78621
G1 X100.555 Y108.324 E9.80812
G1 X91.676 Y99.445 E10.17991
G1 X91.676 Y98.705 E10.20182
G1 X101.295 Y108.324 E10.60459
G1 X102.035 Y108.324 E10.62650
G1 X91.676 Y97.965 E11.06026
G1 X91.676 Y97.225 E11.08216
G1 X102.775 Y108.324 E11.54690
G1 X103.515 Y108.324 E11.56881
G1 X91.676 Y96.485 E12.06453
G1 X91.676 Y95.745 E12.08644
G1 X104.255 Y108.324 E12.61314
G1 X104.995 Y108.324 E12.63504
G1 X91.676 Y95.005 E13.19273
G1 X91.676 Y94.265 E13.21464
G1 X105.735 Y108.324 E13.80330
G1 X106.474 Y108.324 E13.82521
G1 X91.676 Y93.525 E14.44486
G1 X91.676 Y92.786 E14.46676
G1 X107.214 Y108.324 E15.11739
G1 X107.954 Y108.324 E15.13930
G1 X91.676 Y92.046 E15.82091
G1 X92.046 Y91.676 E15.83640
G1 X108.324 Y107.954 E16.51801
G1 X108.324 Y107.214 E16.53992
G1 X92.786 Y91.676 E17.19055
G1 X93.526 Y91.676 E17.21246
G1 X108.324 Y106.474 E17.83210
G1 X108.324 Y105.735 E17.85401
G1 X94.265 Y91.676 E18.44267
G1 X95.005 Y91.676 E18.46458
G1 X108.324 Y104.995 E19.02226
G1 X108.324 Y104.255 E19.04417
G1 X95.745 Y91.676 E19.57087
G1 X96.485 Y91.676 E19.59277
G1 X108.324 Y103.515 E20.08849
G1 X108.324 Y102.775 E20.11040
G1 X97.225 Y91.676 E20.57514
G1 X97.965 Y91.676 E20.59704
G1 X108.324 Y102.035 E21.03080
G1 X108.324 Y101.295 E21.05270
G1 X98.705 Y91.676 E21.45548
G1 X99.445 Y91.676 E21.47738
G1 X108.324 Y100.555 E21.84917
G1 X108.324 Y99.815 E21.87108
G1 X100.185 Y91.676 E22.21189
G1 X100.925 Y91.676 E22.23379
G1 X108.324 Y99.075 E22.54362
G1 X108.324 Y98.335 E22.56553
G1 X101.665 Y91.676 E22.84437
G1 X102.405 Y91.676 E22.86628
G1 X108.324 Y97.595 E23.11414
G1 X108.324 Y96.855 E23.13605
G1 X103.145 Y91.676 E23.35293
G1 X103.885 Y91.676 E23.37484
G1 X108.324 Y96.115 E23.56073
G1 X108.324 Y95.375 E23.58264
G1 X104.625 Y91.676 E23.73756
G1 X105.364 Y91.676 E23.75946
G1 X108.324 Y94.636 E23.88340
G1 X108.324 Y93.896 E23.90531
G1 X106.104 Y91.676 E23.99826
G1 X106.844 Y91.676 E24.02016
G1 X108.324 Y93.156 E24.08213
G1 X108.324 Y92.416 E24.10404
G1 X107.584 Y91.676 E24.13503
G1 X108.324 Y91.676 E24.15694
G1 F1800.000 E23.15694
G92 E0
G1 Z1.550 F7800.000
G1 X108.701 Y91.299
G1 F1800.000 E1.00000
G1 X108.701 Y108.701 F784.170 E1.51171
G1 X91.299 Y108.701 E2.02341
G1 X91.299 Y91.299 E2.53512
G1 X108.623 Y91.299 E3.04453
G1 X109.221 Y90.779 F7800.000
G1 X109.221 Y109.221 F784.170 E3.58680
G1 X90.779 Y109.221 E4.12907
G1 X90.779 Y90.779 E4.67133
G1 X109.143 Y90.779 E5.21131
G1 X109.740 Y90.260 F7800.000
G1 X109.740 Y109.740 F600.000 E5.78413
G1 X90.260 Y109.740 E6.35696
G1 X90.260 Y90.260 E6.92979
G1 X109.662 Y90.260 E7.50032
G1 X109.480 Y90.710 F7800.000
G1 X105.701 Y91.676
G1 X104.703 Y91.676 F1568.340 E7.52968
G1 X104.914 Y91.887 E7.53845
G1 X108.096 Y95.069 F7800.000
G1 X106.823 Y93.796 F1568.340 E7.59139
G1 X107.056 Y92.927 E7.61785
G1 X105.805 Y91.676 E7.66987
G1 X106.540 Y91.676 E7.69148
G1 X107.423 Y92.559 E7.72822
G1 X108.293 Y92.326 E7.75468
G1 X108.324 Y92.358 E7.75600
G1 X108.324 Y95.008 E7.83392
G1 X108.324 Y97.135 F7800.000
G1 X107.495 Y96.306 F1568.340 E7.86838
G1 X107.728 Y95.436 E7.89485
G1 X106.455 Y94.164 E7.94778
G1 X105.586 Y94.396 E7.97425
G1 X104.313 Y93.124 E8.02718
G1 X104.546 Y92.254 E8.05365
G1 X103.968 Y91.676 E8.07770
G1 X102.011 Y91.676 E8.13523
G1 X101.804 Y92.451 E8.15883
G1 X103.076 Y93.724 E8.21176
G1 X103.946 Y93.491 E8.23823
G1 X105.219 Y94.764 E8.29116
G1 X104.986 Y95.633 E8.31763
G1 X106.258 Y96.906 E8.37056
G1 X107.128 Y96.673 E8.39702
G1 X108.324 Y97.869 E8.44677
G1 X108.324 Y98.232 F7800.000
G1 X108.168 Y98.815 F1568.340 E8.46455
G1 X108.324 Y98.972 E8.47105
G1 X108.324 Y101.732 F7800.000
G1 X108.324 Y99.707 F1568.340 E8.53061
G1 X107.800 Y99.183 E8.55240
G1 X106.931 Y99.416 E8.57886
G1 X105.658 Y98.143 E8.63180
G1 X105.891 Y97.274 E8.65826
G1 X104.618 Y96.001 E8.71119
G1 X103.749 Y96.234 E8.73766
G1 X102.476 Y94.961 E8.79059
G1 X102.709 Y94.091 E8.81706
G1 X101.436 Y92.819 E8.86999
G1 X100.567 Y93.052 E8.89645
G1 X99.294 Y91.779 E8.94939
G1 X99.321 Y91.676 E8.95252
G1 X97.354 Y91.676 E9.01038
G1 X98.057 Y92.379 E9.03962
G1 X98.926 Y92.146 E9.06609
G1 X100.199 Y93.419 E9.11902
G1 X99.966 Y94.288 E9.14549
G1 X101.239 Y95.561 E9.19842
G1 X102.109 Y95.328 E9.22488
G1 X103.381 Y96.601 E9.27781
G1 X103.148 Y97.470 E9.30428
G1 X104.421 Y98.743 E9.35721
G1 X105.291 Y98.510 E9.38368
G1 X106.564 Y99.783 E9.43661
G1 X106.331 Y100.653 E9.46308
G1 X107.603 Y101.925 E9.51601
G1 X108.324 Y104.422 F7800.000
G1 X108.276 Y104.435 F1568.340 E9.51748
G1 X107.003 Y103.162 E9.57041
G1 X107.236 Y102.293 E9.59688
G1 X105.963 Y101.020 E9.64981
G1 X105.094 Y101.253 E9.67627
G1 X103.821 Y99.980 E9.72920
G1 X104.054 Y99.111 E9.75567
G1 X102.781 Y97.838 E9.80860
G1 X101.912 Y98.071 E9.83507
G1 X100.639 Y96.798 E9.88800
G1 X100.872 Y95.929 E9.91446
G1 X99.599 Y94.656 E9.96740
G1 X98.730 Y94.889 E9.99386
G1 X97.457 Y93.616 E10.04679
G1 X97.690 Y92.747 E10.07326
G1 X96.619 Y91.676 E10.11779
G1 X95.662 Y91.676 E10.14591
G1 X95.547 Y91.707 E10.14941
G1 X95.517 Y91.676 E10.15069
G1 X94.782 Y91.676 E10.17230
G1 X95.180 Y92.074 E10.18886
G1 X94.947 Y92.943 E10.21533
G1 X96.220 Y94.216 E10.26826
G1 X97.089 Y93.983 E10.29473
G1 X98.362 Y95.256 E10.34766
G1 X98.129 Y96.126 E10.37412
G1 X99.402 Y97.398 E10.42706
G1 X100.271 Y97.165 E10.45352
G1 X101.544 Y98.438 E10.50645
G1 X101.311 Y99.308 E10.53292
G1 X102.584 Y100.580 E10.58585
G1 X103.453 Y100.348 E10.61232
G1 X104.726 Y101.620 E10.66525
G1 X104.493 Y102.490 E10.69171
G1 X105.766 Y103.763 E10.74465
G1 X106.636 Y103.530 E10.77111
G1 X107.908 Y104.802 E10.82404
G1 X107.675 Y105.672 E10.85051
G1 X108.324 Y106.321 E10.87749
G1 X108.324 Y108.324 F7800.000
G1 X108.324 Y107.055 F1568.340 E10.91479
G1 X107.308 Y106.039 E10.95705
G1 X106.439 Y106.272 E10.98352
G1 X105.166 Y104.999 E11.03645
G1 X105.399 Y104.130 E11.06291
G1 X104.126 Y102.857 E11.11585
G1 X103.257 Y103.090 E11.14231
G1 X101.984 Y101.817 E11.19524
G1 X102.217 Y100.948 E11.22171
G1 X100.944 Y99.675 E11.27464
G1 X100.074 Y99.908 E11.30111
G1 X98.802 Y98.635 E11.35404
G1 X99.035 Y97.766 E11.38050
G1 X97.762 Y96.493 E11.43344
G1 X96.892 Y96.726 E11.45990
G1 X95.620 Y95.453 E11.51283
G1 X95.852 Y94.584 E11.53930
