; generated by Slic3r 1.1.7 on 2014-12-01 at 13:56:41

; perimeters extrusion width = 0.50mm
; infill extrusion width = 0.50mm
; solid infill extrusion width = 0.50mm
; top infill extrusion width = 0.50mm

G21 ; set units to millimeters
M107
M104 S190 ; set temperature
G28 ; home all axes
G1 Z15 F120 ; lift nozzle
M109 S190 ; wait for temperature to be reached
G90 ; use absolute coordinates
G92 E0
M82 ; use absolute distances for extrusion
G1 F1680.000 E-2.00000
G92 E0
G1 Z0.350 F12000.000
G1 X70.039 Y70.800 F12000.000
G1 E2.00000 F1680.000
G1 X71.787 Y69.349 E2.08512 F1200.000
G1 X75.000 Y68.500 E2.20963
G1 X95.000 Y68.500 E2.95904
G1 X97.237 Y68.897 E3.04416
G1 X99.200 Y70.039 E3.12927 F1200.000
G1 X100.651 Y71.787 E3.21439
G1 X101.500 Y75.000 E3.33891
G1 X101.500 Y95.000 E4.08832
G1 X101.103 Y97.237 E4.17343
G1 X99.961 Y99.200 E4.25855
G1 X98.213 Y100.651 E4.34367
G1 X95.000 Y101.500 E4.46818
G1 X75.000 Y101.500 E5.21759
G1 X72.763 Y101.103 E5.30271
G1 X70.800 Y99.961 E5.38782
G1 X69.349 Y98.213 E5.47294
G1 X68.500 Y95.000 E5.59746
G1 X68.500 Y75.000 E6.34687
G1 X68.897 Y72.763 E6.43198
G1 X70.002 Y70.865 E6.51429
G1 F1680.000 E4.51429
G92 E0
G1 X94.250 Y94.250 F12000.000
G1 E2.00000 F1680.000
G1 X75.750 Y94.250 E2.69320 F900.000
G1 X75.750 Y75.750 E3.38641
G1 X94.250 Y75.750 E4.07961
G1 X94.250 Y94.175 E4.77001
G1 X94.750 Y94.750 F12000.000
G1 X75.250 Y94.750 E5.50068 F720.000
G1 X75.250 Y75.250 E6.23135
G1 X94.750 Y75.250 E6.96203
G1 X94.750 Y94.675 E7.68989
G1 X94.317 Y94.500 F12000.000
G1 X76.132 Y93.908 F12000.000
G1 X76.092 Y93.868 E7.69201 F1200.000
G1 X76.092 Y93.157 E7.71865
G1 X76.843 Y93.908 E7.75845
G1 X77.554 Y93.908 E7.78509
G1 X76.092 Y92.446 E7.86257
G1 X76.092 Y91.735 E7.88921
G1 X78.265 Y93.908 E8.00436
G1 X78.976 Y93.908 E8.03100
G1 X76.092 Y91.024 E8.18383
G1 X76.092 Y90.313 E8.21047
G1 X79.687 Y93.908 E8.40097
G1 X80.398 Y93.908 E8.42761
G1 X76.092 Y89.602 E8.65579
G1 X76.092 Y88.891 E8.68244
G1 X81.109 Y93.908 E8.94829
G1 X81.820 Y93.908 E8.97494
G1 X76.092 Y88.180 E9.27847
G1 X76.092 Y87.469 E9.30511
G1 X82.531 Y93.908 E9.64632
G1 X83.242 Y93.908 E9.67296
G1 X76.092 Y86.758 E10.05185
G1 X76.092 Y86.047 E10.07849
G1 X83.953 Y93.908 E10.49506
G1 X84.664 Y93.908 E10.52170
G1 X76.092 Y85.336 E10.97594
G1 X76.092 Y84.624 E11.00259
G1 X85.376 Y93.908 E11.49450
G1 X86.087 Y93.908 E11.52115
G1 X76.092 Y83.913 E12.05074
G1 X76.092 Y83.202 E12.07738
G1 X86.798 Y93.908 E12.64466
G1 X87.509 Y93.908 E12.67130
G1 X76.092 Y82.491 E13.27625
G1 X76.092 Y81.780 E13.30289
G1 X88.220 Y93.908 E13.94552
G1 X88.931 Y93.908 E13.97216
G1 X76.092 Y81.069 E14.65246
G1 X76.092 Y80.358 E14.67910
G1 X89.642 Y93.908 E15.39708
G1 X90.353 Y93.908 E15.42372
G1 X76.092 Y79.647 E16.17938
G1 X76.092 Y78.936 E16.20602
G1 X91.064 Y93.908 E16.99936
G1 X91.775 Y93.908 E17.02600
G1 X76.092 Y78.225 E17.85701
G1 X76.092 Y77.514 E17.88365
G1 X92.486 Y93.908 E18.75234
G1 X93.197 Y93.908 E18.77898
G1 X76.092 Y76.803 E19.68535
G1 X76.112 Y76.112 E19.71125
G1 X93.888 Y93.888 E20.65317
G1 X93.908 Y93.197 E20.67907
G1 X76.803 Y76.092 E21.58544
G1 X77.514 Y76.092 E21.61208
G1 X93.908 Y92.486 E22.48077
G1 X93.908 Y91.775 E22.50741
G1 X78.225 Y76.092 E23.33842
G1 X78.936 Y76.092 E23.36506
G1 X93.908 Y91.064 E24.15840
G1 X93.908 Y90.353 E24.18504
G1 X79.647 Y76.092 E24.94069
G1 X80.358 Y76.092 E24.96734
G1 X93.908 Y89.642 E25.68532
G1 X93.908 Y88.931 E25.71196
G1 X81.069 Y76.092 E26.39226
G1 X81.780 Y76.092 E26.41890
G1 X93.908 Y88.220 E27.06153
G1 X93.908 Y87.509 E27.08817
G1 X82.491 Y76.092 E27.69312
G1 X83.202 Y76.092 E27.71976
G1 X93.908 Y86.798 E28.28704
G1 X93.908 Y86.087 E28.31368
G1 X83.913 Y76.092 E28.84327
G1 X84.624 Y76.092 E28.86991
G1 X93.908 Y85.376 E29.36183
G1 X93.908 Y84.664 E29.38848
G1 X85.336 Y76.092 E29.84272
G1 X86.047 Y76.092 E29.86936
G1 X93.908 Y83.953 E30.28592
G1 X93.908 Y83.242 E30.31257
G1 X86.758 Y76.092 E30.69145
G1 X87.469 Y76.092 E30.71810
G1 X93.908 Y82.531 E31.05931
G1 X93.908 Y81.820 E31.08595
G1 X88.180 Y76.092 E31.38948
G1 X88.891 Y76.092 E31.41613
G1 X93.908 Y81.109 E31.68198
G1 X93.908 Y80.398 E31.70862
G1 X89.602 Y76.092 E31.93681
G1 X90.313 Y76.092 E31.96345
G1 X93.908 Y79.687 E32.15395
G1 X93.908 Y78.976 E32.18059
G1 X91.024 Y76.092 E32.33342
G1 X91.735 Y76.092 E32.36006
G1 X93.908 Y78.265 E32.47521
G1 X93.908 Y77.554 E32.50185
G1 X92.446 Y76.092 E32.57933
G1 X93.157 Y76.092 E32.60597
G1 X93.908 Y76.843 E32.64576
G1 X93.908 Y76.132 E32.67241
G1 X93.868 Y76.092 E32.67453
M106 S255
M104 S188 ; set temperature
G1 F1680.000 E30.67453
G92 E0
G1 Z0.650 F12000.000
G1 X94.250 Y94.250 F12000.000
G1 E2.00000 F1680.000
G1 X75.750 Y94.250 E2.46214 F1342.835
G1 X75.750 Y75.750 E2.92427
G1 X94.250 Y75.750 E3.38641
G1 X94.250 Y94.175 E3.84667
G1 X94.750 Y94.750 F12000.000
G1 X75.250 Y94.750 E4.33379 F1074.268
G1 X75.250 Y75.250 E4.82090
G1 X94.750 Y75.250 E5.30802
G1 X94.750 Y94.675 E5.79326
G1 X94.317 Y94.500 F12000.000
G1 X93.908 Y93.868 F12000.000
G1 X93.868 Y93.908 E5.79468 F1790.447
G1 X93.157 Y93.908 E5.81244
G1 X93.908 Y93.157 E5.83897
G1 X93.908 Y92.446 E5.85673
G1 X92.446 Y93.908 E5.90838
G1 X91.735 Y93.908 E5.92614
G1 X93.908 Y91.735 E6.00291
G1 X93.908 Y91.024 E6.02067
G1 X91.024 Y93.908 E6.12255
G1 X90.313 Y93.908 E6.14031
G1 X93.908 Y90.313 E6.26732
G1 X93.908 Y89.602 E6.28508
G1 X89.602 Y93.908 E6.43720
G1 X88.891 Y93.908 E6.45496
G1 X93.908 Y88.891 E6.63220
G1 X93.908 Y88.180 E6.64996
G1 X88.180 Y93.908 E6.85231
G1 X87.469 Y93.908 E6.87008
G1 X93.908 Y87.469 E7.09755
G1 X93.908 Y86.758 E7.11531
G1 X86.758 Y93.908 E7.36790
G1 X86.047 Y93.908 E7.38566
G1 X93.908 Y86.047 E7.66337
G1 X93.908 Y85.336 E7.68114
G1 X85.336 Y93.908 E7.98396
G1 X84.624 Y93.908 E8.00172
G1 X93.908 Y84.624 E8.32967
G1 X93.908 Y83.913 E8.34743
G1 X83.913 Y93.908 E8.70050
G1 X83.202 Y93.908 E8.71826
G1 X93.908 Y83.202 E9.09644
G1 X93.908 Y82.491 E9.11420
G1 X82.491 Y93.908 E9.51750
G1 X81.780 Y93.908 E9.53526
G1 X93.908 Y81.780 E9.96368
G1 X93.908 Y81.069 E9.98144
G1 X81.069 Y93.908 E10.43497
G1 X80.358 Y93.908 E10.45274
G1 X93.908 Y80.358 E10.93139
G1 X93.908 Y79.647 E10.94915
G1 X79.647 Y93.908 E11.45292
G1 X78.936 Y93.908 E11.47068
G1 X93.908 Y78.936 E11.99957
G1 X93.908 Y78.225 E12.01733
G1 X78.225 Y93.908 E12.57134
G1 X77.514 Y93.908 E12.58910
G1 X93.908 Y77.514 E13.16823
G1 X93.908 Y76.803 E13.18599
G1 X76.803 Y93.908 E13.79023
G1 X76.112 Y93.888 E13.80750
G1 X93.888 Y76.112 E14.43545
G1 X93.197 Y76.092 E14.45272
G1 X76.092 Y93.197 E15.05696
G1 X76.092 Y92.486 E15.07472
G1 X92.486 Y76.092 E15.65385
G1 X91.775 Y76.092 E15.67161
G1 X76.092 Y91.775 E16.22561
G1 X76.092 Y91.064 E16.24338
G1 X91.064 Y76.092 E16.77226
G1 X90.353 Y76.092 E16.79003
G1 X76.092 Y90.353 E17.29380
G1 X76.092 Y89.642 E17.31156
G1 X89.642 Y76.092 E17.79021
G1 X88.931 Y76.092 E17.80797
G1 X76.092 Y88.931 E18.26151
G1 X76.092 Y88.220 E18.27927
G1 X88.220 Y76.092 E18.70769
G1 X87.509 Y76.092 E18.72545
G1 X76.092 Y87.509 E19.12875
G1 X76.092 Y86.798 E19.14651
G1 X86.798 Y76.092 E19.52469
G1 X86.087 Y76.092 E19.54245
G1 X76.092 Y86.087 E19.89552
G1 X76.092 Y85.376 E19.91328
G1 X85.376 Y76.092 E20.24122
G1 X84.665 Y76.092 E20.25898
G1 X76.092 Y84.665 E20.56181
G1 X76.092 Y83.953 E20.57957
G1 X83.953 Y76.092 E20.85728
G1 X83.242 Y76.092 E20.87504
G1 X76.092 Y83.242 E21.12764
G1 X76.092 Y82.531 E21.14540
G1 X82.531 Y76.092 E21.37287
G1 X81.820 Y76.092 E21.39063
G1 X76.092 Y81.820 E21.59299
G1 X76.092 Y81.109 E21.61075
G1 X81.109 Y76.092 E21.78799
G1 X80.398 Y76.092 E21.80575
G1 X76.092 Y80.398 E21.95787
G1 X76.092 Y79.687 E21.97563
G1 X79.687 Y76.092 E22.10263
G1 X78.976 Y76.092 E22.12040
G1 X76.092 Y78.976 E22.22228
G1 X76.092 Y78.265 E22.24004
G1 X78.265 Y76.092 E22.31681
G1 X77.554 Y76.092 E22.33457
G1 X76.092 Y77.554 E22.38622
G1 X76.092 Y76.843 E22.40398
G1 X76.843 Y76.092 E22.43051
G1 X76.132 Y76.092 E22.44827
G1 X76.092 Y76.132 E22.44968
G1 F1680.000 E20.44968
G92 E0
G1 Z0.950 F12000.000
G1 X94.250 Y94.250 F12000.000
G1 E2.00000 F1680.000
G1 X75.750 Y94.250 E2.46214 F1342.835
G1 X75.750 Y75.750 E2.92427
G1 X94.250 Y75.750 E3.38641
G1 X94.250 Y94.175 E3.84667
G1 X94.750 Y94.750 F12000.000
G1 X75.250 Y94.750 E4.33379 F1074.268
G1 X75.250 Y75.250 E4.82090
G1 X94.750 Y75.250 E5.30802
G1 X94.750 Y94.675 E5.79326
G1 X94.317 Y94.500 F12000.000
G1 X76.132 Y93.908 F12000.000
G1 X76.092 Y93.868 E5.79468 F1790.447
G1 X76.092 Y93.157 E5.81244
G1 X76.843 Y93.908 E5.83897
G1 X77.554 Y93.908 E5.85673
G1 X76.092 Y92.446 E5.90838
G1 X76.092 Y91.735 E5.92614
G1 X78.265 Y93.908 E6.00291
G1 X78.976 Y93.908 E6.02067
G1 X76.092 Y91.024 E6.12255
G1 X76.092 Y90.313 E6.14031
G1 X79.687 Y93.908 E6.26731
G1 X80.398 Y93.908 E6.28508
G1 X76.092 Y89.602 E6.43720
G1 X76.092 Y88.891 E6.45496
G1 X81.109 Y93.908 E6.63220
G1 X81.820 Y93.908 E6.64996
G1 X76.092 Y88.180 E6.85231
G1 X76.092 Y87.469 E6.87007
G1 X82.531 Y93.908 E7.09755
G1 X83.242 Y93.908 E7.11531
G1 X76.092 Y86.758 E7.36790
G1 X76.092 Y86.047 E7.38566
G1 X83.953 Y93.908 E7.66337
G1 X84.664 Y93.908 E7.68113
G1 X76.092 Y85.336 E7.98396
G1 X76.092 Y84.624 E8.00172
G1 X85.376 Y93.908 E8.32967
G1 X86.087 Y93.908 E8.34743
G1 X76.092 Y83.913 E8.70049
G1 X76.092 Y83.202 E8.71826
G1 X86.798 Y93.908 E9.09644
G1 X87.509 Y93.908 E9.11420
G1 X76.092 Y82.491 E9.51750
G1 X76.092 Y81.780 E9.53526
G1 X88.220 Y93.908 E9.96368
G1 X88.931 Y93.908 E9.98144
G1 X76.092 Y81.069 E10.43497
G1 X76.092 Y80.358 E10.45274
G1 X89.642 Y93.908 E10.93139
G1 X90.353 Y93.908 E10.94915
G1 X76.092 Y79.647 E11.45292
G1 X76.092 Y78.936 E11.47068
G1 X91.064 Y93.908 E11.99957
G1 X91.775 Y93.908 E12.01733
G1 X76.092 Y78.225 E12.57134
G1 X76.092 Y77.514 E12.58910
G1 X92.486 Y93.908 E13.16823
G1 X93.197 Y93.908 E13.18599
G1 X76.092 Y76.803 E13.79023
G1 X76.112 Y76.112 E13.80750
G1 X93.888 Y93.888 E14.43545
G1 X93.908 Y93.197 E14.45272
G1 X76.803 Y76.092 E15.05696
G1 X77.514 Y76.092 E15.07472
G1 X93.908 Y92.486 E15.65385
G1 X93.908 Y91.775 E15.67161
G1 X78.225 Y76.092 E16.22561
G1 X78.936 Y76.092 E16.24338
G1 X93.908 Y91.064 E16.77226
G1 X93.908 Y90.353 E16.79003
G1 X79.647 Y76.092 E17.29380
G1 X80.358 Y76.092 E17.31156
G1 X93.908 Y89.642 E17.79021
G1 X93.908 Y88.931 E17.80797
G1 X81.069 Y76.092 E18.26151
G1 X81.780 Y76.092 E18.27927
G1 X93.908 Y88.220 E18.70769
G1 X93.908 Y87.509 E18.72545
G1 X82.491 Y76.092 E19.12875
G1 X83.202 Y76.092 E19.14651
G1 X93.908 Y86.798 E19.52469
G1 X93.908 Y86.087 E19.54245
G1 X83.913 Y76.092 E19.89552
G1 X84.624 Y76.092 E19.91328
G1 X93.908 Y85.376 E20.24122
G1 X93.908 Y84.664 E20.25898
G1 X85.336 Y76.092 E20.56181
G1 X86.047 Y76.092 E20.57957
G1 X93.908 Y83.953 E20.85728
G1 X93.908 Y83.242 E20.87505
G1 X86.758 Y76.092 E21.12764
G1 X87.469 Y76.092 E21.14540
G1 X93.908 Y82.531 E21.37287
G1 X93.908 Y81.820 E21.39063
G1 X88.180 Y76.092 E21.59299
G1 X88.891 Y76.092 E21.61075
G1 X93.908 Y81.109 E21.78799
G1 X93.908 Y80.398 E21.80575
G1 X89.602 Y76.092 E21.95787
G1 X90.313 Y76.092 E21.97563
G1 X93.908 Y79.687 E22.10264
G1 X93.908 Y78.976 E22.12040
G1 X91.024 Y76.092 E22.22228
G1 X91.735 Y76.092 E22.24004
G1 X93.908 Y78.265 E22.31681
G1 X93.908 Y77.554 E22.33457
G1 X92.446 Y76.092 E22.38622
G1 X93.157 Y76.092 E22.40398
G1 X93.908 Y76.843 E22.43051
G1 X93.908 Y76.132 E22.44827
G1 X93.868 Y76.092 E22.44969
G1 F1680.000 E20.44969
G92 E0
G1 Z1.250 F12000.000
G1 X94.250 Y94.250 F12000.000
G1 E2.00000 F1680.000
G1 X75.750 Y94.250 E2.46214 F852.559
G1 X75.750 Y75.750 E2.92427
G1 X94.250 Y75.750 E3.38641
G1 X94.250 Y94.175 E3.84667
G1 X94.750 Y94.750 F12000.000
G1 X75.250 Y94.750 E4.33379 F682.047
G1 X75.250 Y75.250 E4.82090
G1 X94.750 Y75.250 E5.30802
G1 X94.750 Y94.675 E5.79326
G1 X94.317 Y94.500 F12000.000
G1 X93.888 Y91.999 F12000.000
G1 X93.094 Y91.787 E5.81379 F852.559
G1 X91.529 Y93.352 E5.86908
G1 X91.672 Y93.888 E5.88294
G1 X88.636 Y93.888 E5.95879
G1 X89.874 Y92.649 E6.00253
G1 X91.175 Y92.998 E6.03618
G1 X92.740 Y91.433 E6.09147
G1 X92.392 Y90.132 E6.12512
G1 X93.888 Y88.636 E6.17797
G1 X93.888 Y86.279 E6.23685
G1 X93.254 Y86.912 E6.25922
G1 X93.603 Y88.213 E6.29287
G1 X92.038 Y89.778 E6.34816
G1 X90.737 Y89.430 E6.38181
G1 X89.172 Y90.995 E6.43710
G1 X89.520 Y92.296 E6.47075
G1 X87.956 Y93.861 E6.52603
G1 X86.654 Y93.512 E6.55969
G1 X86.279 Y93.888 E6.57295
G1 X85.572 Y93.888 E6.59061
G1 X86.301 Y93.159 E6.61636
G1 X85.952 Y91.857 E6.65002
G1 X87.517 Y90.292 E6.70530
G1 X88.818 Y90.641 E6.73895
G1 X90.383 Y89.076 E6.79424
G1 X90.035 Y87.775 E6.82789
G1 X91.599 Y86.210 E6.88318
G1 X92.901 Y86.559 E6.91683
G1 X93.888 Y85.572 E6.95169
G1 X93.888 Y83.215 E7.01057
G1 X93.763 Y83.339 E7.01495
G1 X92.462 Y82.990 E7.04861
G1 X90.897 Y84.555 E7.10389
G1 X91.246 Y85.856 E7.13754
G1 X89.681 Y87.421 E7.19283
G1 X88.380 Y87.073 E7.22648
G1 X86.815 Y88.638 E7.28177
G1 X87.163 Y89.939 E7.31542
G1 X85.598 Y91.504 E7.37071
G1 X84.297 Y91.155 E7.40436
G1 X82.732 Y92.720 E7.45964
G1 X83.045 Y93.888 E7.48984
G1 X79.594 Y93.888 F12000.000
G1 X79.513 Y93.583 E7.49772 F852.559
G1 X81.077 Y92.018 E7.55300
G1 X82.379 Y92.366 E7.58666
G1 X83.944 Y90.802 E7.64194
G1 X83.595 Y89.500 E7.67560
G1 X85.160 Y87.935 E7.73088
G1 X86.461 Y88.284 E7.76453
G1 X88.026 Y86.719 E7.81982
G1 X87.677 Y85.418 E7.85347
G1 X89.242 Y83.853 E7.90876
G1 X90.544 Y84.202 E7.94241
G1 X92.109 Y82.637 E7.99770
G1 X91.760 Y81.335 E8.03135
G1 X93.325 Y79.770 E8.08663
G1 X93.888 Y79.921 E8.10118
G1 X93.888 Y76.851 E8.17788
G1 X92.623 Y78.116 E8.22256
G1 X92.971 Y79.417 E8.25622
G1 X91.406 Y80.982 E8.31150
G1 X90.105 Y80.633 E8.34515
G1 X88.540 Y82.198 E8.40044
G1 X88.889 Y83.499 E8.43409
G1 X87.324 Y85.064 E8.48938
G1 X86.023 Y84.716 E8.52303
G1 X84.458 Y86.281 E8.57832
G1 X84.806 Y87.582 E8.61197
G1 X83.241 Y89.147 E8.66725
G1 X81.940 Y88.798 E8.70091
G1 X80.375 Y90.363 E8.75619
G1 X80.724 Y91.664 E8.78984
G1 X79.159 Y93.229 E8.84513
G1 X77.858 Y92.881 E8.87878
G1 X76.851 Y93.888 E8.91436
G1 X76.144 Y93.888 E8.93202
G1 X77.504 Y92.527 E8.98008
G1 X77.156 Y91.226 E9.01374
G1 X78.720 Y89.661 E9.06902
G1 X80.022 Y90.009 E9.10267
G1 X81.587 Y88.445 E9.15796
G1 X81.238 Y87.143 E9.19161
G1 X82.803 Y85.578 E9.24690
G1 X84.104 Y85.927 E9.28055
G1 X85.669 Y84.362 E9.33584
G1 X85.320 Y83.061 E9.36949
G1 X86.885 Y81.496 E9.42477
G1 X88.187 Y81.844 E9.45843
G1 X89.752 Y80.280 E9.51371
G1 X89.403 Y78.978 E9.54737
G1 X90.968 Y77.413 E9.60265
G1 X92.269 Y77.762 E9.63630
G1 X93.834 Y76.197 E9.69159
G1 X93.811 Y76.112 E9.69378
G1 X86.848 Y76.112 F12000.000
G1 X86.692 Y76.268 E9.69926 F852.559
G1 X86.113 Y76.112 E9.71424
G1 X81.733 Y76.112 F12000.000
G1 X81.818 Y76.428 E9.72241 F852.559
G1 X80.253 Y77.993 E9.77769
G1 X78.952 Y77.645 E9.81134
G1 X77.387 Y79.209 E9.86663
G1 X77.735 Y80.511 E9.90028
G1 X76.170 Y82.076 E9.95557
G1 X76.112 Y82.060 E9.95707
G1 X76.112 Y84.491 E10.01778
G1 X76.873 Y83.730 E10.04463
G1 X76.524 Y82.429 E10.07828
G1 X78.089 Y80.864 E10.13357
G1 X79.390 Y81.213 E10.16722
G1 X80.955 Y79.648 E10.22251
G1 X80.606 Y78.347 E10.25616
G1 X82.171 Y76.782 E10.31145
G1 X83.473 Y77.130 E10.34510
G1 X84.491 Y76.112 E10.38106
G1 X85.198 Y76.112 E10.39872
G1 X83.826 Y77.484 E10.44718
G1 X84.175 Y78.785 E10.48083
G1 X82.610 Y80.350 E10.53611
G1 X81.309 Y80.002 E10.56977
G1 X79.744 Y81.566 E10.62505
G1 X80.092 Y82.868 E10.65870
G1 X78.527 Y84.433 E10.71399
G1 X77.226 Y84.084 E10.74764
G1 X76.112 Y85.198 E10.78699
G1 X76.112 Y87.555 E10.84587
G1 X76.363 Y87.304 E10.85473
G1 X77.665 Y87.652 E10.88838
G1 X79.230 Y86.087 E10.94367
G1 X78.881 Y84.786 E10.97732
G1 X80.446 Y83.221 E11.03261
G1 X81.747 Y83.570 E11.06626
G1 X83.312 Y82.005 E11.12154
G1 X82.963 Y80.704 E11.15520
G1 X84.528 Y79.139 E11.21048
G1 X85.830 Y79.487 E11.24413
G1 X87.395 Y77.923 E11.29942
G1 X87.046 Y76.621 E11.33307
G1 X87.555 Y76.112 E11.35105
G1 X90.361 Y76.112 E11.42114
G1 X90.614 Y77.060 E11.44564
G1 X89.049 Y78.625 E11.50092
G1 X87.748 Y78.276 E11.53457
G1 X86.183 Y79.841 E11.58986
G1 X86.532 Y81.142 E11.62351
G1 X84.967 Y82.707 E11.67880
G1 X83.666 Y82.359 E11.71245
G1 X82.101 Y83.924 E11.76774
G1 X82.449 Y85.225 E11.80139
G1 X80.884 Y86.790 E11.85667
G1 X79.583 Y86.441 E11.89033
G1 X78.018 Y88.006 E11.94561
