; generated by Slic3r 1.0.0RC1 on 2013-11-20 at 23:35:21

; layer_height = 0.3
; perimeters = 1
; top_solid_layers = 2
; bottom_solid_layers = 2
; fill_density = 0.2
; perimeter_speed = 30
; infill_speed = 30
; travel_speed = 200
; nozzle_diameter = 0.5
; filament_diameter = 2.98
; extrusion_multiplier = 0.9
; perimeters extrusion width = 0.50mm
; infill extrusion width = 0.50mm
; solid infill extrusion width = 0.50mm
; top infill extrusion width = 0.50mm

G21 ; set units to millimeters
M107
M104 S190 ; set temperature
G28 ; home all axes
G1 Z15 F120 ; lift nozzle
M109 S190 ; wait for temperature to be reached
G90 ; use absolute coordinates
G92 E0
M82 ; use absolute distances for extrusion
G1 F1680.000 E-2.00000
G92 E0
G1 Z0.450 F12000.000
G1 X70.400 Y70.400 F12000.000
G1 E2.00000 F1680.000
G1 X71.390 Y69.600 E2.03696 F900.000
G1 X72.510 Y68.990 E2.07398
G1 X73.730 Y68.620 E2.11100
G1 X75.000 Y68.500 E2.14803
G1 X95.000 Y68.500 E2.72871
G1 X96.270 Y68.620 E2.76575
G1 X97.490 Y68.990 E2.80276
G1 X98.610 Y69.600 E2.83979
G1 X99.600 Y70.400 E2.87674
G1 X100.400 Y71.390 E2.91370
G1 X101.010 Y72.510 E2.95073
G1 X101.380 Y73.730 E2.98774
G1 X101.500 Y75.000 E3.02478
G1 X101.500 Y95.000 E3.60545
G1 X101.380 Y96.270 E3.64249
G1 X101.010 Y97.490 E3.67950
G1 X100.400 Y98.610 E3.71653
G1 X99.600 Y99.600 E3.75349
G1 X98.610 Y100.400 E3.79044
G1 X97.490 Y101.010 E3.82747
G1 X96.270 Y101.380 E3.86448
G1 X95.000 Y101.500 E3.90152
G1 X75.000 Y101.500 E4.48219
G1 X73.730 Y101.380 E4.51923
G1 X72.510 Y101.010 E4.55625
G1 X71.390 Y100.400 E4.59327
G1 X70.400 Y99.600 E4.63023
G1 X69.600 Y98.610 E4.66718
G1 X68.990 Y97.490 E4.70421
G1 X68.620 Y96.270 E4.74123
G1 X68.500 Y95.000 E4.77826
G1 X68.500 Y75.000 E5.35894
G1 X68.620 Y73.730 E5.39597
G1 X68.990 Y72.510 E5.43299
G1 X69.600 Y71.390 E5.47002
G1 X70.353 Y70.458 E5.50479
G1 F1680.000 E3.50479
G92 E0
G1 X75.250 Y75.250 F12000.000
G1 E2.00000 F1680.000
G1 X94.750 Y75.250 E2.56616 F720.000
G1 X94.750 Y94.750 E3.13231
G1 X75.250 Y94.750 E3.69847
G1 X75.250 Y75.325 E4.26245
G1 X75.638 Y94.413 F12000.000
G1 X75.587 Y94.362 E4.26451 F1200.000
G1 X75.587 Y93.654 E4.28512
G1 X76.346 Y94.413 E4.31633
G1 X77.055 Y94.413 E4.33694
G1 X75.587 Y92.945 E4.39730
G1 X75.587 Y92.237 E4.41791
G1 X77.763 Y94.413 E4.50741
G1 X78.471 Y94.413 E4.52802
G1 X75.587 Y91.529 E4.64668
G1 X75.587 Y90.820 E4.66729
G1 X79.180 Y94.413 E4.81508
G1 X79.888 Y94.413 E4.83570
G1 X75.587 Y90.112 E5.01264
G1 X75.587 Y89.403 E5.03325
G1 X80.597 Y94.413 E5.23935
G1 X81.305 Y94.413 E5.25996
G1 X75.587 Y88.695 E5.49520
G1 X75.587 Y87.986 E5.51581
G1 X82.014 Y94.413 E5.78020
G1 X82.722 Y94.413 E5.80081
G1 X75.587 Y87.278 E6.09435
G1 X75.587 Y86.569 E6.11496
G1 X83.431 Y94.413 E6.43764
G1 X84.139 Y94.413 E6.45825
G1 X75.587 Y85.861 E6.81008
G1 X75.587 Y85.152 E6.83069
G1 X84.848 Y94.413 E7.21167
G1 X85.556 Y94.413 E7.23228
G1 X75.587 Y84.444 E7.64241
G1 X75.587 Y83.735 E7.66302
G1 X86.265 Y94.413 E8.10230
G1 X86.973 Y94.413 E8.12291
G1 X75.587 Y83.027 E8.59133
G1 X75.587 Y82.318 E8.61194
G1 X87.682 Y94.413 E9.10951
G1 X88.390 Y94.413 E9.13012
G1 X75.587 Y81.610 E9.65684
G1 X75.587 Y80.901 E9.67745
G1 X89.099 Y94.413 E10.23331
G1 X89.807 Y94.413 E10.25392
G1 X75.587 Y80.193 E10.83894
G1 X75.587 Y79.484 E10.85955
G1 X90.516 Y94.413 E11.47371
G1 X91.224 Y94.413 E11.49432
G1 X75.587 Y78.776 E12.13763
G1 X75.587 Y78.067 E12.15824
G1 X91.933 Y94.413 E12.83069
G1 X92.641 Y94.413 E12.85130
G1 X75.587 Y77.359 E13.55291
G1 X75.587 Y76.650 E13.57352
G1 X93.350 Y94.413 E14.30427
G1 X94.058 Y94.413 E14.32488
G1 X75.587 Y75.942 E15.08478
G1 X75.942 Y75.587 E15.09935
G1 X94.413 Y94.058 E15.85925
G1 X94.413 Y93.350 E15.87986
G1 X76.650 Y75.587 E16.61061
G1 X77.359 Y75.587 E16.63122
G1 X94.413 Y92.641 E17.33282
G1 X94.413 Y91.933 E17.35343
G1 X78.067 Y75.587 E18.02589
G1 X78.776 Y75.587 E18.04650
G1 X94.413 Y91.224 E18.68981
G1 X94.413 Y90.516 E18.71042
G1 X79.484 Y75.587 E19.32458
G1 X80.193 Y75.587 E19.34519
G1 X94.413 Y89.807 E19.93020
G1 X94.413 Y89.099 E19.95081
G1 X80.901 Y75.587 E20.50668
G1 X81.610 Y75.587 E20.52729
G1 X94.413 Y88.390 E21.05400
G1 X94.413 Y87.682 E21.07461
G1 X82.318 Y75.587 E21.57218
G1 X83.027 Y75.587 E21.59279
G1 X94.413 Y86.973 E22.06122
G1 X94.413 Y86.265 E22.08183
G1 X83.735 Y75.587 E22.52110
G1 X84.444 Y75.587 E22.54171
G1 X94.413 Y85.556 E22.95184
G1 X94.413 Y84.848 E22.97245
G1 X85.152 Y75.587 E23.35343
G1 X85.861 Y75.587 E23.37404
G1 X94.413 Y84.139 E23.72587
G1 X94.413 Y83.431 E23.74648
G1 X86.569 Y75.587 E24.06917
G1 X87.278 Y75.587 E24.08978
G1 X94.413 Y82.722 E24.38331
G1 X94.413 Y82.014 E24.40393
G1 X87.986 Y75.587 E24.66831
G1 X88.695 Y75.587 E24.68893
G1 X94.413 Y81.305 E24.92417
G1 X94.413 Y80.597 E24.94478
G1 X89.403 Y75.587 E25.15087
G1 X90.112 Y75.587 E25.17148
G1 X94.413 Y79.888 E25.34843
G1 X94.413 Y79.180 E25.36904
G1 X90.820 Y75.587 E25.51684
G1 X91.529 Y75.587 E25.53745
G1 X94.413 Y78.471 E25.65610
G1 X94.413 Y77.763 E25.67671
G1 X92.237 Y75.587 E25.76621
G1 X92.945 Y75.587 E25.78682
G1 X94.413 Y77.055 E25.84718
G1 X94.413 Y76.346 E25.86779
G1 X93.654 Y75.587 E25.89900
G1 X94.362 Y75.587 E25.91961
G1 X94.413 Y75.638 E25.92167
M106 S255
M104 S188 ; set temperature
G1 F1680.000 E23.92167
G92 E0
G1 Z0.750 F12000.000
G1 X94.750 Y75.250 F12000.000
G1 E2.00000 F1680.000
G1 X94.750 Y94.750 E2.37744 F1049.302
G1 X75.250 Y94.750 E2.75488
G1 X75.250 Y75.250 E3.13231
G1 X94.675 Y75.250 E3.50830
G1 X75.638 Y75.587 F12000.000
G1 X75.587 Y75.638 E3.50968 F1748.837
G1 X75.587 Y76.346 E3.52342
G1 X76.346 Y75.587 E3.54422
G1 X77.055 Y75.587 E3.55796
G1 X75.587 Y77.055 E3.59820
G1 X75.587 Y77.763 E3.61194
G1 X77.763 Y75.587 E3.67161
G1 X78.471 Y75.587 E3.68535
G1 X75.587 Y78.471 E3.76445
G1 X75.587 Y79.180 E3.77819
G1 X79.180 Y75.587 E3.87672
G1 X79.888 Y75.587 E3.89046
G1 X75.587 Y79.888 E4.00843
G1 X75.587 Y80.597 E4.02217
G1 X80.597 Y75.587 E4.15956
G1 X81.305 Y75.587 E4.17330
G1 X75.587 Y81.305 E4.33013
G1 X75.587 Y82.014 E4.34387
G1 X82.014 Y75.587 E4.52013
G1 X82.722 Y75.587 E4.53387
G1 X75.587 Y82.722 E4.72956
G1 X75.587 Y83.431 E4.74330
G1 X83.431 Y75.587 E4.95843
G1 X84.139 Y75.587 E4.97217
G1 X75.587 Y84.139 E5.20672
G1 X75.587 Y84.848 E5.22046
G1 X84.848 Y75.587 E5.47445
G1 X85.556 Y75.587 E5.48819
G1 X75.587 Y85.556 E5.76161
G1 X75.587 Y86.265 E5.77535
G1 X86.265 Y75.587 E6.06820
G1 X86.973 Y75.587 E6.08194
G1 X75.587 Y86.973 E6.39422
G1 X75.587 Y87.682 E6.40796
G1 X87.682 Y75.587 E6.73967
G1 X88.390 Y75.587 E6.75341
G1 X75.587 Y88.390 E7.10456
G1 X75.587 Y89.099 E7.11830
G1 X89.099 Y75.587 E7.48887
G1 X89.807 Y75.587 E7.50262
G1 X75.587 Y89.807 E7.89262
G1 X75.587 Y90.516 E7.90636
G1 X90.516 Y75.587 E8.31580
G1 X91.224 Y75.587 E8.32954
G1 X75.587 Y91.224 E8.75842
G1 X75.587 Y91.933 E8.77216
G1 X91.933 Y75.587 E9.22046
G1 X92.641 Y75.587 E9.23420
G1 X75.587 Y92.641 E9.70194
G1 X75.587 Y93.350 E9.71568
G1 X93.350 Y75.587 E10.20284
G1 X94.058 Y75.587 E10.21658
G1 X75.587 Y94.058 E10.72318
G1 X75.942 Y94.413 E10.73290
G1 X94.413 Y75.942 E11.23950
G1 X94.413 Y76.650 E11.25324
G1 X76.650 Y94.413 E11.74040
G1 X77.359 Y94.413 E11.75415
G1 X94.413 Y77.359 E12.22188
G1 X94.413 Y78.067 E12.23562
G1 X78.067 Y94.413 E12.68392
G1 X78.776 Y94.413 E12.69766
G1 X94.413 Y78.776 E13.12654
G1 X94.413 Y79.484 E13.14028
G1 X79.484 Y94.413 E13.54972
G1 X80.193 Y94.413 E13.56346
G1 X94.413 Y80.193 E13.95347
G1 X94.413 Y80.901 E13.96721
G1 X80.901 Y94.413 E14.33778
G1 X81.610 Y94.413 E14.35152
G1 X94.413 Y81.610 E14.70267
G1 X94.413 Y82.318 E14.71641
G1 X82.318 Y94.413 E15.04812
G1 X83.027 Y94.413 E15.06186
G1 X94.413 Y83.027 E15.37414
G1 X94.413 Y83.735 E15.38788
G1 X83.735 Y94.413 E15.68073
G1 X84.444 Y94.413 E15.69447
G1 X94.413 Y84.444 E15.96789
G1 X94.413 Y85.152 E15.98163
G1 X85.152 Y94.413 E16.23562
G1 X85.861 Y94.413 E16.24936
G1 X94.413 Y85.861 E16.48391
G1 X94.413 Y86.569 E16.49765
G1 X86.569 Y94.413 E16.71278
G1 X87.278 Y94.413 E16.72652
G1 X94.413 Y87.278 E16.92221
G1 X94.413 Y87.986 E16.93595
G1 X87.986 Y94.413 E17.11221
G1 X88.695 Y94.413 E17.12595
G1 X94.413 Y88.695 E17.28278
G1 X94.413 Y89.403 E17.29652
G1 X89.403 Y94.413 E17.43391
G1 X90.112 Y94.413 E17.44765
G1 X94.413 Y90.112 E17.56562
G1 X94.413 Y90.820 E17.57936
G1 X90.820 Y94.413 E17.67789
G1 X91.529 Y94.413 E17.69163
G1 X94.413 Y91.529 E17.77073
G1 X94.413 Y92.237 E17.78447
G1 X92.237 Y94.413 E17.84414
G1 X92.945 Y94.413 E17.85788
G1 X94.413 Y92.945 E17.89812
G1 X94.413 Y93.654 E17.91186
G1 X93.654 Y94.413 E17.93267
G1 X94.362 Y94.413 E17.94641
G1 X94.413 Y94.362 E17.94778
G1 F1680.000 E15.94778
G92 E0
G1 Z1.050 F12000.000
G1 X94.750 Y94.750 F12000.000
G1 E2.00000 F1680.000
G1 X75.250 Y94.750 E2.37744 F600.000
G1 X75.250 Y75.250 E2.75488
G1 X94.750 Y75.250 E3.13231
G1 X94.750 Y94.675 E3.50830
G1 X94.388 Y94.067 F12000.000
G1 X94.109 Y94.142 E3.51389 F602.095
G1 X94.043 Y94.388 E3.51881
G1 X93.525 Y94.388 E3.52883
G1 X93.626 Y94.013 E3.53634
G1 X91.993 Y92.380 E3.58104
G1 X92.815 Y89.312 E3.64250
G1 X94.388 Y88.891 E3.67402
G1 X94.388 Y84.168 E3.76544
G1 X94.234 Y84.014 E3.76964
G1 X94.388 Y83.442 E3.78110
G1 X94.388 Y81.511 E3.81849
G1 X93.751 Y83.885 E3.86607
G1 X91.521 Y84.483 E3.91077
G1 X90.699 Y87.550 E3.97224
G1 X92.332 Y89.183 E4.01694
G1 X91.510 Y92.250 E4.07840
G1 X89.279 Y92.848 E4.12310
G1 X88.867 Y94.388 E4.15395
G1 X88.349 Y94.388 E4.16397
G1 X88.796 Y92.718 E4.19742
G1 X87.163 Y91.085 E4.24212
G1 X87.985 Y88.018 E4.30358
G1 X90.216 Y87.421 E4.34828
G1 X91.038 Y84.353 E4.40974
G1 X89.405 Y82.720 E4.45444
G1 X90.226 Y79.653 E4.51591
G1 X92.457 Y79.055 E4.56061
G1 X93.279 Y75.988 E4.62207
G1 X92.903 Y75.612 E4.63235
G1 X94.388 Y75.950 E4.66181
G1 X93.762 Y76.118 E4.67434
G1 X92.940 Y79.185 E4.73581
G1 X94.388 Y80.632 E4.77543
G1 X88.721 Y75.612 F12000.000
G1 X88.111 Y77.891 E4.82108 F602.095
G1 X89.744 Y79.524 E4.86578
G1 X88.922 Y82.591 E4.92724
G1 X86.691 Y83.189 E4.97194
G1 X85.869 Y86.256 E5.03340
G1 X87.502 Y87.889 E5.07810
G1 X86.680 Y90.956 E5.13957
G1 X84.450 Y91.554 E5.18427
G1 X83.690 Y94.388 E5.24105
G1 X83.173 Y94.388 E5.25107
G1 X83.967 Y91.424 E5.31045
G1 X82.334 Y89.791 E5.35515
G1 X83.155 Y86.724 E5.41661
G1 X85.386 Y86.126 E5.46131
G1 X86.208 Y83.059 E5.52278
G1 X84.575 Y81.426 E5.56748
G1 X85.397 Y78.359 E5.62894
G1 X87.628 Y77.761 E5.67364
G1 X88.203 Y75.612 E5.71670
G1 X83.545 Y75.612 E5.80687
G1 X83.281 Y76.597 E5.82659
G1 X84.914 Y78.230 E5.87129
G1 X84.092 Y81.297 E5.93275
G1 X81.861 Y81.895 E5.97745
G1 X81.039 Y84.962 E6.03892
G1 X82.672 Y86.595 E6.08362
G1 X81.851 Y89.662 E6.14508
G1 X79.620 Y90.260 E6.18978
G1 X78.798 Y93.327 E6.25124
G1 X79.859 Y94.388 E6.28028
G1 X75.926 Y94.388 E6.35640
G1 X76.084 Y93.795 E6.36827
G1 X78.315 Y93.197 E6.41297
G1 X79.137 Y90.130 E6.47443
G1 X77.504 Y88.497 E6.51913
G1 X78.326 Y85.430 E6.58060
G1 X80.556 Y84.832 E6.62530
G1 X81.378 Y81.765 E6.68676
G1 X79.745 Y80.132 E6.73146
G1 X80.567 Y77.065 E6.79292
G1 X82.798 Y76.467 E6.83762
G1 X83.027 Y75.612 E6.85475
G1 X78.761 Y75.612 E6.93732
G1 X80.084 Y76.935 E6.97353
G1 X79.262 Y80.003 E7.03499
G1 X77.032 Y80.600 E7.07969
G1 X76.210 Y83.668 E7.14116
G1 X77.843 Y85.301 E7.18586
G1 X77.021 Y88.368 E7.24732
G1 X75.612 Y88.745 E7.27554
G1 X75.612 Y83.569 F12000.000
G1 X75.727 Y83.538 E7.27784 F602.095
G1 X76.549 Y80.471 E7.33930
G1 X75.612 Y79.535 E7.36493
G1 X75.612 Y76.238 E7.42875
G1 X75.738 Y75.771 E7.43810
G1 X76.328 Y75.612 E7.44994
G1 F1680.000 E5.44994
G92 E0
G1 Z1.350 F12000.000
G1 X75.250 Y75.250 F12000.000
G1 E2.00000 F1680.000
G1 X94.750 Y75.250 E2.37744 F600.000
G1 X94.750 Y94.750 E2.75488
G1 X75.250 Y94.750 E3.13231
G1 X75.250 Y75.325 E3.50830
G1 X75.612 Y75.646 F12000.000
G1 X75.738 Y75.771 E3.51173 F600.000
G1 X76.328 Y75.612 E3.52356
G1 X83.286 Y75.612 F12000.000
G1 X83.151 Y76.114 E3.53361 F600.000
G1 X85.397 Y78.359 E3.59507
G1 X87.628 Y77.761 E3.63977
G1 X89.873 Y80.007 E3.70123
G1 X89.275 Y82.237 E3.74593
G1 X91.521 Y84.483 E3.80740
G1 X93.751 Y83.885 E3.85210
G1 X94.388 Y84.521 E3.86951
G1 X94.388 Y88.891 E3.95409
G1 X92.815 Y89.312 E3.98561
G1 X90.569 Y87.067 E4.04707
G1 X91.167 Y84.836 E4.09177
G1 X88.922 Y82.591 E4.15323
G1 X86.691 Y83.189 E4.19793
G1 X84.446 Y80.943 E4.25940
G1 X85.043 Y78.713 E4.30410
G1 X82.798 Y76.467 E4.36556
G1 X80.567 Y77.065 E4.41026
G1 X79.115 Y75.612 E4.45002
G1 X78.408 Y75.612 E4.46371
G1 X80.214 Y77.418 E4.51314
G1 X79.616 Y79.649 E4.55784
G1 X81.861 Y81.895 E4.61930
G1 X84.092 Y81.297 E4.66400
G1 X86.337 Y83.542 E4.72547
G1 X85.740 Y85.773 E4.77017
G1 X87.985 Y88.018 E4.83163
G1 X90.216 Y87.421 E4.87633
G1 X92.461 Y89.666 E4.93779
G1 X91.863 Y91.897 E4.98249
G1 X94.109 Y94.142 E5.04396
G1 X94.388 Y94.067 E5.04954
G1 X93.647 Y94.388 E5.06515
G1 X91.510 Y92.250 E5.12366
G1 X89.279 Y92.848 E5.16836
G1 X87.034 Y90.603 E5.22982
G1 X87.631 Y88.372 E5.27452
G1 X85.386 Y86.126 E5.33599
G1 X83.155 Y86.724 E5.38069
G1 X80.910 Y84.479 E5.44215
G1 X81.508 Y82.248 E5.48685
G1 X79.262 Y80.003 E5.54831
G1 X77.032 Y80.600 E5.59301
G1 X75.612 Y79.181 E5.63186
G1 X75.612 Y79.888 E5.64555
G1 X76.678 Y80.954 E5.67472
G1 X76.080 Y83.185 E5.71942
G1 X78.326 Y85.430 E5.78088
G1 X80.556 Y84.832 E5.82558
G1 X82.802 Y87.078 E5.88705
G1 X82.204 Y89.308 E5.93175
G1 X84.450 Y91.554 E5.99321
G1 X86.680 Y90.956 E6.03791
G1 X88.926 Y93.201 E6.09937
G1 X88.608 Y94.388 E6.12314
G1 X83.748 Y94.388 E6.21721
G1 X83.498 Y94.138 E6.22404
G1 X84.096 Y91.907 E6.26874
G1 X81.851 Y89.662 E6.33020
G1 X79.620 Y90.260 E6.37490
G1 X77.375 Y88.014 E6.43637
G1 X77.972 Y85.784 E6.48107
G1 X75.727 Y83.538 E6.54253
G1 X75.612 Y83.569 E6.54482
G1 X75.612 Y88.745 F12000.000
G1 X77.021 Y88.368 E6.57304 F600.000
G1 X79.266 Y90.613 E6.63451
G1 X78.669 Y92.844 E6.67921
G1 X80.212 Y94.388 E6.72146
G1 X79.505 Y94.388 E6.73515
G1 X78.315 Y93.197 E6.76772
G1 X76.084 Y93.795 E6.81242
G1 X75.612 Y93.323 E6.82534
G1 X75.667 Y94.388 E6.84596
G1 X75.731 Y94.149 E6.85075
G1 X75.612 Y94.030 E6.85399
G1 X94.388 Y83.814 F12000.000
G1 X94.105 Y83.531 E6.86172 F600.000
G1 X94.388 Y82.477 E6.88286
G1 X94.388 Y75.950 F12000.000
G1 X93.762 Y76.118 E6.89540 F600.000
G1 X93.257 Y75.612 E6.90922
G1 X92.550 Y75.612 E6.92291
G1 X93.408 Y76.471 E6.94641
G1 X92.811 Y78.702 E6.99111
G1 X94.388 Y80.279 E7.03427
G1 X94.388 Y80.986 E7.04796
G1 X92.457 Y79.055 E7.10080
G1 X90.226 Y79.653 E7.14550
G1 X87.981 Y77.408 E7.20696
G1 X88.462 Y75.612 E7.24293
G1 F1680.000 E5.24293
G92 E0
G1 Z1.650 F12000.000
G1 X94.750 Y75.250 F12000.000
G1 E2.00000 F1680.000
G1 X94.750 Y94.750 E2.37744 F600.000
G1 X75.250 Y94.750 E2.75488
G1 X75.250 Y75.250 E3.13231
G1 X94.675 Y75.250 E3.50830
G1 X94.388 Y75.691 F12000.000
G1 X93.279 Y75.988 E3.53051 F600.000
G1 X92.903 Y75.612 E3.54080
G1 X88.462 Y75.612 E3.62676
G1 X87.981 Y77.408 E3.66273
G1 X84.914 Y78.230 E3.72420
G1 X83.281 Y76.597 E3.76890
G1 X80.214 Y77.418 E3.83036
G1 X79.616 Y79.649 E3.87506
G1 X76.549 Y80.471 E3.93652
G1 X75.612 Y79.535 E3.96215
G1 X75.612 Y83.310 E4.03523
G1 X76.080 Y83.185 E4.04460
G1 X76.678 Y80.954 E4.08930
G1 X79.745 Y80.132 E4.15077
G1 X81.378 Y81.765 E4.19547
G1 X84.446 Y80.943 E4.25693
G1 X85.043 Y78.713 E4.30163
G1 X88.111 Y77.891 E4.36309
G1 X89.744 Y79.524 E4.40779
G1 X92.811 Y78.702 E4.46926
G1 X93.408 Y76.471 E4.51396
G1 X94.388 Y76.209 E4.53357
G1 X94.388 Y80.632 E4.61919
G1 X92.940 Y79.185 E4.65881
G1 X89.873 Y80.007 E4.72027
G1 X89.275 Y82.237 E4.76497
G1 X86.208 Y83.059 E4.82644
G1 X84.575 Y81.426 E4.87114
G1 X81.508 Y82.248 E4.93260
G1 X80.910 Y84.479 E4.97730
G1 X77.843 Y85.301 E5.03876
G1 X76.210 Y83.668 E5.08346
G1 X75.612 Y83.828 E5.09543
G1 X75.612 Y88.486 E5.18561
G1 X77.375 Y88.014 E5.22092
G1 X77.972 Y85.784 E5.26562
G1 X81.039 Y84.962 E5.32708
G1 X82.672 Y86.595 E5.37178
G1 X85.740 Y85.773 E5.43324
G1 X86.337 Y83.542 E5.47794
G1 X89.405 Y82.720 E5.53941
G1 X91.038 Y84.353 E5.58411
G1 X94.105 Y83.531 E5.64557
G1 X94.388 Y82.477 E5.66671
G1 X94.388 Y84.168 E5.69944
G1 X94.234 Y84.014 E5.70364
G1 X91.167 Y84.836 E5.76510
G1 X90.569 Y87.067 E5.80980
G1 X87.502 Y87.889 E5.87126
G1 X85.869 Y86.256 E5.91596
G1 X82.802 Y87.078 E5.97743
G1 X82.204 Y89.308 E6.02213
