; generated by Slic3r 1.0.0RC1 on 2013-11-20 at 23:34:50

; layer_height = 0.3
; perimeters = 1
; top_solid_layers = 2
; bottom_solid_layers = 2
; fill_density = 0.2
; perimeter_speed = 30
; infill_speed = 30
; travel_speed = 200
; nozzle_diameter = 0.5
; filament_diameter = 2.98
; extrusion_multiplier = 0.9
; perimeters extrusion width = 0.50mm
; infill extrusion width = 0.50mm
; solid infill extrusion width = 0.50mm
; top infill extrusion width = 0.50mm

G21 ; set units to millimeters
M107
M104 S190 ; set temperature
G28 ; home all axes
G1 Z15 F120 ; lift nozzle
M109 S190 ; wait for temperature to be reached
G90 ; use absolute coordinates
G92 E0
M82 ; use absolute distances for extrusion
G1 F1680.000 E-2.00000
G92 E0
G1 Z0.450 F12000.000
G1 X65.850 Y66.680 F12000.000
G1 E2.00000 F1680.000
G1 X66.800 Y65.740 E2.03880 F900.000
G1 X67.940 Y64.720 E2.08322
G1 X68.260 Y64.450 E2.09537
G1 X69.610 Y63.420 E2.14467
G1 X70.650 Y62.720 E2.18107
G1 X72.050 Y61.880 E2.22847
G1 X72.410 Y61.680 E2.24043
G1 X73.910 Y60.930 E2.28912
G1 X75.490 Y60.260 E2.33895
G1 X76.590 Y59.860 E2.37293
G1 X78.630 Y59.270 E2.43459
G1 X80.210 Y58.930 E2.48151
G1 X81.930 Y58.670 E2.53202
G1 X83.310 Y58.550 E2.57223
G1 X84.830 Y58.500 E2.61639
G1 X86.410 Y58.530 E2.66227
G1 X86.870 Y58.560 E2.67565
G1 X88.540 Y58.730 E2.72439
G1 X89.780 Y58.930 E2.76086
G1 X91.360 Y59.270 E2.80778
G1 X91.780 Y59.380 E2.82039
G1 X93.410 Y59.860 E2.86972
G1 X94.590 Y60.290 E2.90618
G1 X96.100 Y60.940 E2.95391
G1 X97.580 Y61.680 E3.00196
G1 X99.340 Y62.720 E3.06131
G1 X100.740 Y63.680 E3.11060
G1 X101.730 Y64.450 E3.14701
G1 X102.050 Y64.710 E3.15898
G1 X103.290 Y65.820 E3.20730
G1 X104.170 Y66.700 E3.24343
G1 X105.280 Y67.940 E3.29175
G1 X106.310 Y69.250 E3.34013
G1 X106.570 Y69.610 E3.35303
G1 X107.470 Y70.970 E3.40038
G1 X108.310 Y72.410 E3.44878
G1 X109.050 Y73.890 E3.49682
G1 X109.550 Y75.040 E3.53323
G1 X109.700 Y75.400 E3.54455
G1 X110.130 Y76.580 E3.58101
G1 X110.260 Y77.000 E3.59378
G1 X110.720 Y78.630 E3.64295
G1 X110.990 Y79.860 E3.67951
G1 X111.260 Y81.450 E3.72634
G1 X111.310 Y81.870 E3.73862
G1 X111.460 Y83.530 E3.78701
G1 X111.500 Y84.780 E3.82332
G1 X111.460 Y86.460 E3.87211
G1 X111.430 Y86.870 E3.88405
G1 X111.260 Y88.540 E3.93279
G1 X111.060 Y89.780 E3.96925
G1 X110.720 Y91.360 E4.01618
G1 X110.610 Y91.780 E4.02878
G1 X110.130 Y93.410 E4.07812
G1 X109.700 Y94.590 E4.11458
G1 X109.050 Y96.100 E4.16231
G1 X108.310 Y97.580 E4.21035
G1 X107.270 Y99.340 E4.26971
G1 X106.310 Y100.740 E4.31899
G1 X105.540 Y101.730 E4.35540
G1 X105.280 Y102.050 E4.36738
G1 X104.170 Y103.290 E4.41569
G1 X103.290 Y104.170 E4.45183
G1 X102.050 Y105.280 E4.50015
G1 X100.740 Y106.310 E4.54853
G1 X100.380 Y106.570 E4.56142
G1 X99.020 Y107.470 E4.60877
G1 X97.580 Y108.310 E4.65717
G1 X96.100 Y109.050 E4.70522
G1 X94.950 Y109.550 E4.74162
G1 X94.590 Y109.700 E4.75295
G1 X93.410 Y110.130 E4.78941
G1 X92.990 Y110.260 E4.80217
G1 X91.360 Y110.720 E4.85135
G1 X89.780 Y111.060 E4.89827
G1 X88.540 Y111.260 E4.93474
G1 X88.120 Y111.310 E4.94702
G1 X86.460 Y111.460 E4.99541
G1 X85.200 Y111.500 E5.03201
G1 X83.530 Y111.460 E5.08051
G1 X83.120 Y111.430 E5.09245
G1 X81.450 Y111.260 E5.14118
G1 X80.210 Y111.060 E5.17765
G1 X78.630 Y110.720 E5.22458
G1 X78.210 Y110.610 E5.23718
G1 X76.580 Y110.130 E5.28652
G1 X75.400 Y109.700 E5.32298
G1 X73.890 Y109.050 E5.37071
G1 X72.410 Y108.310 E5.41875
G1 X70.650 Y107.270 E5.47810
G1 X69.250 Y106.310 E5.52739
G1 X68.260 Y105.540 E5.56380
G1 X67.940 Y105.280 E5.57577
G1 X66.700 Y104.170 E5.62409
G1 X65.820 Y103.290 E5.66023
G1 X64.710 Y102.050 E5.70855
G1 X63.680 Y100.740 E5.75693
G1 X63.420 Y100.380 E5.76982
G1 X62.520 Y99.020 E5.81717
G1 X61.680 Y97.580 E5.86557
G1 X60.940 Y96.100 E5.91361
G1 X60.440 Y94.950 E5.95002
G1 X60.290 Y94.590 E5.96135
G1 X59.860 Y93.410 E5.99781
G1 X59.730 Y92.990 E6.01057
G1 X59.270 Y91.360 E6.05975
G1 X58.930 Y89.780 E6.10667
G1 X58.730 Y88.540 E6.14314
G1 X58.570 Y86.950 E6.18953
G1 X58.540 Y86.530 E6.20176
G1 X58.500 Y85.190 E6.24068
G1 X58.530 Y83.590 E6.28714
G1 X58.560 Y83.120 E6.30082
G1 X58.730 Y81.450 E6.34956
G1 X58.930 Y80.210 E6.38602
G1 X59.310 Y78.490 E6.43716
G1 X59.400 Y78.170 E6.44682
G1 X59.860 Y76.580 E6.49487
G1 X60.290 Y75.400 E6.53134
G1 X61.110 Y73.530 E6.59062
G1 X61.680 Y72.410 E6.62711
G1 X62.520 Y70.970 E6.67551
G1 X63.720 Y69.200 E6.73759
G1 X64.430 Y68.280 E6.77134
G1 X65.550 Y66.990 E6.82094
G1 X65.798 Y66.734 E6.83128
G1 F1680.000 E4.83128
G92 E0
G1 X70.603 Y71.480 F12000.000
G1 E2.00000 F1680.000
G1 X71.539 Y70.552 E2.03828 F720.000
G1 X72.411 Y69.782 E2.07204
G1 X73.391 Y69.022 E2.10806
G1 X74.417 Y68.325 E2.14409
G1 X75.485 Y67.693 E2.18011
G1 X76.591 Y67.130 E2.21613
G1 X77.803 Y66.611 E2.25441
G1 X78.897 Y66.217 E2.28817
G1 X80.088 Y65.871 E2.32420
G1 X81.299 Y65.600 E2.36022
G1 X82.525 Y65.406 E2.39624
G1 X83.760 Y65.289 E2.43226
G1 X85.078 Y65.253 E2.47054
G1 X86.240 Y65.289 E2.50430
G1 X87.475 Y65.406 E2.54033
G1 X88.701 Y65.600 E2.57635
G1 X89.912 Y65.871 E2.61237
G1 X91.103 Y66.217 E2.64839
G1 X92.270 Y66.637 E2.68442
G1 X93.478 Y67.165 E2.72269
G1 X94.515 Y67.693 E2.75646
G1 X95.583 Y68.325 E2.79248
G1 X96.609 Y69.022 E2.82850
G1 X97.589 Y69.782 E2.86453
G1 X98.520 Y70.603 E2.90055
G1 X99.448 Y71.539 E2.93883
G1 X100.218 Y72.411 E2.97259
G1 X100.978 Y73.391 E3.00861
G1 X101.675 Y74.417 E3.04464
G1 X102.307 Y75.485 E3.08066
G1 X102.870 Y76.591 E3.11668
G1 X103.363 Y77.730 E3.15270
G1 X103.783 Y78.897 E3.18873
G1 X104.129 Y80.088 E3.22475
G1 X104.400 Y81.299 E3.26077
G1 X104.594 Y82.525 E3.29679
G1 X104.711 Y83.760 E3.33282
G1 X104.750 Y85.000 E3.36884
G1 X104.711 Y86.240 E3.40486
G1 X104.594 Y87.475 E3.44088
G1 X104.400 Y88.701 E3.47691
G1 X104.129 Y89.912 E3.51293
G1 X103.783 Y91.103 E3.54895
G1 X103.363 Y92.270 E3.58497
G1 X102.870 Y93.409 E3.62100
G1 X102.307 Y94.515 E3.65702
G1 X101.675 Y95.583 E3.69304
G1 X100.978 Y96.609 E3.72907
G1 X100.218 Y97.589 E3.76509
G1 X99.397 Y98.520 E3.80111
G1 X98.520 Y99.397 E3.83713
G1 X97.589 Y100.218 E3.87316
G1 X96.609 Y100.978 E3.90918
G1 X95.583 Y101.675 E3.94520
G1 X94.515 Y102.307 E3.98122
G1 X93.409 Y102.870 E4.01725
G1 X92.270 Y103.363 E4.05327
G1 X91.103 Y103.783 E4.08929
G1 X89.912 Y104.129 E4.12531
G1 X88.701 Y104.400 E4.16134
G1 X87.475 Y104.594 E4.19736
G1 X86.240 Y104.711 E4.23338
G1 X85.000 Y104.750 E4.26940
G1 X83.760 Y104.711 E4.30543
G1 X82.525 Y104.594 E4.34145
G1 X81.299 Y104.400 E4.37747
G1 X80.088 Y104.129 E4.41350
G1 X78.897 Y103.783 E4.44952
G1 X77.730 Y103.363 E4.48554
G1 X76.591 Y102.870 E4.52156
G1 X75.485 Y102.307 E4.55759
G1 X74.417 Y101.675 E4.59361
G1 X73.391 Y100.978 E4.62963
G1 X72.411 Y100.218 E4.66565
G1 X71.480 Y99.397 E4.70168
G1 X70.603 Y98.520 E4.73770
G1 X69.782 Y97.589 E4.77372
G1 X69.022 Y96.609 E4.80974
G1 X68.325 Y95.583 E4.84577
G1 X67.693 Y94.515 E4.88179
G1 X67.130 Y93.409 E4.91781
G1 X66.637 Y92.270 E4.95383
G1 X66.217 Y91.103 E4.98986
G1 X65.871 Y89.912 E5.02588
G1 X65.600 Y88.701 E5.06190
G1 X65.406 Y87.475 E5.09793
G1 X65.289 Y86.240 E5.13395
G1 X65.250 Y85.000 E5.16997
G1 X65.289 Y83.760 E5.20599
G1 X65.406 Y82.525 E5.24202
G1 X65.600 Y81.299 E5.27804
G1 X65.871 Y80.088 E5.31406
G1 X66.217 Y78.897 E5.35008
G1 X66.668 Y77.658 E5.38836
G1 X67.130 Y76.591 E5.42212
G1 X67.693 Y75.485 E5.45815
G1 X68.325 Y74.417 E5.49417
G1 X69.022 Y73.391 E5.53019
G1 X69.782 Y72.411 E5.56622
G1 X70.553 Y71.537 E5.60006
G1 X67.008 Y92.277 F12000.000
G1 X77.725 Y102.993 E6.04301 F1200.000
G1 X78.851 Y103.408 F12000.000
G1 X66.592 Y91.149 E6.54973 F1200.000
G1 X66.285 Y90.131 E6.58080
G1 X79.869 Y103.715 E7.14225
G1 X80.812 Y103.946 E7.17062
G1 X66.057 Y89.191 E7.78047
G1 X65.878 Y88.299 E7.80704
G1 X81.701 Y104.122 E8.46103
G1 X82.546 Y104.256 E8.48605
G1 X65.744 Y87.454 E9.18053
G1 X65.668 Y86.666 E9.20366
G1 X83.334 Y104.332 E9.93382
G1 X84.098 Y104.384 E9.95620
G1 X65.619 Y85.906 E10.71995
G1 X65.594 Y85.168 E10.74153
G1 X84.833 Y104.407 E11.53673
G1 X85.533 Y104.396 E11.55719
G1 X65.604 Y84.467 E12.38089
G1 X65.626 Y83.777 E12.40106
G1 X86.223 Y104.374 E13.25237
G1 X86.873 Y104.312 E13.27146
G1 X65.688 Y83.127 E14.14710
G1 X65.754 Y82.481 E14.16606
G1 X87.519 Y104.246 E15.06563
G1 X88.133 Y104.148 E15.08381
G1 X65.852 Y81.867 E16.00475
G1 X65.955 Y81.258 E16.02280
G1 X88.742 Y104.045 E16.96463
G1 X89.323 Y103.915 E16.98205
G1 X66.085 Y80.677 E17.94255
G1 X66.219 Y80.099 E17.95989
G1 X89.901 Y103.781 E18.93873
G1 X90.453 Y103.621 E18.95551
G1 X66.379 Y79.547 E19.95053
G1 X66.540 Y78.996 E19.96731
G1 X91.004 Y103.460 E20.97848
G1 X91.527 Y103.272 E20.99473
G1 X66.728 Y78.473 E22.01974
G1 X66.916 Y77.949 E22.03600
G1 X92.051 Y103.084 E23.07485
G1 X92.552 Y102.873 E23.09075
G1 X67.127 Y77.448 E24.14165
G1 X67.342 Y76.951 E24.15747
G1 X93.049 Y102.658 E25.22002
G1 X93.532 Y102.429 E25.23564
G1 X67.571 Y76.468 E26.30865
G1 X67.811 Y75.997 E26.32412
G1 X94.003 Y102.189 E27.40670
G1 X94.468 Y101.942 E27.42209
G1 X68.058 Y75.531 E28.51370
G1 X68.322 Y75.084 E28.52889
G1 X94.916 Y101.678 E29.62806
G1 X95.363 Y101.413 E29.64324
G1 X68.587 Y74.637 E30.74997
G1 X68.873 Y74.211 E30.76496
G1 X95.789 Y101.127 E31.87746
G1 X96.213 Y100.839 E31.89243
G1 X69.161 Y73.787 E33.01055
G1 X69.461 Y73.376 E33.02544
G1 X96.624 Y100.539 E34.14815
G1 X97.025 Y100.228 E34.16298
G1 X69.772 Y72.975 E35.28941
G1 X70.086 Y72.577 E35.30422
G1 X97.423 Y99.914 E36.43413
G1 X97.801 Y99.581 E36.44887
G1 X70.419 Y72.199 E37.58062
G1 X70.764 Y71.832 E37.59534
G1 X98.168 Y99.236 E38.72801
G1 X98.524 Y98.880 E38.74272
G1 X71.120 Y71.476 E39.87539
G1 X71.476 Y71.120 E39.89010
G1 X98.880 Y98.524 E41.02277
G1 X99.236 Y98.168 E41.03748
G1 X71.832 Y70.764 E42.17015
G1 X72.199 Y70.419 E42.18486
G1 X99.581 Y97.801 E43.31662
G1 X99.914 Y97.423 E43.33136
G1 X72.577 Y70.086 E44.46127
G1 X72.975 Y69.772 E44.47608
G1 X100.228 Y97.025 E45.60251
G1 X100.539 Y96.624 E45.61734
G1 X73.376 Y69.461 E46.74005
G1 X73.787 Y69.161 E46.75494
G1 X100.839 Y96.213 E47.87305
G1 X101.127 Y95.789 E47.88803
G1 X74.211 Y68.873 E49.00053
G1 X74.637 Y68.587 E49.01552
G1 X101.413 Y95.363 E50.12224
G1 X101.678 Y94.916 E50.13743
G1 X75.084 Y68.322 E51.23660
G1 X75.532 Y68.058 E51.25178
G1 X101.942 Y94.468 E52.34340
G1 X102.189 Y94.003 E52.35878
G1 X75.997 Y67.811 E53.44136
G1 X76.468 Y67.571 E53.45683
G1 X102.429 Y93.532 E54.52985
G1 X102.658 Y93.049 E54.54546
G1 X76.952 Y67.342 E55.60798
G1 X77.450 Y67.129 E55.62382
G1 X102.873 Y92.552 E56.67463
G1 X103.084 Y92.051 E56.69053
G1 X77.949 Y66.916 E57.72938
G1 X78.473 Y66.728 E57.74564
G1 X103.272 Y91.527 E58.77065
G1 X103.460 Y91.004 E58.78690
G1 X78.996 Y66.540 E59.79807
G1 X79.547 Y66.379 E59.81485
G1 X103.621 Y90.453 E60.80986
G1 X103.781 Y89.901 E60.82665
G1 X80.099 Y66.219 E61.80549
G1 X80.677 Y66.085 E61.82282
G1 X103.915 Y89.323 E62.78332
G1 X104.045 Y88.742 E62.80075
G1 X81.258 Y65.955 E63.74258
G1 X81.867 Y65.852 E63.76062
G1 X104.148 Y88.133 E64.68156
G1 X104.246 Y87.519 E64.69974
G1 X82.481 Y65.754 E65.59931
G1 X83.130 Y65.691 E65.61835
G1 X104.312 Y86.873 E66.49386
G1 X104.374 Y86.223 E66.51295
G1 X83.784 Y65.633 E67.36398
G1 X84.467 Y65.604 E67.38397
G1 X104.396 Y85.533 E68.20767
G1 X104.407 Y84.833 E68.22814
G1 X85.167 Y65.593 E69.02336
G1 X85.902 Y65.616 E69.04485
G1 X104.384 Y84.098 E69.80874
G1 X104.332 Y83.334 E69.83113
G1 X86.666 Y65.668 E70.56128
G1 X87.454 Y65.744 E70.58441
G1 X104.256 Y82.546 E71.27888
G1 X104.122 Y81.701 E71.30391
G1 X88.299 Y65.878 E71.95789
G1 X89.188 Y66.054 E71.98436
G1 X103.946 Y80.812 E72.59433
G1 X103.714 Y79.869 E72.62270
G1 X90.131 Y66.286 E73.18415
G1 X91.149 Y66.592 E73.21521
G1 X103.408 Y78.851 E73.72193
G1 X102.993 Y77.724 F12000.000
G1 X92.277 Y67.008 E74.16487 F1200.000
G1 X93.572 Y67.591 F12000.000
G1 X102.409 Y76.428 E74.53012 F1200.000
G1 X101.535 Y74.842 F12000.000
G1 X95.158 Y68.465 E74.79371 F1200.000
G1 X97.988 Y70.584 F12000.000
G1 X99.416 Y72.012 E74.85273 F1200.000
G1 X76.428 Y102.409 F12000.000
G1 X67.591 Y93.572 E75.21799 F1200.000
G1 X68.465 Y95.157 F12000.000
G1 X74.843 Y101.535 E75.48159 F1200.000
G1 X72.012 Y99.417 F12000.000
G1 X70.583 Y97.988 E75.54065 F1200.000
M104 S188 ; set temperature
G1 F1680.000 E73.54065
G92 E0
G1 Z0.750 F12000.000
G1 X70.603 Y98.520 F12000.000
G1 E2.00000 F1680.000
G1 X69.782 Y97.589 E2.02401 F1440
G1 X69.022 Y96.609 E2.04803
G1 X68.325 Y95.583 E2.07205
G1 X67.693 Y94.515 E2.09606
G1 X67.130 Y93.409 E2.12008
G1 X66.637 Y92.270 E2.14409
G1 X66.217 Y91.103 E2.16811
G1 X65.871 Y89.912 E2.19212
G1 X65.600 Y88.701 E2.21614
G1 X65.440 Y87.693 E2.23588
G1 X65.289 Y86.240 E2.26416
G1 X65.250 Y85.000 E2.28817
G1 X65.289 Y83.760 E2.31219
G1 X65.440 Y82.307 E2.34047
G1 X65.600 Y81.299 E2.36021
G1 X65.871 Y80.088 E2.38423
G1 X66.217 Y78.897 E2.40824
G1 X66.637 Y77.730 E2.43226
G1 X67.130 Y76.591 E2.45627
G1 X67.693 Y75.485 E2.48029
G1 X68.325 Y74.417 E2.50430
G1 X69.022 Y73.391 E2.52832
G1 X69.928 Y72.245 E2.55660
G1 X70.603 Y71.480 E2.57634
G1 X71.480 Y70.603 E2.60036
G1 X72.585 Y69.647 E2.62863
G1 X73.391 Y69.022 E2.64838
G1 X74.417 Y68.325 E2.67239
G1 X75.485 Y67.693 E2.69641
G1 X76.591 Y67.130 E2.72042
G1 X77.772 Y66.622 E2.74531
G1 X78.897 Y66.217 E2.76845
G1 X80.088 Y65.871 E2.79247
G1 X81.299 Y65.600 E2.81648
G1 X82.525 Y65.406 E2.84050
G1 X83.760 Y65.289 E2.86451
G1 X85.000 Y65.250 E2.88853
G1 X86.240 Y65.289 E2.91254
G1 X87.475 Y65.406 E2.93656
G1 X88.701 Y65.600 E2.96057
G1 X89.912 Y65.871 E2.98459
G1 X91.103 Y66.217 E3.00860
G1 X92.270 Y66.637 E3.03262
G1 X93.409 Y67.130 E3.05663
G1 X94.515 Y67.693 E3.08065
G1 X95.583 Y68.325 E3.10466
G1 X96.609 Y69.022 E3.12868
G1 X97.589 Y69.782 E3.15269
G1 X98.520 Y70.603 E3.17671
G1 X99.397 Y71.480 E3.20072
G1 X100.218 Y72.411 E3.22474
G1 X100.978 Y73.391 E3.24875
G1 X101.675 Y74.417 E3.27277
G1 X102.307 Y75.485 E3.29678
G1 X102.870 Y76.591 E3.32080
G1 X103.363 Y77.730 E3.34481
G1 X103.783 Y78.897 E3.36883
G1 X104.129 Y80.088 E3.39284
G1 X104.400 Y81.299 E3.41686
G1 X104.594 Y82.525 E3.44087
G1 X104.711 Y83.760 E3.46489
G1 X104.750 Y85.000 E3.48891
G1 X104.711 Y86.240 E3.51292
G1 X104.594 Y87.475 E3.53694
G1 X104.392 Y88.751 E3.56194
G1 X104.129 Y89.912 E3.58497
G1 X103.783 Y91.103 E3.60898
G1 X103.363 Y92.270 E3.63300
G1 X102.870 Y93.409 E3.65701
G1 X102.307 Y94.515 E3.68103
G1 X101.675 Y95.583 E3.70504
G1 X100.978 Y96.609 E3.72906
G1 X100.218 Y97.589 E3.75307
G1 X99.397 Y98.520 E3.77709
G1 X98.520 Y99.397 E3.80110
G1 X97.589 Y100.218 E3.82512
G1 X96.609 Y100.978 E3.84913
G1 X95.583 Y101.675 E3.87315
G1 X94.515 Y102.307 E3.89716
G1 X93.409 Y102.870 E3.92118
G1 X92.270 Y103.363 E3.94519
G1 X91.103 Y103.783 E3.96921
G1 X89.804 Y104.161 E3.99540
G1 X88.701 Y104.400 E4.01724
G1 X87.475 Y104.594 E4.04126
G1 X86.240 Y104.711 E4.06527
G1 X85.000 Y104.750 E4.08929
G1 X83.760 Y104.711 E4.11330
G1 X82.525 Y104.594 E4.13732
G1 X81.299 Y104.400 E4.16133
G1 X80.088 Y104.129 E4.18535
G1 X78.897 Y103.783 E4.20936
G1 X77.730 Y103.363 E4.23338
G1 X76.591 Y102.870 E4.25739
G1 X75.485 Y102.307 E4.28141
G1 X74.417 Y101.675 E4.30542
G1 X73.391 Y100.978 E4.32944
G1 X72.411 Y100.218 E4.35346
G1 X71.480 Y99.397 E4.37747
G1 X70.656 Y98.573 E4.40003
G1 X67.007 Y77.725 F12000.000
G1 X77.720 Y67.011 E4.69524 F2400
G1 X78.852 Y66.592 F12000.000
G1 X66.592 Y78.852 E5.03306 F2400
G1 X66.285 Y79.870 E5.05377
G1 X79.870 Y66.285 E5.42808
G1 X80.812 Y66.054 E5.44699
G1 X66.054 Y80.812 E5.85364
G1 X65.878 Y81.701 E5.87129
G1 X81.701 Y65.878 E6.30728
G1 X82.546 Y65.744 E6.32396
G1 X65.744 Y82.546 E6.78695
G1 X65.668 Y83.334 E6.80237
G1 X83.326 Y65.676 E7.28892
G1 X84.098 Y65.616 E7.30401
