; generated by Slic3r 1.0.0RC1 on 2013-11-20 at 23:35:49

; layer_height = 0.3
; perimeters = 1
; top_solid_layers = 2
; bottom_solid_layers = 2
; fill_density = 0.2
; perimeter_speed = 30
; infill_speed = 30
; travel_speed = 200
; nozzle_diameter = 0.5
; filament_diameter = 2.98
; extrusion_multiplier = 0.9
; perimeters extrusion width = 0.50mm
; infill extrusion width = 0.50mm
; solid infill extrusion width = 0.50mm
; top infill extrusion width = 0.50mm

G21 ; set units to millimeters
M107
M104 S190 ; set temperature
G28 ; home all axes
G1 Z15 F120 ; lift nozzle
M109 S190 ; wait for temperature to be reached
G90 ; use absolute coordinates
G92 E0
M82 ; use absolute distances for extrusion
G1 F1680.000 E-2.00000
G92 E0
G1 Z0.450 F12000.000
G1 X73.550 Y73.110 F12000.000
G1 E2.00000 F1680.000
G1 X74.620 Y72.160 E2.04154 F900.000
G1 X75.120 Y71.770 E2.05995
G1 X76.010 Y71.160 E2.09128
G1 X76.870 Y70.640 E2.12046
G1 X77.270 Y70.420 E2.13371
G1 X78.130 Y70.000 E2.16150
G1 X79.040 Y69.610 E2.19025
G1 X79.630 Y69.390 E2.20853
G1 X80.160 Y69.220 E2.22469
G1 X81.060 Y68.970 E2.25181
G1 X82.080 Y68.750 E2.28210
G1 X82.700 Y68.650 E2.30034
G1 X83.830 Y68.540 E2.33330
G1 X84.890 Y68.500 E2.36410
G1 X85.720 Y68.510 E2.38820
G1 X86.240 Y68.540 E2.40332
G1 X87.290 Y68.650 E2.43397
G1 X87.910 Y68.750 E2.45221
G1 X88.930 Y68.970 E2.48250
G1 X89.830 Y69.220 E2.50962
G1 X90.360 Y69.390 E2.52578
G1 X90.950 Y69.610 E2.54406
G1 X91.860 Y70.000 E2.57281
G1 X92.720 Y70.420 E2.60060
G1 X93.120 Y70.640 E2.61385
G1 X93.980 Y71.160 E2.64303
G1 X94.870 Y71.770 E2.67435
G1 X95.700 Y72.440 E2.70532
G1 X96.440 Y73.110 E2.73431
G1 X96.880 Y73.550 E2.75237
G1 X97.830 Y74.620 E2.79392
G1 X98.220 Y75.120 E2.81233
G1 X98.830 Y76.010 E2.84365
G1 X99.350 Y76.870 E2.87283
G1 X99.570 Y77.270 E2.88609
G1 X99.990 Y78.130 E2.91388
G1 X100.380 Y79.040 E2.94262
G1 X100.600 Y79.630 E2.96090
G1 X100.770 Y80.160 E2.97706
G1 X101.020 Y81.060 E3.00418
G1 X101.240 Y82.080 E3.03448
G1 X101.340 Y82.700 E3.05271
G1 X101.450 Y83.750 E3.08336
G1 X101.480 Y84.160 E3.09530
G1 X101.500 Y85.200 E3.12550
G1 X101.480 Y85.830 E3.14380
G1 X101.390 Y86.870 E3.17411
G1 X101.340 Y87.290 E3.18639
G1 X101.160 Y88.320 E3.21675
G1 X101.020 Y88.930 E3.23492
G1 X100.770 Y89.830 E3.26204
G1 X100.600 Y90.360 E3.27820
G1 X100.240 Y91.290 E3.30715
G1 X99.850 Y92.160 E3.33483
G1 X99.570 Y92.720 E3.35301
G1 X99.030 Y93.660 E3.38448
G1 X98.480 Y94.500 E3.41364
G1 X98.220 Y94.870 E3.42676
G1 X97.550 Y95.700 E3.45773
G1 X96.880 Y96.440 E3.48672
G1 X96.440 Y96.880 E3.50478
G1 X95.370 Y97.830 E3.54633
G1 X94.870 Y98.220 E3.56474
G1 X93.980 Y98.830 E3.59606
G1 X93.120 Y99.350 E3.62524
G1 X92.720 Y99.570 E3.63850
G1 X91.860 Y99.990 E3.66628
G1 X90.950 Y100.380 E3.69503
G1 X90.360 Y100.600 E3.71331
G1 X89.830 Y100.770 E3.72947
G1 X88.930 Y101.020 E3.75659
G1 X87.910 Y101.240 E3.78689
G1 X87.290 Y101.340 E3.80512
G1 X86.240 Y101.450 E3.83577
G1 X85.830 Y101.480 E3.84771
G1 X84.790 Y101.500 E3.87791
G1 X84.160 Y101.480 E3.89621
G1 X83.120 Y101.390 E3.92652
G1 X82.700 Y101.340 E3.93880
G1 X81.670 Y101.160 E3.96916
G1 X81.060 Y101.020 E3.98733
G1 X80.160 Y100.770 E4.01445
G1 X79.630 Y100.600 E4.03061
G1 X78.700 Y100.240 E4.05956
G1 X77.830 Y99.850 E4.08724
G1 X77.270 Y99.570 E4.10542
G1 X76.330 Y99.030 E4.13689
G1 X75.490 Y98.480 E4.16604
G1 X75.120 Y98.220 E4.17917
G1 X74.290 Y97.550 E4.21014
G1 X73.550 Y96.880 E4.23913
G1 X73.110 Y96.440 E4.25719
G1 X72.440 Y95.700 E4.28618
G1 X71.770 Y94.870 E4.31715
G1 X70.960 Y93.660 E4.35942
G1 X70.420 Y92.720 E4.39090
G1 X70.140 Y92.160 E4.40907
G1 X69.760 Y91.310 E4.43611
G1 X69.410 Y90.400 E4.46441
G1 X69.220 Y89.830 E4.48186
G1 X68.970 Y88.930 E4.50898
G1 X68.830 Y88.320 E4.52715
G1 X68.650 Y87.290 E4.55751
G1 X68.590 Y86.810 E4.57155
G1 X68.520 Y85.860 E4.59921
G1 X68.500 Y85.190 E4.61867
G1 X68.510 Y84.270 E4.64538
G1 X68.540 Y83.750 E4.66050
G1 X68.650 Y82.700 E4.69116
G1 X68.750 Y82.080 E4.70939
G1 X68.970 Y81.060 E4.73969
G1 X69.220 Y80.160 E4.76681
G1 X69.390 Y79.630 E4.78297
G1 X69.610 Y79.040 E4.80125
G1 X70.000 Y78.130 E4.82999
G1 X70.420 Y77.270 E4.85778
G1 X70.640 Y76.870 E4.87103
G1 X71.170 Y75.990 E4.90086
G1 X71.550 Y75.430 E4.92051
G1 X71.810 Y75.070 E4.93340
G1 X72.440 Y74.290 E4.96251
G1 X73.110 Y73.550 E4.99150
G1 X73.497 Y73.163 E5.00738
G1 F1680.000 E3.00738
G92 E0
G1 X78.326 Y77.893 F12000.000
G1 E2.00000 F1680.000
G1 X78.785 Y77.488 E2.01778 F720.000
G1 X79.269 Y77.112 E2.03557
G1 X79.776 Y76.768 E2.05335
G1 X80.201 Y76.508 E2.06783
G1 X80.849 Y76.178 E2.08892
G1 X81.411 Y75.935 E2.10671
G1 X81.987 Y75.727 E2.12449
G1 X82.575 Y75.556 E2.14227
G1 X83.173 Y75.423 E2.16006
G1 X83.778 Y75.327 E2.17784
G1 X84.427 Y75.268 E2.19676
G1 X85.000 Y75.250 E2.21340
G1 X85.612 Y75.269 E2.23119
G1 X86.261 Y75.333 E2.25011
G1 X86.827 Y75.423 E2.26675
G1 X87.425 Y75.556 E2.28454
G1 X88.013 Y75.727 E2.30232
G1 X88.589 Y75.935 E2.32010
G1 X89.151 Y76.178 E2.33788
G1 X89.697 Y76.456 E2.35567
G1 X90.224 Y76.768 E2.37345
G1 X90.731 Y77.112 E2.39123
G1 X91.215 Y77.488 E2.40902
G1 X91.674 Y77.893 E2.42680
G1 X92.107 Y78.326 E2.44458
G1 X92.536 Y78.816 E2.46350
G1 X92.888 Y79.269 E2.48015
G1 X93.232 Y79.776 E2.49793
G1 X93.544 Y80.303 E2.51571
G1 X93.822 Y80.849 E2.53350
G1 X94.065 Y81.411 E2.55128
G1 X94.273 Y81.987 E2.56906
G1 X94.444 Y82.575 E2.58685
G1 X94.577 Y83.173 E2.60463
G1 X94.673 Y83.778 E2.62241
G1 X94.731 Y84.388 E2.64020
G1 X94.750 Y85.000 E2.65798
G1 X94.731 Y85.612 E2.67576
G1 X94.673 Y86.222 E2.69355
G1 X94.577 Y86.827 E2.71133
G1 X94.444 Y87.425 E2.72911
G1 X94.273 Y88.013 E2.74690
G1 X94.065 Y88.589 E2.76468
G1 X93.822 Y89.151 E2.78246
G1 X93.544 Y89.697 E2.80025
G1 X93.232 Y90.224 E2.81803
G1 X92.888 Y90.731 E2.83581
G1 X92.512 Y91.215 E2.85360
G1 X92.107 Y91.674 E2.87138
G1 X91.674 Y92.107 E2.88916
G1 X91.215 Y92.512 E2.90695
G1 X90.762 Y92.864 E2.92359
G1 X90.224 Y93.232 E2.94251
G1 X89.697 Y93.544 E2.96029
G1 X89.151 Y93.822 E2.97808
G1 X88.589 Y94.065 E2.99586
G1 X88.013 Y94.273 E3.01364
G1 X87.425 Y94.444 E3.03143
G1 X86.827 Y94.577 E3.04921
G1 X86.261 Y94.667 E3.06585
G1 X85.612 Y94.731 E3.08477
G1 X85.000 Y94.750 E3.10256
G1 X84.388 Y94.731 E3.12034
G1 X83.778 Y94.673 E3.13812
G1 X83.173 Y94.577 E3.15591
G1 X82.575 Y94.444 E3.17369
G1 X81.987 Y94.273 E3.19147
G1 X81.411 Y94.065 E3.20926
G1 X80.849 Y93.822 E3.22704
G1 X80.303 Y93.544 E3.24482
G1 X79.776 Y93.232 E3.26261
G1 X79.269 Y92.888 E3.28039
G1 X78.785 Y92.512 E3.29817
G1 X78.355 Y92.133 E3.31482
G1 X77.893 Y91.674 E3.33374
G1 X77.488 Y91.215 E3.35152
G1 X77.112 Y90.731 E3.36930
G1 X76.768 Y90.224 E3.38709
G1 X76.456 Y89.697 E3.40487
G1 X76.178 Y89.151 E3.42265
G1 X75.935 Y88.589 E3.44044
G1 X75.727 Y88.013 E3.45822
G1 X75.556 Y87.425 E3.47600
G1 X75.423 Y86.827 E3.49379
G1 X75.327 Y86.222 E3.51157
G1 X75.273 Y85.651 E3.52821
G1 X75.250 Y85.000 E3.54713
G1 X75.269 Y84.388 E3.56492
G1 X75.327 Y83.778 E3.58270
G1 X75.423 Y83.173 E3.60048
G1 X75.567 Y82.538 E3.61940
G1 X75.727 Y81.987 E3.63605
G1 X75.935 Y81.411 E3.65383
G1 X76.178 Y80.849 E3.67161
G1 X76.456 Y80.303 E3.68940
G1 X76.768 Y79.776 E3.70718
G1 X77.112 Y79.269 E3.72496
G1 X77.488 Y78.785 E3.74275
G1 X77.893 Y78.326 E3.76053
G1 X78.273 Y77.946 E3.77613
G1 X89.063 Y76.512 F12000.000
G1 X93.488 Y80.937 E3.96043 F1200.000
G1 X93.963 Y82.128 F12000.000
G1 X87.872 Y76.037 E4.21410 F1200.000
G1 X86.902 Y75.785 E4.24360
G1 X94.215 Y83.098 E4.54816
G1 X94.351 Y83.951 E4.57359
G1 X86.049 Y75.649 E4.91933
G1 X85.279 Y75.596 E4.94207
G1 X94.404 Y84.721 E5.32211
G1 X94.399 Y85.433 E5.34309
G1 X84.567 Y75.601 E5.75260
G1 X83.903 Y75.654 E5.77221
G1 X94.346 Y86.098 E6.20717
G1 X94.253 Y86.722 E6.22575
G1 X83.278 Y75.747 E6.68280
G1 X82.690 Y75.876 E6.70054
G1 X94.124 Y87.310 E7.17674
G1 X93.964 Y87.867 E7.19381
G1 X82.133 Y76.036 E7.68657
G1 X81.603 Y76.224 E7.70311
G1 X93.776 Y88.397 E8.21010
G1 X93.563 Y88.901 E8.22621
G1 X81.099 Y76.437 E8.74531
G1 X80.619 Y76.674 E8.76109
G1 X93.326 Y89.381 E9.29035
G1 X93.067 Y89.839 E9.30585
G1 X80.157 Y76.930 E9.84351
G1 X79.722 Y77.212 E9.85878
G1 X92.788 Y90.278 E10.40296
G1 X92.489 Y90.695 E10.41809
G1 X79.305 Y77.511 E10.96719
G1 X78.906 Y77.830 E10.98222
G1 X92.170 Y91.094 E11.53462
G1 X91.814 Y91.455 E11.54956
G1 X78.545 Y78.186 E12.10219
G1 X78.186 Y78.545 E12.11712
G1 X91.455 Y91.814 E12.66976
G1 X91.094 Y92.170 E12.68469
G1 X77.830 Y78.906 E13.23709
G1 X77.511 Y79.305 E13.25212
G1 X90.695 Y92.489 E13.80122
G1 X90.278 Y92.788 E13.81635
G1 X77.213 Y79.723 E14.36049
G1 X76.932 Y80.160 E14.37578
G1 X89.840 Y93.068 E14.91337
G1 X89.381 Y93.326 E14.92887
G1 X76.674 Y80.619 E15.45813
G1 X76.437 Y81.099 E15.47391
G1 X88.901 Y93.563 E15.99301
G1 X88.397 Y93.776 E16.00913
G1 X76.224 Y81.603 E16.51611
G1 X76.036 Y82.133 E16.53266
G1 X87.867 Y93.964 E17.02541
G1 X87.310 Y94.124 E17.04249
G1 X75.878 Y82.692 E17.51861
G1 X75.747 Y83.278 E17.53631
G1 X86.722 Y94.253 E17.99336
G1 X86.098 Y94.346 E18.01193
G1 X75.654 Y83.902 E18.44691
G1 X75.601 Y84.567 E18.46653
G1 X85.433 Y94.399 E18.87604
G1 X84.721 Y94.404 E18.89702
G1 X75.597 Y85.280 E19.27701
G1 X75.649 Y86.049 E19.29971
G1 X83.951 Y94.351 E19.64545
G1 X83.098 Y94.215 E19.67089
G1 X75.785 Y86.902 E19.97545
G1 X76.037 Y87.872 E20.00495
G1 X82.128 Y93.963 E20.25862
G1 X80.937 Y93.488 F12000.000
G1 X76.512 Y89.063 E20.44291 F1200.000
G1 X77.871 Y91.140 F12000.000
G1 X78.860 Y92.129 E20.48407 F1200.000
G1 X92.129 Y78.860 F12000.000
G1 X91.140 Y77.871 E20.52522 F1200.000
M106 S255
M104 S188 ; set temperature
G1 F1680.000 E18.52522
G92 E0
G1 Z0.750 F12000.000
G1 X91.303 Y77.565 F12000.000
G1 E2.00000 F1680.000
G1 X91.674 Y77.893 E2.00958 F804.818
G1 X92.107 Y78.326 E2.02143
G1 X92.512 Y78.785 E2.03329
G1 X92.888 Y79.269 E2.04514
G1 X93.232 Y79.776 E2.05700
G1 X93.544 Y80.303 E2.06885
G1 X93.822 Y80.849 E2.08071
G1 X94.065 Y81.411 E2.09256
G1 X94.273 Y81.987 E2.10442
G1 X94.444 Y82.575 E2.11627
G1 X94.577 Y83.173 E2.12813
G1 X94.673 Y83.778 E2.13999
G1 X94.731 Y84.388 E2.15184
G1 X94.750 Y85.000 E2.16370
G1 X94.731 Y85.612 E2.17555
G1 X94.673 Y86.222 E2.18741
G1 X94.577 Y86.827 E2.19926
G1 X94.469 Y87.310 E2.20884
G1 X94.273 Y88.013 E2.22297
G1 X94.065 Y88.589 E2.23483
G1 X93.822 Y89.151 E2.24668
G1 X93.544 Y89.697 E2.25854
G1 X93.232 Y90.224 E2.27039
G1 X92.888 Y90.731 E2.28225
G1 X92.512 Y91.215 E2.29410
G1 X92.107 Y91.674 E2.30596
G1 X91.674 Y92.107 E2.31781
G1 X91.215 Y92.512 E2.32967
G1 X90.731 Y92.888 E2.34153
G1 X90.224 Y93.232 E2.35338
G1 X89.697 Y93.544 E2.36524
G1 X89.151 Y93.822 E2.37709
G1 X88.589 Y94.065 E2.38895
G1 X88.013 Y94.273 E2.40080
G1 X87.425 Y94.444 E2.41266
G1 X86.827 Y94.577 E2.42451
G1 X86.338 Y94.655 E2.43409
G1 X85.612 Y94.731 E2.44822
G1 X85.000 Y94.750 E2.46008
G1 X84.388 Y94.731 E2.47193
G1 X83.778 Y94.673 E2.48379
G1 X83.173 Y94.577 E2.49564
G1 X82.690 Y94.469 E2.50522
G1 X81.987 Y94.273 E2.51935
G1 X81.411 Y94.065 E2.53121
G1 X80.849 Y93.822 E2.54306
G1 X80.303 Y93.544 E2.55492
G1 X79.776 Y93.232 E2.56677
G1 X79.269 Y92.888 E2.57863
G1 X78.785 Y92.512 E2.59048
G1 X78.326 Y92.107 E2.60234
G1 X77.893 Y91.674 E2.61419
G1 X77.488 Y91.215 E2.62605
G1 X77.112 Y90.731 E2.63790
G1 X76.768 Y90.224 E2.64976
G1 X76.456 Y89.697 E2.66162
G1 X76.178 Y89.151 E2.67347
G1 X75.935 Y88.589 E2.68533
G1 X75.727 Y88.013 E2.69718
G1 X75.556 Y87.425 E2.70904
G1 X75.423 Y86.827 E2.72089
G1 X75.327 Y86.222 E2.73275
G1 X75.269 Y85.612 E2.74460
G1 X75.250 Y85.000 E2.75646
G1 X75.269 Y84.388 E2.76831
G1 X75.327 Y83.778 E2.78017
G1 X75.423 Y83.173 E2.79203
G1 X75.556 Y82.575 E2.80388
G1 X75.727 Y81.987 E2.81574
G1 X75.935 Y81.411 E2.82759
G1 X76.178 Y80.849 E2.83945
G1 X76.456 Y80.303 E2.85130
G1 X76.768 Y79.776 E2.86316
G1 X77.112 Y79.269 E2.87501
G1 X77.488 Y78.785 E2.88687
G1 X77.893 Y78.326 E2.89872
G1 X78.326 Y77.893 E2.91058
G1 X78.785 Y77.488 E2.92244
G1 X79.269 Y77.112 E2.93429
G1 X79.776 Y76.768 E2.94615
G1 X80.303 Y76.456 E2.95800
G1 X80.849 Y76.178 E2.96986
G1 X81.411 Y75.935 E2.98171
G1 X81.987 Y75.727 E2.99357
G1 X82.575 Y75.556 E3.00542
G1 X83.173 Y75.423 E3.01728
G1 X83.778 Y75.327 E3.02914
G1 X84.388 Y75.269 E3.04099
G1 X85.000 Y75.250 E3.05285
G1 X85.612 Y75.269 E3.06470
G1 X86.222 Y75.327 E3.07656
G1 X86.827 Y75.423 E3.08841
G1 X87.425 Y75.556 E3.10027
G1 X88.013 Y75.727 E3.11212
G1 X88.589 Y75.935 E3.12398
G1 X89.151 Y76.178 E3.13583
G1 X89.697 Y76.456 E3.14769
G1 X90.224 Y76.768 E3.15955
G1 X90.731 Y77.112 E3.17140
G1 X91.247 Y77.516 E3.18408
G1 X82.128 Y76.037 F12000.000
G1 X76.037 Y82.128 E3.35319 F1341.364
G1 X75.785 Y83.098 E3.37286
G1 X83.098 Y75.785 E3.57590
G1 X83.949 Y75.651 E3.59282
G1 X75.649 Y83.951 E3.82327
G1 X75.596 Y84.721 E3.83843
G1 X84.721 Y75.596 E4.09179
G1 X85.433 Y75.601 E4.10578
G1 X75.601 Y85.433 E4.37878
G1 X75.654 Y86.098 E4.39186
G1 X86.098 Y75.654 E4.68185
G1 X86.722 Y75.747 E4.69423
G1 X75.747 Y86.722 E4.99893
G1 X75.876 Y87.310 E5.01076
G1 X87.310 Y75.876 E5.32822
G1 X87.867 Y76.036 E5.33961
G1 X76.036 Y87.867 E5.66811
G1 X76.224 Y88.397 E5.67914
G1 X88.397 Y76.224 E6.01713
G1 X88.901 Y76.437 E6.02787
G1 X76.437 Y88.901 E6.37394
G1 X76.674 Y89.381 E6.38446
G1 X89.381 Y76.674 E6.73730
G1 X89.840 Y76.932 E6.74763
G1 X76.932 Y89.840 E7.10602
G1 X77.212 Y90.278 E7.11622
G1 X90.278 Y77.212 E7.47900
G1 X90.695 Y77.511 E7.48909
G1 X77.511 Y90.695 E7.85516
G1 X77.830 Y91.094 E7.86518
G1 X91.094 Y77.830 E8.23344
G1 X91.455 Y78.186 E8.24340
G1 X78.186 Y91.455 E8.61182
G1 X78.545 Y91.814 E8.62178
G1 X91.814 Y78.545 E8.99020
G1 X92.166 Y78.910 E9.00016
G1 X78.906 Y92.170 E9.36833
G1 X79.305 Y92.489 E9.37835
G1 X92.489 Y79.305 E9.74442
G1 X92.788 Y79.722 E9.75451
G1 X79.722 Y92.788 E10.11729
G1 X80.160 Y93.068 E10.12749
G1 X93.068 Y80.160 E10.48588
G1 X93.326 Y80.619 E10.49621
G1 X80.619 Y93.326 E10.84905
G1 X81.099 Y93.563 E10.85957
G1 X93.563 Y81.099 E11.20564
G1 X93.776 Y81.603 E11.21638
G1 X81.603 Y93.776 E11.55437
G1 X82.133 Y93.964 E11.56540
G1 X93.964 Y82.133 E11.89390
G1 X94.124 Y82.690 E11.90529
G1 X82.690 Y94.124 E12.22275
G1 X83.279 Y94.252 E12.23459
G1 X94.252 Y83.279 E12.53926
G1 X94.345 Y83.904 E12.55166
G1 X83.904 Y94.345 E12.84156
G1 X84.567 Y94.399 E12.85461
G1 X94.399 Y84.567 E13.12762
G1 X94.404 Y85.279 E13.14160
G1 X85.279 Y94.404 E13.39496
G1 X86.049 Y94.351 E13.41012
G1 X94.351 Y86.049 E13.64061
G1 X94.215 Y86.902 E13.65757
G1 X86.902 Y94.215 E13.86061
G1 X87.872 Y93.963 E13.88028
G1 X93.963 Y87.872 E14.04939
G1 X93.488 Y89.063 F12000.000
G1 X89.063 Y93.488 E14.17225 F1341.364
G1 X91.140 Y92.129 F12000.000
G1 X92.129 Y91.140 E14.19969 F1341.364
G1 X80.937 Y76.512 F12000.000
G1 X76.512 Y80.937 E14.32255 F1341.364
G1 X77.871 Y78.860 F12000.000
G1 X78.860 Y77.871 E14.34999 F1341.364
G1 F1680.000 E12.34999
G92 E0
G1 Z1.050 F12000.000
G1 X78.785 Y77.488 F12000.000
G1 E2.00000 F1680.000
G1 X79.269 Y77.112 E2.01186 F600.000
G1 X79.776 Y76.768 E2.02371
G1 X80.303 Y76.456 E2.03557
G1 X80.849 Y76.178 E2.04742
G1 X81.411 Y75.935 E2.05928
G1 X81.987 Y75.727 E2.07113
G1 X82.575 Y75.556 E2.08299
G1 X83.173 Y75.423 E2.09484
G1 X83.778 Y75.327 E2.10670
G1 X84.388 Y75.269 E2.11855
G1 X85.000 Y75.250 E2.13041
G1 X85.612 Y75.269 E2.14227
G1 X86.222 Y75.327 E2.15412
G1 X86.827 Y75.423 E2.16598
G1 X87.425 Y75.556 E2.17783
G1 X88.013 Y75.727 E2.18969
G1 X88.589 Y75.935 E2.20154
G1 X89.151 Y76.178 E2.21340
G1 X89.697 Y76.456 E2.22525
G1 X90.224 Y76.768 E2.23711
G1 X90.731 Y77.112 E2.24896
G1 X91.215 Y77.488 E2.26082
G1 X91.674 Y77.893 E2.27268
G1 X92.107 Y78.326 E2.28453
G1 X92.512 Y78.785 E2.29639
G1 X92.888 Y79.269 E2.30824
G1 X93.232 Y79.776 E2.32010
