; generated by Slic3r 0.9.9 on 2013-09-14 at 01:05:17

; layer_height = 0.4
; perimeters = 3
; top_solid_layers = 3
; bottom_solid_layers = 3
; fill_density = 0.4
; perimeter_speed = 30
; infill_speed = 60
; travel_speed = 130
; nozzle_diameter = 0.5
; filament_diameter = 3
; extrusion_multiplier = 1
; perimeters extrusion width = 0.53mm
; infill extrusion width = 0.53mm
; solid infill extrusion width = 0.53mm
; top infill extrusion width = 0.53mm
; first layer extrusion width = 0.70mm

G21 ; set units to millimeters
M107
M104 S200 ; set temperature
G28 ; home all axes
G1 Z5 F5000 ; lift nozzle

M109 S200 ; wait for temperature to be reached
G90 ; use absolute coordinates
G92 E0
M82 ; use absolute distances for extrusion
G1 F1800.000 E-1.00000
G92 E0
G1 Z0.350 F7800.000
G1 X70.710 Y71.391
G1 F1800.000 E1.00000
G1 X71.120 Y71.031 F540.000 E1.01775
G1 X71.770 Y70.561 E1.04385
G1 X72.480 Y70.161 E1.07036
G1 X72.721 Y70.051 E1.07895
G1 X73.230 Y69.861 E1.09666
G1 X74.010 Y69.651 E1.12294
G1 X74.810 Y69.531 E1.14926
G1 X75.350 Y69.511 E1.16684
G1 X124.641 Y69.511 E2.77050
G1 X125.180 Y69.531 E2.78808
G1 X125.720 Y69.601 E2.80580
G1 X126.250 Y69.711 E2.82341
G1 X127.020 Y69.951 E2.84965
G1 X127.760 Y70.291 E2.87615
G1 X128.231 Y70.561 E2.89378
G1 X128.671 Y70.871 E2.91129
G1 X129.291 Y71.401 E2.93783
G1 X129.660 Y71.801 E2.95556
G1 X130.000 Y72.221 E2.97314
G1 X130.440 Y72.901 E2.99949
G1 X130.690 Y73.381 E3.01710
G1 X130.981 Y74.141 E3.04357
G1 X131.060 Y74.401 E3.05242
G1 X131.180 Y74.921 E3.06978
G1 X131.260 Y75.461 E3.08754
G1 X131.300 Y76.271 E3.11393
G1 X130.570 Y124.091 E4.66994
G1 X130.481 Y124.871 E4.69549
G1 X130.361 Y125.391 E4.71285
G1 X130.210 Y125.901 E4.73014
G1 X130.020 Y126.391 E4.74724
G1 X129.910 Y126.631 E4.75583
G1 X129.520 Y127.331 E4.78190
G1 X129.050 Y127.971 E4.80774
G1 X128.690 Y128.361 E4.82501
G1 X128.310 Y128.731 E4.84226
G1 X127.900 Y129.061 E4.85939
G1 X127.460 Y129.361 E4.87671
G1 X127.000 Y129.621 E4.89390
G1 X126.520 Y129.851 E4.91122
G1 X126.020 Y130.041 E4.92862
G1 X125.260 Y130.241 E4.95419
G1 X124.730 Y130.331 E4.97168
G1 X123.940 Y130.381 E4.99744
G1 X93.410 Y130.481 E5.99074
G1 X75.861 Y130.481 E6.56174
G1 X75.331 Y130.461 E6.57899
G1 X74.800 Y130.391 E6.59638
G1 X74.281 Y130.291 E6.61361
G1 X73.510 Y130.051 E6.63985
G1 X73.020 Y129.841 E6.65720
G1 X72.550 Y129.601 E6.67437
G1 X72.320 Y129.461 E6.68313
G1 X71.671 Y129.001 E6.70904
G1 X71.270 Y128.651 E6.72633
G1 X70.900 Y128.261 E6.74382
G1 X70.560 Y127.851 E6.76115
G1 X70.410 Y127.641 E6.76955
G1 X69.990 Y126.961 E6.79555
G1 X69.760 Y126.481 E6.81287
G1 X69.560 Y125.981 E6.83039
G1 X69.350 Y125.211 E6.85635
G1 X69.260 Y124.691 E6.87352
G1 X69.200 Y123.891 E6.89963
G1 X68.691 Y76.241 E8.45002
G1 X68.730 Y75.431 E8.47640
G1 X68.870 Y74.641 E8.50251
G1 X69.020 Y74.121 E8.52011
G1 X69.310 Y73.361 E8.54658
G1 X69.560 Y72.881 E8.56419
G1 X70.001 Y72.201 E8.59054
G1 X70.340 Y71.781 E8.60812
G1 X70.641 Y71.461 E8.62241
G1 F1800.000 E7.62241
G92 E0
G1 X82.525 Y119.000 F7800.000
G1 F1800.000 E1.00000
G1 X91.182 Y119.000 F540.000 E1.28166
G1 X91.182 Y122.658 E1.40064
G1 X82.525 Y122.658 E1.68230
G1 X82.525 Y119.099 E1.79808
G1 X82.525 Y118.343 F7800.000
G1 X81.211 Y119.306
G1 X81.211 Y122.186 F540.000 E1.89178
G1 X78.996 Y122.186 E1.96384
G1 X81.024 Y119.248 E2.07998
G1 X81.117 Y119.277 E2.08315
G1 X82.102 Y117.686 F7800.000
G1 X93.948 Y100.521 F540.000 E2.76169
G1 X78.459 Y77.814 E3.65599
G1 X92.047 Y77.814 E4.09808
G1 X99.867 Y91.121 E4.60025
G1 X108.036 Y77.814 E5.10828
G1 X121.544 Y77.814 E5.54778
G1 X106.162 Y100.410 E6.43714
G1 X120.832 Y122.083 E7.28861
G1 X107.538 Y122.083 E7.72114
G1 X99.869 Y109.101 E8.21171
G1 X92.736 Y121.670 E8.68192
G1 X92.496 Y121.607 E8.68998
G1 X92.496 Y117.686 E8.81755
G1 X82.200 Y117.686 E9.15253
G1 X81.868 Y118.343 F7800.000
G1 X81.868 Y122.843 F540.000 E9.29894
G1 X77.744 Y122.843 E9.43310
G1 X93.151 Y100.519 E10.31559
G1 X77.216 Y77.157 E11.23568
G1 X92.423 Y77.157 E11.73046
G1 X99.879 Y89.845 E12.20927
G1 X107.668 Y77.157 E12.69367
G1 X122.786 Y77.157 E13.18555
G1 X106.956 Y100.411 E14.10081
G1 X122.070 Y122.740 E14.97806
G1 X107.163 Y122.740 E15.46307
G1 X99.880 Y110.412 E15.92893
G1 X92.826 Y122.843 E16.39397
G1 X91.839 Y122.843 E16.42606
G1 X91.839 Y118.343 E16.57247
G1 X81.966 Y118.343 E16.89368
G1 X76.492 Y123.500 F7800.000
G1 X92.354 Y100.517 F378.000 E17.80224
G1 X75.972 Y76.500 E18.74811
G1 X92.799 Y76.500 E19.29559
G1 X99.891 Y88.569 E19.75104
G1 X107.300 Y76.500 E20.21181
G1 X124.028 Y76.500 E20.75606
G1 X107.750 Y100.412 E21.69723
G1 X123.308 Y123.397 E22.60025
G1 X106.788 Y123.397 E23.13775
G1 X99.892 Y111.723 E23.57889
G1 X93.208 Y123.500 E24.01946
G1 X76.591 Y123.500 E24.56010
G1 X77.018 Y123.106 F7800.000
G1 X83.009 Y117.210
G1 X83.390 Y116.657 F1080.000 E24.58204
G1 X83.943 Y117.210 E24.60759
G1 X84.876 Y117.210 E24.63810
G1 X83.772 Y116.105 E24.68918
G1 X84.153 Y115.553 E24.71112
G1 X85.810 Y117.210 E24.78773
G1 X86.744 Y117.210 E24.81825
G1 X84.534 Y115.000 E24.92039
G1 X84.915 Y114.448 E24.94233
G1 X87.677 Y117.210 E25.07001
G1 X88.611 Y117.210 E25.10053
G1 X85.296 Y113.896 E25.25374
G1 X85.678 Y113.343 E25.27568
G1 X89.544 Y117.210 E25.45443
G1 X90.478 Y117.210 E25.48494
G1 X86.059 Y112.791 E25.68923
G1 X86.440 Y112.238 E25.71117
G1 X91.412 Y117.210 E25.94098
G1 X92.345 Y117.210 E25.97150
G1 X86.821 Y111.686 E26.22685
G1 X87.202 Y111.134 E26.24879
G1 X94.198 Y118.129 E26.57216
G1 X94.536 Y117.534 E26.59455
G1 X87.584 Y110.581 E26.91592
G1 X87.965 Y110.029 E26.93786
G1 X94.874 Y116.938 E27.25724
G1 X95.212 Y116.342 E27.27962
G1 X88.346 Y109.477 E27.59700
G1 X88.727 Y108.924 E27.61894
G1 X95.550 Y115.747 E27.93432
G1 X95.888 Y115.151 E27.95671
G1 X89.109 Y108.372 E28.27009
G1 X89.490 Y107.819 E28.29203
G1 X96.226 Y114.556 E28.60342
G1 X96.564 Y113.960 E28.62580
G1 X89.871 Y107.267 E28.93519
G1 X90.252 Y106.715 E28.95713
G1 X96.902 Y113.364 E29.26452
G1 X97.240 Y112.769 E29.28691
G1 X90.633 Y106.162 E29.59230
G1 X91.015 Y105.610 E29.61424
G1 X97.578 Y112.173 E29.91764
G1 X97.916 Y111.578 E29.94002
G1 X91.396 Y105.058 E30.24142
G1 X91.777 Y104.505 E30.26336
G1 X98.254 Y110.982 E30.56276
G1 X98.592 Y110.386 E30.58515
G1 X92.158 Y103.953 E30.88255
G1 X92.539 Y103.400 E30.90449
G1 X98.930 Y109.791 E31.19990
G1 X99.268 Y109.195 E31.22228
G1 X92.921 Y102.848 E31.51569
G1 X93.302 Y102.296 E31.53763
G1 X99.606 Y108.600 E31.82905
G1 X100.877 Y109.871 F7800.000
G1 X112.613 Y121.607 F1080.000 E32.37158
G1 X111.680 Y121.607 E32.40210
G1 X102.224 Y112.152 E32.83919
G1 X103.572 Y114.433 E32.92579
G1 X110.746 Y121.607 E33.25743
G1 X109.812 Y121.607 E33.28794
G1 X104.919 Y116.714 E33.51414
G1 X106.267 Y118.995 E33.60074
G1 X108.879 Y121.607 E33.72148
G1 X107.945 Y121.607 E33.75200
G1 X107.614 Y121.276 E33.76730
G1 X113.547 Y121.607 F7800.000
G1 X93.683 Y101.743 F1080.000 E34.68553
G1 X94.064 Y101.191 E34.70747
G1 X114.480 Y121.607 E35.65123
G1 X115.414 Y121.607 E35.68175
G1 X94.445 Y100.639 E36.65105
G1 X92.941 Y98.201 E36.74469
G1 X116.348 Y121.607 E37.82668
G1 X117.281 Y121.607 E37.85720
G1 X90.938 Y95.264 E39.07494
G1 X88.935 Y92.328 F7800.000
G1 X118.215 Y121.607 F1080.000 E40.42842
G1 X119.148 Y121.607 E40.45894
G1 X86.933 Y89.391 E41.94816
G1 X84.930 Y86.455 F7800.000
G1 X119.626 Y121.151 F1080.000 E43.55203
G1 X117.670 Y118.261 F7800.000
G1 X82.927 Y83.518 F1080.000 E45.15809
G1 X80.924 Y80.582 F7800.000
G1 X115.714 Y115.372 F1080.000 E46.76633
G1 X113.759 Y112.483 F7800.000
G1 X79.566 Y78.290 F1080.000 E48.34695
G1 X80.499 Y78.290 E48.37747
G1 X111.803 Y109.594 E49.82453
G1 X109.847 Y106.704 F7800.000
G1 X81.433 Y78.290 F1080.000 E51.13803
G1 X82.366 Y78.290 E51.16855
G1 X107.892 Y103.815 E52.34849
G1 X105.936 Y100.926 F7800.000
G1 X83.300 Y78.290 F1080.000 E53.39487
G1 X84.234 Y78.290 E53.42539
G1 X105.897 Y99.953 E54.42682
G1 X106.275 Y99.398 E54.44878
G1 X85.167 Y78.290 E55.42453
G1 X86.101 Y78.290 E55.45505
G1 X106.653 Y98.842 E56.40512
G1 X107.031 Y98.287 E56.42708
G1 X100.213 Y91.468 E56.74230
G1 X100.568 Y90.890 E56.76448
G1 X107.410 Y97.732 E57.08076
G1 X107.788 Y97.176 E57.10272
G1 X100.923 Y90.311 E57.42006
G1 X101.278 Y89.733 E57.44225
G1 X108.166 Y96.621 E57.76065
G1 X108.544 Y96.065 E57.78262
G1 X101.633 Y89.154 E58.10209
G1 X101.988 Y88.576 E58.12427
G1 X108.922 Y95.510 E58.44480
G1 X109.300 Y94.954 E58.46677
G1 X102.343 Y87.997 E58.78836
G1 X102.698 Y87.419 E58.81055
G1 X109.678 Y94.399 E59.13321
G1 X110.056 Y93.843 E59.15517
G1 X103.053 Y86.840 E59.47890
G1 X103.408 Y86.262 E59.50108
G1 X110.434 Y93.288 E59.82587
G1 X110.813 Y92.732 E59.84783
G1 X103.764 Y85.683 E60.17368
G1 X104.119 Y85.105 E60.19587
G1 X111.191 Y92.177 E60.52278
G1 X111.569 Y91.621 E60.54475
G1 X104.474 Y84.526 E60.87273
G1 X104.829 Y83.948 E60.89491
G1 X111.947 Y91.066 E61.22395
G1 X112.325 Y90.510 E61.24592
G1 X105.184 Y83.369 E61.57602
G1 X105.539 Y82.791 E61.59821
G1 X112.703 Y89.955 E61.92938
G1 X113.081 Y89.399 E61.95134
G1 X105.894 Y82.212 E62.28358
G1 X106.249 Y81.634 E62.30576
G1 X113.459 Y88.844 E62.63906
G1 X113.838 Y88.289 E62.66102
G1 X106.604 Y81.055 E62.99538
G1 X106.960 Y80.477 E63.01757
G1 X114.216 Y87.733 E63.35300
G1 X114.594 Y87.178 E63.37496
G1 X107.315 Y79.899 E63.71145
G1 X107.670 Y79.320 E63.73363
G1 X114.972 Y86.622 E64.07119
G1 X115.350 Y86.067 E64.09315
G1 X108.025 Y78.742 E64.43176
G1 X108.507 Y78.290 E64.45335
G1 X115.728 Y85.511 E64.78717
G1 X116.106 Y84.956 E64.80913
G1 X109.440 Y78.290 E65.11727
G1 X110.374 Y78.290 E65.14778
G1 X116.484 Y84.400 E65.43024
G1 X116.862 Y83.845 E65.45221
G1 X111.308 Y78.290 E65.70899
G1 X112.241 Y78.290 E65.73950
G1 X117.241 Y83.289 E65.97061
G1 X117.619 Y82.734 E65.99257
G1 X113.175 Y78.290 E66.19800
G1 X114.108 Y78.290 E66.22851
G1 X117.997 Y82.178 E66.40826
G1 X118.375 Y81.623 E66.43022
G1 X115.042 Y78.290 E66.58429
G1 X115.976 Y78.290 E66.61481
G1 X118.753 Y81.067 E66.74320
G1 X119.131 Y80.512 E66.76517
G1 X116.909 Y78.290 E66.86788
G1 X117.843 Y78.290 E66.89840
G1 X119.509 Y79.956 E66.97544
G1 X119.887 Y79.401 E66.99740
G1 X118.776 Y78.290 E67.04876
G1 X119.710 Y78.290 E67.07928
G1 X120.266 Y78.846 E67.10496
G1 X120.644 Y78.290 E67.12693
G1 X98.529 Y89.785 F7800.000
G1 X87.034 Y78.290 F1080.000 E67.65829
G1 X87.968 Y78.290 E67.68880
G1 X97.199 Y87.521 E68.11551
G1 X95.869 Y85.257 E68.20134
G1 X88.902 Y78.290 E68.52341
G1 X89.835 Y78.290 E68.55392
G1 X94.539 Y82.993 E68.77135
G1 X93.208 Y80.730 E68.85717
G1 X90.769 Y78.290 E68.96995
G1 X91.702 Y78.290 E69.00047
G1 X91.878 Y78.466 E69.00860
G1 X92.972 Y117.837 F7800.000
G1 X93.860 Y118.725 F1080.000 E69.04963
G1 X93.522 Y119.320 E69.07201
G1 X92.972 Y118.771 E69.09741
G1 X92.972 Y119.704 E69.12792
G1 X93.053 Y119.785 E69.13162
G1 F1800.000 E68.13162
G92 E0
G1 X80.289 Y121.508 F7800.000
G1 F1800.000 E1.00000
G1 X80.289 Y121.508 F360.000 E1.00001
G1 F1800.000 E0.00001
G92 E0
G1 X92.965 Y120.318 F7800.000
G1 F1800.000 E1.00000
G1 X93.154 Y119.985 F360.000 E1.00698
G1 X92.965 Y119.796 E1.01185
G1 X93.342 Y119.653 E1.01923
G1 F1800.000 E0.01923
G92 E0
G1 Z0.750 F7800.000
G1 X91.113 Y119.069
G1 F1800.000 E1.00000
G1 X91.113 Y122.589 F1800.000 E1.10350
G1 X82.594 Y122.589 E1.35402
G1 X82.594 Y119.069 E1.45751
G1 X91.035 Y119.069 E1.70575
G1 X91.633 Y119.069 F7800.000
G1 X92.153 Y118.030
G1 X81.447 Y118.030 F1800.000 E2.02055
G1 X93.531 Y100.520 E2.64613
G1 X77.809 Y77.470 E3.46658
G1 X92.244 Y77.470 E3.89105
G1 X99.873 Y90.454 E4.33387
G1 X107.843 Y77.470 E4.78186
G1 X122.194 Y77.470 E5.20383
G1 X106.577 Y100.411 E6.01988
G1 X121.479 Y122.427 E6.80162
G1 X107.342 Y122.427 E7.21734
G1 X99.875 Y109.787 E7.64904
G1 X92.643 Y122.530 E8.07990
G1 X92.153 Y122.530 E8.09432
G1 X92.153 Y118.108 E8.22435
G1 X81.554 Y118.135 F7800.000
G1 X81.554 Y122.530 F1800.000 E8.35360
G1 X78.341 Y122.530 E8.44807
G1 X81.407 Y118.089 E8.60675
G1 X81.480 Y118.111 E8.60902
G1 X82.074 Y118.550 F7800.000
G1 X82.074 Y123.050 F1800.000 E8.74134
G1 X77.351 Y123.050 E8.88021
G1 X92.901 Y100.519 E9.68520
G1 X76.826 Y76.950 E10.52408
G1 X92.541 Y76.950 E10.98621
G1 X99.883 Y89.445 E11.41234
G1 X107.553 Y76.950 E11.84344
G1 X123.176 Y76.950 E12.30285
G1 X107.205 Y100.412 E13.13741
G1 X122.459 Y122.947 E13.93758
G1 X107.045 Y122.947 E14.39081
G1 X99.884 Y110.824 E14.80484
G1 X92.946 Y123.050 E15.21821
G1 X91.633 Y123.050 E15.25681
G1 X91.633 Y118.550 E15.38913
G1 X82.152 Y118.550 E15.66792
G1 X76.361 Y123.569 F7800.000
G1 X92.271 Y100.517 F1260.000 E16.49154
G1 X75.842 Y76.431 E17.34886
G1 X92.839 Y76.431 E17.84865
G1 X99.893 Y88.436 E18.25808
G1 X107.262 Y76.431 E18.67229
G1 X124.158 Y76.431 E19.16913
G1 X107.833 Y100.413 E20.02221
G1 X123.438 Y123.466 E20.84080
G1 X106.749 Y123.466 E21.33155
G1 X99.893 Y111.861 E21.72791
G1 X93.248 Y123.569 E22.12379
G1 X76.439 Y123.569 E22.61806
G1 X76.777 Y123.257 F7800.000
G1 X81.178 Y122.153
G1 X80.425 Y122.153 F3600.000 E22.64073
G1 X81.178 Y121.400 E22.67280
G1 X81.178 Y120.648 E22.69547
G1 X79.672 Y122.153 E22.75959
G1 X79.369 Y121.703 E22.77593
G1 X81.178 Y119.895 E22.85295
G1 X81.046 Y119.274 E22.87207
G1 F1800.000 E21.87207
G92 E0
G1 X91.268 Y123.204 F7800.000
G1 F1800.000 E1.00000
G1 X91.124 Y122.954 F1200.000 E1.00457
G1 X90.873 Y123.204 E1.01017
G1 X90.729 Y122.954 E1.01474
G1 X90.478 Y123.204 E1.02035
G1 X90.335 Y122.954 E1.02492
G1 X90.084 Y123.204 E1.03052
G1 X89.940 Y122.954 E1.03509
G1 X89.689 Y123.204 E1.04070
G1 X89.545 Y122.954 E1.04527
G1 X89.294 Y123.204 E1.05087
G1 X89.150 Y122.954 E1.05544
G1 X88.899 Y123.204 E1.06105
G1 X88.755 Y122.954 E1.06562
G1 X88.505 Y123.204 E1.07122
G1 X88.361 Y122.954 E1.07579
G1 X88.110 Y123.204 E1.08140
G1 X87.966 Y122.954 E1.08597
G1 X87.715 Y123.204 E1.09157
G1 X87.571 Y122.954 E1.09614
G1 X87.320 Y123.204 E1.10175
G1 X87.176 Y122.954 E1.10632
G1 X86.925 Y123.204 E1.11192
G1 X86.782 Y122.954 E1.11649
G1 X86.531 Y123.204 E1.12210
G1 X86.387 Y122.954 E1.12667
G1 X86.136 Y123.204 E1.13227
G1 X85.992 Y122.954 E1.13684
G1 X85.741 Y123.204 E1.14245
G1 X85.597 Y122.954 E1.14702
G1 X85.346 Y123.204 E1.15262
G1 X85.202 Y122.954 E1.15719
G1 X84.951 Y123.204 E1.16280
G1 X84.808 Y122.954 E1.16737
G1 X84.557 Y123.204 E1.17297
G1 X84.413 Y122.954 E1.17754
G1 X84.162 Y123.204 E1.18315
G1 X84.018 Y122.954 E1.18772
G1 X83.767 Y123.204 E1.19332
G1 X83.623 Y122.954 E1.19789
G1 X83.372 Y123.204 E1.20350
G1 X83.229 Y122.954 E1.20807
G1 X82.978 Y123.204 E1.21367
G1 X82.834 Y122.954 E1.21824
G1 X82.583 Y123.204 E1.22385
G1 X82.439 Y122.954 E1.22842
G1 F1800.000 E0.22842
G92 E0
G1 X92.518 Y122.012 F7800.000
G1 F1800.000 E1.00000
G1 X92.517 Y121.378 F1200.000 E1.01607
G1 X92.529 Y121.474 F7800.000
G1 X93.177 Y120.825 F3600.000 E1.04317
G1 X94.147 Y119.117 E1.10125
G1 X92.529 Y120.735 E1.16889
G1 X92.529 Y119.996 E1.19074
G1 X95.116 Y117.408 E1.29892
G1 X96.086 Y115.700 E1.35700
G1 X92.529 Y119.257 E1.50573
G1 X92.529 Y118.518 E1.52757
G1 X97.056 Y113.992 E1.71684
G1 X98.025 Y112.283 E1.77492
G1 X92.529 Y117.779 E2.00472
G1 X91.916 Y117.653 E2.02323
G1 X98.995 Y110.575 E2.31921
G1 X100.116 Y109.454 F7800.000
G1 X107.348 Y102.221 F3600.000 E2.62162
G1 X107.646 Y102.662 E2.63735
G1 X100.390 Y109.918 E2.94076
G1 X100.664 Y110.383 E2.95671
G1 X107.945 Y103.103 E3.26111
G1 X108.243 Y103.543 E3.27684
G1 X100.939 Y110.847 E3.58224
G1 X101.213 Y111.312 E3.59820
G1 X108.541 Y103.984 E3.90459
G1 X108.839 Y104.425 E3.92033
G1 X101.488 Y111.776 E4.22772
G1 X101.762 Y112.241 E4.24367
G1 X109.138 Y104.865 E4.55207
G1 X109.436 Y105.306 E4.56780
G1 X102.036 Y112.705 E4.87719
G1 X102.311 Y113.170 E4.89314
G1 X109.734 Y105.746 E5.20353
